;FLAVOR:Marlin
;TIME:42993
;Filament used: 42.0678m
;Layer height: 0.2
;MINX:25.969
;MINY:9.815
;MINZ:0.2
;MAXX:194.048
;MAXY:210.185
;MAXZ:41
;Generated with Cura_SteamEngine 4.9.1
M140 S60
M105
M190 S60
M104 S200
M105
M109 S200
M82 ;absolute extrusion mode
; Ender 3 Custom Start G-code
G92 E0 ; Reset Extruder
G28 ; Home all axes
G1 Z2.0 F3000 ; Move Z Axis up little to prevent scratching of Heat Bed
G1 X0.1 Y20 Z0.3 F5000.0 ; Move to start position
G1 X0.1 Y200.0 Z0.3 F1500.0 E15 ; Draw the first line
G1 X0.4 Y200.0 Z0.3 F5000.0 ; Move to side a little
G1 X0.4 Y20 Z0.3 F1500.0 E30 ; Draw the second line
G92 E0 ; Reset Extruder
G1 Z2.0 F3000 ; Move Z Axis up little to prevent scratching of Heat Bed
G1 X5 Y20 Z0.3 F5000.0 ; Move over to prevent blob squish
G92 E0
G92 E0
G1 F1500 E-6.5
;LAYER_COUNT:207
;LAYER:0
M107
G0 F6000 X92.575 Y66.762 Z0.2
;TYPE:SKIRT
G1 F1500 E0
G1 F1200 X92.763 Y66.538 E0.00973
G1 X93.554 Y65.664 E0.04893
G1 X93.634 Y65.578 E0.05284
G1 X95.426 Y63.548 E0.1429
G1 X97.171 Y61.456 E0.23351
G1 X98.843 Y59.333 E0.32339
G1 X100.468 Y57.143 E0.41409
G1 X102.01 Y54.937 E0.50361
G1 X103.511 Y52.658 E0.59438
G1 X104.94 Y50.344 E0.68483
G1 X106.308 Y47.984 E0.77556
G1 X107.598 Y45.61 E0.86542
G1 X108.821 Y43.192 E0.95555
G1 X109.984 Y40.726 E1.04623
G1 X111.062 Y38.259 E1.13578
G1 X112.102 Y35.689 E1.22799
G1 X113.033 Y33.176 E1.31712
G1 X113.899 Y30.625 E1.40673
G1 X114.05 Y30.139 E1.42365
G1 X114.406 Y29.039 E1.46211
G1 X114.717 Y28.326 E1.48798
G1 X115.068 Y27.696 E1.51197
G1 X123.931 Y12.345 E2.10153
G1 X124.277 Y11.764 E2.12402
G1 X124.6 Y11.3 E2.14282
G1 X124.985 Y10.886 E2.16163
G1 X125.425 Y10.531 E2.18043
G1 X125.91 Y10.241 E2.19923
G1 X126.431 Y10.022 E2.21802
G1 X126.978 Y9.879 E2.23683
G1 X127.54 Y9.815 E2.25564
G1 X128.105 Y9.83 E2.27444
G1 X128.662 Y9.925 E2.29323
G1 X129.201 Y10.098 E2.31206
G1 X129.503 Y10.233 E2.32306
G1 X129.71 Y10.339 E2.3308
G1 X130.119 Y10.557 E2.34621
G1 X175.532 Y35.501 E4.06951
G1 X176.136 Y35.844 E4.09261
G1 X176.607 Y36.157 E4.11142
G1 X177.029 Y36.533 E4.13022
G1 X177.393 Y36.965 E4.14901
G1 X177.584 Y37.253 E4.1605
G1 X177.76 Y37.545 E4.17184
G1 X177.904 Y37.795 E4.18144
G1 X180.717 Y42.79 E4.3721
G1 X180.998 Y43.303 E4.39156
G1 X181.063 Y43.426 E4.39619
G1 X181.52 Y44.335 E4.43003
G1 X183.886 Y49.228 E4.61079
G1 X184.168 Y49.837 E4.63312
G1 X184.599 Y50.846 E4.66961
G1 X186.635 Y55.835 E4.84883
G1 X186.838 Y56.354 E4.86737
G1 X186.882 Y56.472 E4.87155
G1 X187.249 Y57.506 E4.90805
G1 X188.974 Y62.634 E5.088
G1 X189.134 Y63.132 E5.10539
G1 X189.171 Y63.254 E5.10963
G1 X189.467 Y64.287 E5.14537
G1 X190.849 Y69.447 E5.32305
G1 X191.03 Y70.169 E5.3478
G1 X191.269 Y71.256 E5.38482
G1 X192.336 Y76.553 E5.56454
G1 X192.431 Y77.059 E5.58166
G1 X192.453 Y77.186 E5.58595
G1 X192.618 Y78.258 E5.62202
G1 X193.351 Y83.622 E5.80209
G1 X193.418 Y84.17 E5.82045
G1 X193.431 Y84.291 E5.8245
G1 X193.526 Y85.336 E5.8594
G1 X193.924 Y90.748 E6.03989
G1 X193.957 Y91.303 E6.05838
G1 X193.992 Y92.502 E6.09828
G1 X194.048 Y97.949 E6.27945
G1 X194.044 Y98.561 E6.29981
G1 X194.004 Y99.683 E6.33715
G1 X193.72 Y105.082 E6.51697
G1 X193.675 Y105.737 E6.53881
G1 X193.569 Y106.805 E6.5745
G1 X192.945 Y112.197 E6.75504
G1 X192.879 Y112.707 E6.77214
G1 X192.86 Y112.836 E6.77648
G1 X192.679 Y113.948 E6.81395
G1 X191.725 Y119.249 E6.9931
G1 X191.622 Y119.777 E7.01099
G1 X191.596 Y119.899 E7.01514
G1 X191.356 Y120.953 E7.05109
G1 X190.058 Y126.232 E7.2319
G1 X189.901 Y126.828 E7.2524
G1 X189.581 Y127.915 E7.29009
G1 X187.963 Y133.077 E7.47001
G1 X187.797 Y133.579 E7.4876
G1 X187.422 Y134.616 E7.52428
G1 X185.429 Y139.811 E7.70934
G1 X185.255 Y140.245 E7.72489
G1 X184.761 Y141.376 E7.76594
G1 X182.515 Y146.281 E7.94537
G1 X182.282 Y146.772 E7.96345
G1 X181.75 Y147.81 E8.00224
G1 X179.165 Y152.633 E8.18425
G1 X178.912 Y153.09 E8.20162
G1 X178.847 Y153.203 E8.20596
G1 X178.293 Y154.129 E8.24185
G1 X175.447 Y158.718 E8.42145
G1 X175.148 Y159.185 E8.43989
G1 X175.08 Y159.288 E8.44399
G1 X174.455 Y160.199 E8.48074
G1 X171.303 Y164.633 E8.66168
G1 X170.989 Y165.062 E8.67936
G1 X170.292 Y165.956 E8.71707
G1 X166.856 Y170.199 E8.89866
G1 X166.521 Y170.601 E8.91606
G1 X166.438 Y170.697 E8.92028
G1 X165.696 Y171.531 E8.95741
G1 X162.069 Y175.475 E9.13563
G1 X161.675 Y175.893 E9.15473
G1 X160.872 Y176.691 E9.19239
G1 X156.967 Y180.436 E9.37234
G1 X156.503 Y180.87 E9.39347
G1 X156.402 Y180.962 E9.39802
G1 X155.628 Y181.637 E9.43217
G1 X151.496 Y185.129 E9.61211
G1 X150.966 Y185.562 E9.63487
G1 X150.091 Y186.235 E9.67159
G1 X145.774 Y189.44 E9.85042
G1 X145.208 Y189.846 E9.87358
G1 X144.315 Y190.448 E9.9094
G1 X139.808 Y193.373 E10.08811
G1 X139.323 Y193.679 E10.10718
G1 X139.21 Y193.748 E10.11159
G1 X138.254 Y194.307 E10.14842
G1 X133.56 Y196.953 E10.32764
G1 X132.966 Y197.276 E10.35013
G1 X132.039 Y197.742 E10.38464
G1 X127.128 Y200.115 E10.56605
G1 X126.661 Y200.332 E10.58317
G1 X125.572 Y200.801 E10.62261
G1 X120.541 Y202.854 E10.80334
G1 X119.898 Y203.104 E10.82628
G1 X118.889 Y203.462 E10.86189
G1 X113.723 Y205.2 E11.04318
G1 X113.127 Y205.39 E11.06398
G1 X112.1 Y205.684 E11.09951
G1 X106.89 Y207.079 E11.2789
G1 X106.209 Y207.249 E11.30225
G1 X105.122 Y207.488 E11.33927
G1 X99.826 Y208.555 E11.51895
G1 X99.315 Y208.651 E11.53624
G1 X99.185 Y208.673 E11.54063
G1 X98.139 Y208.834 E11.57583
G1 X92.745 Y209.572 E11.75691
G1 X92.086 Y209.651 E11.77898
G1 X91.044 Y209.746 E11.81378
G1 X85.559 Y210.148 E11.9967
G1 X84.919 Y210.185 E12.01803
G1 X84.354 Y210.178 E12.03682
G1 X83.795 Y210.091 E12.05563
G1 X83.254 Y209.926 E12.07445
G1 X82.945 Y209.792 E12.08565
G1 X82.644 Y209.645 E12.09679
G1 X82.414 Y209.527 E12.10539
G1 X31.132 Y182.624 E14.0315
G1 X30.543 Y182.303 E14.05381
G1 X30.067 Y181.998 E14.07261
G1 X29.639 Y181.629 E14.09141
G1 X29.267 Y181.204 E14.11019
G1 X28.958 Y180.73 E14.12901
G1 X28.72 Y180.217 E14.14782
G1 X28.556 Y179.676 E14.16662
G1 X28.467 Y179.067 E14.18709
G1 X28.279 Y176.35 E14.27768
G1 X28.008 Y173.601 E14.36955
G1 X27.67 Y170.928 E14.45916
G1 X27.253 Y168.249 E14.54934
G1 X26.761 Y165.587 E14.63938
G1 X26.334 Y163.651 E14.70532
G1 X26.045 Y162.274 E14.75212
G1 X25.969 Y161.714 E14.77091
G1 X25.972 Y161.148 E14.78974
G1 X26.054 Y160.589 E14.80853
G1 X26.215 Y160.047 E14.82733
G1 X26.454 Y159.527 E14.84637
G1 X27.004 Y158.527 E14.88433
G1 X53.856 Y112.019 E16.6705
G1 X54.244 Y111.369 E16.69568
G1 X54.568 Y110.905 E16.7145
G1 X54.953 Y110.492 E16.73328
G1 X55.473 Y110.082 E16.7553
G1 X55.768 Y109.887 E16.76707
G1 X58.017 Y108.366 E16.85737
G1 X60.25 Y106.762 E16.94881
G1 X62.394 Y105.128 E17.03847
G1 X64.504 Y103.425 E17.12866
G1 X66.572 Y101.655 E17.21919
G1 X68.574 Y99.841 E17.30905
G1 X70.544 Y97.952 E17.39983
G1 X72.449 Y96.02 E17.49007
G1 X74.298 Y94.034 E17.58032
G1 X76.104 Y91.981 E17.67126
G1 X77.829 Y89.905 E17.76104
G1 X79.492 Y87.785 E17.85065
G1 X81.122 Y85.58 E17.94186
G1 X82.662 Y83.37 E18.03145
G1 X84.173 Y81.064 E18.12314
G1 X85.573 Y78.79 E18.21196
G1 X86.613 Y76.976 E18.28151
G1 X91.912 Y67.804 E18.63382
G1 X92.278 Y67.192 E18.65754
G1 X92.575 Y66.762 E18.67492
G0 F6000 X92.888 Y67.01
G1 F1200 X93.06 Y66.806 E18.6838
G1 X93.847 Y65.937 E18.72279
G1 X93.926 Y65.852 E18.72665
G1 X95.735 Y63.803 E18.81756
G1 X97.46 Y61.735 E18.90713
G1 X99.162 Y59.573 E18.99865
G1 X100.796 Y57.372 E19.08982
G1 X102.344 Y55.157 E19.1797
G1 X103.858 Y52.858 E19.27126
G1 X105.278 Y50.56 E19.3611
G1 X106.647 Y48.197 E19.45193
G1 X107.955 Y45.789 E19.54308
G1 X109.189 Y43.351 E19.63396
G1 X110.335 Y40.92 E19.72335
G1 X111.447 Y38.377 E19.81566
G1 X112.468 Y35.853 E19.90622
G1 X113.403 Y33.328 E19.99577
G1 X114.284 Y30.734 E20.08689
G1 X114.431 Y30.263 E20.1033
G1 X114.787 Y29.163 E20.14176
G1 X115.066 Y28.52 E20.16507
G1 X115.414 Y27.896 E20.18883
G1 X124.275 Y12.55 E20.77822
G1 X124.621 Y11.969 E20.80071
G1 X124.929 Y11.53 E20.81855
G1 X125.299 Y11.142 E20.83638
G1 X125.722 Y10.812 E20.85422
G1 X126.19 Y10.55 E20.87206
G1 X126.691 Y10.359 E20.8899
G1 X127.215 Y10.246 E20.90773
G1 X127.75 Y10.211 E20.92556
G1 X128.285 Y10.257 E20.94342
G1 X128.806 Y10.381 E20.96123
G1 X129.324 Y10.591 E20.97982
G1 X129.522 Y10.691 E20.9872
G1 X129.926 Y10.908 E21.00245
G1 X175.335 Y35.849 E22.72558
G1 X175.939 Y36.192 E22.74868
G1 X176.384 Y36.49 E22.7665
G1 X176.78 Y36.852 E22.78434
G1 X177.242 Y37.46 E22.80974
G1 X177.414 Y37.745 E22.82081
G1 X177.556 Y37.991 E22.83026
G1 X180.366 Y42.983 E23.02079
G1 X180.647 Y43.496 E23.04024
G1 X180.705 Y43.606 E23.04438
G1 X181.16 Y44.509 E23.07801
G1 X183.523 Y49.397 E23.25859
G1 X183.8 Y49.995 E23.28051
G1 X184.229 Y50.997 E23.31676
G1 X186.263 Y55.981 E23.4958
G1 X186.466 Y56.5 E23.51434
G1 X186.87 Y57.634 E23.55438
G1 X188.593 Y62.757 E23.73415
G1 X188.787 Y63.365 E23.75537
G1 X189.08 Y64.391 E23.79086
G1 X190.461 Y69.545 E23.96833
G1 X190.639 Y70.255 E23.99268
G1 X190.877 Y71.335 E24.02946
G1 X191.943 Y76.627 E24.20901
G1 X192.058 Y77.247 E24.22998
G1 X192.222 Y78.312 E24.26582
G1 X192.954 Y83.67 E24.44568
G1 X193.033 Y84.328 E24.46773
G1 X193.127 Y85.366 E24.50239
G1 X193.525 Y90.771 E24.68265
G1 X193.558 Y91.326 E24.70114
G1 X193.563 Y91.44 E24.70494
G1 X193.592 Y92.507 E24.74044
G1 X193.648 Y97.948 E24.92142
G1 X193.644 Y98.547 E24.94134
G1 X193.604 Y99.662 E24.97845
G1 X193.321 Y105.056 E25.1581
G1 X193.277 Y105.698 E25.1795
G1 X193.171 Y106.759 E25.21497
G1 X192.548 Y112.146 E25.39533
G1 X192.482 Y112.656 E25.41244
G1 X192.465 Y112.772 E25.41634
G1 X192.285 Y113.877 E25.45357
G1 X191.332 Y119.172 E25.63252
G1 X191.206 Y119.81 E25.65415
G1 X190.967 Y120.858 E25.6899
G1 X189.671 Y126.131 E25.8705
G1 X189.517 Y126.716 E25.89062
G1 X189.199 Y127.796 E25.92806
G1 X187.583 Y132.951 E26.10775
G1 X187.383 Y133.552 E26.12881
G1 X187.023 Y134.541 E26.16382
G1 X185.057 Y139.662 E26.34627
G1 X184.84 Y140.199 E26.36553
G1 X184.397 Y141.21 E26.40224
G1 X182.153 Y146.109 E26.58146
G1 X181.87 Y146.703 E26.60335
G1 X181.366 Y147.682 E26.63997
G1 X178.815 Y152.44 E26.81953
G1 X178.562 Y152.897 E26.83691
G1 X177.953 Y153.919 E26.87648
G1 X175.11 Y158.502 E27.05585
G1 X174.75 Y159.062 E27.078
G1 X174.129 Y159.967 E27.1145
G1 X170.98 Y164.396 E27.29525
G1 X170.666 Y164.825 E27.31293
G1 X170.597 Y164.916 E27.31673
G1 X169.939 Y165.758 E27.35227
G1 X166.549 Y169.943 E27.5314
G1 X166.214 Y170.345 E27.54881
G1 X166.139 Y170.432 E27.55263
G1 X165.402 Y171.26 E27.5895
G1 X161.778 Y175.2 E27.76755
G1 X161.384 Y175.618 E27.78665
G1 X161.299 Y175.705 E27.7907
G1 X160.548 Y176.449 E27.82586
G1 X156.694 Y180.144 E28.00344
G1 X156.139 Y180.661 E28.02867
G1 X155.37 Y181.332 E28.06261
G1 X151.242 Y184.82 E28.24236
G1 X150.807 Y185.177 E28.26107
G1 X149.904 Y185.875 E28.29904
G1 X145.541 Y189.116 E28.47981
G1 X145.071 Y189.454 E28.49906
G1 X144.097 Y190.113 E28.53817
G1 X139.595 Y193.035 E28.71669
G1 X139.11 Y193.341 E28.73576
G1 X139.008 Y193.403 E28.73973
G1 X138.057 Y193.959 E28.77637
G1 X133.369 Y196.602 E28.95537
G1 X132.893 Y196.862 E28.97341
G1 X132.786 Y196.918 E28.97742
G1 X131.865 Y197.381 E29.01171
G1 X126.959 Y199.752 E29.19294
G1 X126.396 Y200.012 E29.21356
G1 X125.353 Y200.459 E29.25131
G1 X120.396 Y202.482 E29.42938
G1 X119.869 Y202.688 E29.4482
G1 X118.819 Y203.063 E29.48528
G1 X113.601 Y204.819 E29.6684
G1 X113.125 Y204.972 E29.68503
G1 X113.016 Y205.005 E29.68881
G1 X111.997 Y205.297 E29.72407
G1 X106.792 Y206.691 E29.90329
G1 X106.123 Y206.858 E29.92622
G1 X105.043 Y207.096 E29.96301
G1 X99.752 Y208.162 E30.14252
G1 X99.241 Y208.258 E30.15982
G1 X99.124 Y208.278 E30.16376
G1 X98.085 Y208.438 E30.19873
G1 X92.697 Y209.175 E30.3796
G1 X92.049 Y209.253 E30.40131
G1 X91.014 Y209.347 E30.43588
G1 X85.536 Y209.749 E30.61857
G1 X84.896 Y209.786 E30.63989
G1 X84.36 Y209.777 E30.65772
G1 X83.831 Y209.688 E30.67556
G1 X83.12 Y209.432 E30.70069
G1 X82.827 Y209.29 E30.71152
G1 X82.6 Y209.173 E30.72002
G1 X31.323 Y182.273 E32.64593
G1 X30.734 Y181.952 E32.66824
G1 X30.284 Y181.661 E32.68607
G1 X29.882 Y181.306 E32.7039
G1 X29.536 Y180.896 E32.72175
G1 X29.256 Y180.439 E32.73957
G1 X29.047 Y179.945 E32.75741
G1 X28.913 Y179.425 E32.77527
G1 X28.866 Y179.04 E32.78817
G1 X28.677 Y176.317 E32.87896
G1 X28.408 Y173.583 E32.97033
G1 X28.063 Y170.853 E33.06185
G1 X27.647 Y168.181 E33.1518
G1 X27.155 Y165.518 E33.24187
G1 X26.726 Y163.568 E33.30827
G1 X26.437 Y162.191 E33.35507
G1 X26.366 Y161.66 E33.37289
G1 X26.375 Y161.124 E33.39072
G1 X26.464 Y160.595 E33.40856
G1 X26.63 Y160.085 E33.4264
G1 X26.805 Y159.719 E33.43989
G1 X27.35 Y158.727 E33.47754
G1 X54.2 Y112.224 E35.26353
G1 X54.588 Y111.574 E35.28871
G1 X54.896 Y111.135 E35.30655
G1 X55.266 Y110.747 E35.32438
G1 X55.694 Y110.416 E35.34238
G1 X55.989 Y110.221 E35.35414
G1 X58.229 Y108.707 E35.44406
G1 X60.497 Y107.077 E35.53696
G1 X62.643 Y105.442 E35.62669
G1 X64.753 Y103.738 E35.71689
G1 X66.835 Y101.956 E35.80804
G1 X68.855 Y100.125 E35.89872
G1 X70.823 Y98.239 E35.98938
G1 X72.744 Y96.29 E36.0804
G1 X74.608 Y94.288 E36.17138
G1 X76.396 Y92.256 E36.26141
G1 X78.118 Y90.184 E36.35101
G1 X79.829 Y88.003 E36.44321
G1 X81.439 Y85.824 E36.53332
G1 X83.008 Y83.572 E36.62461
G1 X84.489 Y81.313 E36.71445
G1 X85.923 Y78.984 E36.80542
G1 X86.96 Y77.176 E36.87475
G1 X92.255 Y68.009 E37.22685
G1 X92.621 Y67.397 E37.25057
G1 X92.888 Y67.01 E37.26621
G0 F6000 X93.202 Y67.259
G1 F1200 X93.357 Y67.075 E37.27421
G1 X94.219 Y66.124 E37.3169
G1 X96.041 Y64.06 E37.40847
G1 X97.797 Y61.955 E37.49964
G1 X99.483 Y59.814 E37.59028
G1 X101.101 Y57.634 E37.68058
G1 X102.674 Y55.384 E37.77189
G1 X104.199 Y53.067 E37.86414
G1 X105.621 Y50.766 E37.95411
G1 X107.002 Y48.383 E38.04572
G1 X108.306 Y45.982 E38.13659
G1 X109.543 Y43.537 E38.22773
G1 X110.705 Y41.072 E38.31837
G1 X111.813 Y38.538 E38.41035
G1 X112.838 Y36.005 E38.50124
G1 X113.785 Y33.447 E38.59196
G1 X114.662 Y30.866 E38.68263
G1 X114.811 Y30.386 E38.69934
G1 X115.167 Y29.286 E38.7378
G1 X115.416 Y28.715 E38.75852
G1 X115.761 Y28.096 E38.78209
G1 X124.619 Y12.755 E39.37128
G1 X124.965 Y12.174 E39.39377
G1 X125.257 Y11.761 E39.41059
G1 X125.61 Y11.4 E39.42739
G1 X126.016 Y11.098 E39.44422
G1 X126.465 Y10.865 E39.46104
G1 X126.944 Y10.705 E39.47784
G1 X127.443 Y10.622 E39.49466
G1 X127.949 Y10.62 E39.51149
G1 X128.448 Y10.696 E39.52828
G1 X129.145 Y10.949 E39.55294
G1 X129.333 Y11.044 E39.55995
G1 X129.734 Y11.258 E39.57507
G1 X175.137 Y36.196 E41.29797
G1 X175.741 Y36.539 E41.32107
G1 X176.16 Y36.823 E41.33791
G1 X176.528 Y37.169 E41.35471
G1 X176.9 Y37.667 E41.37538
G1 X177.067 Y37.945 E41.38617
G1 X177.207 Y38.188 E41.3955
G1 X180.016 Y43.175 E41.58587
G1 X180.297 Y43.688 E41.60532
G1 X180.777 Y44.638 E41.64073
G1 X183.161 Y49.566 E41.8228
G1 X183.392 Y50.062 E41.841
G1 X183.837 Y51.097 E41.87847
G1 X185.89 Y56.126 E42.05914
G1 X186.093 Y56.645 E42.07767
G1 X186.491 Y57.761 E42.11708
G1 X188.213 Y62.879 E42.29668
G1 X188.373 Y63.377 E42.31408
G1 X188.694 Y64.494 E42.35274
G1 X190.074 Y69.643 E42.53004
G1 X190.249 Y70.342 E42.554
G1 X190.485 Y71.414 E42.59051
G1 X191.55 Y76.701 E42.76989
G1 X191.645 Y77.207 E42.78702
G1 X191.817 Y78.311 E42.82418
G1 X192.557 Y83.719 E43.00572
G1 X192.635 Y84.364 E43.02733
G1 X192.728 Y85.395 E43.06176
G1 X193.125 Y90.795 E43.24185
G1 X193.163 Y91.451 E43.26371
G1 X193.192 Y92.511 E43.29898
G1 X193.248 Y97.946 E43.47976
G1 X193.244 Y98.533 E43.49928
G1 X193.205 Y99.641 E43.53616
G1 X192.922 Y105.029 E43.71561
G1 X192.887 Y105.556 E43.73317
G1 X192.774 Y106.713 E43.77184
G1 X192.152 Y112.095 E43.95204
G1 X192.086 Y112.605 E43.96914
G1 X192.071 Y112.707 E43.97257
G1 X191.891 Y113.806 E44.00961
G1 X190.94 Y119.096 E44.18838
G1 X190.837 Y119.624 E44.20627
G1 X190.579 Y120.762 E44.24508
G1 X189.284 Y126.03 E44.42551
G1 X189.133 Y126.603 E44.44522
G1 X188.818 Y127.676 E44.48241
G1 X187.203 Y132.826 E44.66193
G1 X187.007 Y133.415 E44.68257
G1 X186.65 Y134.397 E44.71733
G1 X184.686 Y139.513 E44.89959
G1 X184.512 Y139.947 E44.91515
G1 X184.034 Y141.043 E44.95491
G1 X181.792 Y145.938 E45.13399
G1 X181.514 Y146.52 E45.15544
G1 X181.013 Y147.493 E45.19184
G1 X178.465 Y152.246 E45.37121
G1 X178.212 Y152.703 E45.38858
G1 X177.642 Y153.661 E45.42566
