;FLAVOR:Marlin
;TIME:25662
;Filament used: 32.4997m
;Layer height: 0.3
;MINX:18.577
;MINY:2.44
;MINZ:0.26
;MAXX:186.407
;MAXY:202.563
;MAXZ:19.76
;Generated with Cura_SteamEngine 4.9.1
M82 ;absolute extrusion mode
;Begin Start Gcode for Dagoma DiscoEasy 200
;Sliced: 10-07-2021 02:10:42
;Initial extruder: 0

G90 ;Absolute positioning
M106 S255 ;Fan on full
G28 X Y ;Home stop X Y
G1 X100 ;Centre back during cooldown in case of oozing
M109 R90 ;Cooldown in case too hot
G28 ;Centre
G29 ;Auto-level
M104 S205 ;Pre-heat
M107 ;Fan off
G0 X100 Y5 Z0.5 ;Front centre for degunk
M109 S205 ;Wait for initial temp
M83 ;E Relative
G1 E10 F200 ;Degunk
G1 E-3 F5000 ;Retract
G0 Z3 ;Withdraw
M82 ;E absolute
G92 E0 ;E reset
G1 F6000 ;Set feedrate

;Finish Start Gcode for Dagoma DiscoEasy 200

G92 E0
G92 E0
G1 F3000 E-3.5
;LAYER_COUNT:66
;LAYER:0
M107
G0 F1285.7 X46.881 Y41.07 Z0.26
;TYPE:SKIRT
G1 F3000 E0
G1 F900 X50.522 Y37.111 E0.20584
G1 X50.916 Y36.693 E0.22782
G1 X51.008 Y36.599 E0.23286
G1 X51.762 Y35.852 E0.27348
G1 X55.644 Y32.131 E0.47926
G1 X56.081 Y31.722 E0.50217
G1 X56.18 Y31.632 E0.50729
G1 X56.953 Y30.958 E0.54654
G1 X61.084 Y27.468 E0.7535
G1 X61.611 Y27.037 E0.77955
G1 X62.484 Y26.365 E0.82171
G1 X66.799 Y23.161 E1.02739
G1 X67.362 Y22.758 E1.05389
G1 X68.253 Y22.157 E1.09502
G1 X72.758 Y19.233 E1.30055
G1 X73.243 Y18.927 E1.3225
G1 X73.353 Y18.86 E1.32743
G1 X74.308 Y18.302 E1.36975
G1 X78.999 Y15.656 E1.57587
G1 X79.475 Y15.396 E1.59662
G1 X79.59 Y15.336 E1.60159
G1 X80.515 Y14.871 E1.64121
G1 X85.425 Y12.499 E1.84989
G1 X85.995 Y12.236 E1.87391
G1 X87.043 Y11.786 E1.91756
G1 X92.003 Y9.762 E2.12257
G1 X92.522 Y9.559 E2.1439
G1 X93.669 Y9.15 E2.1905
G1 X98.789 Y7.428 E2.39723
G1 X99.29 Y7.266 E2.41738
G1 X99.419 Y7.227 E2.42253
G1 X100.442 Y6.935 E2.46325
G1 X105.683 Y5.53 E2.6709
G1 X106.191 Y5.402 E2.69095
G1 X106.306 Y5.375 E2.69547
G1 X107.395 Y5.136 E2.73814
G1 X112.698 Y4.068 E2.94516
G1 X113.334 Y3.95 E2.96991
G1 X114.378 Y3.79 E3.01033
G1 X119.77 Y3.052 E3.2186
G1 X120.426 Y2.973 E3.24389
G1 X121.465 Y2.878 E3.28382
G1 X126.946 Y2.477 E3.49413
G1 X127.579 Y2.44 E3.5184
G1 X128.135 Y2.447 E3.53968
G1 X128.575 Y2.51 E3.55669
G1 X129.111 Y2.658 E3.57797
G1 X129.712 Y2.923 E3.60311
G1 X130.011 Y3.075 E3.61594
G1 X181.304 Y29.983 E5.83261
G1 X181.891 Y30.302 E5.85817
G1 X182.36 Y30.602 E5.87948
G1 X182.781 Y30.966 E5.90078
G1 X183.145 Y31.387 E5.92208
G1 X183.445 Y31.856 E5.94338
G1 X183.675 Y32.362 E5.96465
G1 X183.83 Y32.897 E5.98597
G1 X183.907 Y33.437 E6.00685
G1 X184.101 Y36.21 E6.11323
G1 X184.365 Y38.892 E6.21636
G1 X184.704 Y41.57 E6.31966
G1 X185.123 Y44.26 E6.42385
G1 X185.622 Y46.961 E6.52897
G1 X186.043 Y48.875 E6.60396
G1 X186.332 Y50.252 E6.65781
G1 X186.407 Y50.803 E6.67909
G1 X186.402 Y51.36 E6.70041
G1 X186.318 Y51.91 E6.7217
G1 X186.156 Y52.442 E6.74298
G1 X185.936 Y52.913 E6.76288
G1 X185.388 Y53.911 E6.80645
G1 X158.536 Y100.417 E8.86157
G1 X158.148 Y101.067 E8.89054
G1 X157.83 Y101.523 E8.91182
G1 X157.449 Y101.929 E8.93313
G1 X156.958 Y102.314 E8.95701
G1 X156.663 Y102.509 E8.97054
G1 X154.409 Y104.032 E9.07464
G1 X152.193 Y105.624 E9.17906
G1 X150.021 Y107.28 E9.28359
G1 X147.923 Y108.974 E9.38678
G1 X145.853 Y110.746 E9.49106
G1 X143.826 Y112.582 E9.59573
G1 X141.868 Y114.458 E9.6995
G1 X139.958 Y116.396 E9.80363
G1 X138.106 Y118.385 E9.90764
G1 X136.312 Y120.426 E10.01163
G1 X134.581 Y122.507 E10.11522
G1 X132.884 Y124.671 E10.22046
G1 X131.278 Y126.843 E10.32384
G1 X129.735 Y129.059 E10.42718
G1 X128.236 Y131.346 E10.53182
G1 X126.811 Y133.66 E10.63582
G1 X125.778 Y135.461 E10.71528
G1 X120.484 Y144.626 E11.12033
G1 X120.12 Y145.237 E11.14755
G1 X119.666 Y145.852 E11.1768
G1 X118.843 Y146.761 E11.22373
G1 X118.791 Y146.816 E11.22663
G1 X116.973 Y148.877 E11.3318
G1 X115.239 Y150.956 E11.4354
G1 X113.547 Y153.106 E11.54011
G1 X111.95 Y155.258 E11.64266
G1 X110.365 Y157.524 E11.74849
G1 X108.87 Y159.796 E11.85257
G1 X107.455 Y162.085 E11.95556
G1 X106.103 Y164.42 E12.05882
G1 X104.78 Y166.857 E12.16494
G1 X103.573 Y169.241 E12.2672
G1 X102.407 Y171.712 E12.37176
G1 X101.308 Y174.228 E12.47683
G1 X100.301 Y176.719 E12.57965
G1 X99.353 Y179.273 E12.68391
G1 X98.475 Y181.856 E12.78832
G1 X98.33 Y182.324 E12.80707
G1 X97.973 Y183.425 E12.85136
G1 X97.72 Y184.028 E12.87639
G1 X97.635 Y184.186 E12.88325
G1 X97.324 Y184.741 E12.9076
G1 X88.48 Y200.062 E13.5846
G1 X88.117 Y200.672 E13.61177
G1 X87.799 Y201.128 E13.63304
G1 X87.419 Y201.534 E13.65432
G1 X86.984 Y201.882 E13.67564
G1 X86.504 Y202.164 E13.69695
G1 X85.989 Y202.374 E13.71823
G1 X85.449 Y202.508 E13.73952
G1 X84.895 Y202.563 E13.76083
G1 X84.34 Y202.539 E13.78209
G1 X83.793 Y202.435 E13.8034
G1 X83.042 Y202.15 E13.83414
G1 X82.47 Y201.849 E13.85887
G1 X37.029 Y176.891 E15.84291
G1 X36.425 Y176.548 E15.86949
G1 X35.963 Y176.239 E15.89077
G1 X35.549 Y175.867 E15.91207
G1 X35.192 Y175.44 E15.93337
G1 X34.887 Y174.957 E15.95523
G1 X34.705 Y174.644 E15.96908
G1 X31.894 Y169.652 E16.18833
G1 X31.612 Y169.138 E16.21077
G1 X31.547 Y169.015 E16.21609
G1 X31.093 Y168.11 E16.25484
G1 X28.724 Y163.212 E16.46306
G1 X28.447 Y162.61 E16.48842
G1 X28.016 Y161.606 E16.53023
G1 X25.981 Y156.62 E16.73632
G1 X25.778 Y156.101 E16.75765
G1 X25.369 Y154.954 E16.80425
G1 X23.644 Y149.825 E17.01134
G1 X23.484 Y149.326 E17.03139
G1 X23.449 Y149.211 E17.03599
G1 X23.154 Y148.18 E17.07703
G1 X21.76 Y142.978 E17.28314
G1 X21.592 Y142.304 E17.30972
G1 X21.353 Y141.22 E17.3522
G1 X20.286 Y135.923 E17.55898
G1 X20.191 Y135.416 E17.57872
G1 X20.006 Y134.225 E17.62485
G1 X19.273 Y128.868 E17.83177
G1 X19.206 Y128.325 E17.85271
G1 X19.193 Y128.202 E17.85744
G1 X19.097 Y127.146 E17.89802
G1 X18.697 Y121.678 E18.10784
G1 X18.664 Y121.096 E18.13015
G1 X18.634 Y119.97 E18.17325
G1 X18.577 Y114.592 E18.37908
G1 X18.581 Y113.919 E18.40483
G1 X18.62 Y112.843 E18.44604
G1 X18.905 Y107.426 E18.65363
G1 X18.94 Y106.899 E18.67384
G1 X18.95 Y106.775 E18.6786
G1 X19.056 Y105.709 E18.7196
G1 X19.679 Y100.319 E18.92725
G1 X19.745 Y99.809 E18.94693
G1 X19.763 Y99.684 E18.95176
G1 X19.944 Y98.574 E18.9948
G1 X20.898 Y93.275 E19.20085
G1 X21.001 Y92.747 E19.22144
G1 X21.026 Y92.629 E19.22605
G1 X21.266 Y91.577 E19.26735
G1 X22.563 Y86.3 E19.47531
G1 X22.719 Y85.707 E19.49877
G1 X23.038 Y84.622 E19.54205
G1 X24.656 Y79.462 E19.749
G1 X24.822 Y78.96 E19.76924
G1 X25.196 Y77.926 E19.81132
G1 X27.187 Y72.736 E20.02405
G1 X27.408 Y72.19 E20.04659
G1 X27.853 Y71.176 E20.08897
G1 X30.098 Y66.273 E20.29534
G1 X30.331 Y65.782 E20.31614
G1 X30.386 Y65.671 E20.32088
G1 X30.892 Y64.688 E20.36319
G1 X33.445 Y59.927 E20.56993
G1 X33.76 Y59.361 E20.59472
G1 X34.313 Y58.436 E20.63597
G1 X37.157 Y53.851 E20.84245
G1 X37.455 Y53.385 E20.86361
G1 X38.112 Y52.423 E20.9082
G1 X41.273 Y47.974 E21.11706
G1 X41.602 Y47.525 E21.13836
G1 X41.675 Y47.429 E21.14297
G1 X42.315 Y46.611 E21.18272
G1 X45.734 Y42.389 E21.39063
G1 X46.084 Y41.969 E21.41155
G1 X46.163 Y41.877 E21.41619
G1 X46.881 Y41.07 E21.45753
G0 F1285.7 X47.138 Y41.307
G1 F900 X50.777 Y37.351 E21.66323
G1 X51.171 Y36.933 E21.68522
G1 X51.254 Y36.848 E21.68976
G1 X52.005 Y36.104 E21.73022
G1 X55.883 Y32.386 E21.93582
G1 X56.32 Y31.977 E21.95872
G1 X57.136 Y31.263 E22.00022
G1 X61.306 Y27.738 E22.20918
G1 X61.824 Y27.315 E22.23477
G1 X62.692 Y26.646 E22.27671
G1 X67.003 Y23.445 E22.4822
G1 X67.473 Y23.107 E22.50436
G1 X68.39 Y22.486 E22.54674
G1 X72.945 Y19.529 E22.75457
G1 X73.43 Y19.223 E22.77651
G1 X73.53 Y19.162 E22.781
G1 X74.48 Y18.607 E22.8231
G1 X79.167 Y15.963 E23.02904
G1 X79.643 Y15.703 E23.0498
G1 X80.667 Y15.186 E23.0937
G1 X85.573 Y12.816 E23.30221
G1 X86.133 Y12.557 E23.32582
G1 X87.175 Y12.11 E23.36921
G1 X92.131 Y10.088 E23.57405
G1 X92.754 Y9.846 E23.59963
G1 X93.781 Y9.482 E23.64133
G1 X98.896 Y7.761 E23.84786
G1 X99.397 Y7.599 E23.86801
G1 X99.515 Y7.563 E23.87273
G1 X100.533 Y7.273 E23.91324
G1 X105.769 Y5.87 E24.12069
G1 X106.381 Y5.717 E24.14483
G1 X107.464 Y5.48 E24.18726
G1 X112.762 Y4.412 E24.39409
G1 X113.387 Y4.296 E24.41841
G1 X114.426 Y4.137 E24.45864
G1 X119.812 Y3.399 E24.66668
G1 X120.352 Y3.333 E24.6875
G1 X121.491 Y3.227 E24.73128
G1 X126.966 Y2.826 E24.94137
G1 X127.599 Y2.789 E24.96563
G1 X128.13 Y2.798 E24.98596
G1 X128.506 Y2.853 E25.0005
G1 X129.017 Y2.996 E25.02081
G1 X129.56 Y3.238 E25.04356
G1 X129.849 Y3.384 E25.05595
G1 X181.137 Y30.291 E27.27243
G1 X181.724 Y30.61 E27.29799
G1 X182.17 Y30.898 E27.31831
G1 X182.568 Y31.249 E27.33862
G1 X182.908 Y31.656 E27.35892
G1 X183.183 Y32.11 E27.37923
G1 X183.388 Y32.6 E27.39956
G1 X183.516 Y33.114 E27.41983
G1 X183.557 Y33.461 E27.4332
G1 X183.749 Y36.202 E27.53835
G1 X184.018 Y38.932 E27.64333
G1 X184.359 Y41.633 E27.74752
G1 X184.781 Y44.343 E27.85248
G1 X185.274 Y47.009 E27.95624
G1 X185.701 Y48.947 E28.03218
G1 X185.99 Y50.324 E28.08603
G1 X186.059 Y50.85 E28.10633
G1 X186.049 Y51.381 E28.12666
G1 X185.96 Y51.904 E28.14696
G1 X185.792 Y52.407 E28.16725
G1 X185.63 Y52.745 E28.1816
G1 X185.085 Y53.736 E28.22488
G1 X158.236 Y100.238 E30.27981
G1 X157.848 Y100.888 E30.30878
G1 X157.542 Y101.322 E30.32911
G1 X157.175 Y101.705 E30.34941
G1 X156.765 Y102.022 E30.36924
G1 X156.47 Y102.217 E30.38277
G1 X154.219 Y103.738 E30.48674
G1 X151.987 Y105.342 E30.59193
G1 X149.799 Y107.009 E30.69719
G1 X147.685 Y108.716 E30.80118
G1 X145.618 Y110.486 E30.90532
G1 X143.596 Y112.317 E31.00971
G1 X141.624 Y114.207 E31.11424
G1 X139.701 Y116.159 E31.21911
G1 X137.851 Y118.146 E31.323
G1 X136.045 Y120.199 E31.42765
G1 X134.317 Y122.277 E31.53107
G1 X132.608 Y124.457 E31.63708
G1 X130.99 Y126.645 E31.74122
G1 X129.439 Y128.871 E31.84505
G1 X127.952 Y131.14 E31.94887
G1 X126.516 Y133.473 E32.05371
G1 X125.475 Y135.286 E32.13372
G1 X120.183 Y144.447 E32.53859
G1 X119.819 Y145.058 E32.56581
G1 X119.407 Y145.617 E32.59239
G1 X118.589 Y146.521 E32.63904
G1 X118.507 Y146.608 E32.64362
G1 X116.707 Y148.649 E32.74776
G1 X114.976 Y150.725 E32.8512
G1 X113.271 Y152.891 E32.9567
G1 X111.662 Y155.058 E33.05999
G1 X110.094 Y157.3 E33.16469
G1 X108.577 Y159.605 E33.27029
G1 X107.146 Y161.921 E33.37448
G1 X105.79 Y164.263 E33.47804
G1 X104.48 Y166.675 E33.58308
G1 X103.25 Y169.105 E33.68731
G1 X102.084 Y171.578 E33.79195
G1 X101.001 Y174.055 E33.8954
G1 X99.977 Y176.586 E33.99989
G1 X99.026 Y179.149 E34.10451
G1 X98.145 Y181.74 E34.20924
G1 X97.997 Y182.216 E34.22832
G1 X97.64 Y183.317 E34.27261
G1 X97.41 Y183.866 E34.29539
G1 X97.33 Y184.015 E34.30186
G1 X97.021 Y184.566 E34.32604
G1 X88.179 Y199.883 E35.00287
G1 X87.816 Y200.493 E35.03004
G1 X87.511 Y200.927 E35.05034
G1 X87.145 Y201.311 E35.07064
G1 X86.725 Y201.635 E35.09094
G1 X86.261 Y201.892 E35.11124
G1 X85.763 Y202.077 E35.13157
G1 X85.244 Y202.185 E35.15186
G1 X84.714 Y202.214 E35.17217
G1 X84.186 Y202.163 E35.19247
G1 X83.671 Y202.034 E35.21279
G1 X83.2 Y201.837 E35.23232
G1 X82.635 Y201.54 E35.25675
G1 X37.202 Y176.586 E37.24045
G1 X36.598 Y176.243 E37.26703
G1 X36.158 Y175.947 E37.28733
G1 X35.767 Y175.588 E37.30764
G1 X35.322 Y175.001 E37.33583
G1 X35.029 Y174.506 E37.35784
G1 X32.201 Y169.484 E37.57841
G1 X31.919 Y168.97 E37.60085
G1 X31.86 Y168.858 E37.60569
G1 X31.408 Y167.958 E37.64423
G1 X29.041 Y163.065 E37.85225
G1 X28.808 Y162.562 E37.87346
G1 X28.34 Y161.474 E37.91879
G1 X26.307 Y156.492 E38.12471
G1 X26.065 Y155.869 E38.15029
G1 X25.701 Y154.842 E38.19198
G1 X23.977 Y149.718 E38.39888
G1 X23.817 Y149.219 E38.41893
G1 X23.492 Y148.09 E38.46389
G1 X22.099 Y142.892 E38.66984
G1 X21.957 Y142.327 E38.69213
G1 X21.696 Y141.15 E38.73827
G1 X20.63 Y135.858 E38.94486
G1 X20.516 Y135.241 E38.96887
G1 X20.353 Y134.178 E39.01003
G1 X19.621 Y128.825 E39.21679
G1 X19.554 Y128.282 E39.23773
G1 X19.542 Y128.17 E39.24204
G1 X19.446 Y127.12 E39.28239
G1 X19.046 Y121.657 E39.49202
G1 X19.014 Y121.086 E39.5139
G1 X18.984 Y119.967 E39.55674
G1 X18.927 Y114.593 E39.76241
G1 X18.931 Y113.932 E39.78771
G1 X18.97 Y112.862 E39.82869
G1 X19.254 Y107.449 E40.03612
G1 X19.298 Y106.809 E40.06067
G1 X19.403 Y105.749 E40.10144
G1 X20.026 Y100.364 E40.30889
G1 X20.092 Y99.854 E40.32857
G1 X20.279 Y98.695 E40.3735
G1 X21.241 Y93.342 E40.58164
G1 X21.344 Y92.814 E40.60223
G1 X21.592 Y91.718 E40.64523
G1 X22.901 Y86.388 E40.85527
G1 X23.055 Y85.806 E40.87831
G1 X23.372 Y84.727 E40.92135
G1 X24.988 Y79.572 E41.12809
G1 X25.154 Y79.07 E41.14833
G1 X25.547 Y77.986 E41.19245
G1 X27.512 Y72.866 E41.40233
G1 X27.729 Y72.331 E41.42442
G1 X28.171 Y71.321 E41.46661
G1 X30.414 Y66.423 E41.67278
G1 X30.647 Y65.932 E41.69358
G1 X30.697 Y65.831 E41.69789
G1 X31.2 Y64.853 E41.73998
G1 X33.751 Y60.097 E41.94652
G1 X34.004 Y59.64 E41.96651
G1 X34.061 Y59.541 E41.97088
G1 X34.61 Y58.621 E42.01188
G1 X37.452 Y54.04 E42.21819
G1 X37.75 Y53.574 E42.23936
G1 X38.435 Y52.571 E42.28584
G1 X41.525 Y48.222 E42.49001
G1 X41.951 Y47.644 E42.51748
G1 X42.587 Y46.832 E42.55696
G1 X46.003 Y42.613 E42.7647
G1 X46.353 Y42.193 E42.78563
G1 X47.138 Y41.307 E42.83093
G0 F1285.7 X47.359 Y41.585
G1 F900 X51.032 Y37.591 E43.03858
G1 X51.426 Y37.173 E43.06057
G1 X51.501 Y37.096 E43.06468
G1 X52.247 Y36.357 E43.10486
G1 X56.122 Y32.642 E43.3103
G1 X56.559 Y32.233 E43.33321
G1 X56.641 Y32.159 E43.33743
G1 X57.405 Y31.493 E43.37622
G1 X61.528 Y28.009 E43.5828
G1 X62.038 Y27.592 E43.60801
G1 X62.901 Y26.927 E43.6497
G1 X67.207 Y23.729 E43.85497
G1 X67.677 Y23.391 E43.87712
G1 X68.634 Y22.744 E43.92133
G1 X73.132 Y19.825 E44.12654
G1 X73.707 Y19.464 E44.15252
G1 X74.651 Y18.911 E44.19439
G1 X79.335 Y16.271 E44.40015
G1 X79.905 Y15.961 E44.42498
G1 X80.82 Y15.501 E44.46418
G1 X85.72 Y13.134 E44.67243
G1 X86.271 Y12.879 E44.69566
G1 X87.307 Y12.434 E44.73881
G1 X92.258 Y10.414 E44.94345
G1 X92.871 Y10.176 E44.96862
G1 X93.892 Y9.814 E45.01007
G1 X99.004 Y8.094 E45.21648
G1 X99.505 Y7.932 E45.23663
G1 X99.611 Y7.9 E45.24087
G1 X100.624 Y7.611 E45.28118
G1 X105.854 Y6.209 E45.4884
G1 X106.456 Y6.059 E45.51214
G1 X107.533 Y5.823 E45.55434
G1 X112.827 Y4.756 E45.76101
G1 X113.44 Y4.642 E45.78487
G1 X114.473 Y4.483 E45.82487
G1 X119.855 Y3.746 E46.03276
G1 X120.49 Y3.67 E46.05723
G1 X121.517 Y3.577 E46.0967
G1 X126.987 Y3.175 E46.3066
G1 X127.62 Y3.138 E46.33086
G1 X128.123 Y3.149 E46.35012
G1 X128.438 Y3.197 E46.36231
G1 X128.922 Y3.334 E46.38156
G1 X129.408 Y3.553 E46.40196
G1 X129.686 Y3.694 E46.41389
G1 X180.97 Y30.598 E48.63018
G1 X181.557 Y30.917 E48.65575
G1 X181.979 Y31.192 E48.67502
G1 X182.352 Y31.53 E48.69428
G1 X182.667 Y31.923 E48.71356
G1 X182.916 Y32.361 E48.73284
G1 X183.093 Y32.832 E48.7521
G1 X183.208 Y33.485 E48.77747
G1 X183.4 Y36.225 E48.88259
G1 X183.67 Y38.975 E48.98833
G1 X184.015 Y41.696 E49.0933
G1 X184.433 Y44.385 E49.19744
G1 X184.926 Y47.052 E49.30124
G1 X185.358 Y49.019 E49.37831
G1 X185.647 Y50.396 E49.43215
G1 X185.711 Y50.895 E49.4514
G1 X185.696 Y51.399 E49.4707
G1 X185.6 Y51.893 E49.48996
G1 X185.323 Y52.576 E49.51817
G1 X184.782 Y53.561 E49.56117
G1 X157.935 Y100.058 E51.6159
G1 X157.547 Y100.708 E51.64487
G1 X157.256 Y101.119 E51.66415
G1 X156.903 Y101.478 E51.68341
G1 X156.277 Y101.925 E51.71285
G1 X154.036 Y103.439 E51.81635
G1 X151.758 Y105.076 E51.9237
G1 X149.577 Y106.738 E52.02864
G1 X147.486 Y108.426 E52.13148
G1 X145.386 Y110.224 E52.23728
G1 X143.348 Y112.071 E52.34254
G1 X141.38 Y113.956 E52.44683
G1 X139.46 Y115.905 E52.55153
G1 X137.579 Y117.924 E52.65713
G1 X135.794 Y119.954 E52.76058
G1 X134.021 Y122.087 E52.86673
G1 X132.33 Y124.243 E52.97159
G1 X130.718 Y126.424 E53.07538
G1 X129.135 Y128.696 E53.18135
G1 X127.657 Y130.95 E53.2845
G1 X126.214 Y133.296 E53.3899
G1 X125.172 Y135.111 E53.47
G1 X119.883 Y144.268 E53.87468
G1 X119.519 Y144.879 E53.9019
G1 X119.147 Y145.383 E53.92587
G1 X118.334 Y146.281 E53.97223
G1 X118.253 Y146.367 E53.97675
G1 X116.457 Y148.403 E54.08065
G1 X114.695 Y150.516 E54.18594
G1 X112.995 Y152.676 E54.29114
G1 X111.374 Y154.86 E54.39522
G1 X109.783 Y157.134 E54.50143
G1 X108.293 Y159.398 E54.60515
G1 X106.842 Y161.747 E54.71082
G1 X105.485 Y164.09 E54.81444
G1 X104.181 Y166.493 E54.91907
G1 X102.935 Y168.953 E55.0246
G1 X101.759 Y171.446 E55.13008
G1 X100.67 Y173.939 E55.23419
G1 X99.652 Y176.454 E55.33803
