;FLAVOR:Marlin
;TIME:8251
;Filament used: 9.9672m
;Layer height: 0.3
;MINX:35.494
;MINY:31.811
;MINZ:0.26
;MAXX:151.496
;MAXY:194.365
;MAXZ:2.96
;Generated with Cura_SteamEngine 4.9.1
M82 ;absolute extrusion mode
;Begin Start Gcode for Dagoma DiscoEasy 200
;Sliced: 08-07-2021 11:08:17
;Initial extruder: 0

G90 ;Absolute positioning
M106 S255 ;Fan on full
G28 X Y ;Home stop X Y
G1 X100 ;Centre back during cooldown in case of oozing
M109 R90 ;Cooldown in case too hot
G28 ;Centre
G29 ;Auto-level
M104 S205 ;Pre-heat
M107 ;Fan off
G0 X100 Y5 Z0.5 ;Front centre for degunk
M109 S205 ;Wait for initial temp
M83 ;E Relative
G1 E10 F200 ;Degunk
G1 E-3 F5000 ;Retract
G0 Z3 ;Withdraw
M82 ;E absolute
G92 E0 ;E reset
G1 F6000 ;Set feedrate

;Finish Start Gcode for Dagoma DiscoEasy 200

G92 E0
G92 E0
G1 F3000 E-3.5
;LAYER_COUNT:10
;LAYER:0
M107
G0 F1285.7 X36.581 Y38.152 Z0.26
;TYPE:SKIRT
G1 F3000 E0
G1 F900 X36.996 Y37.782 E0.02128
G1 X37.46 Y37.474 E0.04259
G1 X37.995 Y37.224 E0.06519
G1 X38.781 Y36.928 E0.09733
G1 X39.752 Y36.579 E0.13682
G1 X41.256 Y36.064 E0.19766
G1 X42.205 Y35.757 E0.23583
G1 X43.778 Y35.273 E0.29881
G1 X44.773 Y34.984 E0.33846
G1 X46.311 Y34.564 E0.39948
G1 X47.258 Y34.322 E0.43688
G1 X48.91 Y33.926 E0.50189
G1 X49.846 Y33.717 E0.5386
G1 X51.435 Y33.388 E0.6007
G1 X52.47 Y33.191 E0.64102
G1 X54.017 Y32.921 E0.70112
G1 X55.049 Y32.759 E0.74109
G1 X56.646 Y32.531 E0.80283
G1 X57.681 Y32.401 E0.84275
G1 X59.258 Y32.228 E0.90346
G1 X60.262 Y32.134 E0.94205
G1 X61.881 Y32.006 E1.0042
G1 X62.906 Y31.943 E1.0435
G1 X64.513 Y31.868 E1.10507
G1 X65.54 Y31.835 E1.14439
G1 X67.105 Y31.811 E1.20429
G1 X68.158 Y31.811 E1.24459
G1 X69.789 Y31.837 E1.30702
G1 X70.807 Y31.87 E1.346
G1 X72.415 Y31.946 E1.4076
G1 X73.447 Y32.011 E1.44717
G1 X75.057 Y32.139 E1.50898
G1 X76.026 Y32.23 E1.54623
G1 X77.694 Y32.415 E1.61045
G1 X78.683 Y32.541 E1.64861
G1 X80.282 Y32.769 E1.71042
G1 X81.214 Y32.917 E1.74653
G1 X82.939 Y33.218 E1.81355
G1 X83.848 Y33.392 E1.84896
G1 X85.483 Y33.731 E1.91287
G1 X86.432 Y33.944 E1.95009
G1 X88.032 Y34.328 E2.01306
G1 X89.04 Y34.587 E2.05289
G1 X90.543 Y34.999 E2.11253
G1 X91.556 Y35.293 E2.15289
G1 X93.1 Y35.769 E2.21473
G1 X94.03 Y36.072 E2.25216
G1 X95.611 Y36.614 E2.31612
G1 X96.548 Y36.952 E2.35424
G1 X98.038 Y37.515 E2.4152
G1 X98.983 Y37.89 E2.4541
G1 X100.553 Y38.541 E2.51915
G1 X101.449 Y38.93 E2.55653
G1 X102.874 Y39.574 E2.61637
G1 X103.797 Y40.01 E2.65544
G1 X105.323 Y40.757 E2.72046
G1 X106.167 Y41.188 E2.75673
G1 X107.629 Y41.962 E2.82003
G1 X108.484 Y42.432 E2.85737
G1 X109.929 Y43.257 E2.92105
G1 X110.785 Y43.764 E2.95912
G1 X112.155 Y44.605 E3.02064
G1 X113.018 Y45.152 E3.05975
G1 X114.392 Y46.055 E3.12267
G1 X115.204 Y46.608 E3.16026
G1 X116.542 Y47.549 E3.22286
G1 X117.381 Y48.159 E3.26256
G1 X118.645 Y49.109 E3.32307
G1 X119.435 Y49.722 E3.36134
G1 X120.742 Y50.769 E3.42543
G1 X121.483 Y51.381 E3.46221
G1 X122.744 Y52.461 E3.52574
G1 X123.498 Y53.126 E3.56422
G1 X124.704 Y54.224 E3.62664
G1 X125.411 Y54.889 E3.66378
G1 X126.553 Y55.995 E3.72462
G1 X127.312 Y56.754 E3.7657
G1 X128.456 Y57.936 E3.82865
G1 X129.114 Y58.637 E3.86544
G1 X130.223 Y59.856 E3.92851
G1 X130.885 Y60.607 E3.96682
G1 X131.967 Y61.875 E4.03061
G1 X132.573 Y62.609 E4.06704
G1 X133.624 Y63.921 E4.13137
G1 X134.233 Y64.708 E4.16946
G1 X135.187 Y65.978 E4.23024
G1 X135.792 Y66.814 E4.26974
G1 X136.734 Y68.153 E4.33239
G1 X137.292 Y68.974 E4.37038
G1 X138.183 Y70.332 E4.43254
G1 X138.748 Y71.222 E4.47288
G1 X139.559 Y72.546 E4.5323
G1 X140.091 Y73.448 E4.57237
G1 X140.898 Y74.864 E4.63475
G1 X141.371 Y75.726 E4.67238
G1 X142.15 Y77.197 E4.73608
G1 X142.578 Y78.039 E4.77222
G1 X143.323 Y79.561 E4.83707
G1 X143.736 Y80.439 E4.87421
G1 X144.422 Y81.96 E4.93806
G1 X144.798 Y82.83 E4.97433
G1 X145.437 Y84.373 E5.03824
G1 X145.813 Y85.324 E5.07738
G1 X146.377 Y86.817 E5.13846
G1 X146.712 Y87.751 E5.17643
G1 X147.254 Y89.336 E5.24054
G1 X147.549 Y90.245 E5.27711
G1 X148.036 Y91.83 E5.34056
G1 X148.309 Y92.77 E5.37802
G1 X148.75 Y94.383 E5.44202
G1 X148.994 Y95.336 E5.47967
G1 X149.377 Y96.933 E5.54252
G1 X149.588 Y97.883 E5.57976
G1 X149.926 Y99.515 E5.64354
G1 X150.1 Y100.43 E5.67918
G1 X150.4 Y102.153 E5.74611
G1 X150.547 Y103.085 E5.78222
G1 X150.775 Y104.684 E5.84403
G1 X150.899 Y105.671 E5.8821
G1 X151.083 Y107.341 E5.9464
G1 X151.173 Y108.299 E5.98322
G1 X151.302 Y109.949 E6.04656
G1 X151.364 Y110.934 E6.08433
G1 X151.44 Y112.567 E6.14689
G1 X151.472 Y113.594 E6.18621
G1 X151.496 Y115.128 E6.24493
G1 X151.496 Y116.223 E6.28683
G1 X151.47 Y117.816 E6.3478
G1 X151.438 Y118.846 E6.38724
G1 X151.36 Y120.475 E6.44965
G1 X151.299 Y121.454 E6.48719
G1 X151.168 Y123.102 E6.55046
G1 X151.073 Y124.101 E6.58886
G1 X150.892 Y125.732 E6.65166
G1 X150.767 Y126.721 E6.68981
G1 X150.542 Y128.3 E6.75085
G1 X150.375 Y129.354 E6.79169
G1 X150.105 Y130.897 E6.85164
G1 X149.908 Y131.93 E6.89188
G1 X149.577 Y133.523 E6.95415
G1 X149.368 Y134.453 E6.99062
G1 X148.971 Y136.106 E7.05568
G1 X148.727 Y137.059 E7.09333
G1 X148.306 Y138.592 E7.15417
G1 X148.016 Y139.59 E7.19394
G1 X147.532 Y141.16 E7.25682
G1 X147.223 Y142.109 E7.29501
G1 X146.709 Y143.611 E7.35576
G1 X146.366 Y144.563 E7.39449
G1 X145.768 Y146.144 E7.45918
G1 X145.424 Y147.011 E7.49487
G1 X144.774 Y148.578 E7.5598
G1 X144.376 Y149.497 E7.59812
G1 X143.734 Y150.919 E7.65783
G1 X143.286 Y151.868 E7.69799
G1 X142.572 Y153.325 E7.76008
G1 X142.1 Y154.252 E7.79989
G1 X141.357 Y155.653 E7.86058
G1 X140.868 Y156.542 E7.89941
G1 X140.061 Y157.955 E7.96168
G1 X139.543 Y158.83 E8.0006
G1 X138.696 Y160.212 E8.06263
G1 X138.163 Y161.05 E8.10064
G1 X137.243 Y162.451 E8.16478
G1 X136.696 Y163.252 E8.2019
G1 X135.764 Y164.579 E8.26396
G1 X135.148 Y165.425 E8.30401
G1 X134.198 Y166.689 E8.36452
G1 X133.572 Y167.496 E8.4036
G1 X132.559 Y168.761 E8.46562
G1 X131.898 Y169.56 E8.50531
G1 X130.867 Y170.767 E8.56606
G1 X130.181 Y171.543 E8.60569
G1 X129.083 Y172.749 E8.66811
G1 X128.418 Y173.456 E8.70526
G1 X127.312 Y174.598 E8.7661
G1 X126.53 Y175.379 E8.80839
G1 X125.397 Y176.476 E8.86874
G1 X124.629 Y177.196 E8.90903
G1 X123.477 Y178.245 E8.96866
G1 X122.7 Y178.929 E9.00827
G1 X121.431 Y180.012 E9.07212
G1 X120.689 Y180.624 E9.10893
G1 X119.407 Y181.651 E9.17179
G1 X118.624 Y182.26 E9.20975
G1 X117.302 Y183.251 E9.27298
G1 X116.509 Y183.828 E9.31051
G1 X115.126 Y184.798 E9.37516
G1 X114.34 Y185.331 E9.4115
G1 X112.975 Y186.227 E9.47399
G1 X112.085 Y186.792 E9.51433
G1 X110.761 Y187.603 E9.57375
G1 X109.859 Y188.135 E9.61383
G1 X108.443 Y188.942 E9.6762
G1 X107.581 Y189.415 E9.71383
G1 X106.11 Y190.194 E9.77753
G1 X105.268 Y190.622 E9.81367
G1 X103.744 Y191.368 E9.87861
G1 X102.868 Y191.78 E9.91566
G1 X101.347 Y192.466 E9.97951
G1 X100.477 Y192.842 E10.01578
G1 X98.933 Y193.481 E10.07973
G1 X97.94 Y193.874 E10.1206
G1 X97.291 Y194.121 E10.14718
G1 X96.758 Y194.281 E10.16847
G1 X96.208 Y194.363 E10.18975
G1 X95.652 Y194.365 E10.21103
G1 X95.101 Y194.288 E10.23232
G1 X94.566 Y194.132 E10.25365
G1 X94.06 Y193.902 E10.27492
G1 X93.592 Y193.602 E10.29619
G1 X93.171 Y193.237 E10.31752
G1 X92.819 Y192.833 E10.33802
G1 X92.399 Y192.262 E10.36515
G1 X90.709 Y190.023 E10.4725
G1 X89.042 Y187.941 E10.57457
G1 X87.265 Y185.847 E10.67968
G1 X85.452 Y183.828 E10.78352
G1 X83.582 Y181.861 E10.88739
G1 X83.241 Y181.52 E10.90584
G1 X82.671 Y180.931 E10.93721
G1 X82.314 Y180.504 E10.95851
G1 X82.022 Y180.031 E10.97978
G1 X81.853 Y179.661 E10.99535
G1 X81.57 Y178.946 E11.02478
G1 X72.675 Y155.405 E11.98785
G1 X72.437 Y154.745 E12.0147
G1 X72.286 Y154.21 E12.03597
G1 X72.214 Y153.658 E12.05728
G1 X72.212 Y153.049 E12.08058
G1 X72.23 Y150.307 E12.18552
G1 X72.169 Y147.591 E12.28949
G1 X72.033 Y144.879 E12.3934
G1 X71.82 Y142.174 E12.49724
G1 X71.529 Y139.469 E12.60136
G1 X71.159 Y136.742 E12.70668
G1 X70.734 Y134.165 E12.80663
G1 X70.698 Y133.96 E12.81459
G1 X70.591 Y133.313 E12.83969
G1 X70.071 Y130.634 E12.94413
G1 X69.479 Y127.992 E13.04774
G1 X68.82 Y125.393 E13.15035
G1 X68.068 Y122.74 E13.25588
G1 X67.247 Y120.135 E13.36041
G1 X66.353 Y117.555 E13.4649
G1 X65.419 Y115.086 E13.56593
G1 X64.36 Y112.505 E13.67269
G1 X63.257 Y110.026 E13.77653
G1 X62.09 Y107.586 E13.88004
G1 X60.852 Y105.18 E13.98359
G1 X59.531 Y102.776 E14.08856
G1 X58.146 Y100.421 E14.19312
G1 X57.746 Y99.775 E14.22219
G1 X56.265 Y97.414 E14.32885
G1 X54.774 Y95.18 E14.43164
G1 X53.179 Y92.931 E14.53716
G1 X51.563 Y90.784 E14.63999
G1 X49.857 Y88.646 E14.74467
G1 X48.116 Y86.586 E14.84789
G1 X46.425 Y84.691 E14.94509
G1 X46.145 Y84.385 E14.96096
G1 X45.8 Y83.949 E14.98224
G1 X45.521 Y83.467 E15.00355
G1 X45.4 Y83.192 E15.01505
G1 X45.116 Y82.473 E15.04463
G1 X36.241 Y58.982 E16.00564
G1 X35.986 Y58.278 E16.03429
G1 X35.834 Y57.742 E16.05562
G1 X35.761 Y57.191 E16.07689
G1 X35.759 Y56.767 E16.09311
G1 X35.827 Y55.386 E16.14603
G1 X35.839 Y55.205 E16.15297
G1 X35.935 Y52.461 E16.25805
G1 X35.952 Y49.76 E16.36141
G1 X35.893 Y47.049 E16.46519
G1 X35.757 Y44.332 E16.5693
G1 X35.503 Y41.114 E16.69283
G1 X35.494 Y40.651 E16.71055
G1 X35.562 Y40.099 E16.73184
G1 X35.709 Y39.562 E16.75314
G1 X35.931 Y39.052 E16.77443
G1 X36.224 Y38.579 E16.79572
G1 X36.581 Y38.152 E16.81702
G0 F1285.7 X36.937 Y38.292
G1 F900 X37.349 Y37.957 E16.83734
G1 X37.806 Y37.687 E16.85766
G1 X38.118 Y37.551 E16.87068
G1 X38.899 Y37.257 E16.90262
G1 X39.865 Y36.91 E16.9419
G1 X41.364 Y36.397 E17.00253
G1 X42.308 Y36.091 E17.04051
G1 X43.875 Y35.609 E17.10325
G1 X44.865 Y35.322 E17.1427
G1 X46.398 Y34.903 E17.20352
G1 X47.34 Y34.662 E17.24073
G1 X48.987 Y34.267 E17.30554
G1 X49.917 Y34.059 E17.34201
G1 X51.501 Y33.732 E17.40391
G1 X52.53 Y33.535 E17.44401
G1 X54.071 Y33.267 E17.50386
G1 X55.099 Y33.105 E17.54369
G1 X56.69 Y32.879 E17.60519
G1 X57.72 Y32.749 E17.64492
G1 X59.291 Y32.576 E17.7054
G1 X60.29 Y32.483 E17.7438
G1 X61.903 Y32.356 E17.80572
G1 X62.922 Y32.293 E17.84479
G1 X64.524 Y32.218 E17.90617
G1 X65.545 Y32.185 E17.94526
G1 X67.11 Y32.161 E18.00516
G1 X68.153 Y32.161 E18.04507
G1 X69.778 Y32.187 E18.10727
G1 X70.791 Y32.22 E18.14606
G1 X72.394 Y32.296 E18.20747
G1 X73.419 Y32.36 E18.24677
G1 X75.025 Y32.487 E18.30843
G1 X75.988 Y32.578 E18.34545
G1 X77.65 Y32.763 E18.40944
G1 X78.634 Y32.887 E18.4474
G1 X80.227 Y33.114 E18.50898
G1 X81.154 Y33.261 E18.5449
G1 X82.873 Y33.562 E18.61168
G1 X83.777 Y33.735 E18.64691
G1 X85.406 Y34.073 E18.71057
G1 X86.351 Y34.284 E18.74763
G1 X87.945 Y34.667 E18.81037
G1 X88.948 Y34.925 E18.85
G1 X90.445 Y35.335 E18.9094
G1 X91.453 Y35.628 E18.94957
G1 X92.991 Y36.102 E19.01116
G1 X93.917 Y36.403 E19.04843
G1 X95.493 Y36.944 E19.11219
G1 X96.424 Y37.279 E19.15006
G1 X97.909 Y37.84 E19.21081
G1 X98.849 Y38.213 E19.24951
G1 X100.413 Y38.862 E19.31431
G1 X101.305 Y39.249 E19.35152
G1 X102.724 Y39.89 E19.41111
G1 X103.643 Y40.324 E19.45001
G1 X105.164 Y41.069 E19.51482
G1 X106.004 Y41.497 E19.5509
G1 X107.46 Y42.268 E19.61395
G1 X108.311 Y42.736 E19.65112
G1 X109.751 Y43.558 E19.71457
G1 X110.602 Y44.062 E19.75242
G1 X111.968 Y44.9 E19.81375
G1 X112.826 Y45.445 E19.85265
G1 X114.196 Y46.344 E19.91536
G1 X115.003 Y46.894 E19.95273
G1 X116.336 Y47.832 E20.01511
G1 X117.171 Y48.439 E20.05462
G1 X118.431 Y49.385 E20.11492
G1 X119.217 Y49.995 E20.15299
G1 X120.519 Y51.038 E20.21683
G1 X121.256 Y51.647 E20.25342
G1 X122.512 Y52.723 E20.31672
G1 X123.262 Y53.384 E20.35497
G1 X124.464 Y54.479 E20.4172
G1 X125.167 Y55.141 E20.45415
G1 X126.35 Y56.286 E20.51716
G1 X127.06 Y56.998 E20.55564
G1 X128.201 Y58.176 E20.6184
G1 X128.856 Y58.873 E20.65501
G1 X129.961 Y60.088 E20.71786
G1 X130.619 Y60.835 E20.75595
G1 X131.698 Y62.098 E20.81952
G1 X132.3 Y62.828 E20.85573
G1 X133.348 Y64.135 E20.91985
G1 X133.953 Y64.918 E20.95771
G1 X134.903 Y66.183 E21.01826
G1 X135.506 Y67.015 E21.05758
G1 X136.444 Y68.35 E21.12002
G1 X136.999 Y69.166 E21.15779
G1 X137.887 Y70.519 E21.21972
G1 X138.45 Y71.405 E21.25989
G1 X139.257 Y72.724 E21.31907
G1 X139.787 Y73.621 E21.35894
G1 X140.591 Y75.033 E21.42113
G1 X141.062 Y75.89 E21.45855
G1 X141.838 Y77.356 E21.52203
G1 X142.264 Y78.192 E21.55793
G1 X143.007 Y79.71 E21.62261
G1 X143.417 Y80.583 E21.65952
G1 X144.101 Y82.099 E21.72317
G1 X144.475 Y82.964 E21.75924
G1 X145.111 Y84.502 E21.82293
G1 X145.485 Y85.448 E21.86186
G1 X146.047 Y86.935 E21.92269
G1 X146.381 Y87.864 E21.96047
G1 X146.921 Y89.444 E22.02437
G1 X147.214 Y90.348 E22.06074
G1 X147.7 Y91.927 E22.12397
G1 X147.971 Y92.862 E22.16122
G1 X148.411 Y94.471 E22.22506
G1 X148.654 Y95.417 E22.26244
G1 X149.035 Y97.01 E22.32512
G1 X149.246 Y97.954 E22.36214
G1 X149.582 Y99.581 E22.42572
G1 X149.756 Y100.49 E22.46113
G1 X150.055 Y102.208 E22.52787
G1 X150.201 Y103.134 E22.56374
G1 X150.427 Y104.728 E22.62536
G1 X150.551 Y105.71 E22.66324
G1 X150.734 Y107.374 E22.7273
G1 X150.824 Y108.326 E22.76389
G1 X150.953 Y109.97 E22.827
G1 X151.014 Y110.95 E22.86458
G1 X151.09 Y112.578 E22.92695
G1 X151.122 Y113.6 E22.96608
G1 X151.146 Y115.134 E23.02479
G1 X151.146 Y116.217 E23.06624
G1 X151.12 Y117.805 E23.12702
G1 X151.088 Y118.83 E23.16627
G1 X151.011 Y120.453 E23.22845
G1 X150.95 Y121.426 E23.26576
G1 X150.819 Y123.069 E23.32883
G1 X150.726 Y124.062 E23.367
G1 X150.545 Y125.688 E23.42961
G1 X150.42 Y126.672 E23.46757
G1 X150.196 Y128.246 E23.52841
G1 X150.03 Y129.293 E23.56898
G1 X149.761 Y130.831 E23.62873
G1 X149.565 Y131.859 E23.66878
G1 X149.236 Y133.446 E23.73081
G1 X149.028 Y134.372 E23.76713
G1 X148.632 Y136.019 E23.83196
G1 X148.389 Y136.967 E23.86941
G1 X147.97 Y138.495 E23.93004
G1 X147.682 Y139.487 E23.96957
G1 X147.199 Y141.052 E24.03225
G1 X146.892 Y141.996 E24.07024
G1 X146.379 Y143.492 E24.13077
G1 X146.038 Y144.439 E24.16929
G1 X145.442 Y146.016 E24.2338
G1 X145.101 Y146.877 E24.26924
G1 X144.453 Y148.439 E24.33396
G1 X144.057 Y149.353 E24.37208
G1 X143.417 Y150.77 E24.43158
G1 X142.972 Y151.714 E24.47152
G1 X142.26 Y153.166 E24.53341
G1 X141.79 Y154.088 E24.57301
G1 X141.051 Y155.484 E24.63346
G1 X140.563 Y156.368 E24.6721
G1 X139.76 Y157.777 E24.73417
G1 X139.245 Y158.647 E24.77286
G1 X138.401 Y160.024 E24.83467
G1 X137.87 Y160.858 E24.8725
G1 X136.954 Y162.253 E24.93637
G1 X136.41 Y163.051 E24.97333
G1 X135.481 Y164.373 E25.03517
G1 X134.868 Y165.215 E25.07502
G1 X133.922 Y166.475 E25.13532
G1 X133.299 Y167.278 E25.17422
G1 X132.29 Y168.538 E25.23599
G1 X131.632 Y169.333 E25.27548
G1 X130.604 Y170.535 E25.33601
G1 X129.923 Y171.307 E25.37541
G1 X128.828 Y172.509 E25.43763
G1 X128.166 Y173.212 E25.47459
G1 X127.021 Y174.395 E25.53759
G1 X126.287 Y175.128 E25.57729
G1 X125.158 Y176.221 E25.63743
G1 X124.393 Y176.938 E25.67755
G1 X123.246 Y177.982 E25.73691
G1 X122.472 Y178.663 E25.77636
G1 X121.208 Y179.742 E25.83996
G1 X120.47 Y180.351 E25.87658
G1 X119.192 Y181.375 E25.93925
G1 X118.413 Y181.98 E25.977
G1 X117.096 Y182.968 E26.04001
G1 X116.308 Y183.541 E26.07729
G1 X114.929 Y184.508 E26.14175
G1 X114.148 Y185.038 E26.17787
G1 X112.788 Y185.931 E26.24013
G1 X111.902 Y186.494 E26.28031
G1 X110.583 Y187.301 E26.33948
G1 X109.686 Y187.831 E26.37935
G1 X108.274 Y188.635 E26.44154
G1 X107.417 Y189.106 E26.47896
G1 X105.951 Y189.882 E26.54244
G1 X105.115 Y190.308 E26.57835
G1 X103.595 Y191.051 E26.64309
G1 X102.724 Y191.461 E26.67993
G1 X101.208 Y192.145 E26.74358
G1 X100.343 Y192.519 E26.77965
G1 X98.804 Y193.156 E26.84339
G1 X97.816 Y193.546 E26.88404
G1 X97.167 Y193.793 E26.91061
G1 X96.658 Y193.944 E26.93093
G1 X96.132 Y194.017 E26.95126
G1 X95.602 Y194.01 E26.97154
G1 X95.078 Y193.924 E26.99186
G1 X94.574 Y193.76 E27.01214
G1 X94.099 Y193.522 E27.03248
G1 X93.666 Y193.215 E27.05279
G1 X93.131 Y192.663 E27.08221
G1 X93.034 Y192.537 E27.08829
G1 X92.648 Y192.01 E27.11329
G1 X91.012 Y189.843 E27.2172
G1 X89.288 Y187.689 E27.32279
G1 X87.544 Y185.635 E27.42591
G1 X85.718 Y183.6 E27.53054
G1 X83.835 Y181.62 E27.63511
G1 X83.493 Y181.276 E27.65367
G1 X82.923 Y180.687 E27.68504
G1 X82.584 Y180.279 E27.70534
G1 X82.309 Y179.825 E27.72565
G1 X82.178 Y179.532 E27.73794
G1 X81.898 Y178.822 E27.76714
G1 X73.004 Y155.287 E28.72998
G1 X72.766 Y154.627 E28.75683
G1 X72.624 Y154.115 E28.77717
G1 X72.557 Y153.376 E28.80557
G1 X72.562 Y153.054 E28.81789
