;FLAVOR:Marlin
;TIME:7030
;Filament used: 11.7767m
;Layer height: 0.3
;MINX:56.39
;MINY:45.208
;MINZ:0.26
;MAXX:155.271
;MAXY:162.691
;MAXZ:29.96
;Generated with Cura_SteamEngine 4.9.1
M82 ;absolute extrusion mode
;Begin Start Gcode for Dagoma DiscoEasy 200
;Sliced: 26-07-2021 17:34:36
;Initial extruder: 0

G90 ;Absolute positioning
M106 S255 ;Fan on full
G28 X Y ;Home stop X Y
G1 X100 ;Centre back during cooldown in case of oozing
M109 R90 ;Cooldown in case too hot
G28 ;Centre
G29 ;Auto-level
M104 S205 ;Pre-heat
M107 ;Fan off
G0 X100 Y5 Z0.5 ;Front centre for degunk
M109 S205 ;Wait for initial temp
M83 ;E Relative
G1 E10 F200 ;Degunk
G1 E-3 F5000 ;Retract
G0 Z3 ;Withdraw
M82 ;E absolute
G92 E0 ;E reset
G1 F6000 ;Set feedrate

;Finish Start Gcode for Dagoma DiscoEasy 200

G92 E0
G92 E0
G1 F3000 E-3.5
;LAYER_COUNT:100
;LAYER:0
M107
G0 F1285.7 X67.489 Y69.877 Z0.26
;TYPE:SKIRT
G1 F3000 E0
G1 F900 X67.851 Y69.617 E0.01706
G1 X68.814 Y69.035 E0.06012
G1 X108.887 Y45.885 E1.8312
G1 X109.446 Y45.573 E1.8557
G1 X109.882 Y45.375 E1.87403
G1 X110.345 Y45.252 E1.89236
G1 X110.823 Y45.208 E1.91073
G1 X111.196 Y45.227 E1.92502
G1 X111.669 Y45.307 E1.94338
G1 X112.322 Y45.564 E1.97024
G1 X112.668 Y45.752 E1.98531
G1 X120.306 Y50.163 E2.32285
G1 X120.903 Y50.52 E2.34947
G1 X121.292 Y50.799 E2.36779
G1 X121.637 Y51.148 E2.38657
G1 X122.155 Y51.77 E2.41755
G1 X122.948 Y52.752 E2.46585
G1 X124.696 Y54.795 E2.56875
G1 X126.554 Y56.845 E2.67463
G1 X128.451 Y58.824 E2.77954
G1 X130.432 Y60.777 E2.886
G1 X131.828 Y62.077 E2.959
G1 X132.425 Y62.704 E2.99214
G1 X132.679 Y63.111 E3.0105
G1 X132.877 Y63.608 E3.03097
G1 X133.012 Y64.145 E3.05216
G1 X133.444 Y66.812 E3.15555
G1 X133.957 Y69.501 E3.26032
G1 X134.554 Y72.215 E3.36666
G1 X135.204 Y74.817 E3.4693
G1 X135.959 Y77.508 E3.57626
G1 X136.768 Y80.108 E3.68047
G1 X137.661 Y82.715 E3.78593
G1 X138.631 Y85.305 E3.89177
G1 X139.671 Y87.858 E3.99727
G1 X140.765 Y90.343 E4.10117
G1 X141.955 Y92.853 E4.20748
G1 X143.187 Y95.27 E4.3113
G1 X144.513 Y97.7 E4.41724
G1 X145.764 Y99.851 E4.51247
G1 X146.464 Y101.019 E4.56458
G1 X146.675 Y101.449 E4.58291
G1 X146.812 Y101.908 E4.60124
G1 X146.862 Y102.243 E4.6142
G1 X146.989 Y103.685 E4.6696
G1 X146.997 Y103.796 E4.67386
G1 X147.278 Y106.524 E4.77881
G1 X147.637 Y109.263 E4.88453
G1 X148.074 Y111.986 E4.99007
G1 X148.585 Y114.689 E5.09534
G1 X149.163 Y117.325 E5.19862
G1 X149.832 Y120.02 E5.30488
G1 X150.574 Y122.678 E5.41049
G1 X151.384 Y125.292 E5.51522
G1 X152.256 Y127.853 E5.61876
G1 X153.233 Y130.473 E5.72577
G1 X154.707 Y134.049 E5.87379
G1 X154.999 Y134.721 E5.90183
G1 X155.173 Y135.243 E5.92289
G1 X155.262 Y135.713 E5.94119
G1 X155.271 Y136.193 E5.95957
G1 X155.16 Y136.821 E5.98397
G1 X154.941 Y137.563 E6.01358
G1 X154.567 Y138.769 E6.0619
G1 X153.822 Y141.437 E6.16791
G1 X153.164 Y144.083 E6.27225
G1 X152.576 Y146.761 E6.37718
G1 X152.062 Y149.473 E6.48282
G1 X151.775 Y151.253 E6.55181
G1 X151.683 Y151.774 E6.57206
G1 X151.561 Y152.237 E6.59039
G1 X151.328 Y152.742 E6.61167
G1 X151.014 Y153.302 E6.63624
G1 X146.803 Y160.594 E6.95849
G1 X146.423 Y161.232 E6.98691
G1 X146.144 Y161.622 E7.00526
G1 X145.805 Y161.96 E7.02358
G1 X145.38 Y162.258 E7.04344
G1 X144.951 Y162.47 E7.06176
G1 X144.492 Y162.608 E7.0801
G1 X143.951 Y162.67 E7.10094
G1 X142.874 Y162.691 E7.14216
G1 X96.652 Y162.691 E8.91106
G1 X95.988 Y162.682 E8.93647
G1 X95.317 Y162.593 E8.96237
G1 X94.758 Y162.409 E8.9849
G1 X94.522 Y162.292 E8.99498
G1 X93.834 Y161.908 E9.02513
G1 X77.627 Y152.555 E9.74123
G1 X77.013 Y152.189 E9.76859
G1 X76.623 Y151.91 E9.78694
G1 X76.285 Y151.57 E9.80529
G1 X76.008 Y151.179 E9.82363
G1 X75.8 Y150.747 E9.84198
G1 X75.639 Y150.129 E9.86642
G1 X75.24 Y147.363 E9.97336
G1 X74.776 Y144.671 E10.07791
G1 X74.239 Y142.015 E10.18161
G1 X73.607 Y139.288 E10.28873
G1 X72.921 Y136.667 E10.39242
G1 X72.145 Y134.01 E10.49835
G1 X71.301 Y131.399 E10.60336
G1 X70.369 Y128.769 E10.71014
G1 X69.405 Y126.279 E10.81232
G1 X68.325 Y123.704 E10.91918
G1 X67.199 Y121.22 E11.02356
G1 X65.988 Y118.738 E11.12924
G1 X64.723 Y116.319 E11.23371
G1 X63.396 Y113.948 E11.33769
G1 X62.861 Y113.023 E11.37859
G1 X62.572 Y112.326 E11.40746
G1 X62.479 Y111.927 E11.42314
G1 X62.307 Y110.899 E11.46303
G1 X61.813 Y108.186 E11.56856
G1 X61.252 Y105.526 E11.6726
G1 X60.606 Y102.845 E11.77814
G1 X59.88 Y100.164 E11.88443
G1 X59.105 Y97.595 E11.98712
G1 X58.224 Y94.948 E12.09388
G1 X57.05 Y91.757 E12.22401
G1 X56.583 Y90.554 E12.27339
G1 X56.447 Y90.094 E12.29175
G1 X56.39 Y89.619 E12.31006
G1 X56.412 Y89.14 E12.32841
G1 X56.514 Y88.672 E12.34674
G1 X56.753 Y88.111 E12.37007
G1 X57.163 Y87.379 E12.40218
G1 X66.515 Y71.203 E13.11724
G1 X66.871 Y70.605 E13.14388
G1 X67.149 Y70.215 E13.1622
G1 X67.489 Y69.877 E13.18055
G0 F1285.7 X67.758 Y70.109
G1 F900 X68.032 Y69.916 E13.19338
G1 X68.943 Y69.364 E13.23414
G1 X109.057 Y46.19 E15.00704
G1 X109.616 Y45.878 E15.03154
G1 X110.026 Y45.695 E15.04873
G1 X110.462 Y45.587 E15.06592
G1 X111.061 Y45.567 E15.08885
G1 X111.609 Y45.654 E15.11009
G1 X112.155 Y45.872 E15.13258
G1 X112.493 Y46.055 E15.14729
G1 X120.126 Y50.463 E15.48462
G1 X120.723 Y50.82 E15.51124
G1 X121.086 Y51.084 E15.52841
G1 X121.368 Y51.372 E15.54384
G1 X121.882 Y51.99 E15.5746
G1 X122.658 Y52.951 E15.62187
G1 X124.452 Y55.047 E15.72745
G1 X126.272 Y57.056 E15.83119
G1 X128.218 Y59.086 E15.93881
G1 X130.195 Y61.034 E16.04503
G1 X131.586 Y62.33 E16.11778
G1 X132.161 Y62.936 E16.14975
G1 X132.392 Y63.321 E16.16694
G1 X132.596 Y63.89 E16.19007
G1 X132.667 Y64.201 E16.20228
G1 X133.104 Y66.899 E16.30687
G1 X133.613 Y69.566 E16.41078
G1 X134.207 Y72.264 E16.51651
G1 X134.874 Y74.936 E16.6219
G1 X135.62 Y77.596 E16.72762
G1 X136.435 Y80.215 E16.83259
G1 X137.338 Y82.852 E16.93926
G1 X138.31 Y85.448 E17.04535
G1 X139.333 Y87.959 E17.14911
G1 X140.461 Y90.521 E17.25624
G1 X141.617 Y92.958 E17.35946
G1 X142.889 Y95.454 E17.46667
G1 X144.201 Y97.858 E17.57148
G1 X145.479 Y100.056 E17.66878
G1 X146.164 Y101.199 E17.71978
G1 X146.359 Y101.603 E17.73694
G1 X146.513 Y102.274 E17.76329
G1 X146.64 Y103.711 E17.8185
G1 X146.648 Y103.822 E17.82276
G1 X146.931 Y106.571 E17.92852
G1 X147.293 Y109.33 E18.03501
G1 X147.726 Y112.031 E18.13969
G1 X148.236 Y114.727 E18.2447
G1 X148.831 Y117.442 E18.35107
G1 X149.491 Y120.097 E18.45576
G1 X150.235 Y122.765 E18.56176
G1 X151.05 Y125.397 E18.66721
G1 X151.938 Y128.001 E18.77249
G1 X152.902 Y130.586 E18.87808
G1 X154.396 Y134.211 E19.02812
G1 X154.678 Y134.86 E19.0552
G1 X154.836 Y135.336 E19.0744
G1 X154.916 Y135.778 E19.09159
G1 X154.918 Y136.227 E19.10877
G1 X154.824 Y136.722 E19.12805
G1 X154.607 Y137.46 E19.15749
G1 X154.225 Y138.691 E19.20682
G1 X153.482 Y141.35 E19.31247
G1 X152.824 Y144 E19.41697
G1 X152.233 Y146.69 E19.52237
G1 X151.714 Y149.427 E19.62898
G1 X151.431 Y151.192 E19.69739
G1 X151.339 Y151.713 E19.71763
G1 X151.221 Y152.147 E19.73484
G1 X151.023 Y152.571 E19.75275
G1 X150.711 Y153.127 E19.77715
G1 X146.502 Y160.415 E20.09923
G1 X146.122 Y161.053 E20.12765
G1 X145.859 Y161.417 E20.14484
G1 X145.536 Y161.728 E20.162
G1 X145.2 Y161.958 E20.17758
G1 X144.796 Y162.155 E20.19478
G1 X144.364 Y162.277 E20.21196
G1 X143.944 Y162.321 E20.22812
G1 X142.923 Y162.341 E20.2672
G1 X96.657 Y162.341 E22.03778
G1 X95.993 Y162.332 E22.06319
G1 X95.404 Y162.254 E22.08593
G1 X95.298 Y162.227 E22.09012
G1 X94.692 Y161.986 E22.11507
G1 X94.009 Y161.605 E22.145
G1 X77.806 Y152.254 E22.86094
G1 X77.192 Y151.888 E22.88829
G1 X76.828 Y151.625 E22.90548
G1 X76.517 Y151.301 E22.92267
G1 X76.268 Y150.928 E22.93983
G1 X76.089 Y150.516 E22.95702
G1 X75.986 Y150.079 E22.9742
G1 X75.589 Y147.323 E23.08076
G1 X75.122 Y144.617 E23.18585
G1 X74.58 Y141.935 E23.29056
G1 X73.951 Y139.221 E23.39718
G1 X73.254 Y136.557 E23.50256
G1 X72.479 Y133.904 E23.60833
G1 X71.632 Y131.284 E23.71371
G1 X70.709 Y128.68 E23.81944
G1 X69.729 Y126.147 E23.92338
G1 X68.652 Y123.578 E24.02998
G1 X67.496 Y121.029 E24.13709
G1 X66.3 Y118.578 E24.24146
G1 X65.026 Y116.143 E24.34663
G1 X63.719 Y113.808 E24.44904
G1 X63.164 Y112.848 E24.49148
G1 X62.911 Y112.236 E24.51682
G1 X62.825 Y111.87 E24.53121
G1 X62.653 Y110.842 E24.5711
G1 X62.166 Y108.163 E24.6753
G1 X61.593 Y105.448 E24.78149
G1 X60.943 Y102.748 E24.88777
G1 X60.218 Y100.073 E24.99383
G1 X59.437 Y97.484 E25.09732
G1 X58.559 Y94.846 E25.20372
G1 X57.378 Y91.636 E25.33462
G1 X56.909 Y90.427 E25.38425
G1 X56.784 Y89.996 E25.40142
G1 X56.738 Y89.549 E25.41862
G1 X56.772 Y89.102 E25.43577
G1 X56.884 Y88.667 E25.45296
G1 X57.059 Y88.282 E25.46915
G1 X57.466 Y87.554 E25.50107
G1 X66.815 Y71.382 E26.21594
G1 X67.171 Y70.784 E26.24257
G1 X67.434 Y70.421 E26.25972
G1 X67.758 Y70.109 E26.27694
G0 F1285.7 X67.719 Y70.627
G1 F900 X68.214 Y70.216 E26.30156
G1 X69.164 Y69.641 E26.34406
G1 X109.228 Y46.496 E28.11475
G1 X109.787 Y46.184 E28.13925
G1 X110.169 Y46.017 E28.1552
G1 X110.575 Y45.925 E28.17113
G1 X111.031 Y45.916 E28.18859
G1 X111.547 Y46 E28.20859
G1 X112.266 Y46.329 E28.23885
G1 X119.918 Y50.746 E28.57698
G1 X120.543 Y51.12 E28.60485
G1 X120.879 Y51.367 E28.62081
G1 X121.099 Y51.596 E28.63296
G1 X121.61 Y52.21 E28.66353
G1 X122.383 Y53.168 E28.71064
G1 X124.193 Y55.282 E28.81715
G1 X126.041 Y57.322 E28.92249
G1 X127.95 Y59.313 E29.02805
G1 X129.94 Y61.275 E29.13499
G1 X131.344 Y62.583 E29.20843
G1 X131.896 Y63.166 E29.23915
G1 X132.103 Y63.528 E29.25511
G1 X132.321 Y64.257 E29.28423
G1 X132.756 Y66.945 E29.38844
G1 X133.27 Y69.638 E29.49336
G1 X133.869 Y72.356 E29.59987
G1 X134.53 Y75.006 E29.70439
G1 X135.284 Y77.694 E29.81123
G1 X136.105 Y80.333 E29.917
G1 X137.011 Y82.977 E30.02396
G1 X137.978 Y85.561 E30.12954
G1 X139.014 Y88.103 E30.23459
G1 X140.139 Y90.657 E30.3414
G1 X141.305 Y93.117 E30.44558
G1 X142.582 Y95.623 E30.55322
G1 X143.896 Y98.032 E30.65823
G1 X145.164 Y100.211 E30.75471
G1 X145.864 Y101.379 E30.80682
G1 X146.043 Y101.755 E30.82276
G1 X146.165 Y102.305 E30.84432
G1 X146.291 Y103.736 E30.89929
G1 X146.298 Y103.837 E30.90317
G1 X146.583 Y106.614 E31.01
G1 X146.944 Y109.362 E31.11607
G1 X147.386 Y112.117 E31.22285
G1 X147.89 Y114.783 E31.32668
G1 X148.485 Y117.5 E31.43313
G1 X149.156 Y120.199 E31.53956
G1 X149.899 Y122.863 E31.6454
G1 X150.717 Y125.503 E31.75117
G1 X151.614 Y128.136 E31.85762
G1 X152.575 Y130.712 E31.96284
G1 X154.072 Y134.345 E32.11321
G1 X154.357 Y135 E32.14055
G1 X154.498 Y135.429 E32.15783
G1 X154.57 Y135.84 E32.1738
G1 X154.563 Y136.256 E32.18972
G1 X154.488 Y136.623 E32.20406
G1 X154.272 Y137.356 E32.2333
G1 X153.901 Y138.552 E32.28122
G1 X153.15 Y141.241 E32.38807
G1 X152.474 Y143.96 E32.49529
G1 X151.889 Y146.625 E32.59971
G1 X151.377 Y149.322 E32.70476
G1 X151.086 Y151.131 E32.77488
G1 X150.994 Y151.652 E32.79513
G1 X150.785 Y152.272 E32.82017
G1 X150.717 Y152.4 E32.82572
G1 X150.408 Y152.952 E32.84993
G1 X146.202 Y160.236 E33.17182
G1 X145.822 Y160.874 E33.20023
G1 X145.575 Y161.21 E33.21619
G1 X145.077 Y161.623 E33.24095
G1 X144.643 Y161.838 E33.25949
G1 X144.24 Y161.943 E33.27543
G1 X143.938 Y161.971 E33.28703
G1 X142.917 Y161.991 E33.32611
G1 X96.662 Y161.991 E35.09627
G1 X95.998 Y161.982 E35.12168
G1 X95.49 Y161.915 E35.14129
G1 X95.384 Y161.888 E35.14548
G1 X94.863 Y161.68 E35.16695
G1 X94.184 Y161.302 E35.19669
G1 X77.985 Y151.953 E35.91245
G1 X77.371 Y151.587 E35.93981
G1 X77.036 Y151.341 E35.95571
G1 X76.753 Y151.034 E35.97169
G1 X76.534 Y150.68 E35.98762
G1 X76.386 Y150.29 E36.00359
G1 X76.332 Y150.029 E36.01379
G1 X75.93 Y147.241 E36.12158
G1 X75.466 Y144.551 E36.22605
G1 X74.923 Y141.862 E36.33103
G1 X74.289 Y139.13 E36.43836
G1 X73.594 Y136.472 E36.5435
G1 X72.816 Y133.809 E36.64968
G1 X71.96 Y131.16 E36.75621
G1 X71.05 Y128.593 E36.86044
G1 X70.04 Y125.982 E36.96758
G1 X68.968 Y123.428 E37.07358
G1 X67.832 Y120.922 E37.17888
G1 X66.601 Y118.398 E37.28634
G1 X65.336 Y115.979 E37.39081
G1 X64.022 Y113.633 E37.49372
G1 X63.467 Y112.673 E37.53615
G1 X63.249 Y112.145 E37.55801
G1 X63.17 Y111.812 E37.57111
G1 X62.998 Y110.784 E37.611
G1 X62.501 Y108.054 E37.71719
G1 X61.943 Y105.407 E37.82072
G1 X61.275 Y102.634 E37.92988
G1 X60.558 Y99.99 E38.03471
G1 X59.769 Y97.374 E38.13928
G1 X58.881 Y94.707 E38.24686
G1 X57.72 Y91.551 E38.37555
G1 X57.235 Y90.301 E38.42686
G1 X57.122 Y89.9 E38.4428
G1 X57.088 Y89.484 E38.45878
G1 X57.134 Y89.07 E38.47472
G1 X57.364 Y88.453 E38.49992
G1 X57.769 Y87.729 E38.53166
G1 X67.116 Y71.561 E39.24636
G1 X67.472 Y70.963 E39.273
G1 X67.719 Y70.627 E39.28896
G0 F1285.7 X69.476 Y72.176
;TYPE:SUPPORT
G1 F900 X110.893 Y48.248 E41.11947
G1 X119.279 Y53.09 E41.49005
G1 X117.175 Y56.732 E41.65102
G1 X117.303 Y57.208 E41.66988
G1 X129.989 Y64.542 E42.23066
G1 X124.349 Y74.307 E42.66221
G1 X111.662 Y66.982 E43.22285
G1 X111.186 Y67.11 E43.24172
G1 X109.079 Y70.757 E43.4029
G1 X100.713 Y65.927 E43.77259
G1 X100.271 Y65.927 E43.78951
G1 X91.774 Y70.831 E44.16496
G1 X96.867 Y62.011 E44.55473
G1 X95.727 Y60.871 E44.61642
G1 X74.818 Y72.944 E45.54041
G1 X74.622 Y73.14 E45.55102
G1 X68.549 Y83.657 E46.01578
G1 X68.92 Y84.028 E46.03586
G1 X59.471 Y89.482 E46.45339
G1 X69.476 Y72.176 E47.21839
G0 F1285.7 X69.554 Y72.323
G1 F900 X75.613 Y72.323 E47.45027
G0 F1285.7 X74.656 Y72.909
G1 F900 X74.656 Y69.345 E47.58666
G0 F1285.7 X73.541 Y69.99
G1 F900 X79.653 Y69.99 E47.82056
G0 F1285.7 X79.322 Y70.182
G1 F900 X79.322 Y66.65 E47.95573
G0 F1285.7 X77.58 Y67.657
G1 F900 X83.693 Y67.657 E48.18967
G0 F1285.7 X83.988 Y67.488
G1 F900 X83.988 Y63.954 E48.32492
G0 F1285.7 X85.656 Y62.991
G1 F900 X91.774 Y62.991 E48.55905
G0 F1285.7 X90.987 Y63.447
G1 F900 X90.987 Y59.911 E48.69437
G0 F1285.7 X89.694 Y60.658
G1 F900 X122.993 Y60.658 E49.96871
G0 F1285.7 X123.649 Y61.039
G1 F900 X123.649 Y73.74 E50.45477
G0 F1285.7 X125.332 Y72.323
G1 F900 X121.195 Y72.323 E50.61309
G0 F1285.7 X121.316 Y72.393
G1 F900 X121.316 Y59.69 E51.09923
G0 F1285.7 X118.983 Y58.341
G1 F900 X118.983 Y71.046 E51.58544
G0 F1285.7 X117.153 Y69.99
G1 F900 X126.679 Y69.99 E51.95
G0 F1285.7 X125.982 Y71.2
G1 F900 X125.982 Y62.388 E52.28723
G0 F1285.7 X127.028 Y62.991
G1 F900 X96.463 Y62.991 E53.45693
G0 F1285.7 X95.653 Y64.393
G1 F900 X95.653 Y68.431 E53.61147
G0 F1285.7 X96.992 Y67.657
G1 F900 X93.769 Y67.657 E53.73481
G0 F1285.7 X93.32 Y68.433
G1 F900 X93.32 Y69.777 E53.78624
G0 F1285.7 X92.95 Y69.99
G1 F900 X92.422 Y69.99 E53.80645
G0 F1285.7 X95.116 Y65.324
G1 F900 X129.374 Y65.324 E55.11749
G0 F1285.7 X128.315 Y63.737
G1 F900 X128.315 Y67.16 E55.24848
G0 F1285.7 X128.026 Y67.657
G1 F900 X113.112 Y67.657 E55.81924
G0 F1285.7 X111.984 Y67.005
G1 F900 X111.984 Y49.041 E56.50671
G0 F1285.7 X111.903 Y48.993
G1 F900 X109.884 Y48.993 E56.58398
G0 F1285.7 X109.651 Y49.128
G1 F900 X109.651 Y69.488 E57.36314
G0 F1285.7 X109.36 Y69.99
G1 F900 X108.03 Y69.99 E57.41404
G0 F1285.7 X107.318 Y69.578
G1 F900 X107.318 Y50.476 E58.14507
G0 F1285.7 X105.846 Y51.326
G1 F900 X115.945 Y51.326 E58.53155
G0 F1285.7 X116.65 Y51.735
G1 F900 X116.65 Y69.699 E59.21902
G0 F1285.7 X114.317 Y68.352
G1 F900 X114.317 Y50.388 E59.9065
G0 F1285.7 X118.983 Y53.081
G1 F900 X118.983 Y53.322 E59.91572
G0 F1285.7 X118.787 Y53.659
G1 F900 X101.808 Y53.659 E60.5655
G0 F1285.7 X102.652 Y53.172
G1 F900 X102.652 Y66.884 E61.09025
G0 F1285.7 X103.99 Y67.657
G1 F900 X110.708 Y67.657 E61.34734
G0 F1285.7 X104.985 Y68.231
G1 F900 X104.985 Y51.824 E61.97523
G0 F1285.7 X100.319 Y54.519
G1 F900 X100.319 Y65.787 E62.40645
G0 F1285.7 X97.986 Y67.084
G1 F900 X97.986 Y55.867 E62.83572
G0 F1285.7 X97.77 Y55.992
G1 F900 X117.44 Y55.992 E63.58848
G0 F1285.7 X118.958 Y58.325
G1 F900 X93.732 Y58.325 E64.55387
G0 F1285.7 X93.32 Y58.563
G1 F900 X93.32 Y62.1 E64.68923
G0 F1285.7 X95.653 Y60.753
G1 F900 X95.653 Y57.215 E64.82463
G0 F1285.7 X88.654 Y61.258
G1 F900 X88.654 Y64.794 E64.95995
G0 F1285.7 X87.733 Y65.324
G1 F900 X81.618 Y65.324 E65.19397
G0 F1285.7 X81.655 Y65.302
G1 F900 X81.655 Y68.835 E65.32917
G0 F1285.7 X76.989 Y67.998
G1 F900 X76.989 Y71.529 E65.4643
G1 F3000 E61.9643
G0 F1285.7 X74.791 Y73.269
G0 X73.585 Y74.656
G1 F3000 E65.4643
G1 F900 X68.205 Y74.656 E65.67019
G0 F1285.7 X67.657 Y75.603
G1 F900 X67.657 Y84.597 E66.01439
G0 F1285.7 X68.682 Y83.988
