;FLAVOR:Marlin
;TIME:25636
;Filament used: 32.3141m
;Layer height: 0.3
;MINX:18.85
;MINY:2.44
;MINZ:0.26
;MAXX:186.141
;MAXY:202.563
;MAXZ:19.76
;Generated with Cura_SteamEngine 4.9.1
M82 ;absolute extrusion mode
;Begin Start Gcode for Dagoma DiscoEasy 200
;Sliced: 08-07-2021 10:21:07
;Initial extruder: 0

G90 ;Absolute positioning
M106 S255 ;Fan on full
G28 X Y ;Home stop X Y
G1 X100 ;Centre back during cooldown in case of oozing
M109 R90 ;Cooldown in case too hot
G28 ;Centre
G29 ;Auto-level
M104 S205 ;Pre-heat
M107 ;Fan off
G0 X100 Y5 Z0.5 ;Front centre for degunk
M109 S205 ;Wait for initial temp
M83 ;E Relative
G1 E10 F200 ;Degunk
G1 E-3 F5000 ;Retract
G0 Z3 ;Withdraw
M82 ;E absolute
G92 E0 ;E reset
G1 F6000 ;Set feedrate

;Finish Start Gcode for Dagoma DiscoEasy 200

G92 E0
G92 E0
G1 F3000 E-3.5
;LAYER_COUNT:66
;LAYER:0
M107
G0 F1285.7 X46.436 Y41.877 Z0.26
;TYPE:SKIRT
G1 F3000 E0
G1 F900 X47.154 Y41.07 E0.04134
G1 X50.795 Y37.111 E0.24718
G1 X51.189 Y36.693 E0.26916
G1 X51.281 Y36.599 E0.27419
G1 X52.035 Y35.852 E0.31481
G1 X55.926 Y32.122 E0.52109
G1 X56.364 Y31.713 E0.54402
G1 X56.46 Y31.626 E0.54898
G1 X57.226 Y30.958 E0.58788
G1 X61.357 Y27.468 E0.79483
G1 X61.884 Y27.037 E0.82089
G1 X62.757 Y26.365 E0.86305
G1 X67.072 Y23.161 E1.06873
G1 X67.635 Y22.758 E1.09522
G1 X68.526 Y22.157 E1.13635
G1 X73.033 Y19.232 E1.34197
G1 X73.64 Y18.851 E1.3694
G1 X74.55 Y18.318 E1.40976
G1 X79.253 Y15.669 E1.61633
G1 X79.741 Y15.402 E1.63762
G1 X79.857 Y15.341 E1.64263
G1 X80.814 Y14.859 E1.68364
G1 X85.691 Y12.502 E1.89093
G1 X86.177 Y12.275 E1.91146
G1 X86.293 Y12.223 E1.91632
G1 X87.278 Y11.803 E1.9573
G1 X92.276 Y9.762 E2.16391
G1 X92.795 Y9.559 E2.18524
G1 X93.942 Y9.15 E2.23184
G1 X99.071 Y7.425 E2.43893
G1 X99.57 Y7.265 E2.45898
G1 X99.685 Y7.23 E2.46358
G1 X100.716 Y6.935 E2.50462
G1 X105.915 Y5.542 E2.7106
G1 X106.592 Y5.373 E2.7373
G1 X107.676 Y5.134 E2.77979
G1 X112.969 Y4.068 E2.98641
G1 X113.473 Y3.973 E3.00604
G1 X113.601 Y3.951 E3.01101
G1 X114.677 Y3.786 E3.05267
G1 X119.985 Y3.059 E3.2577
G1 X120.587 Y2.985 E3.28091
G1 X120.712 Y2.972 E3.28572
G1 X121.762 Y2.877 E3.32607
G1 X127.219 Y2.477 E3.53547
G1 X127.852 Y2.44 E3.55973
G1 X128.408 Y2.447 E3.58101
G1 X128.848 Y2.51 E3.59802
G1 X129.384 Y2.658 E3.6193
G1 X129.985 Y2.923 E3.64444
G1 X130.284 Y3.074 E3.65726
G1 X181.563 Y29.975 E5.87332
G1 X182.165 Y30.302 E5.89954
G1 X182.633 Y30.602 E5.92082
G1 X183.054 Y30.966 E5.94211
G1 X183.418 Y31.386 E5.96338
G1 X183.719 Y31.855 E5.98471
G1 X183.949 Y32.361 E6.00598
G1 X184.104 Y32.896 E6.0273
G1 X184.189 Y33.599 E6.0544
G1 X184.2 Y33.984 E6.06914
G1 X184.313 Y36.713 E6.17366
G1 X184.501 Y39.421 E6.27755
G1 X184.77 Y42.164 E6.38302
G1 X185.105 Y44.812 E6.48517
G1 X185.528 Y47.53 E6.59044
G1 X186.041 Y50.305 E6.69844
G1 X186.073 Y50.468 E6.70479
G1 X186.141 Y51.02 E6.72608
G1 X186.129 Y51.576 E6.74736
G1 X186.037 Y52.125 E6.76866
G1 X185.868 Y52.655 E6.78995
G1 X185.653 Y53.105 E6.80904
G1 X185.286 Y53.762 E6.83784
G1 X158.668 Y99.864 E8.8751
G1 X158.282 Y100.514 E8.90403
G1 X157.964 Y100.97 E8.9253
G1 X157.584 Y101.377 E8.94661
G1 X157.166 Y101.714 E8.96716
G1 X156.767 Y101.992 E8.98577
G1 X155.24 Y103.024 E9.0563
G1 X153.056 Y104.591 E9.15917
G1 X150.918 Y106.219 E9.26201
G1 X148.755 Y107.965 E9.36839
G1 X146.712 Y109.708 E9.47116
G1 X144.704 Y111.527 E9.57485
G1 X142.727 Y113.422 E9.67965
G1 X140.806 Y115.367 E9.78427
G1 X138.976 Y117.33 E9.88698
G1 X137.172 Y119.379 E9.99145
G1 X135.434 Y121.47 E10.09551
G1 X133.746 Y123.62 E10.20011
G1 X132.14 Y125.789 E10.3034
G1 X130.576 Y128.032 E10.40804
G1 X129.09 Y130.296 E10.51168
G1 X127.659 Y132.618 E10.61606
G1 X125.989 Y135.529 E10.7445
G1 X125.541 Y136.34 E10.77995
G1 X120.751 Y144.636 E11.14656
G1 X120.378 Y145.258 E11.17431
G1 X119.93 Y145.863 E11.20312
G1 X119.116 Y146.762 E11.24954
G1 X119.048 Y146.834 E11.25333
G1 X117.263 Y148.857 E11.35657
G1 X115.512 Y150.956 E11.46118
G1 X113.82 Y153.106 E11.56589
G1 X112.223 Y155.258 E11.66844
G1 X110.638 Y157.524 E11.77427
G1 X109.144 Y159.795 E11.8783
G1 X107.728 Y162.085 E11.98134
G1 X106.376 Y164.42 E12.08459
G1 X105.053 Y166.857 E12.19071
G1 X103.846 Y169.241 E12.29298
G1 X102.68 Y171.712 E12.39754
G1 X101.581 Y174.228 E12.50261
G1 X100.574 Y176.719 E12.60543
G1 X99.626 Y179.273 E12.70969
G1 X98.748 Y181.856 E12.81409
G1 X98.603 Y182.324 E12.83285
G1 X98.246 Y183.425 E12.87714
G1 X97.993 Y184.028 E12.90216
G1 X97.908 Y184.186 E12.90903
G1 X97.597 Y184.741 E12.93338
G1 X88.753 Y200.062 E13.61038
G1 X88.39 Y200.672 E13.63755
G1 X88.072 Y201.128 E13.65882
G1 X87.692 Y201.534 E13.6801
G1 X87.257 Y201.882 E13.70142
G1 X86.777 Y202.164 E13.72273
G1 X86.262 Y202.374 E13.74401
G1 X85.722 Y202.508 E13.7653
G1 X85.168 Y202.563 E13.78661
G1 X84.613 Y202.539 E13.80787
G1 X84.066 Y202.435 E13.82918
G1 X83.315 Y202.15 E13.85992
G1 X82.743 Y201.849 E13.88465
G1 X37.302 Y176.891 E15.86869
G1 X36.698 Y176.548 E15.89527
G1 X36.236 Y176.239 E15.91654
G1 X35.822 Y175.867 E15.93784
G1 X35.465 Y175.44 E15.95914
G1 X35.16 Y174.957 E15.98101
G1 X34.978 Y174.644 E15.99486
G1 X32.167 Y169.652 E16.21411
G1 X31.885 Y169.138 E16.23655
G1 X31.82 Y169.015 E16.24187
G1 X31.366 Y168.11 E16.28062
G1 X28.997 Y163.212 E16.48883
G1 X28.72 Y162.61 E16.51419
G1 X28.289 Y161.606 E16.55601
G1 X26.254 Y156.62 E16.7621
G1 X26.051 Y156.101 E16.78343
G1 X25.642 Y154.954 E16.83003
G1 X23.918 Y149.829 E17.03696
G1 X23.75 Y149.307 E17.05795
G1 X23.45 Y148.261 E17.09959
G1 X22.044 Y143.017 E17.30736
G1 X21.86 Y142.28 E17.33643
G1 X21.638 Y141.273 E17.3759
G1 X20.561 Y135.927 E17.5846
G1 X20.466 Y135.423 E17.60422
G1 X20.444 Y135.294 E17.60923
G1 X20.274 Y134.185 E17.65217
G1 X19.552 Y128.911 E17.85588
G1 X19.478 Y128.309 E17.8791
G1 X19.465 Y128.184 E17.88391
G1 X19.37 Y127.134 E17.92425
G1 X18.97 Y121.678 E18.13361
G1 X18.937 Y121.096 E18.15592
G1 X18.907 Y119.97 E18.19903
G1 X18.85 Y114.592 E18.40485
G1 X18.854 Y113.919 E18.43061
G1 X18.893 Y112.843 E18.47181
G1 X19.178 Y107.426 E18.67941
G1 X19.213 Y106.899 E18.69962
G1 X19.223 Y106.775 E18.70438
G1 X19.329 Y105.709 E18.74538
G1 X19.952 Y100.319 E18.95302
G1 X20.018 Y99.809 E18.9727
G1 X20.036 Y99.684 E18.97753
G1 X20.217 Y98.574 E19.02057
G1 X21.171 Y93.275 E19.22663
G1 X21.274 Y92.747 E19.24721
G1 X21.299 Y92.629 E19.25183
G1 X21.539 Y91.577 E19.29312
G1 X22.836 Y86.3 E19.50108
G1 X22.992 Y85.707 E19.52455
G1 X23.311 Y84.622 E19.56783
G1 X24.929 Y79.462 E19.77478
G1 X25.095 Y78.96 E19.79501
G1 X25.469 Y77.926 E19.83709
G1 X27.46 Y72.736 E20.04982
G1 X27.681 Y72.19 E20.07237
G1 X28.126 Y71.176 E20.11474
G1 X30.371 Y66.273 E20.32111
G1 X30.604 Y65.782 E20.34191
G1 X30.659 Y65.671 E20.34665
G1 X31.165 Y64.688 E20.38896
G1 X33.718 Y59.927 E20.59571
G1 X34.033 Y59.361 E20.6205
G1 X34.586 Y58.436 E20.66174
G1 X37.43 Y53.851 E20.86822
G1 X37.728 Y53.385 E20.88939
G1 X38.385 Y52.423 E20.93397
G1 X41.546 Y47.975 E21.1428
G1 X41.877 Y47.523 E21.16424
G1 X41.951 Y47.425 E21.16894
G1 X42.588 Y46.611 E21.20849
G1 X46.007 Y42.389 E21.4164
G1 X46.357 Y41.969 E21.43733
G1 X46.436 Y41.877 E21.44197
G0 F1285.7 X46.626 Y42.193
G1 F900 X47.411 Y41.307 E21.48727
G1 X51.05 Y37.351 E21.69297
G1 X51.444 Y36.933 E21.71495
G1 X51.527 Y36.848 E21.7195
G1 X52.277 Y36.105 E21.7599
G1 X56.165 Y32.378 E21.96602
G1 X56.69 Y31.89 E21.99345
G1 X57.452 Y31.226 E22.03213
G1 X61.579 Y27.738 E22.23892
G1 X62.097 Y27.315 E22.26451
G1 X62.965 Y26.646 E22.30645
G1 X67.276 Y23.445 E22.51194
G1 X67.746 Y23.107 E22.53409
G1 X68.663 Y22.486 E22.57647
G1 X73.18 Y19.553 E22.78258
G1 X73.817 Y19.153 E22.81137
G1 X74.722 Y18.623 E22.8515
G1 X79.421 Y15.976 E23.0579
G1 X79.909 Y15.709 E23.07919
G1 X80.015 Y15.653 E23.08378
G1 X80.966 Y15.174 E23.12453
G1 X85.839 Y12.819 E23.33165
G1 X86.325 Y12.592 E23.35218
G1 X87.357 Y12.149 E23.39516
G1 X92.404 Y10.088 E23.60379
G1 X93.027 Y9.846 E23.62937
G1 X94.054 Y9.482 E23.67106
G1 X99.178 Y7.758 E23.87796
G1 X99.677 Y7.598 E23.89801
G1 X100.806 Y7.273 E23.94297
G1 X106 Y5.881 E24.14876
G1 X106.569 Y5.738 E24.17121
G1 X107.746 Y5.477 E24.21735
G1 X113.034 Y4.412 E24.42378
G1 X113.538 Y4.317 E24.44341
G1 X113.654 Y4.297 E24.44791
G1 X114.725 Y4.133 E24.48938
G1 X120.028 Y3.406 E24.69422
G1 X120.63 Y3.332 E24.71743
G1 X120.743 Y3.32 E24.72178
G1 X121.787 Y3.226 E24.7619
G1 X127.239 Y2.826 E24.9711
G1 X127.872 Y2.789 E24.99537
G1 X128.403 Y2.798 E25.01569
G1 X128.779 Y2.853 E25.03023
G1 X129.29 Y2.996 E25.05054
G1 X129.833 Y3.238 E25.07329
G1 X130.122 Y3.384 E25.08568
G1 X181.396 Y30.282 E27.30153
G1 X181.998 Y30.609 E27.32774
G1 X182.443 Y30.897 E27.34803
G1 X182.841 Y31.249 E27.36836
G1 X183.182 Y31.656 E27.38868
G1 X183.457 Y32.109 E27.40896
G1 X183.661 Y32.599 E27.42928
G1 X183.79 Y33.114 E27.44959
G1 X183.85 Y34.005 E27.48377
G1 X183.962 Y36.719 E27.58772
G1 X184.154 Y39.477 E27.69352
G1 X184.418 Y42.172 E27.79715
G1 X184.76 Y44.875 E27.90142
G1 X185.18 Y47.573 E28.00592
G1 X185.698 Y50.372 E28.11485
G1 X185.73 Y50.535 E28.12121
G1 X185.793 Y51.062 E28.14152
G1 X185.776 Y51.592 E28.16181
G1 X185.679 Y52.114 E28.18213
G1 X185.505 Y52.615 E28.20243
G1 X185.348 Y52.934 E28.21603
G1 X184.983 Y53.587 E28.24466
G1 X158.367 Y99.685 E30.28175
G1 X157.981 Y100.335 E30.31068
G1 X157.676 Y100.769 E30.33098
G1 X157.31 Y101.153 E30.35128
G1 X156.612 Y101.673 E30.38459
G1 X155.05 Y102.73 E30.45677
G1 X152.85 Y104.309 E30.5604
G1 X150.674 Y105.965 E30.66505
G1 X148.556 Y107.674 E30.7692
G1 X146.48 Y109.447 E30.87368
G1 X144.455 Y111.28 E30.97821
G1 X142.483 Y113.17 E31.08274
G1 X140.566 Y115.113 E31.1872
G1 X138.705 Y117.109 E31.29164
G1 X136.905 Y119.152 E31.39584
G1 X135.17 Y121.24 E31.49973
G1 X133.469 Y123.405 E31.6051
G1 X131.851 Y125.59 E31.70915
G1 X130.293 Y127.826 E31.81344
G1 X128.78 Y130.13 E31.91893
G1 X127.371 Y132.417 E32.02172
G1 X125.653 Y135.413 E32.15389
G1 X125.238 Y136.165 E32.18676
G1 X120.451 Y144.456 E32.55315
G1 X120.078 Y145.078 E32.5809
G1 X119.67 Y145.628 E32.60711
G1 X118.862 Y146.522 E32.65322
G1 X118.793 Y146.595 E32.65707
G1 X116.964 Y148.667 E32.76284
G1 X115.249 Y150.725 E32.86536
G1 X113.544 Y152.891 E32.97085
G1 X111.935 Y155.058 E33.07414
G1 X110.356 Y157.316 E33.17958
G1 X108.845 Y159.613 E33.2848
G1 X107.434 Y161.896 E33.38751
G1 X106.063 Y164.263 E33.4922
G1 X104.753 Y166.675 E33.59724
G1 X103.523 Y169.105 E33.70147
G1 X102.357 Y171.578 E33.8061
G1 X101.274 Y174.055 E33.90956
G1 X100.25 Y176.586 E34.01404
G1 X99.299 Y179.149 E34.11866
G1 X98.418 Y181.74 E34.22339
G1 X98.27 Y182.216 E34.24247
G1 X97.913 Y183.317 E34.28677
G1 X97.683 Y183.866 E34.30955
G1 X97.603 Y184.015 E34.31602
G1 X97.294 Y184.566 E34.34019
G1 X88.452 Y199.883 E35.01702
G1 X88.089 Y200.493 E35.04419
G1 X87.784 Y200.927 E35.06449
G1 X87.418 Y201.311 E35.08479
G1 X86.998 Y201.635 E35.10509
G1 X86.534 Y201.892 E35.12539
G1 X86.036 Y202.077 E35.14572
G1 X85.517 Y202.185 E35.16601
G1 X84.987 Y202.214 E35.18632
G1 X84.459 Y202.163 E35.20662
G1 X83.944 Y202.034 E35.22694
G1 X83.473 Y201.837 E35.24648
G1 X82.908 Y201.54 E35.27091
G1 X37.475 Y176.586 E37.2546
G1 X36.871 Y176.243 E37.28118
G1 X36.431 Y175.947 E37.30148
G1 X36.04 Y175.588 E37.32179
G1 X35.595 Y175.001 E37.34998
G1 X35.302 Y174.506 E37.372
G1 X32.474 Y169.484 E37.59256
G1 X32.192 Y168.97 E37.615
G1 X32.133 Y168.858 E37.61984
G1 X31.681 Y167.958 E37.65839
G1 X29.314 Y163.065 E37.8664
G1 X29.081 Y162.562 E37.88761
G1 X28.613 Y161.474 E37.93294
G1 X26.58 Y156.492 E38.13886
G1 X26.338 Y155.869 E38.16444
G1 X25.974 Y154.842 E38.20614
G1 X24.252 Y149.722 E38.41286
G1 X24.049 Y149.087 E38.43837
G1 X23.771 Y148.11 E38.47725
G1 X22.368 Y142.873 E38.68473
G1 X22.225 Y142.304 E38.70719
G1 X21.995 Y141.267 E38.74784
G1 X20.905 Y135.862 E38.95885
G1 X20.81 Y135.358 E38.97847
G1 X20.79 Y135.241 E38.98302
G1 X20.621 Y134.137 E39.02576
G1 X19.899 Y128.868 E39.22928
G1 X19.825 Y128.266 E39.2525
G1 X19.813 Y128.153 E39.25684
G1 X19.719 Y127.109 E39.29696
G1 X19.319 Y121.657 E39.50617
G1 X19.287 Y121.086 E39.52805
G1 X19.257 Y119.967 E39.57089
G1 X19.2 Y114.593 E39.77656
G1 X19.204 Y113.932 E39.80186
G1 X19.243 Y112.862 E39.84284
G1 X19.527 Y107.449 E40.05027
G1 X19.571 Y106.809 E40.07482
G1 X19.676 Y105.749 E40.11559
G1 X20.299 Y100.364 E40.32304
G1 X20.365 Y99.854 E40.34272
G1 X20.552 Y98.695 E40.38765
G1 X21.514 Y93.342 E40.59579
G1 X21.617 Y92.814 E40.61638
G1 X21.865 Y91.718 E40.65938
G1 X23.174 Y86.388 E40.86942
G1 X23.328 Y85.806 E40.89246
G1 X23.645 Y84.727 E40.9355
G1 X25.261 Y79.572 E41.14224
G1 X25.427 Y79.07 E41.16248
G1 X25.82 Y77.986 E41.2066
G1 X27.785 Y72.866 E41.41648
G1 X28.002 Y72.331 E41.43857
G1 X28.444 Y71.321 E41.48076
G1 X30.687 Y66.423 E41.68693
G1 X30.92 Y65.932 E41.70773
G1 X30.97 Y65.831 E41.71204
G1 X31.473 Y64.853 E41.75413
G1 X34.024 Y60.097 E41.96067
G1 X34.277 Y59.64 E41.98066
G1 X34.334 Y59.541 E41.98503
G1 X34.883 Y58.621 E42.02603
G1 X37.725 Y54.04 E42.23234
G1 X38.023 Y53.574 E42.25351
G1 X38.708 Y52.571 E42.29999
G1 X41.828 Y48.181 E42.5061
G1 X42.226 Y47.64 E42.5318
G1 X42.822 Y46.878 E42.56882
G1 X46.276 Y42.613 E42.77885
G1 X46.626 Y42.193 E42.79978
G0 F1285.7 X46.895 Y42.417
G1 F900 X47.632 Y41.585 E42.84231
G1 X51.305 Y37.591 E43.04997
G1 X51.699 Y37.173 E43.07195
G1 X51.774 Y37.096 E43.07606
G1 X52.52 Y36.357 E43.11625
G1 X56.404 Y32.633 E43.32217
G1 X56.842 Y32.224 E43.34511
G1 X57.678 Y31.493 E43.38761
G1 X61.801 Y28.009 E43.59418
G1 X62.311 Y27.592 E43.61939
G1 X63.174 Y26.927 E43.66109
G1 X67.48 Y23.729 E43.86635
G1 X67.95 Y23.391 E43.88851
G1 X68.907 Y22.744 E43.93271
G1 X73.406 Y19.824 E44.13797
G1 X73.909 Y19.507 E44.16073
G1 X74.845 Y18.956 E44.20229
G1 X79.589 Y16.283 E44.41068
G1 X80.077 Y16.016 E44.43197
G1 X80.172 Y15.966 E44.43608
G1 X81.118 Y15.489 E44.47662
G1 X85.987 Y13.136 E44.68357
G1 X86.473 Y12.909 E44.7041
G1 X87.543 Y12.451 E44.74864
G1 X92.531 Y10.414 E44.95484
G1 X93.144 Y10.176 E44.98
G1 X94.165 Y9.814 E45.02146
G1 X99.285 Y8.092 E45.22818
G1 X99.878 Y7.903 E45.252
G1 X100.897 Y7.611 E45.29257
G1 X106.085 Y6.221 E45.49811
G1 X106.743 Y6.057 E45.52406
G1 X107.815 Y5.821 E45.56607
G1 X113.099 Y4.756 E45.77235
G1 X113.707 Y4.643 E45.79602
G1 X114.772 Y4.479 E45.83726
G1 X120.071 Y3.754 E46.04194
G1 X120.775 Y3.669 E46.06907
G1 X121.813 Y3.576 E46.10896
G1 X127.26 Y3.175 E46.31797
G1 X127.893 Y3.138 E46.34224
G1 X128.396 Y3.149 E46.3615
G1 X128.711 Y3.197 E46.37369
G1 X129.195 Y3.334 E46.39294
G1 X129.681 Y3.553 E46.41334
G1 X129.959 Y3.694 E46.42527
G1 X181.228 Y30.59 E48.64091
G1 X181.83 Y30.917 E48.66712
G1 X182.253 Y31.192 E48.68643
G1 X182.626 Y31.53 E48.7057
G1 X182.941 Y31.922 E48.72494
G1 X183.19 Y32.36 E48.74422
G1 X183.367 Y32.832 E48.76351
G1 X183.467 Y33.325 E48.78277
G1 X183.5 Y34.015 E48.8092
G1 X183.613 Y36.756 E48.91419
G1 X183.802 Y39.465 E49.01811
G1 X184.071 Y42.211 E49.1237
G1 X184.416 Y44.943 E49.22909
G1 X184.833 Y47.622 E49.33284
G1 X185.389 Y50.627 E49.4498
G1 X185.444 Y51.103 E49.46813
G1 X185.422 Y51.606 E49.4874
G1 X185.32 Y52.099 E49.50667
G1 X185.042 Y52.763 E49.53422
G1 X184.68 Y53.412 E49.56265
G1 X158.066 Y99.506 E51.59957
G1 X157.68 Y100.156 E51.6285
G1 X157.389 Y100.567 E51.64778
G1 X157.037 Y100.928 E51.66707
G1 X156.412 Y101.386 E51.69672
G1 X154.86 Y102.436 E51.76843
G1 X152.621 Y104.043 E51.87391
G1 X150.474 Y105.677 E51.97716
G1 X148.337 Y107.402 E52.08226
G1 X146.249 Y109.185 E52.18734
G1 X144.207 Y111.034 E52.29276
G1 X142.239 Y112.919 E52.39705
G1 X140.308 Y114.875 E52.50223
G1 X138.468 Y116.849 E52.60551
G1 X136.637 Y118.928 E52.71153
G1 X134.874 Y121.049 E52.81708
G1 X133.197 Y123.185 E52.921
G1 X131.563 Y125.391 E53.02606
G1 X130.005 Y127.627 E53.13036
G1 X128.486 Y129.94 E53.23626
G1 X127.07 Y132.239 E53.33959
G1 X125.363 Y135.215 E53.47088
G1 X124.935 Y135.99 E53.50476
G1 X120.151 Y144.276 E53.87092
G1 X119.778 Y144.898 E53.89868
G1 X119.411 Y145.394 E53.92229
G1 X118.607 Y146.282 E53.96813
G1 X118.523 Y146.371 E53.97282
G1 X116.732 Y148.401 E54.07642
G1 X114.968 Y150.516 E54.18181
G1 X113.268 Y152.676 E54.28701
G1 X111.647 Y154.86 E54.39109
G1 X110.073 Y157.11 E54.49618
G1 X108.552 Y159.422 E54.60209
G1 X107.115 Y161.747 E54.70669
