;FLAVOR:Marlin
;TIME:48104
;Filament used: 69.4686m
;Layer height: 0.3
;MINX:3.428
;MINY:3.522
;MINZ:0.26
;MAXX:201.581
;MAXY:201.479
;MAXZ:44.36
;Generated with Cura_SteamEngine 4.9.1
M82 ;absolute extrusion mode
;Begin Start Gcode for Dagoma DiscoEasy 200
;Sliced: 10-07-2021 02:09:30
;Initial extruder: 0

G90 ;Absolute positioning
M106 S255 ;Fan on full
G28 X Y ;Home stop X Y
G1 X100 ;Centre back during cooldown in case of oozing
M109 R90 ;Cooldown in case too hot
G28 ;Centre
G29 ;Auto-level
M104 S205 ;Pre-heat
M107 ;Fan off
G0 X100 Y5 Z0.5 ;Front centre for degunk
M109 S205 ;Wait for initial temp
M83 ;E Relative
G1 E10 F200 ;Degunk
G1 E-3 F5000 ;Retract
G0 Z3 ;Withdraw
M82 ;E absolute
G92 E0 ;E reset
G1 F6000 ;Set feedrate

;Finish Start Gcode for Dagoma DiscoEasy 200

G92 E0
G92 E0
G1 F3000 E-3.5
;LAYER_COUNT:148
;LAYER:0
M107
G0 F1285.7 X31.812 Y33.056 Z0.26
;TYPE:SKIRT
G1 F3000 E0
G1 F900 X32.559 Y32.355 E0.0392
G1 X40.23 Y25.446 E0.43429
G1 X40.747 Y24.996 E0.46052
G1 X41.344 Y24.539 E0.48929
G1 X50.156 Y18.404 E0.9002
G1 X50.91 Y17.894 E0.93504
G1 X51.34 Y17.629 E0.95437
G1 X51.8 Y17.37 E0.97457
G1 X61.32 Y12.375 E1.386
G1 X61.964 Y12.048 E1.41364
G1 X62.589 Y11.78 E1.43966
G1 X62.694 Y11.739 E1.44398
G1 X73.074 Y7.903 E1.86747
G1 X73.622 Y7.709 E1.88972
G1 X73.958 Y7.607 E1.90316
G1 X75.097 Y7.317 E1.94814
G1 X85.111 Y4.97 E2.34175
G1 X85.75 Y4.83 E2.36679
G1 X86.559 Y4.713 E2.39807
G1 X97.193 Y3.595 E2.80727
G1 X97.815 Y3.538 E2.83117
G1 X98.172 Y3.522 E2.84485
G1 X99.364 Y3.524 E2.89047
G1 X110.11 Y3.745 E3.3018
G1 X110.709 Y3.766 E3.32474
G1 X111.061 Y3.795 E3.33825
G1 X112.299 Y3.953 E3.38601
G1 X122.116 Y5.404 E3.76579
G1 X122.69 Y5.497 E3.78804
G1 X123.037 Y5.57 E3.80161
G1 X124.263 Y5.887 E3.85007
G1 X134.425 Y8.734 E4.25394
G1 X134.986 Y8.9 E4.27633
G1 X135.314 Y9.013 E4.28961
G1 X136.391 Y9.441 E4.33396
G1 X145.669 Y13.334 E4.71901
G1 X146.16 Y13.549 E4.73953
G1 X146.472 Y13.703 E4.75284
G1 X147.563 Y14.304 E4.80051
G1 X156.617 Y19.535 E5.20067
G1 X157.134 Y19.844 E5.22372
G1 X157.421 Y20.033 E5.23688
G1 X158.39 Y20.737 E5.28271
G1 X166.53 Y26.908 E5.67363
G1 X167.157 Y27.396 E5.70403
G1 X167.563 Y27.751 E5.72467
G1 X167.834 Y28.007 E5.73894
G1 X175.503 Y35.516 E6.14969
G1 X175.907 Y35.923 E6.17163
G1 X176.144 Y36.184 E6.18512
G1 X176.928 Y37.134 E6.23226
G1 X183.296 Y45.171 E6.62468
G1 X183.675 Y45.664 E6.64848
G1 X183.875 Y45.95 E6.66183
G1 X184.515 Y46.961 E6.70762
G1 X189.85 Y55.758 E7.10135
G1 X190.192 Y56.34 E7.12719
G1 X190.358 Y56.656 E7.14085
G1 X190.901 Y57.813 E7.18976
G1 X195.048 Y67.126 E7.5799
G1 X195.282 Y67.674 E7.6027
G1 X195.403 Y67.998 E7.61594
G1 X195.771 Y69.131 E7.66153
G1 X198.732 Y78.91 E8.05255
G1 X198.906 Y79.516 E8.07667
G1 X198.987 Y79.856 E8.09005
G1 X199.218 Y81.07 E8.13734
G1 X200.937 Y91.198 E8.53048
G1 X201.081 Y92.08 E8.56468
G1 X201.136 Y92.623 E8.58557
G1 X201.163 Y93.152 E8.60584
G1 X201.551 Y102.86 E8.97765
G1 X201.581 Y104.395 E9.03641
G1 X201.573 Y104.741 E9.04965
G1 X201.52 Y105.482 E9.07808
G1 X200.63 Y116.046 E9.4838
G1 X200.554 Y116.806 E9.51303
G1 X200.503 Y117.171 E9.52713
G1 X200.383 Y117.84 E9.55314
G1 X200.311 Y118.201 E9.56723
G1 X198.205 Y128.123 E9.9554
G1 X198.067 Y128.725 E9.97903
G1 X197.976 Y129.056 E9.99217
G1 X197.611 Y130.18 E10.0374
G1 X194.193 Y139.961 E10.43391
G1 X193.992 Y140.511 E10.45632
G1 X193.859 Y140.83 E10.46954
G1 X193.373 Y141.861 E10.51316
G1 X188.686 Y151.329 E10.91747
G1 X188.408 Y151.872 E10.94081
G1 X188.231 Y152.182 E10.95447
G1 X187.545 Y153.262 E11.00344
G1 X181.982 Y161.627 E11.38789
G1 X181.625 Y162.148 E11.41206
G1 X181.412 Y162.431 E11.42561
G1 X180.666 Y163.329 E11.47029
G1 X173.911 Y171.164 E11.86619
G1 X173.421 Y171.719 E11.89452
G1 X173.109 Y172.034 E11.91149
G1 X164.486 Y179.799 E12.35556
G1 X164.062 Y180.162 E12.37692
G1 X163.805 Y180.362 E12.38939
G1 X163.21 Y180.788 E12.41739
G1 X154.792 Y186.639 E12.80972
G1 X154.123 Y187.092 E12.84064
G1 X153.445 Y187.493 E12.87078
G1 X143.646 Y192.63 E13.29419
G1 X142.983 Y192.965 E13.32262
G1 X142.369 Y193.227 E13.34817
G1 X142.266 Y193.267 E13.3524
G1 X132.051 Y197.051 E13.76928
G1 X131.448 Y197.264 E13.79375
G1 X131.118 Y197.364 E13.80695
G1 X130.018 Y197.645 E13.8504
G1 X119.852 Y200.038 E14.25008
G1 X119.231 Y200.176 E14.27442
G1 X118.365 Y200.299 E14.3079
G1 X107.777 Y201.41 E14.71532
G1 X107.194 Y201.463 E14.73772
G1 X106.843 Y201.479 E14.75117
G1 X105.659 Y201.478 E14.79648
G1 X94.866 Y201.255 E15.20961
G1 X94.302 Y201.236 E15.23121
G1 X93.942 Y201.207 E15.24503
G1 X92.696 Y201.047 E15.2931
G1 X82.891 Y199.598 E15.67241
G1 X82.316 Y199.505 E15.6947
G1 X81.967 Y199.432 E15.70835
G1 X80.751 Y199.117 E15.75642
G1 X70.575 Y196.266 E16.16085
G1 X69.996 Y196.095 E16.18395
G1 X69.666 Y195.981 E16.19731
G1 X68.556 Y195.54 E16.24302
G1 X59.494 Y191.737 E16.61912
G1 X58.927 Y191.489 E16.6428
G1 X58.614 Y191.335 E16.65615
G1 X57.543 Y190.745 E16.70295
G1 X48.346 Y185.433 E17.1094
G1 X47.847 Y185.135 E17.13165
G1 X47.556 Y184.943 E17.14499
G1 X46.603 Y184.249 E17.1901
G1 X38.337 Y177.979 E17.58715
G1 X37.943 Y177.67 E17.60631
G1 X37.405 Y177.209 E17.63342
G1 X36.874 Y176.703 E17.66149
G1 X29.562 Y169.542 E18.05316
G1 X29.177 Y169.155 E18.07405
G1 X28.936 Y168.89 E18.08776
G1 X28.196 Y167.994 E18.13223
G1 X21.646 Y159.727 E18.53588
G1 X21.253 Y159.216 E18.56055
G1 X21.053 Y158.93 E18.5739
G1 X20.432 Y157.95 E18.6183
G1 X15.176 Y149.289 E19.00601
G1 X14.81 Y148.666 E19.03366
G1 X14.575 Y148.212 E19.05323
G1 X14.193 Y147.38 E19.08826
G1 X9.958 Y137.805 E19.48894
G1 X9.714 Y137.233 E19.51274
G1 X9.59 Y136.902 E19.52626
G1 X9.266 Y135.894 E19.56678
G1 X6.242 Y125.916 E19.96579
G1 X6.088 Y125.376 E19.98728
G1 X6.008 Y125.041 E20.00046
G1 X5.767 Y123.775 E20.04978
G1 X4.065 Y113.675 E20.44175
G1 X3.98 Y113.121 E20.4632
G1 X3.942 Y112.772 E20.47663
G1 X3.868 Y111.566 E20.52287
G1 X3.456 Y101.836 E20.89557
G1 X3.428 Y100.536 E20.94533
G1 X3.436 Y100.185 E20.95877
G1 X3.48 Y99.562 E20.98267
G1 X4.388 Y88.913 E21.39168
G1 X4.462 Y88.167 E21.42037
G1 X4.546 Y87.615 E21.44174
G1 X4.698 Y86.864 E21.47106
G1 X6.858 Y76.679 E21.8695
G1 X6.989 Y76.105 E21.89203
G1 X7.081 Y75.771 E21.90529
G1 X7.48 Y74.545 E21.95463
G1 X10.812 Y64.993 E22.34179
G1 X11.007 Y64.457 E22.36361
G1 X11.144 Y64.129 E22.37722
G1 X11.644 Y63.071 E22.422
G1 X16.221 Y53.837 E22.81641
G1 X16.48 Y53.332 E22.83813
G1 X16.657 Y53.022 E22.85179
G1 X17.334 Y51.958 E22.90005
G1 X23.116 Y43.256 E23.29988
G1 X23.45 Y42.768 E23.32251
G1 X23.663 Y42.486 E23.33604
G1 X24.426 Y41.565 E23.38181
G1 X31.171 Y33.755 E23.77673
G1 X31.565 Y33.31 E23.79948
G1 X31.812 Y33.056 E23.81303
G0 F1285.7 X32.051 Y33.311
G1 F900 X32.793 Y32.615 E23.85197
G1 X40.46 Y25.71 E24.24683
G1 X40.977 Y25.26 E24.27306
G1 X41.552 Y24.821 E24.30075
G1 X41.635 Y24.761 E24.30467
G1 X50.397 Y18.663 E24.7132
G1 X51.106 Y18.184 E24.74595
G1 X51.61 Y17.876 E24.76855
G1 X51.962 Y17.68 E24.78397
G1 X61.478 Y12.687 E25.19523
G1 X62.122 Y12.36 E25.22287
G1 X62.72 Y12.105 E25.24775
G1 X73.191 Y8.233 E25.67499
G1 X73.739 Y8.039 E25.69723
G1 X74.044 Y7.946 E25.70944
G1 X75.177 Y7.658 E25.75417
G1 X85.186 Y5.312 E26.14759
G1 X85.825 Y5.172 E26.17263
G1 X86.599 Y5.061 E26.20255
G1 X97.178 Y3.948 E26.60964
G1 X97.847 Y3.887 E26.63535
G1 X98.172 Y3.872 E26.6478
G1 X99.357 Y3.874 E26.69315
G1 X110.098 Y4.095 E27.10429
G1 X110.697 Y4.116 E27.12723
G1 X111.017 Y4.142 E27.13951
G1 X112.247 Y4.299 E27.18697
G1 X122.06 Y5.749 E27.56658
G1 X122.634 Y5.842 E27.58884
G1 X122.95 Y5.909 E27.6012
G1 X124.169 Y6.224 E27.64938
G1 X134.326 Y9.07 E28.05306
G1 X134.887 Y9.236 E28.07544
G1 X135.185 Y9.339 E28.08751
G1 X136.256 Y9.764 E28.13161
G1 X145.529 Y13.655 E28.51646
G1 X146.02 Y13.87 E28.53697
G1 X146.304 Y14.01 E28.54909
G1 X147.388 Y14.607 E28.59644
G1 X156.437 Y19.835 E28.99639
G1 X156.954 Y20.144 E29.01944
G1 X157.216 Y20.317 E29.03145
G1 X158.178 Y21.016 E29.07696
G1 X166.315 Y27.184 E29.46771
G1 X166.942 Y27.672 E29.49812
G1 X167.327 Y28.009 E29.5177
G1 X167.589 Y28.257 E29.53151
G1 X175.255 Y35.763 E29.94209
G1 X175.659 Y36.17 E29.96404
G1 X175.874 Y36.407 E29.97628
G1 X176.654 Y37.352 E30.02318
G1 X183.019 Y45.385 E30.4154
G1 X183.398 Y45.878 E30.4392
G1 X183.579 Y46.137 E30.45129
G1 X184.216 Y47.142 E30.49683
G1 X189.548 Y55.935 E30.89037
G1 X189.89 Y56.517 E30.9162
G1 X190.042 Y56.805 E30.92866
G1 X190.581 Y57.955 E30.97727
G1 X194.726 Y67.264 E31.36724
G1 X194.96 Y67.812 E31.39004
G1 X195.07 Y68.106 E31.40205
G1 X195.436 Y69.232 E31.44736
G1 X198.395 Y79.006 E31.83818
G1 X198.569 Y79.612 E31.8623
G1 X198.643 Y79.922 E31.8745
G1 X198.873 Y81.128 E31.92149
G1 X200.592 Y91.254 E32.31455
G1 X200.736 Y92.136 E32.34875
G1 X200.786 Y92.641 E32.36817
G1 X200.813 Y93.166 E32.38829
G1 X201.201 Y102.867 E32.75984
G1 X201.231 Y104.402 E32.81859
G1 X201.223 Y104.717 E32.83065
G1 X201.172 Y105.453 E32.85888
G1 X200.282 Y116.012 E33.2644
G1 X200.207 Y116.762 E33.29325
G1 X200.159 Y117.11 E33.30669
G1 X200.04 Y117.771 E33.3324
G1 X199.968 Y118.129 E33.34637
G1 X197.864 Y128.045 E33.7343
G1 X197.726 Y128.647 E33.75794
G1 X197.643 Y128.948 E33.76989
G1 X197.253 Y130.146 E33.8181
G1 X193.864 Y139.841 E34.21114
G1 X193.663 Y140.391 E34.23355
G1 X193.542 Y140.681 E34.24557
G1 X193.059 Y141.706 E34.28894
G1 X188.375 Y151.169 E34.69302
G1 X188.097 Y151.712 E34.71636
G1 X187.935 Y151.995 E34.72884
G1 X187.253 Y153.068 E34.7775
G1 X181.693 Y161.43 E35.16179
G1 X181.336 Y161.951 E35.18596
G1 X181.142 Y162.207 E35.19825
G1 X180.401 Y163.101 E35.24269
G1 X173.648 Y170.932 E35.63842
G1 X173.158 Y171.487 E35.66675
G1 X172.875 Y171.773 E35.68215
G1 X164.178 Y179.603 E36.13
G1 X163.601 Y180.078 E36.1586
G1 X163.01 Y180.5 E36.18639
G1 X154.596 Y186.35 E36.57857
G1 X153.932 Y186.798 E36.60922
G1 X153.274 Y187.187 E36.63847
G1 X143.488 Y192.317 E37.06132
G1 X142.825 Y192.652 E37.08975
G1 X142.238 Y192.902 E37.11416
G1 X142.145 Y192.938 E37.11798
G1 X131.934 Y196.721 E37.53471
G1 X131.331 Y196.934 E37.55918
G1 X131.031 Y197.025 E37.57118
G1 X129.938 Y197.304 E37.61435
G1 X119.776 Y199.696 E38.01387
G1 X119.155 Y199.834 E38.03821
G1 X118.324 Y199.951 E38.07033
G1 X107.745 Y201.062 E38.47741
G1 X107.162 Y201.115 E38.49981
G1 X106.843 Y201.129 E38.51203
G1 X105.666 Y201.128 E38.55708
G1 X94.877 Y200.905 E38.97005
G1 X94.313 Y200.886 E38.99165
G1 X93.987 Y200.86 E39.00417
G1 X92.747 Y200.701 E39.05201
G1 X82.947 Y199.253 E39.43112
G1 X82.372 Y199.16 E39.45341
G1 X82.054 Y199.093 E39.46585
G1 X80.845 Y198.78 E39.51364
G1 X70.675 Y195.931 E39.91783
G1 X70.096 Y195.76 E39.94093
G1 X69.795 Y195.656 E39.95312
G1 X68.691 Y195.217 E39.99859
G1 X59.634 Y191.417 E40.37446
G1 X59.067 Y191.169 E40.39815
G1 X58.782 Y191.028 E40.41032
G1 X57.718 Y190.442 E40.4568
G1 X48.526 Y185.132 E40.86305
G1 X48.027 Y184.834 E40.8853
G1 X47.762 Y184.66 E40.89743
G1 X46.815 Y183.971 E40.94225
G1 X38.552 Y177.703 E41.33915
G1 X37.814 Y177.105 E41.3755
G1 X37.646 Y176.955 E41.38412
G1 X37.119 Y176.453 E41.41198
G1 X29.81 Y169.295 E41.80348
G1 X29.425 Y168.908 E41.82437
G1 X29.206 Y168.667 E41.83684
G1 X28.421 Y167.715 E41.88406
G1 X21.924 Y159.514 E42.28446
G1 X21.531 Y159.003 E42.30913
G1 X21.349 Y158.743 E42.32128
G1 X20.732 Y157.769 E42.3654
G1 X15.478 Y149.112 E42.75294
G1 X15.112 Y148.489 E42.78059
G1 X14.893 Y148.066 E42.79882
G1 X14.513 Y147.238 E42.83369
G1 X10.28 Y137.668 E43.23415
G1 X10.036 Y137.096 E43.25795
G1 X9.923 Y136.795 E43.27025
G1 X9.601 Y135.793 E43.31053
G1 X6.578 Y125.82 E43.70934
G1 X6.424 Y125.28 E43.73083
G1 X6.352 Y124.975 E43.74283
G1 X6.112 Y123.717 E43.79184
G1 X4.411 Y113.622 E44.18361
G1 X4.326 Y113.068 E44.20506
G1 X4.292 Y112.751 E44.21726
G1 X4.218 Y111.551 E44.26327
G1 X3.804 Y101.747 E44.6388
G1 X3.778 Y100.528 E44.68546
G1 X3.785 Y100.209 E44.69768
G1 X3.829 Y99.592 E44.72135
G1 X4.736 Y88.948 E45.13016
G1 X4.81 Y88.202 E45.15885
G1 X4.889 Y87.684 E45.17891
G1 X5.041 Y86.937 E45.20808
G1 X7.199 Y76.757 E45.60632
G1 X7.33 Y76.183 E45.62885
G1 X7.414 Y75.879 E45.64092
G1 X7.811 Y74.66 E45.68998
G1 X11.141 Y65.113 E46.07693
G1 X11.336 Y64.577 E46.09876
G1 X11.461 Y64.278 E46.11116
G1 X11.958 Y63.227 E46.15565
G1 X16.532 Y53.996 E46.54991
G1 X16.791 Y53.491 E46.57163
G1 X16.953 Y53.21 E46.58404
G1 X17.626 Y52.151 E46.63206
G1 X23.405 Y43.454 E47.03167
G1 X23.739 Y42.966 E47.0543
G1 X23.933 Y42.709 E47.06662
G1 X24.691 Y41.794 E47.11209
G1 X31.433 Y33.987 E47.50685
G1 X31.827 Y33.542 E47.5296
G1 X32.051 Y33.311 E47.54191
G0 F1285.7 X32.291 Y33.566
G1 F900 X33.027 Y32.875 E47.58055
G1 X40.689 Y25.974 E47.97517
G1 X41.206 Y25.524 E48.0014
G1 X41.76 Y25.102 E48.02805
G1 X41.835 Y25.048 E48.03159
G1 X50.593 Y18.953 E48.43993
G1 X51.302 Y18.474 E48.47267
G1 X51.782 Y18.181 E48.49419
G1 X52.125 Y17.99 E48.50922
G1 X61.637 Y12.999 E48.92031
G1 X62.281 Y12.672 E48.94795
G1 X62.851 Y12.429 E48.97166
G1 X73.307 Y8.563 E49.39828
G1 X73.855 Y8.369 E49.42053
G1 X74.131 Y8.285 E49.43157
G1 X75.257 Y7.999 E49.47603
G1 X85.26 Y5.654 E49.86922
G1 X85.899 Y5.514 E49.89425
G1 X86.64 Y5.408 E49.9229
G1 X97.257 Y4.292 E50.33144
G1 X97.879 Y4.235 E50.35535
G1 X98.172 Y4.222 E50.36657
G1 X99.349 Y4.224 E50.41161
G1 X110.085 Y4.445 E50.82256
G1 X110.684 Y4.466 E50.8455
G1 X110.972 Y4.489 E50.85656
G1 X112.196 Y4.645 E50.90378
G1 X122.004 Y6.095 E51.2832
G1 X122.578 Y6.188 E51.30546
G1 X122.863 Y6.248 E51.3166
G1 X124.075 Y6.561 E51.36451
G1 X134.227 Y9.405 E51.76798
G1 X134.788 Y9.571 E51.79037
G1 X135.056 Y9.664 E51.80122
G1 X136.12 Y10.086 E51.84503
G1 X145.389 Y13.976 E52.22972
G1 X145.88 Y14.191 E52.25023
G1 X146.135 Y14.316 E52.2611
G1 X147.213 Y14.91 E52.3082
G1 X156.258 Y20.136 E52.70798
G1 X156.775 Y20.445 E52.73102
G1 X157.01 Y20.6 E52.7418
G1 X157.967 Y21.295 E52.78706
G1 X166.1 Y27.46 E53.17762
G1 X166.727 Y27.948 E53.20803
G1 X167.134 Y28.308 E53.22882
G1 X167.344 Y28.507 E53.23989
G1 X175.006 Y36.009 E53.65026
G1 X175.41 Y36.416 E53.67221
G1 X175.604 Y36.63 E53.68327
G1 X176.379 Y37.569 E53.72986
G1 X182.741 Y45.598 E54.12189
G1 X183.12 Y46.091 E54.14569
G1 X183.284 Y46.325 E54.15663
G1 X183.917 Y47.324 E54.20189
G1 X189.246 Y56.112 E54.5952
G1 X189.588 Y56.694 E54.62103
G1 X189.725 Y56.953 E54.63225
G1 X190.261 Y58.097 E54.6806
G1 X194.404 Y67.401 E55.07036
G1 X194.638 Y67.949 E55.09316
G1 X194.737 Y68.214 E55.10399
G1 X195.101 Y69.334 E55.14906
G1 X198.059 Y79.103 E55.53968
G1 X198.233 Y79.709 E55.5638
G1 X198.299 Y79.988 E55.57478
G1 X198.528 Y81.187 E55.62149
G1 X200.247 Y91.31 E56.01444
G1 X200.391 Y92.192 E56.04864
G1 X200.462 Y93.144 E56.08517
G1 X200.851 Y102.874 E56.45783
G1 X200.881 Y104.409 E56.51659
G1 X200.874 Y104.693 E56.52746
G1 X200.823 Y105.423 E56.55546
G1 X199.934 Y115.978 E56.96083
G1 X199.869 Y116.637 E56.98617
G1 X199.814 Y117.049 E57.00208
G1 X199.697 Y117.703 E57.0275
G1 X199.626 Y118.056 E57.04128
G1 X197.523 Y127.966 E57.42898
G1 X197.385 Y128.568 E57.45262
G1 X197.31 Y128.84 E57.46341
G1 X196.922 Y130.031 E57.51135
G1 X193.535 Y139.721 E57.90418
G1 X193.334 Y140.271 E57.92659
G1 X193.225 Y140.532 E57.93742
G1 X192.746 Y141.55 E57.98047
G1 X188.063 Y151.01 E58.38443
G1 X187.785 Y151.553 E58.40778
G1 X187.64 Y151.807 E58.41897
G1 X186.962 Y152.874 E58.46735
G1 X181.404 Y161.232 E58.85147
G1 X181.047 Y161.753 E58.87564
G1 X180.873 Y161.984 E58.88671
G1 X180.136 Y162.872 E58.93087
G1 X173.386 Y170.7 E59.32644
G1 X172.896 Y171.255 E59.35477
G1 X172.641 Y171.513 E59.36866
G1 X163.951 Y179.337 E59.81615
G1 X163.398 Y179.793 E59.84358
G1 X162.81 Y180.213 E59.87123
G1 X154.4 Y186.06 E60.26322
G1 X153.742 Y186.504 E60.2936
G1 X153.104 Y186.882 E60.32198
G1 X143.33 Y192.005 E60.74429
G1 X142.667 Y192.34 E60.77272
G1 X142.107 Y192.578 E60.79601
G1 X131.817 Y196.391 E61.21597
G1 X131.214 Y196.604 E61.24044
G1 X130.945 Y196.686 E61.2512
G1 X129.858 Y196.964 E61.29414
G1 X119.7 Y199.354 E61.6935
G1 X119.079 Y199.492 E61.71784
G1 X118.282 Y199.604 E61.74864
G1 X107.757 Y200.709 E62.15364
G1 X107.13 Y200.766 E62.17774
G1 X106.843 Y200.779 E62.18873
G1 X105.673 Y200.778 E62.23351
G1 X94.889 Y200.555 E62.64629
G1 X94.325 Y200.536 E62.66789
G1 X94.031 Y200.513 E62.67918
