;FLAVOR:Marlin
;TIME:25870
;Filament used: 32.5955m
;Layer height: 0.3
;MINX:18.441
;MINY:2.44
;MINZ:0.26
;MAXX:186.548
;MAXY:202.563
;MAXZ:19.76
;Generated with Cura_SteamEngine 4.9.1
M82 ;absolute extrusion mode
;Begin Start Gcode for Dagoma DiscoEasy 200
;Sliced: 09-07-2021 20:56:46
;Initial extruder: 0

G90 ;Absolute positioning
M106 S255 ;Fan on full
G28 X Y ;Home stop X Y
G1 X100 ;Centre back during cooldown in case of oozing
M109 R90 ;Cooldown in case too hot
G28 ;Centre
G29 ;Auto-level
M104 S205 ;Pre-heat
M107 ;Fan off
G0 X100 Y5 Z0.5 ;Front centre for degunk
M109 S205 ;Wait for initial temp
M83 ;E Relative
G1 E10 F200 ;Degunk
G1 E-3 F5000 ;Retract
G0 Z3 ;Withdraw
M82 ;E absolute
G92 E0 ;E reset
G1 F6000 ;Set feedrate

;Finish Start Gcode for Dagoma DiscoEasy 200

G92 E0
G92 E0
G1 F3000 E-3.5
;LAYER_COUNT:66
;LAYER:0
M107
G0 F1285.7 X46.744 Y41.07 Z0.26
;TYPE:SKIRT
G1 F3000 E0
G1 F900 X50.385 Y37.111 E0.20584
G1 X50.779 Y36.693 E0.22782
G1 X50.871 Y36.599 E0.23286
G1 X51.625 Y35.852 E0.27348
G1 X55.516 Y32.122 E0.47975
G1 X55.954 Y31.713 E0.50268
G1 X56.05 Y31.626 E0.50764
G1 X56.816 Y30.958 E0.54654
G1 X60.947 Y27.468 E0.7535
G1 X61.474 Y27.037 E0.77955
G1 X62.347 Y26.365 E0.82171
G1 X66.662 Y23.161 E1.02739
G1 X67.225 Y22.758 E1.05389
G1 X68.116 Y22.157 E1.09502
G1 X72.623 Y19.232 E1.30064
G1 X73.23 Y18.851 E1.32806
G1 X74.14 Y18.318 E1.36842
G1 X78.843 Y15.669 E1.57499
G1 X79.331 Y15.402 E1.59628
G1 X79.447 Y15.341 E1.60129
G1 X80.404 Y14.859 E1.6423
G1 X85.281 Y12.502 E1.84959
G1 X85.767 Y12.275 E1.87012
G1 X85.883 Y12.223 E1.87499
G1 X86.868 Y11.803 E1.91597
G1 X91.866 Y9.762 E2.12257
G1 X92.385 Y9.559 E2.1439
G1 X93.532 Y9.15 E2.1905
G1 X98.661 Y7.425 E2.39759
G1 X99.16 Y7.265 E2.41764
G1 X99.275 Y7.23 E2.42224
G1 X100.306 Y6.935 E2.46328
G1 X105.505 Y5.542 E2.66926
G1 X106.182 Y5.373 E2.69597
G1 X107.266 Y5.134 E2.73845
G1 X112.559 Y4.068 E2.94508
G1 X113.063 Y3.973 E2.9647
G1 X113.191 Y3.951 E2.96967
G1 X114.267 Y3.786 E3.01133
G1 X119.575 Y3.059 E3.21636
G1 X120.177 Y2.985 E3.23958
G1 X120.302 Y2.972 E3.24438
G1 X121.352 Y2.877 E3.28473
G1 X126.809 Y2.477 E3.49413
G1 X127.442 Y2.44 E3.51839
G1 X127.998 Y2.447 E3.53967
G1 X128.438 Y2.51 E3.55668
G1 X128.974 Y2.658 E3.57796
G1 X129.575 Y2.923 E3.6031
G1 X129.874 Y3.074 E3.61592
G1 X181.155 Y29.976 E5.83207
G1 X181.758 Y30.304 E5.85834
G1 X182.226 Y30.604 E5.87962
G1 X182.647 Y30.969 E5.90094
G1 X183.011 Y31.389 E5.92221
G1 X183.311 Y31.858 E5.94352
G1 X183.541 Y32.365 E5.96482
G1 X183.696 Y32.899 E5.9861
G1 X183.767 Y33.383 E6.00482
G1 X183.867 Y34.569 E6.05037
G1 X184.133 Y37.281 E6.15465
G1 X184.473 Y39.973 E6.25849
G1 X184.893 Y42.667 E6.36284
G1 X185.39 Y45.363 E6.46775
G1 X185.957 Y48.012 E6.57142
G1 X186.125 Y48.697 E6.59841
G1 X186.137 Y48.767 E6.60113
G1 X186.451 Y50.1 E6.65354
G1 X186.539 Y50.649 E6.67482
G1 X186.548 Y51.205 E6.6961
G1 X186.477 Y51.757 E6.7174
G1 X186.328 Y52.293 E6.73869
G1 X186.068 Y52.868 E6.76284
G1 X185.65 Y53.619 E6.79573
G1 X158.454 Y100.723 E8.87726
G1 X158.089 Y101.336 E8.90456
G1 X157.771 Y101.793 E8.92587
G1 X157.391 Y102.199 E8.94715
G1 X156.885 Y102.594 E8.97172
G1 X156.247 Y103.013 E9.00093
G1 X153.946 Y104.571 E9.10727
G1 X151.711 Y106.179 E9.21264
G1 X149.604 Y107.785 E9.31403
G1 X147.467 Y109.513 E9.4192
G1 X145.384 Y111.297 E9.52416
G1 X143.399 Y113.096 E9.62668
G1 X141.426 Y114.99 E9.73134
G1 X139.515 Y116.931 E9.83558
G1 X137.646 Y118.94 E9.94059
G1 X135.872 Y120.958 E10.04342
G1 X134.141 Y123.042 E10.1471
G1 X132.457 Y125.191 E10.25158
G1 X130.858 Y127.357 E10.35461
G1 X129.282 Y129.622 E10.46021
G1 X127.8 Y131.885 E10.56373
G1 X126.371 Y134.208 E10.66811
G1 X125.653 Y135.458 E10.72328
G1 X125.564 Y135.59 E10.72937
G1 X120.347 Y144.626 E11.12867
G1 X119.983 Y145.237 E11.15589
G1 X119.529 Y145.852 E11.18514
G1 X118.706 Y146.761 E11.23207
G1 X118.654 Y146.816 E11.23496
G1 X116.836 Y148.877 E11.34014
G1 X115.102 Y150.956 E11.44374
G1 X113.41 Y153.106 E11.54844
G1 X111.813 Y155.258 E11.651
G1 X110.228 Y157.524 E11.75683
G1 X108.733 Y159.796 E11.86091
G1 X107.318 Y162.085 E11.9639
G1 X105.966 Y164.42 E12.06715
G1 X104.643 Y166.857 E12.17327
G1 X103.436 Y169.241 E12.27554
G1 X102.27 Y171.712 E12.3801
G1 X101.171 Y174.228 E12.48517
G1 X100.164 Y176.719 E12.58799
G1 X99.216 Y179.273 E12.69225
G1 X98.338 Y181.856 E12.79665
G1 X98.193 Y182.324 E12.8154
G1 X97.836 Y183.425 E12.8597
G1 X97.583 Y184.028 E12.88472
G1 X97.498 Y184.186 E12.89159
G1 X97.187 Y184.741 E12.91594
G1 X88.343 Y200.062 E13.59294
G1 X87.98 Y200.672 E13.6201
G1 X87.662 Y201.128 E13.64138
G1 X87.282 Y201.534 E13.66266
G1 X86.847 Y201.882 E13.68398
G1 X86.367 Y202.164 E13.70529
G1 X85.852 Y202.374 E13.72657
G1 X85.312 Y202.508 E13.74786
G1 X84.758 Y202.563 E13.76917
G1 X84.203 Y202.539 E13.79043
G1 X83.656 Y202.435 E13.81174
G1 X82.905 Y202.15 E13.84248
G1 X82.333 Y201.849 E13.86721
G1 X36.892 Y176.891 E15.85125
G1 X36.288 Y176.548 E15.87783
G1 X35.826 Y176.239 E15.8991
G1 X35.412 Y175.867 E15.9204
G1 X35.055 Y175.44 E15.9417
G1 X34.75 Y174.957 E15.96356
G1 X34.568 Y174.644 E15.97742
G1 X31.757 Y169.652 E16.19667
G1 X31.475 Y169.138 E16.2191
G1 X31.41 Y169.015 E16.22443
G1 X30.956 Y168.11 E16.26318
G1 X28.588 Y163.214 E16.47131
G1 X28.349 Y162.699 E16.49304
G1 X27.879 Y161.606 E16.53857
G1 X25.844 Y156.62 E16.74466
G1 X25.641 Y156.101 E16.76599
G1 X25.232 Y154.954 E16.81259
G1 X23.508 Y149.829 E17.01952
G1 X23.34 Y149.307 E17.04051
G1 X23.04 Y148.261 E17.08215
G1 X21.634 Y143.017 E17.28992
G1 X21.45 Y142.28 E17.31899
G1 X21.228 Y141.273 E17.35846
G1 X20.151 Y135.927 E17.56716
G1 X20.056 Y135.423 E17.58678
G1 X20.034 Y135.295 E17.59175
G1 X19.869 Y134.219 E17.63341
G1 X19.142 Y128.911 E17.83844
G1 X19.068 Y128.309 E17.86166
G1 X19.055 Y128.184 E17.86647
G1 X18.96 Y127.134 E17.90681
G1 X18.559 Y121.674 E18.11633
G1 X18.526 Y121.073 E18.13936
G1 X18.498 Y120.033 E18.17918
G1 X18.441 Y114.551 E18.38898
G1 X18.445 Y113.933 E18.41263
G1 X18.485 Y112.824 E18.4551
G1 X18.766 Y107.461 E18.66062
G1 X18.803 Y106.891 E18.68248
G1 X18.814 Y106.762 E18.68744
G1 X18.917 Y105.723 E18.72739
G1 X19.542 Y100.319 E18.93558
G1 X19.608 Y99.809 E18.95526
G1 X19.626 Y99.684 E18.96009
G1 X19.807 Y98.574 E19.00313
G1 X20.761 Y93.276 E19.20915
G1 X20.886 Y92.643 E19.23384
G1 X21.134 Y91.556 E19.27651
G1 X22.422 Y86.316 E19.48301
G1 X22.556 Y85.804 E19.50326
G1 X22.883 Y84.685 E19.54788
G1 X24.51 Y79.49 E19.75621
G1 X24.687 Y78.954 E19.77781
G1 X25.086 Y77.855 E19.82256
G1 X27.05 Y72.736 E20.03238
G1 X27.271 Y72.19 E20.05492
G1 X27.716 Y71.176 E20.0973
G1 X29.962 Y66.271 E20.30376
G1 X30.192 Y65.787 E20.32426
G1 X30.247 Y65.676 E20.329
G1 X30.762 Y64.677 E20.37202
G1 X33.309 Y59.927 E20.57828
G1 X33.557 Y59.479 E20.59788
G1 X33.62 Y59.369 E20.60273
G1 X34.189 Y58.418 E20.64514
G1 X37.031 Y53.833 E20.85158
G1 X37.321 Y53.378 E20.87223
G1 X37.394 Y53.268 E20.87728
G1 X37.986 Y52.407 E20.91727
G1 X41.136 Y47.974 E21.12538
G1 X41.465 Y47.525 E21.14669
G1 X41.538 Y47.429 E21.1513
G1 X42.178 Y46.611 E21.19105
G1 X45.597 Y42.389 E21.39896
G1 X45.947 Y41.969 E21.41988
G1 X46.026 Y41.877 E21.42452
G1 X46.744 Y41.07 E21.46586
G0 F1285.7 X47.001 Y41.307
G1 F900 X50.64 Y37.351 E21.67156
G1 X51.034 Y36.933 E21.69355
G1 X51.117 Y36.848 E21.69809
G1 X51.867 Y36.105 E21.7385
G1 X55.755 Y32.378 E21.94461
G1 X56.28 Y31.89 E21.97204
G1 X57.042 Y31.226 E22.01072
G1 X61.169 Y27.738 E22.21751
G1 X61.687 Y27.315 E22.2431
G1 X62.555 Y26.646 E22.28504
G1 X66.866 Y23.445 E22.49053
G1 X67.336 Y23.107 E22.51268
G1 X68.253 Y22.486 E22.55507
G1 X72.77 Y19.553 E22.76117
G1 X73.407 Y19.153 E22.78996
G1 X74.312 Y18.623 E22.8301
G1 X79.011 Y15.976 E23.03649
G1 X79.499 Y15.709 E23.05778
G1 X79.605 Y15.653 E23.06237
G1 X80.556 Y15.174 E23.10312
G1 X85.429 Y12.819 E23.31024
G1 X85.915 Y12.592 E23.33077
G1 X86.947 Y12.149 E23.37375
G1 X91.994 Y10.088 E23.58238
G1 X92.617 Y9.846 E23.60796
G1 X93.644 Y9.482 E23.64966
G1 X98.768 Y7.758 E23.85655
G1 X99.267 Y7.598 E23.8766
G1 X100.396 Y7.273 E23.92157
G1 X105.59 Y5.881 E24.12735
G1 X106.159 Y5.738 E24.1498
G1 X107.336 Y5.477 E24.19594
G1 X112.624 Y4.412 E24.40237
G1 X113.128 Y4.317 E24.422
G1 X113.244 Y4.297 E24.42651
G1 X114.315 Y4.133 E24.46797
G1 X119.618 Y3.406 E24.67281
G1 X120.22 Y3.332 E24.69602
G1 X120.333 Y3.32 E24.70037
G1 X121.377 Y3.226 E24.74049
G1 X126.829 Y2.826 E24.94969
G1 X127.462 Y2.789 E24.97396
G1 X127.993 Y2.798 E24.99428
G1 X128.369 Y2.853 E25.00883
G1 X128.88 Y2.996 E25.02913
G1 X129.423 Y3.238 E25.05188
G1 X129.712 Y3.384 E25.06428
G1 X180.987 Y30.283 E27.28017
G1 X181.59 Y30.611 E27.30644
G1 X182.036 Y30.899 E27.32676
G1 X182.434 Y31.251 E27.34709
G1 X182.774 Y31.658 E27.36739
G1 X183.049 Y32.112 E27.3877
G1 X183.253 Y32.602 E27.40801
G1 X183.381 Y33.117 E27.42832
G1 X183.419 Y33.412 E27.4397
G1 X183.52 Y34.612 E27.48579
G1 X183.786 Y37.324 E27.59007
G1 X184.129 Y40.036 E27.69469
G1 X184.546 Y42.715 E27.79845
G1 X185.046 Y45.425 E27.90391
G1 X185.618 Y48.099 E28.00855
G1 X185.785 Y48.78 E28.03539
G1 X185.797 Y48.851 E28.03814
G1 X186.11 Y50.18 E28.0904
G1 X186.193 Y50.704 E28.1107
G1 X186.195 Y51.235 E28.13102
G1 X186.118 Y51.76 E28.15133
G1 X185.964 Y52.267 E28.1716
G1 X185.761 Y52.698 E28.18984
G1 X185.347 Y53.444 E28.22249
G1 X158.154 Y100.544 E30.30383
G1 X157.789 Y101.157 E30.33113
G1 X157.484 Y101.592 E30.35146
G1 X157.117 Y101.975 E30.37176
G1 X156.693 Y102.301 E30.39223
G1 X156.051 Y102.723 E30.42163
G1 X153.739 Y104.289 E30.52849
G1 X151.522 Y105.883 E30.63299
G1 X149.365 Y107.528 E30.7368
G1 X147.247 Y109.241 E30.84105
G1 X145.169 Y111.02 E30.94574
G1 X143.159 Y112.842 E31.04956
G1 X141.181 Y114.74 E31.15447
G1 X139.258 Y116.694 E31.25939
G1 X137.408 Y118.681 E31.36328
G1 X135.603 Y120.735 E31.46793
G1 X133.863 Y122.83 E31.57215
G1 X132.18 Y124.977 E31.67655
G1 X130.552 Y127.183 E31.78147
G1 X128.998 Y129.416 E31.88558
G1 X127.505 Y131.695 E31.98985
G1 X126.084 Y134.006 E32.09367
G1 X125.35 Y135.284 E32.15007
G1 X125.262 Y135.413 E32.15605
G1 X120.046 Y144.447 E32.55526
G1 X119.682 Y145.058 E32.58248
G1 X119.27 Y145.617 E32.60906
G1 X118.452 Y146.521 E32.65571
G1 X118.37 Y146.608 E32.66029
G1 X116.57 Y148.649 E32.76443
G1 X114.839 Y150.725 E32.86788
G1 X113.134 Y152.891 E32.97337
G1 X111.525 Y155.058 E33.07666
G1 X109.957 Y157.3 E33.18136
G1 X108.44 Y159.605 E33.28696
G1 X107.009 Y161.921 E33.39115
G1 X105.653 Y164.263 E33.49471
G1 X104.343 Y166.675 E33.59975
G1 X103.113 Y169.105 E33.70398
G1 X101.947 Y171.578 E33.80862
G1 X100.864 Y174.055 E33.91207
G1 X99.84 Y176.586 E34.01656
G1 X98.889 Y179.149 E34.12118
G1 X98.008 Y181.74 E34.22591
G1 X97.86 Y182.216 E34.24499
G1 X97.503 Y183.317 E34.28928
G1 X97.273 Y183.866 E34.31206
G1 X97.193 Y184.015 E34.31854
G1 X96.884 Y184.566 E34.34271
G1 X88.042 Y199.883 E35.01954
G1 X87.679 Y200.493 E35.04671
G1 X87.374 Y200.927 E35.06701
G1 X87.008 Y201.311 E35.08731
G1 X86.588 Y201.635 E35.10761
G1 X86.124 Y201.892 E35.12791
G1 X85.626 Y202.077 E35.14824
G1 X85.107 Y202.185 E35.16853
G1 X84.577 Y202.214 E35.18884
G1 X84.049 Y202.163 E35.20914
G1 X83.534 Y202.034 E35.22946
G1 X83.063 Y201.837 E35.249
G1 X82.498 Y201.54 E35.27342
G1 X37.065 Y176.586 E37.25712
G1 X36.461 Y176.243 E37.2837
G1 X36.021 Y175.947 E37.304
G1 X35.63 Y175.588 E37.32431
G1 X35.185 Y175.001 E37.3525
G1 X34.892 Y174.506 E37.37451
G1 X32.064 Y169.484 E37.59508
G1 X31.782 Y168.97 E37.61752
G1 X31.723 Y168.858 E37.62236
G1 X31.271 Y167.958 E37.6609
G1 X28.906 Y163.067 E37.86881
G1 X28.624 Y162.457 E37.89453
G1 X28.203 Y161.474 E37.93546
G1 X26.17 Y156.492 E38.14138
G1 X25.928 Y155.869 E38.16696
G1 X25.564 Y154.842 E38.20865
G1 X23.842 Y149.722 E38.41538
G1 X23.639 Y149.087 E38.44089
G1 X23.361 Y148.11 E38.47977
G1 X21.958 Y142.873 E38.68725
G1 X21.815 Y142.304 E38.7097
G1 X21.585 Y141.267 E38.75035
G1 X20.495 Y135.862 E38.96136
G1 X20.4 Y135.358 E38.98099
G1 X20.38 Y135.242 E38.9855
G1 X20.216 Y134.171 E39.02696
G1 X19.489 Y128.868 E39.2318
G1 X19.415 Y128.266 E39.25501
G1 X19.403 Y128.153 E39.25936
G1 X19.309 Y127.109 E39.29948
G1 X18.909 Y121.654 E39.5088
G1 X18.876 Y121.064 E39.53141
G1 X18.848 Y120.029 E39.57104
G1 X18.791 Y114.553 E39.78061
G1 X18.795 Y113.945 E39.80388
G1 X18.835 Y112.842 E39.84612
G1 X19.115 Y107.484 E40.05145
G1 X19.152 Y106.914 E40.07331
G1 X19.162 Y106.796 E40.07784
G1 X19.264 Y105.763 E40.11756
G1 X19.889 Y100.364 E40.32556
G1 X19.955 Y99.854 E40.34524
G1 X20.142 Y98.695 E40.39017
G1 X21.104 Y93.343 E40.59827
G1 X21.204 Y92.83 E40.61827
G1 X21.227 Y92.721 E40.62253
G1 X21.474 Y91.64 E40.66497
G1 X22.761 Y86.405 E40.87128
G1 X22.923 Y85.792 E40.89554
G1 X23.237 Y84.723 E40.93818
G1 X24.843 Y79.6 E41.14364
G1 X25.055 Y78.963 E41.16933
G1 X25.413 Y77.98 E41.20937
G1 X27.375 Y72.866 E41.41899
G1 X27.592 Y72.331 E41.44108
G1 X28.034 Y71.321 E41.48327
G1 X30.278 Y66.421 E41.68952
G1 X30.508 Y65.937 E41.71003
G1 X30.558 Y65.836 E41.71434
G1 X31.07 Y64.842 E41.75713
G1 X33.615 Y60.097 E41.96319
G1 X33.92 Y59.549 E41.98719
G1 X34.486 Y58.603 E42.02938
G1 X37.326 Y54.021 E42.23568
G1 X37.616 Y53.566 E42.25633
G1 X38.271 Y52.609 E42.30071
G1 X41.388 Y48.222 E42.50666
G1 X41.814 Y47.644 E42.53414
G1 X42.45 Y46.832 E42.57362
G1 X45.866 Y42.613 E42.78136
G1 X46.216 Y42.193 E42.80229
G1 X47.001 Y41.307 E42.84759
G0 F1285.7 X47.222 Y41.585
G1 F900 X50.895 Y37.591 E43.05524
G1 X51.289 Y37.173 E43.07722
G1 X51.364 Y37.096 E43.08134
G1 X52.11 Y36.357 E43.12152
G1 X55.994 Y32.633 E43.32745
G1 X56.432 Y32.224 E43.35038
G1 X57.268 Y31.493 E43.39288
G1 X61.391 Y28.009 E43.59945
G1 X61.901 Y27.592 E43.62467
G1 X62.764 Y26.927 E43.66636
G1 X67.07 Y23.729 E43.87162
G1 X67.54 Y23.391 E43.89378
G1 X68.497 Y22.744 E43.93799
G1 X72.996 Y19.824 E44.14325
G1 X73.499 Y19.507 E44.166
G1 X74.435 Y18.956 E44.20757
G1 X79.179 Y16.283 E44.41595
G1 X79.667 Y16.016 E44.43724
G1 X79.762 Y15.966 E44.44135
G1 X80.708 Y15.489 E44.48189
G1 X85.577 Y13.136 E44.68885
G1 X86.063 Y12.909 E44.70937
G1 X87.133 Y12.451 E44.75392
G1 X92.121 Y10.414 E44.96011
G1 X92.734 Y10.176 E44.98527
G1 X93.755 Y9.814 E45.02673
G1 X98.875 Y8.092 E45.23346
G1 X99.468 Y7.903 E45.25727
G1 X100.487 Y7.611 E45.29784
G1 X105.675 Y6.221 E45.50339
G1 X106.333 Y6.057 E45.52934
G1 X107.405 Y5.821 E45.57134
G1 X112.689 Y4.756 E45.77763
G1 X113.297 Y4.643 E45.80129
G1 X114.362 Y4.479 E45.84253
G1 X119.661 Y3.754 E46.04721
G1 X120.365 Y3.669 E46.07435
G1 X121.403 Y3.576 E46.11423
G1 X126.85 Y3.175 E46.32325
G1 X127.483 Y3.138 E46.34751
G1 X127.986 Y3.149 E46.36677
G1 X128.301 Y3.197 E46.37896
G1 X128.785 Y3.334 E46.39821
G1 X129.271 Y3.553 E46.41861
G1 X129.549 Y3.694 E46.43054
G1 X180.82 Y30.591 E48.64627
G1 X181.423 Y30.919 E48.67254
G1 X181.845 Y31.194 E48.69181
G1 X182.218 Y31.532 E48.71108
G1 X182.533 Y31.925 E48.73035
G1 X182.782 Y32.363 E48.74963
G1 X182.958 Y32.834 E48.76887
G1 X183.07 Y33.442 E48.79253
G1 X183.167 Y34.598 E48.83693
G1 X183.439 Y37.368 E48.94344
G1 X183.784 Y40.099 E49.04879
G1 X184.203 Y42.792 E49.15309
G1 X184.697 Y45.466 E49.25715
G1 X185.272 Y48.156 E49.36242
G1 X185.446 Y48.864 E49.39032
G1 X185.459 Y48.942 E49.39335
G1 X185.769 Y50.26 E49.44517
G1 X185.846 Y50.758 E49.46445
G1 X185.842 Y51.261 E49.4837
G1 X185.759 Y51.758 E49.50299
G1 X185.599 Y52.235 E49.52224
G1 X185.455 Y52.528 E49.53473
G1 X185.044 Y53.269 E49.56716
G1 X157.853 Y100.365 E51.64833
G1 X157.488 Y100.978 E51.67563
G1 X157.197 Y101.389 E51.6949
G1 X156.844 Y101.749 E51.7142
G1 X156.501 Y102.009 E51.73067
G1 X155.834 Y102.446 E51.76119
G1 X153.565 Y103.983 E51.86607
G1 X151.315 Y105.601 E51.97212
G1 X149.143 Y107.258 E52.07667
G1 X147.027 Y108.969 E52.18081
G1 X144.937 Y110.758 E52.2861
G1 X142.903 Y112.603 E52.39119
G1 X140.937 Y114.488 E52.49542
G1 X138.998 Y116.458 E52.60121
G1 X137.154 Y118.44 E52.70481
G1 X135.337 Y120.507 E52.81013
G1 X133.581 Y122.622 E52.91533
G1 X131.903 Y124.763 E53.01943
G1 X130.28 Y126.961 E53.12399
G1 X128.709 Y129.219 E53.22926
G1 X127.211 Y131.506 E53.33389
G1 X125.765 Y133.858 E53.43955
G1 X125.046 Y135.109 E53.49477
G1 X124.966 Y135.227 E53.50022
G1 X119.746 Y144.268 E53.89975
G1 X119.382 Y144.879 E53.92697
