;FLAVOR:Marlin
;TIME:11734
;Filament used: 11.7449m
;Layer height: 0.3
;MINX:57.08
;MINY:28.457
;MINZ:0.26
;MAXX:147.92
;MAXY:176.543
;MAXZ:69.26
;Generated with Cura_SteamEngine 4.9.1
M82 ;absolute extrusion mode
;Begin Start Gcode for Dagoma DiscoEasy 200
;Sliced: 10-07-2021 02:13:19
;Initial extruder: 0

G90 ;Absolute positioning
M106 S255 ;Fan on full
G28 X Y ;Home stop X Y
G1 X100 ;Centre back during cooldown in case of oozing
M109 R90 ;Cooldown in case too hot
G28 ;Centre
G29 ;Auto-level
M104 S205 ;Pre-heat
M107 ;Fan off
G0 X100 Y5 Z0.5 ;Front centre for degunk
M109 S205 ;Wait for initial temp
M83 ;E Relative
G1 E10 F200 ;Degunk
G1 E-3 F5000 ;Retract
G0 Z3 ;Withdraw
M82 ;E absolute
G92 E0 ;E reset
G1 F6000 ;Set feedrate

;Finish Start Gcode for Dagoma DiscoEasy 200

G92 E0
G92 E0
G1 F3000 E-3.5
;LAYER_COUNT:231
;LAYER:0
M107
G0 F1285.7 X118.201 Y55.194 Z0.26
;TYPE:SKIRT
G1 F3000 E0
G1 F900 X118.566 Y54.583 E0.02724
G1 X118.885 Y54.127 E0.04853
G1 X119.21 Y53.774 E0.0669
G1 X121.213 Y51.852 E0.17313
G1 X123.116 Y49.92 E0.27691
G1 X124.993 Y47.904 E0.38233
G1 X126.752 Y45.903 E0.48429
G1 X128.499 Y43.8 E0.58891
G1 X130.183 Y41.652 E0.69337
G1 X131.813 Y39.445 E0.79837
G1 X133.361 Y37.223 E0.902
G1 X134.829 Y34.982 E1.00453
G1 X136.965 Y31.455 E1.16233
G1 X137.265 Y30.936 E1.18527
G1 X137.617 Y30.346 E1.21156
G1 X137.936 Y29.889 E1.23289
G1 X138.317 Y29.484 E1.25417
G1 X138.751 Y29.137 E1.27543
G1 X139.232 Y28.855 E1.29677
G1 X139.747 Y28.646 E1.31804
G1 X140.287 Y28.512 E1.33933
G1 X140.841 Y28.457 E1.36064
G1 X141.397 Y28.482 E1.38194
G1 X141.943 Y28.587 E1.40322
G1 X142.469 Y28.768 E1.4245
G1 X143.082 Y29.082 E1.45086
G1 X143.177 Y29.134 E1.45501
G1 X145.472 Y30.46 E1.55644
G1 X146.033 Y30.795 E1.58145
G1 X146.489 Y31.114 E1.60274
G1 X146.894 Y31.495 E1.62402
G1 X147.241 Y31.93 E1.64532
G1 X147.522 Y32.41 E1.6666
G1 X147.732 Y32.926 E1.68792
G1 X147.865 Y33.466 E1.70921
G1 X147.92 Y34.019 E1.73048
G1 X147.894 Y34.575 E1.75178
G1 X147.79 Y35.122 E1.77308
G1 X147.608 Y35.648 E1.79439
G1 X147.25 Y36.338 E1.82413
G1 X146.107 Y38.322 E1.91176
G1 X144.747 Y40.755 E2.01843
G1 X143.498 Y43.149 E2.12176
G1 X142.305 Y45.599 E2.22605
G1 X141.191 Y48.065 E2.32961
G1 X140.12 Y50.619 E2.43559
G1 X139.158 Y53.122 E2.53821
G1 X138.259 Y55.665 E2.64143
G1 X137.415 Y58.289 E2.74692
G1 X136.66 Y60.881 E2.85024
G1 X136.256 Y62.395 E2.9102
G1 X135.975 Y63.486 E2.95332
G1 X135.797 Y64.013 E2.97461
G1 X135.607 Y64.406 E2.99131
G1 X135.175 Y65.179 E3.0252
G1 X86.454 Y149.592 E6.75511
G1 X86.087 Y150.208 E6.78255
G1 X85.769 Y150.665 E6.80386
G1 X85.479 Y150.984 E6.82036
G1 X84.531 Y151.919 E6.87131
G1 X84.483 Y151.974 E6.87411
G1 X82.872 Y153.593 E6.96151
G1 X81.035 Y155.546 E7.06412
G1 X79.217 Y157.593 E7.16889
G1 X77.46 Y159.687 E7.2735
G1 X75.761 Y161.833 E7.37825
G1 X74.145 Y163.995 E7.48155
G1 X72.589 Y166.207 E7.58505
G1 X71.087 Y168.474 E7.68912
G1 X69.638 Y170.804 E7.79412
G1 X68.725 Y172.352 E7.8629
G1 X67.754 Y174.032 E7.93716
G1 X67.383 Y174.654 E7.96488
G1 X67.064 Y175.11 E7.98617
G1 X66.684 Y175.516 E8.00745
G1 X66.249 Y175.863 E8.02875
G1 X65.769 Y176.144 E8.05004
G1 X65.253 Y176.354 E8.07135
G1 X64.713 Y176.488 E8.09265
G1 X64.16 Y176.543 E8.11391
G1 X63.604 Y176.518 E8.13521
G1 X63.057 Y176.413 E8.15653
G1 X62.531 Y176.232 E8.17782
G1 X61.918 Y175.918 E8.20418
G1 X61.823 Y175.866 E8.20832
G1 X59.528 Y174.54 E8.30975
G1 X58.967 Y174.205 E8.33476
G1 X58.511 Y173.886 E8.35606
G1 X58.106 Y173.505 E8.37734
G1 X57.759 Y173.07 E8.39863
G1 X57.478 Y172.59 E8.41992
G1 X57.268 Y172.074 E8.44124
G1 X57.135 Y171.534 E8.46252
G1 X57.08 Y170.981 E8.48379
G1 X57.106 Y170.425 E8.50509
G1 X57.21 Y169.878 E8.5264
G1 X57.392 Y169.352 E8.5477
G1 X57.735 Y168.687 E8.57633
G1 X58.216 Y167.852 E8.61321
G1 X59.567 Y165.433 E8.71924
G1 X60.834 Y163.008 E8.82395
G1 X62.012 Y160.588 E8.92695
G1 X63.132 Y158.108 E9.03109
G1 X64.194 Y155.575 E9.1362
G1 X65.167 Y153.047 E9.23987
G1 X66.079 Y150.466 E9.34463
G1 X66.899 Y147.919 E9.44703
G1 X67.667 Y145.277 E9.55232
G1 X68.337 Y142.71 E9.65385
G1 X68.658 Y141.406 E9.70524
G1 X68.83 Y140.876 E9.72656
G1 X69.023 Y140.469 E9.7438
G1 X69.581 Y139.454 E9.78813
G1 X118.201 Y55.194 E13.51104
G0 F1285.7 X118.502 Y55.373
G1 F900 X118.867 Y54.762 E13.53828
G1 X119.173 Y54.328 E13.5586
G1 X119.452 Y54.027 E13.5743
G1 X121.457 Y52.103 E13.68065
G1 X123.375 Y50.156 E13.78524
G1 X125.23 Y48.164 E13.88941
G1 X127.036 Y46.109 E13.99411
G1 X128.788 Y43.999 E14.09906
G1 X130.46 Y41.866 E14.20278
G1 X132.085 Y39.667 E14.30742
G1 X133.632 Y37.444 E14.41107
G1 X135.141 Y35.141 E14.51644
G1 X137.263 Y31.638 E14.67317
G1 X137.566 Y31.115 E14.6963
G1 X137.918 Y30.525 E14.7226
G1 X138.223 Y30.091 E14.7429
G1 X138.59 Y29.708 E14.7632
G1 X139.011 Y29.384 E14.78353
G1 X139.475 Y29.127 E14.80382
G1 X139.973 Y28.943 E14.82414
G1 X140.492 Y28.835 E14.84443
G1 X141.022 Y28.807 E14.86474
G1 X141.55 Y28.858 E14.88504
G1 X142.065 Y28.989 E14.90538
G1 X142.622 Y29.23 E14.9286
G1 X143.002 Y29.437 E14.94516
G1 X145.292 Y30.761 E15.04639
G1 X145.853 Y31.096 E15.0714
G1 X146.287 Y31.401 E15.0917
G1 X146.67 Y31.768 E15.112
G1 X146.994 Y32.189 E15.13233
G1 X147.25 Y32.653 E15.15261
G1 X147.435 Y33.151 E15.17294
G1 X147.542 Y33.671 E15.19326
G1 X147.57 Y34.201 E15.21357
G1 X147.518 Y34.729 E15.23387
G1 X147.388 Y35.243 E15.25416
G1 X147.137 Y35.816 E15.2781
G1 X146.905 Y36.238 E15.29653
G1 X145.801 Y38.151 E15.38106
G1 X144.445 Y40.578 E15.48745
G1 X143.178 Y43.005 E15.59223
G1 X141.997 Y45.43 E15.69545
G1 X140.868 Y47.928 E15.80036
G1 X139.795 Y50.489 E15.90662
G1 X138.829 Y53.003 E16.00969
G1 X137.927 Y55.552 E16.11317
G1 X137.081 Y58.184 E16.21897
G1 X136.33 Y60.76 E16.32165
G1 X135.909 Y62.337 E16.38412
G1 X135.636 Y63.398 E16.42604
G1 X135.465 Y63.901 E16.44638
G1 X135.301 Y64.235 E16.46062
G1 X134.872 Y65.004 E16.49432
G1 X86.153 Y149.413 E20.22406
G1 X85.786 Y150.029 E20.2515
G1 X85.481 Y150.463 E20.2718
G1 X85.233 Y150.735 E20.28588
G1 X84.264 Y151.69 E20.33795
G1 X84.235 Y151.727 E20.33975
G1 X82.616 Y153.354 E20.42759
G1 X80.766 Y155.32 E20.5309
G1 X78.968 Y157.345 E20.63453
G1 X77.18 Y159.476 E20.74099
G1 X75.503 Y161.594 E20.84438
G1 X73.859 Y163.795 E20.94951
G1 X72.308 Y165.999 E21.05265
G1 X70.779 Y168.306 E21.15857
G1 X69.343 Y170.614 E21.26259
G1 X68.422 Y172.177 E21.33202
G1 X67.453 Y173.853 E21.40611
G1 X67.082 Y174.475 E21.43382
G1 X66.777 Y174.909 E21.45413
G1 X66.41 Y175.292 E21.47443
G1 X65.99 Y175.616 E21.49473
G1 X65.525 Y175.873 E21.51506
G1 X65.028 Y176.057 E21.53534
G1 X64.508 Y176.165 E21.55566
G1 X63.978 Y176.193 E21.57598
G1 X63.45 Y176.142 E21.59628
G1 X62.936 Y176.012 E21.61657
G1 X62.378 Y175.77 E21.63984
G1 X61.998 Y175.563 E21.6564
G1 X59.708 Y174.239 E21.75763
G1 X59.147 Y173.904 E21.78264
G1 X58.713 Y173.599 E21.80294
G1 X58.33 Y173.232 E21.82324
G1 X58.006 Y172.811 E21.84357
G1 X57.75 Y172.347 E21.86385
G1 X57.565 Y171.849 E21.88418
G1 X57.458 Y171.329 E21.9045
G1 X57.43 Y170.799 E21.92481
G1 X57.482 Y170.271 E21.94511
G1 X57.612 Y169.757 E21.9654
G1 X57.858 Y169.193 E21.98895
G1 X58.086 Y168.777 E22.0071
G1 X58.547 Y167.979 E22.04237
G1 X59.863 Y165.623 E22.14565
G1 X61.153 Y163.152 E22.25232
G1 X62.326 Y160.743 E22.35486
G1 X63.455 Y158.245 E22.45977
G1 X64.524 Y155.695 E22.56559
G1 X65.492 Y153.179 E22.66875
G1 X66.406 Y150.59 E22.77382
G1 X67.233 Y148.024 E22.877
G1 X68.002 Y145.377 E22.98249
G1 X68.689 Y142.746 E23.08655
G1 X68.998 Y141.489 E23.13609
G1 X69.163 Y140.985 E23.15638
G1 X69.33 Y140.637 E23.17115
G1 X69.884 Y139.629 E23.21517
G1 X118.502 Y55.373 E26.93791
G0 F1285.7 X118.802 Y55.553
G1 F900 X119.167 Y54.942 E26.96515
G1 X119.459 Y54.531 E26.98444
G1 X119.694 Y54.279 E26.99763
G1 X121.719 Y52.336 E27.10503
G1 X123.634 Y50.391 E27.20948
G1 X125.488 Y48.401 E27.31357
G1 X127.302 Y46.337 E27.41873
G1 X129.045 Y44.238 E27.52314
G1 X130.737 Y42.08 E27.62809
G1 X132.374 Y39.865 E27.73349
G1 X133.932 Y37.626 E27.83788
G1 X135.425 Y35.347 E27.94214
G1 X137.578 Y31.793 E28.10116
G1 X137.866 Y31.294 E28.12321
G1 X138.218 Y30.704 E28.14951
G1 X138.51 Y30.294 E28.16877
G1 X138.863 Y29.934 E28.18806
G1 X139.268 Y29.635 E28.20733
G1 X139.715 Y29.404 E28.22658
G1 X140.193 Y29.246 E28.24585
G1 X140.691 Y29.166 E28.26515
G1 X141.194 Y29.166 E28.2844
G1 X141.692 Y29.245 E28.3037
G1 X142.17 Y29.402 E28.32295
G1 X142.749 Y29.697 E28.34782
G1 X145.113 Y31.061 E28.45227
G1 X145.674 Y31.396 E28.47728
G1 X146.084 Y31.688 E28.49654
G1 X146.444 Y32.041 E28.51583
G1 X146.743 Y32.446 E28.5351
G1 X146.974 Y32.893 E28.55436
G1 X147.131 Y33.372 E28.57365
G1 X147.211 Y33.869 E28.59291
G1 X147.211 Y34.372 E28.61216
G1 X147.132 Y34.87 E28.63146
G1 X146.975 Y35.348 E28.65071
G1 X146.636 Y36.002 E28.6789
G1 X145.474 Y38.018 E28.76795
G1 X144.149 Y40.388 E28.87186
G1 X142.874 Y42.832 E28.97736
G1 X141.657 Y45.331 E29.08373
G1 X140.546 Y47.79 E29.18699
G1 X139.482 Y50.329 E29.29235
G1 X138.488 Y52.915 E29.39837
G1 X137.589 Y55.459 E29.50163
G1 X136.753 Y58.057 E29.60607
G1 X135.992 Y60.67 E29.71023
G1 X135.571 Y62.247 E29.77269
G1 X135.297 Y63.311 E29.81474
G1 X135.133 Y63.787 E29.83401
G1 X134.995 Y64.065 E29.84588
G1 X134.569 Y64.829 E29.87936
G1 X85.853 Y149.234 E33.60891
G1 X85.486 Y149.85 E33.63635
G1 X85.194 Y150.261 E33.65564
G1 X84.988 Y150.485 E33.66729
G1 X84.037 Y151.423 E33.71841
G1 X83.987 Y151.481 E33.72134
G1 X82.36 Y153.115 E33.80959
G1 X80.497 Y155.096 E33.91366
G1 X78.685 Y157.136 E34.01808
G1 X76.921 Y159.24 E34.12315
G1 X75.211 Y161.399 E34.22855
G1 X73.6 Y163.554 E34.33152
G1 X72.019 Y165.802 E34.43669
G1 X70.487 Y168.114 E34.54283
G1 X69.025 Y170.464 E34.64875
G1 X68.118 Y172.002 E34.71708
G1 X67.153 Y173.673 E34.79093
G1 X66.782 Y174.295 E34.81864
G1 X66.49 Y174.706 E34.83794
G1 X66.138 Y175.066 E34.85721
G1 X65.732 Y175.365 E34.8765
G1 X65.285 Y175.596 E34.89576
G1 X64.807 Y175.754 E34.91503
G1 X64.31 Y175.834 E34.93429
G1 X63.806 Y175.834 E34.95358
G1 X63.309 Y175.755 E34.97284
G1 X62.83 Y175.598 E34.99213
G1 X62.251 Y175.303 E35.017
G1 X59.887 Y173.939 E35.12144
G1 X59.326 Y173.604 E35.14645
G1 X58.916 Y173.312 E35.16571
G1 X58.556 Y172.959 E35.18501
G1 X58.257 Y172.554 E35.20427
G1 X58.026 Y172.107 E35.22353
G1 X57.869 Y171.628 E35.24282
G1 X57.789 Y171.131 E35.26208
G1 X57.789 Y170.628 E35.28133
G1 X57.868 Y170.13 E35.30063
G1 X58.025 Y169.652 E35.31989
G1 X58.349 Y169.022 E35.347
G1 X58.827 Y168.193 E35.38362
G1 X60.196 Y165.744 E35.49099
G1 X61.444 Y163.353 E35.59421
G1 X62.666 Y160.842 E35.70108
G1 X63.777 Y158.383 E35.80434
G1 X64.848 Y155.826 E35.91043
G1 X65.816 Y153.31 E36.0136
G1 X66.737 Y150.703 E36.11941
G1 X67.567 Y148.129 E36.22291
G1 X68.342 Y145.462 E36.3292
G1 X69.028 Y142.834 E36.43314
G1 X69.338 Y141.573 E36.48283
G1 X69.497 Y141.095 E36.50211
G1 X69.637 Y140.805 E36.51444
G1 X70.187 Y139.804 E36.55815
G1 X118.802 Y55.553 E40.28066
G0 F1285.7 X121.999 Y56.715
;TYPE:SUPPORT
G1 F900 X125.503 Y58.757 E40.43587
G1 X125.979 Y58.631 E40.45471
G1 X131.971 Y48.252 E40.91335
G1 X134.741 Y49.852 E41.03577
G1 X128.757 Y60.214 E41.49369
G1 X128.886 Y60.691 E41.5126
G1 X132.04 Y62.509 E41.65192
G1 X82.649 Y148.082 E45.4331
G1 X79.491 Y146.249 E45.57284
G1 X79.015 Y146.377 E45.5917
G1 X73.02 Y156.744 E46.05
G1 X70.256 Y155.147 E46.17217
G1 X76.23 Y144.804 E46.62927
G1 X76.102 Y144.328 E46.64813
G1 X72.611 Y142.306 E46.80252
G1 X121.999 Y56.715 E50.58424
G0 F1285.7 X121.441 Y65.62
G1 F900 X120.602 Y65.848 E50.61751
G1 X110.085 Y84.061 E51.42237
G1 X110.313 Y84.9 E51.45565
G1 X113.838 Y86.936 E51.61143
G1 X114.677 Y86.708 E51.6447
G1 X125.193 Y68.495 E52.44955
G1 X124.965 Y67.656 E52.48282
G1 X121.441 Y65.62 E52.63857
G1 F3000 E49.13857
G0 F1285.7 X120.743 Y66.031
G0 X111.358 Y82.285
G0 X91.162 Y118.064
G1 F3000 E52.63857
G1 F900 X90.323 Y118.292 E52.67184
G1 X79.807 Y136.505 E53.47669
G1 X80.035 Y137.344 E53.50996
G1 X83.559 Y139.38 E53.66571
G1 X84.398 Y139.152 E53.69899
G1 X94.915 Y120.939 E54.50385
G1 X94.687 Y120.1 E54.53712
G1 X91.162 Y118.064 E54.69291
G0 F1285.7 X90.987 Y117.967
G1 F900 X90.987 Y110.739 E54.96952
G0 F1285.7 X91.616 Y109.651
G1 F900 X104.668 Y109.651 E55.46901
G0 F1285.7 X104.985 Y109.104
G1 F900 X104.985 Y86.481 E56.33478
G0 F1285.7 X105.077 Y86.321
G1 F900 X112.495 Y86.321 E56.61867
G0 F1285.7 X111.984 Y86.027
G1 F900 X111.984 Y96.978 E57.03776
G0 F1285.7 X111.401 Y97.986
G1 F900 X98.347 Y97.986 E57.53733
G0 F1285.7 X97.986 Y98.61
G1 F900 X97.986 Y121.231 E58.40302
G0 F1285.7 X97.935 Y121.316
G1 F900 X94.858 Y121.316 E58.52078
G1 F3000 E55.02078
G0 F1285.7 X94.504 Y120.241
G0 X93.32 Y119.149
G1 F3000 E58.52078
G1 F900 X93.32 Y106.696 E58.99735
G0 F1285.7 X92.962 Y107.318
G1 F900 X106.015 Y107.318 E59.49688
G0 F1285.7 X107.318 Y105.062
G1 F900 X107.318 Y82.437 E60.36273
G0 F1285.7 X107.77 Y81.655
G1 F900 X111.313 Y81.655 E60.49832
G0 F1285.7 X111.984 Y80.494
G1 F900 X111.984 Y74.351 E60.7334
G0 F1285.7 X111.808 Y74.656
G1 F900 X115.354 Y74.656 E60.86911
G0 F1285.7 X114.317 Y76.454
G1 F900 X114.317 Y70.308 E61.10431
G0 F1285.7 X114.501 Y69.99
G1 F900 X118.048 Y69.99 E61.24005
G0 F1285.7 X118.983 Y68.373
G1 F900 X118.983 Y62.222 E61.47545
G0 F1285.7 X118.539 Y62.991
G1 F900 X131.599 Y62.991 E61.97525
G0 F1285.7 X130.648 Y61.869
G1 F900 X130.648 Y64.641 E62.08133
G0 F1285.7 X130.253 Y65.324
G1 F900 X117.193 Y65.324 E62.58113
G0 F1285.7 X116.65 Y66.265
G1 F900 X116.65 Y72.413 E62.81641
G0 F1285.7 X116.701 Y72.323
G1 F900 X113.155 Y72.323 E62.95212
G0 F1285.7 X114.007 Y76.989
G1 F900 X110.462 Y76.989 E63.08778
G0 F1285.7 X109.651 Y78.394
G1 F900 X109.651 Y101.02 E63.95367
G0 F1285.7 X110.055 Y100.319
G1 F900 X97 Y100.319 E64.45328
G0 F1285.7 X94.308 Y104.985
G1 F900 X107.362 Y104.985 E64.95285
G0 F1285.7 X108.708 Y102.652
G1 F900 X95.654 Y102.652 E65.45242
G0 F1285.7 X95.653 Y102.653
G1 F900 X95.653 Y125.273 E66.31808
G0 F1285.7 X95.242 Y125.982
G1 F900 X92.164 Y125.982 E66.43587
G0 F1285.7 X93.32 Y123.98
G1 F900 X93.32 Y129.315 E66.64004
G0 F1285.7 X93.895 Y128.315
G1 F900 X90.816 Y128.315 E66.75787
G0 F1285.7 X90.987 Y128.02
G1 F900 X90.987 Y133.357 E66.96211
G0 F1285.7 X91.202 Y132.981
G1 F900 X88.122 Y132.981 E67.07998
G0 F1285.7 X88.654 Y132.06
G1 F900 X88.654 Y137.399 E67.2843
G0 F1285.7 X88.509 Y137.647
G1 F900 X85.428 Y137.647 E67.40221
G0 F1285.7 X86.321 Y136.101
G1 F900 X86.321 Y141.441 E67.60657
G0 F1285.7 X85.816 Y142.313
G1 F900 X72.901 Y142.313 E68.10082
G0 F1285.7 X74.656 Y143.328
G1 F900 X74.656 Y139.041 E68.26488
G0 F1285.7 X74.114 Y139.98
G1 F900 X87.162 Y139.98 E68.76423
G0 F1285.7 X83.988 Y139.408
G1 F900 X83.988 Y145.483 E68.99671
G0 F1285.7 X84.469 Y144.646
G1 F900 X76.331 Y144.646 E69.30815
G0 F1285.7 X75.135 Y146.979
G1 F900 X78.504 Y146.979 E69.43708
G0 F1285.7 X79.322 Y146.15
G1 F900 X79.322 Y130.955 E70.01859
G0 F1285.7 X79.499 Y130.648
G1 F900 X83.026 Y130.648 E70.15356
G0 F1285.7 X83.988 Y128.985
G1 F900 X83.988 Y122.869 E70.38762
G0 F1285.7 X83.538 Y123.649
G1 F900 X87.067 Y123.649 E70.52267
G0 F1285.7 X86.321 Y124.945
G1 F900 X86.321 Y118.826 E70.75684
G0 F1285.7 X86.23 Y118.983
G1 F900 X89.761 Y118.983 E70.89197
G0 F1285.7 X88.654 Y120.904
G1 F900 X88.654 Y114.783 E71.12622
G0 F1285.7 X88.923 Y114.317
G1 F900 X101.975 Y114.317 E71.62571
G0 F1285.7 X102.652 Y113.146
G1 F900 X102.652 Y90.524 E72.49145
G0 F1285.7 X102.385 Y90.987
G1 F900 X115.441 Y90.987 E72.99109
G0 F1285.7 X114.317 Y92.936
G1 F900 X114.317 Y86.95 E73.22018
G0 F1285.7 X115.062 Y86.321
G1 F900 X118.134 Y86.321 E73.33774
G0 F1285.7 X118.983 Y84.852
G1 F900 X118.983 Y79.529 E73.54145
G0 F1285.7 X119.103 Y79.322
G1 F900 X122.173 Y79.322 E73.65894
G0 F1285.7 X121.316 Y80.81
G1 F900 X121.316 Y75.488 E73.86261
G0 F1285.7 X121.797 Y74.656
G1 F900 X124.866 Y74.656 E73.98005
G0 F1285.7 X125.982 Y72.726
G1 F900 X125.982 Y58.775 E74.51395
G0 F1285.7 X126.317 Y58.325
G1 F900 X129.685 Y58.325 E74.64284
G0 F1285.7 X130.648 Y56.66
G1 F900 X130.648 Y50.823 E74.86622
G0 F1285.7 X130.358 Y51.326
G1 F900 X133.726 Y51.326 E74.99512
G0 F1285.7 X132.981 Y52.619
G1 F900 X132.981 Y48.998 E75.13369
G0 F1285.7 X132.975 Y48.993
G1 F900 X131.705 Y48.993 E75.18229
