;FLAVOR:Marlin
;TIME:25701
;Filament used: 32.5019m
;Layer height: 0.3
;MINX:19.577
;MINY:3.438
;MINZ:0.26
;MAXX:185.413
;MAXY:201.563
;MAXZ:19.76
;Generated with Cura_SteamEngine 4.9.1
M82 ;absolute extrusion mode
;Begin Start Gcode for Dagoma DiscoEasy 200
;Sliced: 19-07-2021 01:51:08
;Initial extruder: 0

G90 ;Absolute positioning
M106 S255 ;Fan on full
G28 X Y ;Home stop X Y
G1 X100 ;Centre back during cooldown in case of oozing
M109 R90 ;Cooldown in case too hot
G28 ;Centre
G29 ;Auto-level
M104 S205 ;Pre-heat
M107 ;Fan off
G0 X100 Y5 Z0.5 ;Front centre for degunk
M109 S205 ;Wait for initial temp
M83 ;E Relative
G1 E10 F200 ;Degunk
G1 E-3 F5000 ;Retract
G0 Z3 ;Withdraw
M82 ;E absolute
G92 E0 ;E reset
G1 F6000 ;Set feedrate

;Finish Start Gcode for Dagoma DiscoEasy 200

G92 E0
G92 E0
G1 F3000 E-3.5
;LAYER_COUNT:66
;LAYER:0
M107
G0 F1285.7 X47.583 Y41.784 Z0.26
;TYPE:SKIRT
G1 F3000 E0
G1 F900 X51.25 Y37.797 E0.2073
G1 X51.712 Y37.309 E0.23302
G1 X52.454 Y36.574 E0.27299
G1 X56.327 Y32.861 E0.47832
G1 X56.838 Y32.385 E0.50504
G1 X57.598 Y31.722 E0.54364
G1 X61.718 Y28.241 E0.75005
G1 X62.221 Y27.829 E0.77494
G1 X63.08 Y27.168 E0.81641
G1 X67.382 Y23.973 E1.02149
G1 X67.852 Y23.635 E1.04364
G1 X68.798 Y22.995 E1.08735
G1 X73.292 Y20.079 E1.29237
G1 X73.858 Y19.723 E1.31796
G1 X74.799 Y19.173 E1.35967
G1 X79.479 Y16.534 E1.56528
G1 X80.04 Y16.229 E1.58972
G1 X80.95 Y15.771 E1.62871
G1 X85.846 Y13.406 E1.83679
G1 X86.39 Y13.155 E1.85972
G1 X87.421 Y12.712 E1.90266
G1 X92.368 Y10.694 E2.10713
G1 X92.971 Y10.459 E2.13189
G1 X93.988 Y10.098 E2.17319
G1 X99.096 Y8.379 E2.37945
G1 X99.597 Y8.217 E2.3996
G1 X100.657 Y7.913 E2.4418
G1 X105.928 Y6.5 E2.65064
G1 X106.52 Y6.352 E2.67399
G1 X107.593 Y6.117 E2.71603
G1 X112.882 Y5.05 E2.92251
G1 X113.393 Y4.954 E2.94241
G1 X114.514 Y4.781 E2.98582
G1 X119.891 Y4.044 E3.19352
G1 X120.517 Y3.969 E3.21765
G1 X121.539 Y3.876 E3.25692
G1 X127.004 Y3.475 E3.46662
G1 X127.637 Y3.438 E3.49089
G1 X128.369 Y3.489 E3.51897
G1 X129.062 Y3.72 E3.54693
G1 X129.519 Y3.946 E3.56644
G1 X180.827 Y30.862 E5.78375
G1 X181.414 Y31.181 E5.80932
G1 X181.814 Y31.444 E5.82764
G1 X182.165 Y31.77 E5.84597
G1 X182.458 Y32.15 E5.86434
G1 X182.683 Y32.573 E5.88267
G1 X182.834 Y33.027 E5.90098
G1 X182.909 Y33.506 E5.91954
G1 X183.103 Y36.274 E6.02573
G1 X183.372 Y39.005 E6.13075
G1 X183.714 Y41.713 E6.2352
G1 X184.141 Y44.454 E6.34136
G1 X184.634 Y47.123 E6.44523
G1 X185.065 Y49.08 E6.52192
G1 X185.354 Y50.457 E6.57577
G1 X185.413 Y50.933 E6.59412
G1 X185.392 Y51.412 E6.61247
G1 X185.292 Y51.88 E6.63079
G1 X185.06 Y52.432 E6.6537
G1 X184.522 Y53.411 E6.69645
G1 X157.678 Y99.905 E8.75103
G1 X157.29 Y100.555 E8.78
G1 X157.011 Y100.944 E8.79832
G1 X156.671 Y101.282 E8.81666
G1 X156.136 Y101.658 E8.84169
G1 X153.82 Y103.224 E8.94868
G1 X151.615 Y104.808 E9.05258
G1 X149.398 Y106.497 E9.15924
G1 X147.278 Y108.209 E9.26352
G1 X145.184 Y110.002 E9.36902
G1 X143.15 Y111.844 E9.47404
G1 X141.171 Y113.741 E9.57895
G1 X139.221 Y115.719 E9.68525
G1 X137.38 Y117.697 E9.78866
G1 X135.551 Y119.777 E9.89466
G1 X133.785 Y121.901 E10.00037
G1 X132.11 Y124.037 E10.10425
G1 X130.463 Y126.265 E10.21028
G1 X128.91 Y128.493 E10.31421
G1 X127.38 Y130.829 E10.42108
G1 X125.958 Y133.138 E10.52486
G1 X124.913 Y134.961 E10.60527
G1 X119.625 Y144.114 E11.00981
G1 X119.261 Y144.725 E11.03702
G1 X118.924 Y145.181 E11.05872
G1 X118.116 Y146.076 E11.10487
G1 X118.022 Y146.176 E11.11012
G1 X116.214 Y148.225 E11.2147
G1 X114.459 Y150.33 E11.31958
G1 X112.762 Y152.486 E11.42458
G1 X111.132 Y154.681 E11.52921
G1 X109.547 Y156.948 E11.63507
G1 X108.032 Y159.25 E11.74053
G1 X106.597 Y161.572 E11.84499
G1 X105.223 Y163.946 E11.94997
G1 X103.903 Y166.376 E12.0558
G1 X102.656 Y168.839 E12.16145
G1 X101.494 Y171.304 E12.26574
G1 X100.398 Y173.812 E12.37048
G1 X99.362 Y176.373 E12.4762
G1 X98.413 Y178.931 E12.58062
G1 X97.537 Y181.507 E12.68474
G1 X97.379 Y182.016 E12.70514
G1 X97.022 Y183.117 E12.74943
G1 X96.801 Y183.627 E12.77071
G1 X96.458 Y184.241 E12.79762
G1 X87.621 Y199.55 E13.47409
G1 X87.258 Y200.16 E13.50126
G1 X86.979 Y200.55 E13.51961
G1 X86.64 Y200.888 E13.53793
G1 X86.249 Y201.166 E13.55629
G1 X85.817 Y201.374 E13.57464
G1 X85.357 Y201.508 E13.59297
G1 X84.881 Y201.563 E13.61131
G1 X84.403 Y201.539 E13.62963
G1 X83.935 Y201.436 E13.64796
G1 X83.375 Y201.198 E13.67125
G1 X82.914 Y200.952 E13.69125
G1 X37.523 Y176.021 E15.67311
G1 X36.919 Y175.678 E15.69969
G1 X36.524 Y175.407 E15.71803
G1 X36.179 Y175.075 E15.73635
G1 X35.879 Y174.665 E15.75579
G1 X35.592 Y174.181 E15.77733
G1 X32.77 Y169.171 E15.99738
G1 X32.488 Y168.657 E16.01982
G1 X31.993 Y167.675 E16.0619
G1 X29.631 Y162.791 E16.26952
G1 X29.365 Y162.215 E16.2938
G1 X28.942 Y161.229 E16.33486
G1 X26.913 Y156.255 E16.54044
G1 X26.678 Y155.652 E16.56521
G1 X26.317 Y154.635 E16.60651
G1 X24.596 Y149.52 E16.81304
G1 X24.41 Y148.935 E16.83653
G1 X24.12 Y147.921 E16.87689
G1 X22.73 Y142.734 E17.0824
G1 X22.569 Y142.088 E17.10788
G1 X22.334 Y141.022 E17.14965
G1 X21.269 Y135.738 E17.35594
G1 X21.159 Y135.142 E17.37913
G1 X20.997 Y134.09 E17.41986
G1 X20.266 Y128.745 E17.62632
G1 X20.189 Y128.111 E17.65076
G1 X20.095 Y127.072 E17.69068
G1 X19.695 Y121.619 E17.89993
G1 X19.664 Y121.069 E17.92101
G1 X19.634 Y119.96 E17.96347
G1 X19.577 Y114.596 E18.16876
G1 X19.579 Y114.047 E18.18977
G1 X19.617 Y112.944 E18.232
G1 X19.902 Y107.492 E18.44093
G1 X19.937 Y106.965 E18.46115
G1 X20.049 Y105.824 E18.50502
G1 X20.671 Y100.447 E18.71217
G1 X20.75 Y99.845 E18.7354
G1 X20.928 Y98.751 E18.77782
G1 X21.879 Y93.467 E18.98329
G1 X21.982 Y92.939 E19.00387
G1 X22.237 Y91.815 E19.04798
G1 X23.53 Y86.552 E19.25538
G1 X23.679 Y85.989 E19.27767
G1 X23.993 Y84.921 E19.32027
G1 X25.605 Y79.776 E19.52661
G1 X25.771 Y79.274 E19.54684
G1 X26.154 Y78.219 E19.58979
G1 X28.115 Y73.108 E19.79929
G1 X28.324 Y72.591 E19.82063
G1 X28.762 Y71.592 E19.86238
G1 X31.002 Y66.701 E20.06825
G1 X31.275 Y66.129 E20.09251
G1 X31.773 Y65.16 E20.1342
G1 X34.32 Y60.412 E20.3404
G1 X34.619 Y59.874 E20.36395
G1 X35.163 Y58.964 E20.40453
G1 X38 Y54.39 E20.61051
G1 X38.348 Y53.848 E20.63516
G1 X38.965 Y52.948 E20.67692
G1 X42.08 Y48.565 E20.8827
G1 X42.463 Y48.044 E20.90744
G1 X43.092 Y47.241 E20.94648
G1 X46.502 Y43.029 E21.15387
G1 X46.852 Y42.609 E21.1748
G1 X47.583 Y41.784 E21.21698
G0 F1285.7 X47.875 Y41.984
G1 F900 X51.505 Y38.037 E21.4222
G1 X51.958 Y37.558 E21.44743
G1 X52.697 Y36.826 E21.48723
G1 X56.567 Y33.116 E21.6924
G1 X57.068 Y32.649 E21.71861
G1 X57.824 Y31.99 E21.75699
G1 X61.94 Y28.511 E21.96324
G1 X62.435 Y28.106 E21.98771
G1 X63.289 Y27.449 E22.02895
G1 X67.587 Y24.257 E22.23383
G1 X68.118 Y23.877 E22.25882
G1 X68.988 Y23.289 E22.29901
G1 X73.479 Y20.375 E22.50388
G1 X74.035 Y20.025 E22.52903
G1 X74.971 Y19.478 E22.57051
G1 X79.647 Y16.841 E22.77596
G1 X80.123 Y16.581 E22.79671
G1 X81.102 Y16.087 E22.83868
G1 X85.994 Y13.723 E23.04661
G1 X86.528 Y13.476 E23.06912
G1 X87.553 Y13.036 E23.11181
G1 X92.495 Y11.019 E23.31608
G1 X93.014 Y10.816 E23.33741
G1 X94.1 Y10.43 E23.38152
G1 X99.204 Y8.712 E23.58761
G1 X99.705 Y8.55 E23.60777
G1 X100.792 Y8.239 E23.65103
G1 X106.013 Y6.84 E23.85789
G1 X106.596 Y6.694 E23.88089
G1 X107.662 Y6.46 E23.92265
G1 X112.947 Y5.394 E24.12898
G1 X113.539 Y5.284 E24.15203
G1 X114.561 Y5.127 E24.1916
G1 X119.934 Y4.392 E24.39913
G1 X120.549 Y4.318 E24.42284
G1 X121.564 Y4.225 E24.46184
G1 X127.025 Y3.824 E24.6714
G1 X127.658 Y3.787 E24.69566
G1 X128.31 Y3.834 E24.72068
G1 X128.91 Y4.035 E24.7449
G1 X129.36 Y4.258 E24.76411
G1 X180.66 Y31.169 E26.98107
G1 X181.247 Y31.488 E27.00664
G1 X181.621 Y31.737 E27.02383
G1 X181.944 Y32.048 E27.04099
G1 X182.208 Y32.411 E27.05817
G1 X182.403 Y32.816 E27.07537
G1 X182.524 Y33.248 E27.09254
G1 X182.56 Y33.531 E27.10346
G1 X182.754 Y36.298 E27.20961
G1 X183.024 Y39.045 E27.31524
G1 X183.369 Y41.776 E27.42059
G1 X183.793 Y44.497 E27.52597
G1 X184.293 Y47.204 E27.63132
G1 X184.722 Y49.152 E27.70766
G1 X185.011 Y50.529 E27.7615
G1 X185.064 Y50.975 E27.77869
G1 X185.037 Y51.423 E27.79587
G1 X184.931 Y51.86 E27.81308
G1 X184.753 Y52.263 E27.82994
G1 X184.219 Y53.236 E27.87241
G1 X157.377 Y99.725 E29.92678
G1 X156.989 Y100.375 E29.95575
G1 X156.726 Y100.739 E29.97294
G1 X156.213 Y101.187 E29.999
G1 X155.94 Y101.368 E30.01154
G1 X153.63 Y102.93 E30.11825
G1 X151.386 Y104.542 E30.22399
G1 X149.198 Y106.209 E30.32926
G1 X147.04 Y107.951 E30.43539
G1 X144.951 Y109.74 E30.54065
G1 X142.921 Y111.579 E30.64547
G1 X140.927 Y113.49 E30.75117
G1 X138.981 Y115.465 E30.85728
G1 X137.109 Y117.475 E30.96239
G1 X135.284 Y119.55 E31.06815
G1 X133.521 Y121.671 E31.1737
G1 X131.816 Y123.845 E31.27943
G1 X130.191 Y126.044 E31.38407
G1 X128.61 Y128.312 E31.48987
G1 X127.096 Y130.623 E31.5956
G1 X125.648 Y132.975 E31.7013
G1 X124.609 Y134.786 E31.7812
G1 X119.324 Y143.935 E32.18555
G1 X118.96 Y144.546 E32.21277
G1 X118.665 Y144.947 E32.23182
G1 X117.861 Y145.835 E32.27766
G1 X117.766 Y145.936 E32.28297
G1 X115.963 Y147.98 E32.38727
G1 X114.196 Y150.099 E32.49286
G1 X112.473 Y152.288 E32.59947
G1 X110.843 Y154.484 E32.70413
G1 X109.259 Y156.748 E32.80988
G1 X107.738 Y159.059 E32.91575
G1 X106.303 Y161.383 E33.02028
G1 X104.909 Y163.789 E33.12669
G1 X103.604 Y166.193 E33.23138
G1 X102.348 Y168.674 E33.3378
G1 X101.177 Y171.157 E33.44286
G1 X100.073 Y173.683 E33.54835
G1 X99.025 Y176.274 E33.65531
G1 X98.091 Y178.791 E33.75806
G1 X97.188 Y181.45 E33.86552
G1 X97.046 Y181.908 E33.88387
G1 X96.689 Y183.009 E33.92817
G1 X96.457 Y183.526 E33.94985
G1 X96.155 Y184.066 E33.97353
G1 X87.32 Y199.371 E34.64983
G1 X86.957 Y199.981 E34.677
G1 X86.694 Y200.345 E34.69418
G1 X86.371 Y200.657 E34.71137
G1 X85.997 Y200.906 E34.72856
G1 X85.586 Y201.085 E34.74572
G1 X85.149 Y201.189 E34.76291
G1 X84.7 Y201.214 E34.78012
G1 X84.255 Y201.158 E34.79728
G1 X83.65 Y200.945 E34.82183
G1 X83.107 Y200.658 E34.84533
G1 X37.696 Y175.717 E36.82805
G1 X37.092 Y175.374 E36.85464
G1 X36.723 Y175.118 E36.87182
G1 X36.405 Y174.801 E36.88901
G1 X36.042 Y174.259 E36.91397
G1 X35.881 Y173.981 E36.92627
G1 X33.077 Y169.003 E37.14491
G1 X32.795 Y168.489 E37.16735
G1 X32.753 Y168.409 E37.17081
G1 X32.308 Y167.522 E37.20879
G1 X29.949 Y162.644 E37.41615
G1 X29.687 Y162.077 E37.44005
G1 X29.266 Y161.096 E37.48091
G1 X27.238 Y156.128 E37.68626
G1 X27.035 Y155.609 E37.70759
G1 X26.649 Y154.523 E37.75169
G1 X24.93 Y149.413 E37.95802
G1 X24.747 Y148.839 E37.98108
G1 X24.458 Y147.831 E38.02121
G1 X23.069 Y142.648 E38.22656
G1 X22.91 Y142.013 E38.25161
G1 X22.677 Y140.953 E38.29314
G1 X21.613 Y135.674 E38.49923
G1 X21.518 Y135.167 E38.51897
G1 X21.343 Y134.042 E38.56254
G1 X20.613 Y128.702 E38.7688
G1 X20.537 Y128.079 E38.79282
G1 X20.444 Y127.047 E38.83247
G1 X20.044 Y121.599 E39.04153
G1 X20.014 Y121.059 E39.06222
G1 X19.984 Y119.956 E39.10445
G1 X19.927 Y114.597 E39.30955
G1 X19.929 Y114.048 E39.33056
G1 X19.968 Y112.914 E39.37398
G1 X20.252 Y107.516 E39.58085
G1 X20.293 Y106.908 E39.60417
G1 X20.397 Y105.864 E39.64432
G1 X21.018 Y100.492 E39.85127
G1 X21.096 Y99.901 E39.87409
G1 X21.273 Y98.813 E39.91627
G1 X22.223 Y93.534 E40.12154
G1 X22.342 Y92.928 E40.14517
G1 X22.577 Y91.899 E40.18557
G1 X23.869 Y86.64 E40.39281
G1 X24.014 Y86.087 E40.41469
G1 X24.327 Y85.026 E40.45702
G1 X25.938 Y79.886 E40.66316
G1 X26.128 Y79.315 E40.68619
G1 X26.481 Y78.344 E40.72573
G1 X28.44 Y73.238 E40.93503
G1 X28.645 Y72.732 E40.95592
G1 X29.08 Y71.738 E40.99744
G1 X31.318 Y66.851 E41.20314
G1 X31.586 Y66.289 E41.22697
G1 X32.082 Y65.326 E41.26843
G1 X34.626 Y60.581 E41.47447
G1 X34.92 Y60.053 E41.49759
G1 X35.46 Y59.148 E41.53793
G1 X38.295 Y54.579 E41.7437
G1 X38.637 Y54.046 E41.76794
G1 X39.251 Y53.151 E41.80948
G1 X42.362 Y48.772 E42.01504
G1 X42.739 Y48.26 E42.03938
G1 X43.364 Y47.461 E42.0782
G1 X46.771 Y43.254 E42.28537
G1 X47.173 Y42.774 E42.30933
G1 X47.875 Y41.984 E42.34978
G0 F1285.7 X48.132 Y42.221
G1 F900 X51.759 Y38.277 E42.55483
G1 X52.153 Y37.859 E42.57682
G1 X52.939 Y37.079 E42.61919
G1 X56.806 Y33.372 E42.8242
G1 X57.243 Y32.963 E42.8471
G1 X58.05 Y32.257 E42.88814
G1 X62.162 Y28.782 E43.09417
G1 X62.649 Y28.384 E43.11824
G1 X63.497 Y27.73 E43.15922
G1 X67.791 Y24.541 E43.36391
G1 X68.261 Y24.203 E43.38606
G1 X69.179 Y23.583 E43.42846
G1 X73.665 Y20.671 E43.63313
G1 X74.212 Y20.327 E43.65786
G1 X75.143 Y19.782 E43.69915
G1 X79.814 Y17.148 E43.90437
G1 X80.355 Y16.854 E43.92793
G1 X81.255 Y16.402 E43.96647
G1 X86.141 Y14.041 E44.17414
G1 X86.666 Y13.798 E44.19628
G1 X87.685 Y13.36 E44.23873
G1 X92.623 Y11.345 E44.44283
G1 X93.142 Y11.142 E44.46416
G1 X94.211 Y10.762 E44.50758
G1 X99.312 Y9.046 E44.71354
G1 X99.885 Y8.861 E44.73658
G1 X100.883 Y8.577 E44.77629
G1 X106.099 Y7.179 E44.98295
G1 X106.671 Y7.036 E45.00551
G1 X107.731 Y6.803 E45.04705
G1 X113.011 Y5.738 E45.25318
G1 X113.593 Y5.63 E45.27583
G1 X114.609 Y5.474 E45.31517
G1 X119.976 Y4.739 E45.52248
G1 X120.581 Y4.666 E45.5458
G1 X121.59 Y4.574 E45.58458
G1 X127.045 Y4.174 E45.7939
G1 X127.678 Y4.137 E45.81816
G1 X128.242 Y4.177 E45.8398
G1 X128.759 Y4.35 E45.86067
G1 X129.221 Y4.58 E45.88042
G1 X180.493 Y31.477 E48.09617
G1 X181.08 Y31.796 E48.12174
G1 X181.425 Y32.029 E48.13767
G1 X181.719 Y32.324 E48.15361
G1 X181.952 Y32.669 E48.16954
G1 X182.115 Y33.053 E48.18551
G1 X182.211 Y33.555 E48.20507
G1 X182.405 Y36.322 E48.31122
G1 X182.677 Y39.088 E48.41758
G1 X183.024 Y41.834 E48.52351
G1 X183.447 Y44.551 E48.62874
G1 X183.951 Y47.28 E48.73494
G1 X184.38 Y49.224 E48.81113
G1 X184.669 Y50.601 E48.86497
G1 X184.715 Y51.015 E48.88091
G1 X184.681 Y51.431 E48.89689
G1 X184.569 Y51.832 E48.91282
G1 X184.446 Y52.095 E48.92393
G1 X183.916 Y53.061 E48.9661
G1 X157.077 Y99.546 E51.02028
G1 X156.689 Y100.196 E51.04925
G1 X156.442 Y100.531 E51.06518
G1 X156.02 Y100.895 E51.08651
G1 X155.744 Y101.078 E51.09918
G1 X153.416 Y102.652 E51.20672
G1 X151.185 Y104.255 E51.31186
G1 X148.974 Y105.94 E51.41824
G1 X146.841 Y107.662 E51.52315
G1 X144.717 Y109.48 E51.63014
G1 X142.673 Y111.333 E51.73573
G1 X140.683 Y113.239 E51.84118
G1 X138.723 Y115.228 E51.94804
G1 X136.838 Y117.252 E52.05389
G1 X135.041 Y119.295 E52.15802
G1 X133.233 Y121.47 E52.26626
G1 X131.563 Y123.599 E52.36981
G1 X129.902 Y125.846 E52.47674
G1 X128.311 Y128.13 E52.58327
G1 X126.801 Y130.433 E52.68866
G1 X125.36 Y132.774 E52.79386
G1 X124.306 Y134.611 E52.87491
G1 X119.024 Y143.756 E53.27906
G1 X118.66 Y144.367 E53.30628
G1 X118.405 Y144.712 E53.3227
G1 X117.606 Y145.595 E53.36827
G1 X117.525 Y145.681 E53.37279
G1 X115.698 Y147.752 E53.47848
G1 X113.897 Y149.912 E53.58611
G1 X112.197 Y152.072 E53.6913
G1 X110.555 Y154.284 E53.79673
G1 X108.987 Y156.526 E53.90143
G1 X107.425 Y158.9 E54.01018
G1 X105.999 Y161.208 E54.11401
G1 X104.622 Y163.585 E54.21914
G1 X103.273 Y166.07 E54.32735
G1 X102.038 Y168.508 E54.43194
G1 X100.859 Y171.009 E54.53775
G1 X99.737 Y173.577 E54.645
G1 X98.723 Y176.084 E54.74849
G1 X97.746 Y178.716 E54.85593
G1 X96.868 Y181.3 E54.96037
G1 X96.713 Y181.8 E54.9804
G1 X96.356 Y182.901 E55.0247
G1 X96.152 Y183.355 E55.04375
G1 X95.852 Y183.891 E55.06725
G1 X87.019 Y199.192 E55.74338
G1 X86.656 Y199.802 E55.77055
G1 X86.41 Y200.138 E55.78648
G1 X86.104 Y200.421 E55.80243
G1 X85.75 Y200.64 E55.81836
G1 X85.36 Y200.788 E55.83433
G1 X84.949 Y200.859 E55.85029
G1 X84.533 Y200.85 E55.86621
G1 X84.126 Y200.762 E55.88215
G1 X83.644 Y200.549 E55.90232
G1 X83.251 Y200.338 E55.91939
G1 X37.869 Y175.412 E57.90086
G1 X37.265 Y175.069 E57.92744
G1 X36.924 Y174.83 E57.94338
G1 X36.635 Y174.53 E57.95932
G1 X36.342 Y174.078 E57.97993
G1 X36.186 Y173.809 E57.99183
G1 X33.384 Y168.834 E58.21034
G1 X33.102 Y168.32 E58.23278
G1 X32.623 Y167.37 E58.2735
G1 X30.266 Y162.497 E58.48065
G1 X30.009 Y161.939 E58.50416
G1 X29.59 Y160.964 E58.54477
G1 X27.564 Y156 E58.74996
G1 X27.361 Y155.481 E58.77129
G1 X26.981 Y154.412 E58.8147
G1 X25.263 Y149.306 E59.02087
G1 X25.083 Y148.743 E59.04349
G1 X24.796 Y147.74 E59.08342
G1 X23.409 Y142.563 E59.28853
G1 X23.252 Y141.937 E59.31322
G1 X23.02 Y140.884 E59.35449
G1 X21.957 Y135.61 E59.56038
G1 X21.862 Y135.103 E59.58012
G1 X21.69 Y133.995 E59.62303
