;FLAVOR:Marlin
;TIME:8729
;Filament used: 10.4419m
;Layer height: 0.3
;MINX:21.372
;MINY:57.208
;MINZ:0.26
;MAXX:189.095
;MAXY:147.574
;MAXZ:7.76
;Generated with Cura_SteamEngine 4.9.1
M82 ;absolute extrusion mode
;Begin Start Gcode for Dagoma DiscoEasy 200
;Sliced: 08-07-2021 02:08:37
;Initial extruder: 0

G90 ;Absolute positioning
M106 S255 ;Fan on full
G28 X Y ;Home stop X Y
G1 X100 ;Centre back during cooldown in case of oozing
M109 R90 ;Cooldown in case too hot
G28 ;Centre
G29 ;Auto-level
M104 S205 ;Pre-heat
M107 ;Fan off
G0 X100 Y5 Z0.5 ;Front centre for degunk
M109 S205 ;Wait for initial temp
M83 ;E Relative
G1 E10 F200 ;Degunk
G1 E-3 F5000 ;Retract
G0 Z3 ;Withdraw
M82 ;E absolute
G92 E0 ;E reset
G1 F6000 ;Set feedrate

;Finish Start Gcode for Dagoma DiscoEasy 200

G92 E0
G92 E0
G1 F3000 E-3.5
;LAYER_COUNT:26
;LAYER:0
M107
G0 F1285.7 X51.784 Y60.264 Z0.26
;TYPE:SKIRT
G1 F3000 E0
G1 F900 X52.218 Y59.916 E0.02129
G1 X52.697 Y59.633 E0.04258
G1 X53.212 Y59.422 E0.06388
G1 X53.752 Y59.286 E0.08519
G1 X54.52 Y59.219 E0.11469
G1 X54.629 Y59.215 E0.11887
G1 X152.062 Y57.213 E3.84837
G1 X152.758 Y57.208 E3.875
G1 X153.313 Y57.244 E3.89629
G1 X153.858 Y57.359 E3.9176
G1 X154.38 Y57.551 E3.93889
G1 X154.869 Y57.816 E3.96017
G1 X155.316 Y58.148 E3.98148
G1 X155.71 Y58.54 E4.00275
G1 X156.044 Y58.985 E4.02405
G1 X156.311 Y59.474 E4.04537
G1 X156.511 Y60.009 E4.06723
G1 X157.267 Y62.535 E4.16813
G1 X158.112 Y65.095 E4.2713
G1 X159.044 Y67.67 E4.3761
G1 X160.041 Y70.202 E4.48024
G1 X161.106 Y72.694 E4.58395
G1 X162.245 Y75.165 E4.68808
G1 X163.447 Y77.588 E4.79159
G1 X164.731 Y80.005 E4.89633
G1 X166.064 Y82.352 E4.99962
G1 X167.481 Y84.687 E5.10415
G1 X168.955 Y86.972 E5.20821
G1 X170.493 Y89.211 E5.31216
G1 X172.125 Y91.448 E5.41813
G1 X172.62 Y92.109 E5.44974
G1 X173.007 Y92.634 E5.4747
G1 X173.577 Y93.426 E5.51204
G1 X174.219 Y94.342 E5.55485
G1 X174.568 Y94.848 E5.57837
G1 X175.03 Y95.534 E5.61002
G1 X175.521 Y96.279 E5.64417
G1 X175.989 Y97.008 E5.67732
G1 X176.292 Y97.486 E5.69898
G1 X176.693 Y98.13 E5.72801
G1 X177.063 Y98.739 E5.75528
G1 X177.477 Y99.433 E5.78621
G1 X177.926 Y100.202 E5.82029
G1 X178.404 Y101.044 E5.85734
G1 X178.803 Y101.763 E5.88881
G1 X179.122 Y102.352 E5.91444
G1 X179.49 Y103.044 E5.94444
G1 X179.938 Y103.908 E5.98168
G1 X180.385 Y104.795 E6.01969
G1 X180.87 Y105.791 E6.06209
G1 X181.237 Y106.563 E6.0948
G1 X181.519 Y107.173 E6.12052
G1 X181.883 Y107.98 E6.1544
G1 X182.192 Y108.685 E6.18386
G1 X182.507 Y109.42 E6.21446
G1 X182.715 Y109.918 E6.23511
G1 X183.031 Y110.688 E6.26697
G1 X183.311 Y111.391 E6.29593
G1 X183.645 Y112.255 E6.33138
G1 X184.027 Y113.28 E6.37324
G1 X184.278 Y113.979 E6.40166
G1 X184.494 Y114.593 E6.42657
G1 X184.751 Y115.347 E6.45705
G1 X184.988 Y116.061 E6.48584
G1 X185.13 Y116.501 E6.50354
G1 X185.385 Y117.308 E6.53593
G1 X185.597 Y118.011 E6.56403
G1 X185.862 Y118.912 E6.59997
G1 X186.069 Y119.647 E6.62919
G1 X186.309 Y120.531 E6.66425
G1 X186.523 Y121.352 E6.69672
G1 X186.698 Y122.055 E6.72444
G1 X186.852 Y122.688 E6.74937
G1 X187.003 Y123.336 E6.77483
G1 X187.143 Y123.96 E6.79931
G1 X187.323 Y124.799 E6.83215
G1 X187.452 Y125.421 E6.85646
G1 X187.578 Y126.056 E6.88123
G1 X187.723 Y126.813 E6.91073
G1 X187.84 Y127.458 E6.93581
G1 X187.947 Y128.08 E6.95997
G1 X188.082 Y128.906 E6.992
G1 X188.235 Y129.903 E7.0306
G1 X188.382 Y130.962 E7.07152
G1 X188.477 Y131.703 E7.10011
G1 X188.572 Y132.494 E7.13059
G1 X188.641 Y133.114 E7.15447
G1 X188.702 Y133.7 E7.17701
G1 X188.777 Y134.475 E7.20681
G1 X188.837 Y135.176 E7.23374
G1 X188.899 Y135.97 E7.26422
G1 X188.943 Y136.615 E7.28896
G1 X188.991 Y137.4 E7.31905
G1 X189.036 Y138.293 E7.35327
G1 X189.075 Y139.308 E7.39214
G1 X189.087 Y139.705 E7.40734
G1 X189.095 Y140.372 E7.43287
G1 X189.061 Y140.927 E7.45415
G1 X188.949 Y141.472 E7.47544
G1 X188.76 Y141.995 E7.49673
G1 X188.497 Y142.486 E7.51804
G1 X188.167 Y142.934 E7.53934
G1 X187.777 Y143.33 E7.56061
G1 X187.333 Y143.666 E7.58192
G1 X186.846 Y143.935 E7.60321
G1 X186.326 Y144.132 E7.62449
G1 X185.782 Y144.252 E7.64581
G1 X184.897 Y144.307 E7.67974
G1 X168.456 Y144.645 E8.30906
G1 X167.74 Y144.648 E8.33646
G1 X167.421 Y144.636 E8.34868
G1 X166.424 Y144.558 E8.38695
G1 X163.657 Y144.379 E8.49306
G1 X160.977 Y144.283 E8.59569
G1 X158.228 Y144.261 E8.7009
G1 X155.514 Y144.317 E8.80478
G1 X152.803 Y144.449 E8.90866
G1 X150.113 Y144.657 E9.01191
G1 X147.521 Y144.929 E9.11165
G1 X146.322 Y145.07 E9.15785
G1 X145.924 Y145.1 E9.17312
G1 X145.313 Y145.12 E9.19652
G1 X125.972 Y145.517 E9.93685
G1 X125.269 Y145.521 E9.96375
G1 X124.619 Y145.47 E9.9887
G1 X123.483 Y145.283 E10.03276
G1 X122.872 Y145.173 E10.05652
G1 X120.207 Y144.773 E10.15965
G1 X117.476 Y144.441 E10.26493
G1 X114.798 Y144.192 E10.36786
G1 X112.06 Y144.017 E10.47286
G1 X109.379 Y143.92 E10.57552
G1 X106.629 Y143.898 E10.68077
G1 X103.915 Y143.954 E10.78465
G1 X101.205 Y144.086 E10.88849
G1 X98.499 Y144.296 E10.99236
G1 X95.789 Y144.583 E11.09665
G1 X93.106 Y144.944 E11.20025
G1 X90.423 Y145.382 E11.30429
G1 X87.758 Y145.895 E11.40815
G1 X87.029 Y146.056 E11.43672
G1 X86.029 Y146.262 E11.47579
G1 X85.383 Y146.34 E11.50069
G1 X84.615 Y146.366 E11.5301
G1 X65.348 Y146.762 E12.26759
G1 X64.638 Y146.765 E12.29477
G1 X64.319 Y146.753 E12.30698
G1 X63.309 Y146.674 E12.34575
G1 X60.574 Y146.498 E12.45064
G1 X57.829 Y146.399 E12.55575
G1 X55.111 Y146.378 E12.65977
G1 X52.4 Y146.434 E12.76354
G1 X49.686 Y146.568 E12.86753
G1 X46.997 Y146.775 E12.97075
G1 X44.447 Y147.043 E13.06887
G1 X43.221 Y147.188 E13.11612
G1 X42.822 Y147.217 E13.13143
G1 X42.186 Y147.237 E13.15578
G1 X25.992 Y147.57 E13.77565
G1 X25.295 Y147.574 E13.80232
G1 X24.74 Y147.537 E13.82361
G1 X24.196 Y147.421 E13.84489
G1 X23.674 Y147.229 E13.86618
G1 X23.185 Y146.963 E13.88748
G1 X22.739 Y146.63 E13.90878
G1 X22.345 Y146.237 E13.93008
G1 X22.012 Y145.792 E13.95135
G1 X21.746 Y145.303 E13.97265
G1 X21.552 Y144.781 E13.99396
G1 X21.436 Y144.237 E14.01525
G1 X21.393 Y143.692 E14.03617
G1 X21.378 Y143.036 E14.06128
G1 X21.372 Y142.037 E14.09952
G1 X21.377 Y141.156 E14.13323
G1 X21.388 Y140.414 E14.16163
G1 X21.411 Y139.522 E14.19578
G1 X21.444 Y138.595 E14.23128
G1 X21.485 Y137.712 E14.26511
G1 X21.543 Y136.713 E14.3034
G1 X21.611 Y135.743 E14.34061
G1 X21.678 Y134.919 E14.37225
G1 X21.737 Y134.258 E14.39765
G1 X21.827 Y133.348 E14.43264
G1 X21.903 Y132.652 E14.45944
G1 X21.966 Y132.103 E14.48059
G1 X22.034 Y131.548 E14.50198
G1 X22.14 Y130.743 E14.53306
G1 X22.24 Y130.04 E14.56023
G1 X22.37 Y129.171 E14.59386
G1 X22.451 Y128.661 E14.61362
G1 X22.58 Y127.885 E14.64372
G1 X22.674 Y127.347 E14.66462
G1 X22.796 Y126.679 E14.69061
G1 X22.919 Y126.032 E14.71582
G1 X23.044 Y125.403 E14.74036
G1 X23.212 Y124.597 E14.77187
G1 X23.449 Y123.519 E14.81411
G1 X23.691 Y122.475 E14.85512
G1 X23.866 Y121.768 E14.88299
G1 X24.117 Y120.785 E14.92182
G1 X24.388 Y119.776 E14.9618
G1 X24.618 Y118.959 E14.99428
G1 X24.876 Y118.081 E15.0293
G1 X25.147 Y117.187 E15.06505
G1 X25.431 Y116.29 E15.10106
G1 X25.665 Y115.577 E15.12978
G1 X25.897 Y114.892 E15.15746
G1 X26.068 Y114.399 E15.17743
G1 X26.234 Y113.927 E15.19657
G1 X26.42 Y113.408 E15.21767
G1 X26.769 Y112.468 E15.25604
G1 X26.912 Y112.09 E15.27151
G1 X27.273 Y111.165 E15.30951
G1 X27.528 Y110.525 E15.33588
G1 X27.842 Y109.766 E15.36731
G1 X28.191 Y108.939 E15.40166
G1 X28.461 Y108.319 E15.42754
G1 X28.711 Y107.756 E15.45112
G1 X28.993 Y107.135 E15.47722
G1 X29.337 Y106.392 E15.50855
G1 X29.695 Y105.642 E15.54035
G1 X30.159 Y104.695 E15.58071
G1 X30.427 Y104.16 E15.60361
G1 X30.777 Y103.478 E15.63295
G1 X31.119 Y102.825 E15.66116
G1 X31.552 Y102.017 E15.69624
G1 X31.718 Y101.713 E15.7095
G1 X32.082 Y101.058 E15.73817
G1 X32.515 Y100.294 E15.77178
G1 X32.942 Y99.561 E15.80424
G1 X33.365 Y98.849 E15.83594
G1 X33.82 Y98.099 E15.86951
G1 X34.298 Y97.332 E15.90409
G1 X34.735 Y96.648 E15.93516
G1 X35.239 Y95.875 E15.97047
G1 X35.899 Y94.887 E16.01594
G1 X36.269 Y94.349 E16.04093
G1 X37.787 Y92.084 E16.14528
G1 X39.246 Y89.769 E16.25
G1 X40.622 Y87.443 E16.35342
G1 X41.934 Y85.074 E16.45706
G1 X43.187 Y82.649 E16.56152
G1 X44.369 Y80.196 E16.66572
G1 X45.484 Y77.706 E16.77013
G1 X46.527 Y75.19 E16.87436
G1 X47.486 Y72.67 E16.97755
G1 X48.388 Y70.084 E17.08236
G1 X49.211 Y67.495 E17.18633
G1 X49.955 Y64.901 E17.2896
G1 X50.381 Y63.279 E17.35378
G1 X50.665 Y62.155 E17.39815
G1 X50.839 Y61.626 E17.41946
G1 X51.088 Y61.129 E17.44073
G1 X51.405 Y60.671 E17.46205
G1 X51.784 Y60.264 E17.48333
G0 F1285.7 X52.095 Y60.455
G1 F900 X52.519 Y60.136 E17.50364
G1 X52.986 Y59.884 E17.52395
G1 X53.486 Y59.705 E17.54427
G1 X54.25 Y59.582 E17.57388
G1 X54.637 Y59.565 E17.58871
G1 X152.065 Y57.563 E21.31802
G1 X152.761 Y57.558 E21.34465
G1 X153.29 Y57.594 E21.36495
G1 X153.808 Y57.709 E21.38525
G1 X154.303 Y57.901 E21.40557
G1 X154.763 Y58.165 E21.42587
G1 X155.179 Y58.495 E21.44619
G1 X155.54 Y58.883 E21.46647
G1 X155.839 Y59.322 E21.4868
G1 X156.142 Y60.004 E21.51536
G1 X156.199 Y60.185 E21.52262
G1 X156.931 Y62.634 E21.62044
G1 X157.786 Y65.224 E21.72482
G1 X158.709 Y67.774 E21.8286
G1 X159.718 Y70.338 E21.93405
G1 X160.786 Y72.837 E22.03805
G1 X161.92 Y75.297 E22.14172
G1 X163.137 Y77.751 E22.24654
G1 X164.423 Y80.172 E22.35145
G1 X165.767 Y82.537 E22.45555
G1 X167.185 Y84.874 E22.56017
G1 X168.668 Y87.174 E22.6649
G1 X170.201 Y89.405 E22.76849
G1 X171.823 Y91.629 E22.87383
G1 X172.338 Y92.317 E22.90672
G1 X172.723 Y92.839 E22.93154
G1 X173.29 Y93.627 E22.9687
G1 X173.931 Y94.54 E23.01139
G1 X174.278 Y95.043 E23.03477
G1 X174.738 Y95.727 E23.06632
G1 X175.226 Y96.469 E23.1003
G1 X175.693 Y97.195 E23.13334
G1 X175.995 Y97.671 E23.15491
G1 X176.394 Y98.312 E23.18381
G1 X176.763 Y98.918 E23.21096
G1 X177.175 Y99.609 E23.24175
G1 X177.621 Y100.375 E23.27567
G1 X178.098 Y101.213 E23.31257
G1 X178.495 Y101.93 E23.34394
G1 X178.813 Y102.517 E23.36948
G1 X179.179 Y103.205 E23.39931
G1 X179.626 Y104.065 E23.4364
G1 X180.071 Y104.948 E23.47424
G1 X180.554 Y105.941 E23.5165
G1 X180.919 Y106.71 E23.54907
G1 X181.2 Y107.317 E23.57467
G1 X181.563 Y108.121 E23.60843
G1 X181.871 Y108.823 E23.63777
G1 X182.184 Y109.555 E23.66824
G1 X182.391 Y110.051 E23.6888
G1 X182.706 Y110.818 E23.72054
G1 X182.984 Y111.518 E23.74936
G1 X183.317 Y112.377 E23.78462
G1 X183.697 Y113.398 E23.82631
G1 X183.948 Y114.094 E23.85462
G1 X184.163 Y114.706 E23.87945
G1 X184.419 Y115.457 E23.90981
G1 X184.655 Y116.169 E23.93852
G1 X184.797 Y116.607 E23.95614
G1 X185.05 Y117.41 E23.98836
G1 X185.262 Y118.11 E24.01635
G1 X185.525 Y119.008 E24.05216
G1 X185.732 Y119.739 E24.08123
G1 X185.971 Y120.619 E24.11613
G1 X186.183 Y121.437 E24.14847
G1 X186.358 Y122.137 E24.17608
G1 X186.511 Y122.767 E24.20089
G1 X186.661 Y123.413 E24.22627
G1 X186.801 Y124.034 E24.25063
G1 X186.98 Y124.871 E24.28339
G1 X187.109 Y125.489 E24.30755
G1 X187.234 Y126.121 E24.33221
G1 X187.378 Y126.876 E24.36162
G1 X187.495 Y127.517 E24.38656
G1 X187.601 Y128.136 E24.41059
G1 X187.736 Y128.959 E24.44251
G1 X187.888 Y129.951 E24.48091
G1 X188.035 Y131.006 E24.52168
G1 X188.13 Y131.744 E24.55015
G1 X188.224 Y132.532 E24.58052
G1 X188.293 Y133.15 E24.60432
G1 X188.354 Y133.734 E24.62679
G1 X188.428 Y134.505 E24.65643
G1 X188.488 Y135.203 E24.68324
G1 X188.55 Y135.993 E24.71357
G1 X188.593 Y136.636 E24.73823
G1 X188.641 Y137.418 E24.76822
G1 X188.686 Y138.306 E24.80224
G1 X188.725 Y139.319 E24.84104
G1 X188.737 Y139.709 E24.85597
G1 X188.745 Y140.376 E24.8815
G1 X188.711 Y140.905 E24.90178
G1 X188.598 Y141.424 E24.92211
G1 X188.409 Y141.92 E24.94242
G1 X188.148 Y142.381 E24.9627
G1 X187.82 Y142.799 E24.98303
G1 X187.433 Y143.162 E25.00334
G1 X186.996 Y143.463 E25.02364
G1 X186.519 Y143.695 E25.04394
G1 X186.012 Y143.853 E25.06427
G1 X185.349 Y143.941 E25.08986
G1 X184.827 Y143.959 E25.10985
G1 X168.455 Y144.295 E25.73653
G1 X167.739 Y144.298 E25.76393
G1 X167.449 Y144.287 E25.77504
G1 X166.463 Y144.21 E25.81289
G1 X163.69 Y144.031 E25.91923
G1 X160.957 Y143.933 E26.02389
G1 X158.223 Y143.911 E26.12852
G1 X155.526 Y143.967 E26.23175
G1 X152.794 Y144.1 E26.33643
G1 X150.048 Y144.312 E26.44183
G1 X147.507 Y144.579 E26.53961
G1 X146.281 Y144.723 E26.58685
G1 X145.912 Y144.75 E26.60101
G1 X145.305 Y144.77 E26.62425
G1 X125.97 Y145.167 E27.36435
G1 X125.267 Y145.171 E27.39125
G1 X124.676 Y145.124 E27.41394
G1 X123.545 Y144.938 E27.45781
G1 X122.951 Y144.831 E27.4809
G1 X120.231 Y144.423 E27.58616
G1 X117.547 Y144.097 E27.68963
G1 X114.821 Y143.843 E27.79441
G1 X112.094 Y143.668 E27.89898
G1 X109.359 Y143.57 E28.00372
G1 X106.624 Y143.548 E28.10839
G1 X103.926 Y143.604 E28.21166
G1 X101.196 Y143.737 E28.31626
G1 X98.435 Y143.95 E28.42224
G1 X95.78 Y144.232 E28.52441
G1 X93.032 Y144.601 E28.63052
G1 X90.34 Y145.041 E28.73491
G1 X87.685 Y145.552 E28.83838
G1 X86.958 Y145.714 E28.86689
G1 X85.958 Y145.92 E28.90596
G1 X85.371 Y145.99 E28.92858
G1 X84.607 Y146.016 E28.95784
G1 X65.347 Y146.412 E29.69506
G1 X64.637 Y146.415 E29.72223
G1 X64.347 Y146.404 E29.73334
G1 X63.348 Y146.326 E29.77169
G1 X60.573 Y146.147 E29.87811
G1 X57.844 Y146.05 E29.98261
G1 X55.106 Y146.028 E30.0874
G1 X52.412 Y146.084 E30.19052
G1 X49.677 Y146.218 E30.29531
G1 X46.936 Y146.43 E30.40052
G1 X44.441 Y146.692 E30.49653
G1 X43.18 Y146.841 E30.54512
G1 X42.81 Y146.867 E30.55931
G1 X42.179 Y146.887 E30.58347
G1 X25.99 Y147.22 E31.20315
G1 X25.293 Y147.224 E31.22983
G1 X24.764 Y147.187 E31.25012
G1 X24.246 Y147.071 E31.27043
G1 X23.751 Y146.879 E31.29075
G1 X23.291 Y146.614 E31.31107
G1 X22.876 Y146.284 E31.33136
G1 X22.515 Y145.895 E31.35167
G1 X22.217 Y145.456 E31.37197
G1 X21.988 Y144.977 E31.39229
G1 X21.833 Y144.47 E31.41258
G1 X21.752 Y143.866 E31.4359
G1 X21.729 Y143.09 E31.46561
G1 X21.722 Y142.039 E31.50584
G1 X21.727 Y141.161 E31.53944
G1 X21.738 Y140.423 E31.56768
G1 X21.76 Y139.534 E31.60172
G1 X21.794 Y138.611 E31.63706
G1 X21.834 Y137.733 E31.6707
G1 X21.893 Y136.737 E31.70888
G1 X21.96 Y135.771 E31.74594
G1 X22.026 Y134.95 E31.77746
G1 X22.085 Y134.293 E31.8027
G1 X22.175 Y133.385 E31.83762
G1 X22.25 Y132.693 E31.86426
G1 X22.314 Y132.145 E31.88537
G1 X22.381 Y131.593 E31.90665
G1 X22.487 Y130.792 E31.93757
G1 X22.586 Y130.092 E31.96463
G1 X22.715 Y129.226 E31.99814
G1 X22.796 Y128.718 E32.01782
G1 X22.925 Y127.945 E32.04781
G1 X23.018 Y127.41 E32.0686
G1 X23.14 Y126.744 E32.09451
G1 X23.262 Y126.1 E32.11959
G1 X23.387 Y125.474 E32.14402
G1 X23.553 Y124.672 E32.17536
G1 X23.79 Y123.598 E32.21745
G1 X24.031 Y122.559 E32.25827
G1 X24.205 Y121.855 E32.28602
G1 X24.455 Y120.875 E32.32473
G1 X24.725 Y119.871 E32.36452
G1 X24.954 Y119.057 E32.39688
G1 X25.21 Y118.183 E32.43173
G1 X25.481 Y117.293 E32.46733
G1 X25.764 Y116.399 E32.50322
G1 X25.996 Y115.69 E32.53177
G1 X26.228 Y115.006 E32.55941
G1 X26.398 Y114.515 E32.5793
G1 X26.563 Y114.045 E32.59836
G1 X26.749 Y113.529 E32.61935
G1 X27.096 Y112.592 E32.65759
G1 X27.238 Y112.217 E32.67293
G1 X27.598 Y111.295 E32.71081
G1 X27.851 Y110.659 E32.73701
G1 X28.164 Y109.902 E32.76836
G1 X28.512 Y109.079 E32.80255
G1 X28.781 Y108.461 E32.82834
G1 X29.03 Y107.901 E32.8518
G1 X29.31 Y107.283 E32.87776
G1 X29.653 Y106.543 E32.90898
G1 X30.009 Y105.796 E32.94065
G1 X30.472 Y104.852 E32.98088
G1 X30.739 Y104.32 E33.00366
G1 X31.087 Y103.64 E33.0329
G1 X31.427 Y102.99 E33.06097
G1 X31.859 Y102.185 E33.09593
G1 X32.024 Y101.883 E33.1091
G1 X32.387 Y101.23 E33.13769
G1 X32.817 Y100.47 E33.17111
G1 X33.243 Y99.74 E33.20346
G1 X33.664 Y99.03 E33.23504
G1 X34.117 Y98.284 E33.26845
G1 X34.593 Y97.52 E33.30289
G1 X35.028 Y96.839 E33.33382
G1 X35.53 Y96.07 E33.36896
G1 X36.188 Y95.085 E33.4143
G1 X36.557 Y94.547 E33.43926
G1 X38.093 Y92.255 E33.54485
G1 X39.537 Y89.965 E33.64846
G1 X40.923 Y87.621 E33.75267
G1 X42.246 Y85.234 E33.85711
G1 X43.515 Y82.776 E33.96297
G1 X44.671 Y80.378 E34.06485
G1 X45.806 Y77.841 E34.17121
G1 X46.857 Y75.307 E34.2762
G1 X47.823 Y72.768 E34.38016
G1 X48.717 Y70.206 E34.484
G1 X49.537 Y67.628 E34.58753
G1 X50.308 Y64.936 E34.6947
G1 X50.711 Y63.401 E34.75543
G1 X51.004 Y62.24 E34.80126
G1 X51.172 Y61.737 E34.82155
G1 X51.414 Y61.265 E34.84185
G1 X51.724 Y60.834 E34.86217
