;FLAVOR:Marlin
;TIME:34420
;Filament used: 42.8744m
;Layer height: 0.3
;MINX:58.019
;MINY:40.595
;MINZ:0.26
;MAXX:146.981
;MAXY:164.405
;MAXZ:189.86
;Generated with Cura_SteamEngine 4.9.1
M82 ;absolute extrusion mode
;Begin Start Gcode for Dagoma DiscoEasy 200
;Sliced: 10-07-2021 02:08:33
;Initial extruder: 0

G90 ;Absolute positioning
M106 S255 ;Fan on full
G28 X Y ;Home stop X Y
G1 X100 ;Centre back during cooldown in case of oozing
M109 R90 ;Cooldown in case too hot
G28 ;Centre
G29 ;Auto-level
M104 S205 ;Pre-heat
M107 ;Fan off
G0 X100 Y5 Z0.5 ;Front centre for degunk
M109 S205 ;Wait for initial temp
M83 ;E Relative
G1 E10 F200 ;Degunk
G1 E-3 F5000 ;Retract
G0 Z3 ;Withdraw
M82 ;E absolute
G92 E0 ;E reset
G1 F6000 ;Set feedrate

;Finish Start Gcode for Dagoma DiscoEasy 200

G92 E0
G92 E0
G1 F3000 E-3.5
;LAYER_COUNT:633
;LAYER:0
M107
G0 F1285.7 X118.064 Y43.042 Z0.26
;TYPE:SKIRT
G1 F3000 E0
G1 F900 X118.397 Y42.484 E0.02487
G1 X118.716 Y42.028 E0.04617
G1 X119.097 Y41.622 E0.06747
G1 X119.532 Y41.275 E0.08877
G1 X120.012 Y40.994 E0.11005
G1 X120.527 Y40.785 E0.13132
G1 X121.068 Y40.651 E0.15265
G1 X121.781 Y40.595 E0.18002
G1 X121.987 Y40.598 E0.18791
G1 X122.542 Y40.646 E0.20923
G1 X123.084 Y40.773 E0.23053
G1 X123.824 Y41.092 E0.26137
G1 X124.345 Y41.384 E0.28422
G1 X144.49 Y53.015 E1.17443
G1 X145.092 Y53.374 E1.20126
G1 X145.548 Y53.692 E1.22253
G1 X145.954 Y54.073 E1.24384
G1 X146.301 Y54.508 E1.26514
G1 X146.582 Y54.988 E1.28642
G1 X146.792 Y55.503 E1.30771
G1 X146.926 Y56.043 E1.329
G1 X146.981 Y56.776 E1.35713
G1 X146.977 Y56.985 E1.36513
G1 X146.927 Y57.539 E1.38642
G1 X146.797 Y58.08 E1.40771
G1 X146.483 Y58.806 E1.43798
G1 X146.195 Y59.319 E1.46049
G1 X86.968 Y161.903 E5.99367
G1 X86.603 Y162.515 E6.02094
G1 X86.284 Y162.971 E6.04223
G1 X85.904 Y163.377 E6.06351
G1 X85.469 Y163.724 E6.08481
G1 X84.989 Y164.005 E6.1061
G1 X84.474 Y164.215 E6.12738
G1 X83.933 Y164.349 E6.14871
G1 X83.219 Y164.405 E6.17612
G1 X83.013 Y164.402 E6.184
G1 X82.458 Y164.354 E6.20532
G1 X81.916 Y164.227 E6.22662
G1 X81.175 Y163.908 E6.2575
G1 X80.633 Y163.604 E6.28128
G1 X60.51 Y151.985 E7.17053
G1 X59.908 Y151.626 E7.19736
G1 X59.452 Y151.308 E7.21863
G1 X59.046 Y150.927 E7.23994
G1 X58.699 Y150.492 E7.26123
G1 X58.418 Y150.012 E7.28252
G1 X58.208 Y149.497 E7.3038
G1 X58.074 Y148.957 E7.3251
G1 X58.019 Y148.224 E7.35323
G1 X58.023 Y148.015 E7.36123
G1 X58.073 Y147.461 E7.38251
G1 X58.203 Y146.92 E7.40381
G1 X58.517 Y146.194 E7.43408
G1 X58.805 Y145.68 E7.45662
G1 X118.064 Y43.042 E11.9922
G0 F1285.7 X118.365 Y43.222
G1 F900 X118.698 Y42.664 E12.01707
G1 X119.004 Y42.23 E12.03739
G1 X119.371 Y41.847 E12.05769
G1 X119.791 Y41.523 E12.07799
G1 X120.255 Y41.266 E12.09829
G1 X120.753 Y41.082 E12.11861
G1 X121.273 Y40.974 E12.13893
G1 X121.776 Y40.945 E12.15821
G1 X121.982 Y40.948 E12.1661
G1 X122.511 Y40.996 E12.18642
G1 X123.026 Y41.122 E12.20671
G1 X123.653 Y41.397 E12.23292
G1 X124.17 Y41.687 E12.2556
G1 X144.31 Y53.315 E13.14559
G1 X144.912 Y53.674 E13.17241
G1 X145.346 Y53.98 E13.19273
G1 X145.73 Y54.347 E13.21306
G1 X146.054 Y54.767 E13.23336
G1 X146.311 Y55.231 E13.25366
G1 X146.495 Y55.729 E13.27398
G1 X146.603 Y56.249 E13.2943
G1 X146.631 Y56.769 E13.31423
G1 X146.627 Y56.978 E13.32223
G1 X146.577 Y57.507 E13.34257
G1 X146.448 Y58.022 E13.36288
G1 X146.178 Y58.635 E13.38852
G1 X145.892 Y59.144 E13.41086
G1 X86.667 Y161.724 E17.94386
G1 X86.302 Y162.336 E17.97113
G1 X85.997 Y162.77 E17.99143
G1 X85.63 Y163.153 E18.01173
G1 X85.21 Y163.477 E18.03203
G1 X84.745 Y163.734 E18.05237
G1 X84.248 Y163.918 E18.07265
G1 X83.728 Y164.026 E18.09297
G1 X83.224 Y164.055 E18.11229
G1 X83.018 Y164.052 E18.12018
G1 X82.489 Y164.004 E18.1405
G1 X81.974 Y163.878 E18.16079
G1 X81.346 Y163.602 E18.18705
G1 X80.808 Y163.301 E18.21064
G1 X60.69 Y151.685 E19.09967
G1 X60.088 Y151.326 E19.12649
G1 X59.654 Y151.02 E19.14681
G1 X59.27 Y150.653 E19.16714
G1 X58.946 Y150.233 E19.18744
G1 X58.689 Y149.769 E19.20774
G1 X58.505 Y149.271 E19.22806
G1 X58.397 Y148.751 E19.24838
G1 X58.369 Y148.231 E19.26831
G1 X58.373 Y148.022 E19.27631
G1 X58.423 Y147.493 E19.29664
G1 X58.552 Y146.978 E19.31696
G1 X58.822 Y146.365 E19.3426
G1 X59.108 Y145.855 E19.36497
G1 X118.365 Y43.222 E23.90034
G0 F1285.7 X118.666 Y43.401
G1 F900 X118.999 Y42.843 E23.92521
G1 X119.29 Y42.432 E23.94448
G1 X119.643 Y42.073 E23.96375
G1 X120.048 Y41.774 E23.98302
G1 X120.495 Y41.543 E24.00227
G1 X120.974 Y41.385 E24.02157
G1 X121.471 Y41.305 E24.04084
G1 X121.977 Y41.298 E24.06021
G1 X122.479 Y41.346 E24.0795
G1 X122.966 Y41.471 E24.09875
G1 X123.482 Y41.702 E24.12038
G1 X123.995 Y41.99 E24.1429
G1 X144.131 Y53.616 E25.03271
G1 X144.733 Y53.975 E25.05953
G1 X145.144 Y54.266 E25.07881
G1 X145.503 Y54.619 E25.09807
G1 X145.803 Y55.024 E25.11736
G1 X146.034 Y55.472 E25.13665
G1 X146.192 Y55.95 E25.15592
G1 X146.272 Y56.447 E25.17518
G1 X146.277 Y56.972 E25.19528
G1 X146.228 Y57.473 E25.21454
G1 X146.1 Y57.96 E25.23381
G1 X145.873 Y58.463 E25.25493
G1 X145.589 Y58.969 E25.27714
G1 X86.367 Y161.544 E29.80991
G1 X86.002 Y162.156 E29.83718
G1 X85.71 Y162.567 E29.85648
G1 X85.358 Y162.926 E29.87572
G1 X84.953 Y163.226 E29.89501
G1 X84.505 Y163.457 E29.9143
G1 X84.027 Y163.615 E29.93356
G1 X83.53 Y163.695 E29.95283
G1 X83.023 Y163.702 E29.97223
G1 X82.521 Y163.654 E29.99153
G1 X82.034 Y163.529 E30.01077
G1 X81.517 Y163.297 E30.03246
G1 X80.983 Y162.998 E30.05588
G1 X60.869 Y151.384 E30.94474
G1 X60.267 Y151.025 E30.97156
G1 X59.856 Y150.734 E30.99083
G1 X59.497 Y150.381 E31.0101
G1 X59.197 Y149.976 E31.02939
G1 X58.966 Y149.528 E31.04868
G1 X58.808 Y149.05 E31.06795
G1 X58.728 Y148.553 E31.08721
G1 X58.723 Y148.028 E31.1073
G1 X58.772 Y147.527 E31.12657
G1 X58.9 Y147.04 E31.14584
G1 X59.127 Y146.537 E31.16696
G1 X59.411 Y146.03 E31.1892
G1 X118.666 Y43.401 E35.72439
G0 F1285.7 X121.835 Y44.612
;TYPE:SUPPORT
G1 F900 X142.965 Y56.812 E36.65814
G1 X83.165 Y160.388 E41.23515
G1 X62.035 Y148.188 E42.16889
G1 X121.835 Y44.612 E46.74591
G0 F1285.7 X123.417 Y56.572
G1 F900 X73.181 Y143.581 E50.59085
G1 X73.409 Y144.42 E50.62412
G1 X80.744 Y148.656 E50.94827
G1 X81.583 Y148.428 E50.98154
G1 X131.819 Y61.419 E54.82648
G1 X131.591 Y60.58 E54.85976
G1 X124.256 Y56.344 E55.18391
G1 X123.417 Y56.572 E55.21718
G0 F1285.7 X123.649 Y56.365
G1 F900 X123.649 Y45.822 E55.62066
G0 F1285.7 X125.103 Y46.66
G1 F900 X120.814 Y46.66 E55.7848
G0 F1285.7 X121.316 Y45.791
G1 F900 X121.316 Y59.932 E56.32597
G0 F1285.7 X120.896 Y60.658
G1 F900 X112.733 Y60.658 E56.63836
G0 F1285.7 X111.984 Y61.954
G1 F900 X111.984 Y76.095 E57.17953
G0 F1285.7 X111.467 Y76.989
G1 F900 X103.304 Y76.989 E57.49192
G0 F1285.7 X102.652 Y78.118
G1 F900 X102.652 Y92.258 E58.03305
G0 F1285.7 X102.038 Y93.32
G1 F900 X93.876 Y93.32 E58.34541
G0 F1285.7 X93.32 Y94.282
G1 F900 X93.32 Y108.422 E58.88654
G0 F1285.7 X93.956 Y107.318
G1 F900 X85.794 Y107.318 E59.1989
G0 F1285.7 X86.321 Y106.404
G1 F900 X86.321 Y120.544 E59.74003
G0 F1285.7 X85.873 Y121.316
G1 F900 X77.711 Y121.316 E60.05238
G0 F1285.7 X76.989 Y122.568
G1 F900 X76.989 Y136.707 E60.59348
G0 F1285.7 X76.445 Y137.647
G1 F900 X68.283 Y137.647 E60.90583
G0 F1285.7 X67.657 Y138.731
G1 F900 X67.657 Y151.271 E61.38573
G0 F1285.7 X68.302 Y151.645
G1 F900 X88.049 Y151.645 E62.14144
G0 F1285.7 X88.654 Y150.601
G1 F900 X88.654 Y136.46 E62.68261
G0 F1285.7 X89.315 Y135.314
G1 F900 X97.478 Y135.314 E62.995
G0 F1285.7 X97.986 Y134.437
G1 F900 X97.986 Y120.297 E63.53613
G0 F1285.7 X97.397 Y121.316
G1 F900 X105.56 Y121.316 E63.84853
G0 F1285.7 X104.985 Y122.315
G1 F900 X104.985 Y108.174 E64.3897
G0 F1285.7 X105.48 Y107.318
G1 F900 X113.642 Y107.318 E64.70205
G0 F1285.7 X114.317 Y106.151
G1 F900 X114.317 Y92.011 E65.24318
G0 F1285.7 X114.909 Y90.987
G1 F900 X123.071 Y90.987 E65.55554
G0 F1285.7 X123.649 Y89.987
G1 F900 X123.649 Y75.848 E66.09663
G0 F1285.7 X122.99 Y76.989
G1 F900 X131.152 Y76.989 E66.40899
G0 F1285.7 X130.648 Y77.865
G1 F900 X130.648 Y63.725 E66.95012
G0 F1285.7 X131.072 Y62.991
G1 F900 X139.234 Y62.991 E67.26248
G0 F1285.7 X139.98 Y61.701
G1 F900 X139.98 Y55.251 E67.50931
G0 F1285.7 X141.267 Y55.992
G1 F900 X115.427 Y55.992 E68.4982
G0 F1285.7 X114.317 Y57.913
G1 F900 X114.317 Y72.054 E69.03937
G0 F1285.7 X114.161 Y72.323
G1 F900 X105.998 Y72.323 E69.35176
G0 F1285.7 X104.985 Y74.077
G1 F900 X104.985 Y88.218 E69.89293
G0 F1285.7 X104.732 Y88.654
G1 F900 X96.57 Y88.654 E70.20529
G0 F1285.7 X95.653 Y90.241
G1 F900 X95.653 Y104.381 E70.74642
G0 F1285.7 X95.303 Y104.985
G1 F900 X87.141 Y104.985 E71.05877
G0 F1285.7 X88.488 Y102.652
G1 F900 X96.65 Y102.652 E71.37113
G0 F1285.7 X97.986 Y100.34
G1 F900 X97.986 Y86.2 E71.91226
G0 F1285.7 X97.916 Y86.321
G1 F900 X106.079 Y86.321 E72.22465
G0 F1285.7 X107.318 Y84.177
G1 F900 X107.318 Y70.036 E72.76582
G0 F1285.7 X107.345 Y69.99
G1 F900 X115.508 Y69.99 E73.07822
G0 F1285.7 X116.65 Y68.014
G1 F900 X116.65 Y53.873 E73.61939
G0 F1285.7 X116.774 Y53.659
G1 F900 X137.226 Y53.659 E74.40208
G0 F1285.7 X137.647 Y53.904
G1 F900 X137.647 Y65.742 E74.85511
G0 F1285.7 X137.887 Y65.324
G1 F900 X129.725 Y65.324 E75.16747
G0 F1285.7 X128.378 Y67.657
G1 F900 X136.54 Y67.657 E75.47982
G0 F1285.7 X135.314 Y69.783
G1 F900 X135.314 Y52.557 E76.13905
G0 F1285.7 X133.185 Y51.326
G1 F900 X118.121 Y51.326 E76.71554
G0 F1285.7 X118.983 Y49.832
G1 F900 X118.983 Y63.973 E77.25671
G0 F1285.7 X119.549 Y62.991
G1 F900 X111.386 Y62.991 E77.56911
G0 F1285.7 X110.039 Y65.324
G1 F900 X118.202 Y65.324 E77.8815
G0 F1285.7 X116.855 Y67.657
G1 F900 X108.692 Y67.657 E78.1939
G0 F1285.7 X109.651 Y65.995
G1 F900 X109.651 Y80.136 E78.73507
G0 F1285.7 X110.12 Y79.322
G1 F900 X101.957 Y79.322 E79.04746
G0 F1285.7 X100.61 Y81.655
G1 F900 X108.773 Y81.655 E79.35985
G0 F1285.7 X107.426 Y83.988
G1 F900 X99.263 Y83.988 E79.67225
G0 F1285.7 X100.319 Y82.159
G1 F900 X100.319 Y96.299 E80.21338
G0 F1285.7 X100.691 Y95.653
G1 F900 X92.529 Y95.653 E80.52573
G0 F1285.7 X91.182 Y97.986
G1 F900 X99.344 Y97.986 E80.83809
G0 F1285.7 X97.997 Y100.319
G1 F900 X89.835 Y100.319 E81.15045
G0 F1285.7 X90.987 Y98.322
G1 F900 X90.987 Y112.462 E81.69158
G0 F1285.7 X91.262 Y111.984
G1 F900 X83.1 Y111.984 E82.00393
G0 F1285.7 X83.988 Y110.445
G1 F900 X83.988 Y124.585 E82.54506
G0 F1285.7 X84.526 Y123.649
G1 F900 X76.364 Y123.649 E82.85742
G0 F1285.7 X75.017 Y125.982
G1 F900 X83.179 Y125.982 E83.16978
G0 F1285.7 X81.832 Y128.315
G1 F900 X73.671 Y128.315 E83.48209
G0 F1285.7 X74.656 Y126.609
G1 F900 X74.656 Y140.748 E84.02319
G0 F1285.7 X75.098 Y139.98
G1 F900 X66.936 Y139.98 E84.33554
G0 F1285.7 X65.589 Y142.313
G1 F900 X73.751 Y142.313 E84.6479
G1 F3000 E81.1479
G0 F1285.7 X73.521 Y144.646
G1 F3000 E84.6479
G1 F900 X64.242 Y144.646 E85.003
G0 F1285.7 X65.324 Y142.772
G1 F900 X65.324 Y149.925 E85.27674
G0 F1285.7 X64.261 Y149.312
G1 F900 X89.396 Y149.312 E86.23865
G0 F1285.7 X90.743 Y146.979
G1 F900 X82.58 Y146.979 E86.55104
G0 F1285.7 X81.655 Y148.553
G1 F900 X81.655 Y159.353 E86.96435
G0 F1285.7 X80.424 Y158.644
G1 F900 X84.009 Y158.644 E87.10155
G0 F1285.7 X83.988 Y158.683
G1 F900 X83.988 Y144.541 E87.64276
G0 F1285.7 X83.927 Y144.646
G1 F900 X92.09 Y144.646 E87.95515
G0 F1285.7 X90.987 Y146.56
G1 F900 X90.987 Y132.419 E88.49632
G0 F1285.7 X90.662 Y132.981
G1 F900 X98.825 Y132.981 E88.80871
G0 F1285.7 X100.172 Y130.648
G1 F900 X92.009 Y130.648 E89.12111
G0 F1285.7 X93.32 Y128.378
G1 F900 X93.32 Y142.519 E89.66228
G0 F1285.7 X93.437 Y142.313
G1 F900 X85.274 Y142.313 E89.97467
G0 F1285.7 X86.321 Y140.501
G1 F900 X86.321 Y154.642 E90.51584
G0 F1285.7 X86.702 Y153.978
G1 F900 X72.343 Y153.978 E91.06535
G0 F1285.7 X72.323 Y153.965
G1 F900 X72.323 Y130.65 E91.95761
G0 F1285.7 X72.324 Y130.648
G1 F900 X80.485 Y130.648 E92.26992
G0 F1285.7 X79.322 Y132.666
G1 F900 X79.322 Y118.527 E92.81102
G0 F1285.7 X79.058 Y118.983
G1 F900 X87.22 Y118.983 E93.12337
G0 F1285.7 X88.568 Y116.65
G1 F900 X80.406 Y116.65 E93.43573
G0 F1285.7 X81.655 Y114.486
G1 F900 X81.655 Y128.626 E93.97686
G0 F1285.7 X79.138 Y132.981
G1 F900 X70.977 Y132.981 E94.28918
G0 F1285.7 X69.99 Y134.691
G1 F900 X69.99 Y152.618 E94.97523
G0 F1285.7 X74.656 Y155.312
G1 F900 X74.656 Y145.302 E95.35831
G0 F1285.7 X76.989 Y146.649
G1 F900 X76.989 Y156.659 E95.74139
G0 F1285.7 X76.383 Y156.311
G1 F900 X85.355 Y156.311 E96.08474
G0 F1285.7 X79.322 Y158.006
G1 F900 X79.322 Y147.996 E96.46782
G0 F1285.7 X77.561 Y146.979
G1 F900 X62.895 Y146.979 E97.02908
G0 F1285.7 X62.991 Y146.813
G1 F900 X62.991 Y148.578 E97.09663
G0 F1285.7 X69.63 Y135.314
G1 F900 X77.792 Y135.314 E97.40898
G1 F3000 E93.90898
G0 F1285.7 X73.411 Y143.611
G0 X80.774 Y148.426
G0 X86.621 Y139.98
G1 F3000 E97.40898
G1 F900 X94.784 Y139.98 E97.72138
G0 F1285.7 X95.653 Y138.478
G1 F900 X95.653 Y124.337 E98.26255
G0 F1285.7 X96.05 Y123.649
G1 F900 X104.213 Y123.649 E98.57494
G0 F1285.7 X102.866 Y125.982
G1 F900 X94.703 Y125.982 E98.88734
G0 F1285.7 X93.356 Y128.315
G1 F900 X101.519 Y128.315 E99.19973
G0 F1285.7 X102.652 Y126.356
G1 F900 X102.652 Y112.215 E99.7409
G0 F1285.7 X102.786 Y111.984
G1 F900 X110.948 Y111.984 E100.05325
G0 F1285.7 X111.984 Y110.192
G1 F900 X111.984 Y96.052 E100.59439
G0 F1285.7 X112.215 Y95.653
G1 F900 X120.377 Y95.653 E100.90674
G0 F1285.7 X121.316 Y94.028
G1 F900 X121.316 Y79.889 E101.44783
G0 F1285.7 X121.643 Y79.322
G1 F900 X129.805 Y79.322 E101.76019
G0 F1285.7 X128.458 Y81.655
G1 F900 X120.297 Y81.655 E102.07251
G0 F1285.7 X118.983 Y83.929
G1 F900 X118.983 Y98.069 E102.61364
G0 F1285.7 X119.03 Y97.986
G1 F900 X110.868 Y97.986 E102.92599
G0 F1285.7 X109.651 Y100.093
G1 F900 X109.651 Y114.233 E103.46713
G0 F1285.7 X109.601 Y114.317
G1 F900 X101.439 Y114.317 E103.77948
G0 F1285.7 X100.319 Y116.256
G1 F900 X100.319 Y130.396 E104.32061
G0 F1285.7 X96.131 Y137.647
G1 F900 X87.968 Y137.647 E104.63301
G1 F3000 E101.13301
G0 F1285.7 X81.442 Y148.245
G0 X73.592 Y144.279
G0 X88.654 Y116.503
G1 F3000 E104.63301
G1 F900 X88.654 Y102.363 E105.17414
G0 F1285.7 X92.609 Y109.651
G1 F900 X84.447 Y109.651 E105.48649
G0 F1285.7 X81.753 Y114.317
G1 F900 X89.915 Y114.317 E105.79885
G1 F3000 E102.29885
G0 F1285.7 X73.411 Y143.611
G0 X80.774 Y148.426
G0 X98.744 Y118.983
G1 F3000 E105.79885
G1 F900 X106.906 Y118.983 E106.11121
G0 F1285.7 X107.318 Y118.274
G1 F900 X107.318 Y104.133 E106.65237
G0 F1285.7 X106.827 Y104.985
G1 F900 X114.989 Y104.985 E106.96473
G0 F1285.7 X116.336 Y102.652
G1 F900 X108.174 Y102.652 E107.27709
G0 F1285.7 X109.521 Y100.319
G1 F900 X117.683 Y100.319 E107.58944
G0 F1285.7 X116.65 Y102.11
G1 F900 X116.65 Y87.97 E108.13057
G0 F1285.7 X116.256 Y88.654
G1 F900 X124.418 Y88.654 E108.44293
G0 F1285.7 X125.765 Y86.321
G1 F900 X117.603 Y86.321 E108.75528
G0 F1285.7 X118.95 Y83.988
G1 F900 X127.112 Y83.988 E109.06764
G0 F1285.7 X125.982 Y85.947
G1 F900 X125.982 Y71.807 E109.60877
G0 F1285.7 X125.684 Y72.323
G1 F900 X133.846 Y72.323 E109.92113
G0 F1285.7 X132.981 Y73.824
G1 F900 X132.981 Y51.21 E110.78655
G0 F1285.7 X130.648 Y49.863
G1 F900 X130.648 Y59.874 E111.16967
G0 F1285.7 X131.757 Y60.658
G1 F900 X140.581 Y60.658 E111.50736
G0 F1285.7 X141.928 Y58.325
G1 F900 X127.967 Y58.325 E112.04164
G0 F1285.7 X128.315 Y58.526
G1 F900 X128.315 Y48.516 E112.42472
G0 F1285.7 X129.144 Y48.993
G1 F900 X119.467 Y48.993 E112.79505
G0 F1285.7 X125.982 Y47.169
G1 F900 X125.982 Y57.179 E113.17813
G1 F3000 E109.67813
G0 F1285.7 X124.226 Y56.574
G0 X122.243 Y58.325
G1 F3000 E113.17813
G1 F900 X114.08 Y58.325 E113.49053
G0 F1285.7 X112.814 Y74.656
G1 F900 X104.651 Y74.656 E113.80292
G0 F1285.7 X103.385 Y90.987
G1 F900 X95.223 Y90.987 E114.11528
G1 F3000 E110.61528
G0 F1285.7 X123.558 Y56.755
G0 X131.408 Y60.721
G0 X113.562 Y93.32
G1 F3000 E114.11528
G1 F900 X121.724 Y93.32 E114.42763
G0 F1285.7 X128.315 Y81.906
G1 F900 X128.315 Y67.766 E114.96876
G0 F1285.7 X127.031 Y69.99
G1 F900 X135.193 Y69.99 E115.28112
G0 F1285.7 X132.499 Y74.656
G1 F900 X124.337 Y74.656 E115.59347
G0 F1285.7 X142.313 Y57.66
G1 F900 X142.313 Y56.598 E115.63412
G0 F1285.7 X112.295 Y109.651
G1 F900 X104.133 Y109.651 E115.94647
G0 F1285.7 X100.092 Y116.65
G1 F900 X108.254 Y116.65 E116.25883
G1 F3000 E112.75883
