;FLAVOR:Marlin
;TIME:22918
;Filament used: 14.7515m
;Layer height: 0.2
;MINX:20.52
;MINY:92.85
;MINZ:0.26
;MAXX:184.48
;MAXY:112.55
;MAXZ:149.26
;Generated with Cura_SteamEngine 4.9.1
M82 ;absolute extrusion mode
;Begin Start Gcode for Dagoma DiscoEasy 200
;Sliced: 13-07-2021 06:50:16
;Initial extruder: 0

G90 ;Absolute positioning
M106 S255 ;Fan on full
G28 X Y ;Home stop X Y
G1 X100 ;Centre back during cooldown in case of oozing
M109 R90 ;Cooldown in case too hot
G28 ;Centre
G29 ;Auto-level
M104 S205 ;Pre-heat
M107 ;Fan off
G0 X100 Y5 Z0.5 ;Front centre for degunk
M109 S205 ;Wait for initial temp
M83 ;E Relative
G1 E10 F200 ;Degunk
G1 E-3 F5000 ;Retract
G0 Z3 ;Withdraw
M82 ;E absolute
G92 E0 ;E reset
G1 F6000 ;Set feedrate

;Finish Start Gcode for Dagoma DiscoEasy 200

G92 E0
G92 E0
G1 F3000 E-3.5
;LAYER_COUNT:746
;LAYER:0
M107
G0 F1285.7 X24.14 Y96.281 Z0.26
;TYPE:SKIRT
G1 F3000 E0
G1 F900 X24.75 Y96.211 E0.0235
G1 X25.391 Y96.199 E0.04803
G1 X28.723 Y96.201 E0.17555
G1 X31.398 Y96.126 E0.27796
G1 X34.15 Y95.97 E0.38344
G1 X36.849 Y95.741 E0.48711
G1 X39.543 Y95.436 E0.59086
G1 X42.216 Y95.055 E0.69419
G1 X44.925 Y94.591 E0.79937
G1 X47.58 Y94.06 E0.90299
G1 X50.235 Y93.449 E1.00725
G1 X51.902 Y93.021 E1.07312
G1 X52.645 Y92.892 E1.10198
G1 X53.543 Y92.85 E1.13638
G1 X151.32 Y92.85 E4.87826
G1 X152.022 Y92.86 E4.90513
G1 X152.631 Y92.917 E4.92853
G1 X152.916 Y92.976 E4.93967
G1 X153.859 Y93.209 E4.97685
G1 X154.806 Y93.454 E5.01428
G1 X157.5 Y94.073 E5.12006
G1 X160.143 Y94.603 E5.22322
G1 X162.828 Y95.057 E5.32744
G1 X165.51 Y95.437 E5.4311
G1 X168.243 Y95.745 E5.53635
G1 X170.913 Y95.969 E5.63889
G1 X173.627 Y96.121 E5.74292
G1 X176.384 Y96.196 E5.84847
G1 X178.328 Y96.203 E5.92286
G1 X178.881 Y96.199 E5.94403
G1 X179.472 Y96.199 E5.96664
G1 X180.173 Y96.209 E5.99347
G1 X180.728 Y96.257 E6.01479
G1 X181.269 Y96.384 E6.03606
G1 X181.787 Y96.587 E6.05735
G1 X182.271 Y96.862 E6.07865
G1 X182.753 Y97.242 E6.10214
G1 X183.376 Y97.862 E6.13578
G1 X183.734 Y98.288 E6.15707
G1 X184.027 Y98.761 E6.17837
G1 X184.249 Y99.271 E6.19965
G1 X184.396 Y99.808 E6.22096
G1 X184.467 Y100.408 E6.24408
G1 X184.48 Y101.024 E6.26766
G1 X184.48 Y103.793 E6.37363
G1 X184.47 Y104.495 E6.4005
G1 X184.422 Y105.05 E6.42182
G1 X184.295 Y105.591 E6.44308
G1 X184.092 Y106.109 E6.46437
G1 X183.817 Y106.593 E6.48568
G1 X183.447 Y107.064 E6.5086
G1 X182.814 Y107.701 E6.54297
G1 X182.388 Y108.058 E6.56424
G1 X181.914 Y108.351 E6.58556
G1 X181.404 Y108.572 E6.60683
G1 X180.867 Y108.718 E6.62813
G1 X180.25 Y108.789 E6.6519
G1 X179.609 Y108.801 E6.67643
G1 X179.145 Y108.801 E6.69419
G1 X176.375 Y108.84 E6.80021
G1 X173.628 Y108.957 E6.90543
G1 X170.949 Y109.147 E7.00821
G1 X168.255 Y109.414 E7.11181
G1 X165.531 Y109.762 E7.21691
G1 X162.863 Y110.182 E7.32027
G1 X160.163 Y110.683 E7.42536
G1 X157.557 Y111.244 E7.52738
G1 X154.179 Y112.085 E7.6606
G1 X152.966 Y112.409 E7.70864
G1 X152.419 Y112.513 E7.72995
G1 X151.866 Y112.545 E7.75115
G1 X151.457 Y112.55 E7.7668
G1 X53.68 Y112.55 E11.50868
G1 X52.976 Y112.54 E11.53563
G1 X52.422 Y112.492 E11.55691
G1 X52.004 Y112.402 E11.57327
G1 X51.433 Y112.245 E11.59593
G1 X48.781 Y111.556 E11.70079
G1 X46.144 Y110.951 E11.80433
G1 X43.441 Y110.409 E11.90984
G1 X40.766 Y109.953 E12.01368
G1 X38.103 Y109.574 E12.11662
G1 X35.405 Y109.269 E12.22053
G1 X32.699 Y109.04 E12.32446
G1 X29.979 Y108.886 E12.42872
G1 X25.9 Y108.801 E12.58485
G1 X25.528 Y108.801 E12.59909
G1 X24.826 Y108.791 E12.62596
G1 X24.271 Y108.743 E12.64728
G1 X23.73 Y108.616 E12.66854
G1 X23.212 Y108.413 E12.68983
G1 X22.728 Y108.138 E12.71114
G1 X22.256 Y107.766 E12.73414
G1 X21.624 Y107.14 E12.76818
G1 X21.266 Y106.714 E12.78947
G1 X20.973 Y106.241 E12.81077
G1 X20.751 Y105.731 E12.83205
G1 X20.604 Y105.194 E12.85336
G1 X20.532 Y104.571 E12.87736
G1 X20.52 Y103.93 E12.9019
G1 X20.52 Y101.207 E13.0061
G1 X20.53 Y100.505 E13.03297
G1 X20.578 Y99.95 E13.05429
G1 X20.705 Y99.409 E13.07556
G1 X20.908 Y98.891 E13.09685
G1 X21.183 Y98.407 E13.11815
G1 X21.553 Y97.936 E13.14107
G1 X22.191 Y97.295 E13.17568
G1 X22.618 Y96.938 E13.19698
G1 X23.092 Y96.647 E13.21827
G1 X23.603 Y96.426 E13.23958
G1 X24.14 Y96.281 E13.26086
G0 F1285.7 X24.303 Y96.607
G1 F900 X24.91 Y96.556 E13.28417
G1 X25.84 Y96.549 E13.31977
G1 X25.98 Y96.551 E13.32512
G1 X28.697 Y96.551 E13.4291
G1 X31.463 Y96.474 E13.535
G1 X34.161 Y96.321 E13.63841
G1 X36.848 Y96.093 E13.74161
G1 X39.602 Y95.78 E13.84769
G1 X42.285 Y95.398 E13.9514
G1 X44.984 Y94.936 E14.05619
G1 X47.651 Y94.403 E14.16027
G1 X50.324 Y93.787 E14.26525
G1 X51.989 Y93.36 E14.33103
G1 X52.693 Y93.239 E14.35837
G1 X53.547 Y93.2 E14.39108
G1 X151.315 Y93.2 E18.13262
G1 X152.017 Y93.21 E18.15949
G1 X152.571 Y93.262 E18.18078
G1 X152.832 Y93.316 E18.19098
G1 X153.771 Y93.547 E18.22799
G1 X154.742 Y93.798 E18.26637
G1 X157.428 Y94.415 E18.37184
G1 X160.084 Y94.948 E18.47551
G1 X162.785 Y95.405 E18.58034
G1 X165.457 Y95.783 E18.68362
G1 X168.178 Y96.09 E18.78841
G1 X170.933 Y96.321 E18.89421
G1 X173.599 Y96.471 E18.9964
G1 X176.374 Y96.546 E19.10264
G1 X178.329 Y96.553 E19.17745
G1 X178.883 Y96.549 E19.19866
G1 X179.467 Y96.549 E19.221
G1 X180.168 Y96.559 E19.24783
G1 X180.697 Y96.607 E19.26816
G1 X181.212 Y96.733 E19.28845
G1 X181.703 Y96.935 E19.30877
G1 X182.158 Y97.209 E19.3291
G1 X182.666 Y97.639 E19.35457
G1 X183.125 Y98.105 E19.3796
G1 X183.465 Y98.513 E19.39992
G1 X183.739 Y98.967 E19.42022
G1 X183.943 Y99.457 E19.44053
G1 X184.071 Y99.972 E19.46084
G1 X184.122 Y100.548 E19.48297
G1 X184.13 Y101.028 E19.50134
G1 X184.13 Y103.788 E19.60696
G1 X184.12 Y104.49 E19.63383
G1 X184.072 Y105.019 E19.65416
G1 X183.946 Y105.534 E19.67445
G1 X183.744 Y106.025 E19.69477
G1 X183.47 Y106.479 E19.71506
G1 X183.051 Y106.977 E19.73997
G1 X182.571 Y107.45 E19.76576
G1 X182.163 Y107.789 E19.78606
G1 X181.708 Y108.063 E19.80638
G1 X181.218 Y108.266 E19.82668
G1 X180.703 Y108.393 E19.84698
G1 X180.089 Y108.444 E19.87056
G1 X179.14 Y108.451 E19.90688
G1 X176.356 Y108.49 E20.01343
G1 X173.622 Y108.606 E20.11815
G1 X170.928 Y108.797 E20.22151
G1 X168.172 Y109.071 E20.3275
G1 X165.501 Y109.412 E20.43055
G1 X162.82 Y109.834 E20.53441
G1 X160.101 Y110.339 E20.64025
G1 X157.484 Y110.902 E20.74269
G1 X154.072 Y111.752 E20.87726
G1 X152.876 Y112.071 E20.92463
G1 X152.354 Y112.169 E20.94495
G1 X151.453 Y112.2 E20.97945
G1 X53.685 Y112.2 E24.72099
G1 X52.981 Y112.19 E24.74793
G1 X52.452 Y112.142 E24.76826
G1 X52.097 Y112.064 E24.78217
G1 X51.546 Y111.913 E24.80403
G1 X48.879 Y111.22 E24.90949
G1 X46.182 Y110.6 E25.01539
G1 X43.534 Y110.07 E25.11874
G1 X40.839 Y109.61 E25.22337
G1 X38.152 Y109.228 E25.32723
G1 X35.407 Y108.918 E25.43295
G1 X32.711 Y108.689 E25.5365
G1 X30.007 Y108.537 E25.64014
G1 X25.907 Y108.451 E25.79708
G1 X25.533 Y108.451 E25.81139
G1 X24.831 Y108.441 E25.83826
G1 X24.302 Y108.393 E25.85859
G1 X23.787 Y108.267 E25.87888
G1 X23.296 Y108.065 E25.8992
G1 X22.842 Y107.791 E25.91949
G1 X22.341 Y107.369 E25.94456
G1 X21.875 Y106.896 E25.96997
G1 X21.535 Y106.489 E25.99026
G1 X21.26 Y106.035 E26.01058
G1 X21.057 Y105.545 E26.03088
G1 X20.929 Y105.03 E26.05118
G1 X20.877 Y104.409 E26.07503
G1 X20.87 Y103.926 E26.09352
G1 X20.87 Y101.212 E26.19738
G1 X20.88 Y100.51 E26.22425
G1 X20.928 Y99.981 E26.24458
G1 X21.054 Y99.466 E26.26487
G1 X21.256 Y98.975 E26.28519
G1 X21.53 Y98.521 E26.30548
G1 X21.949 Y98.023 E26.33039
G1 X22.434 Y97.547 E26.35639
G1 X22.842 Y97.208 E26.37669
G1 X23.297 Y96.935 E26.397
G1 X23.788 Y96.733 E26.41732
G1 X24.303 Y96.607 E26.43761
G0 F1285.7 X24.462 Y96.937
G1 F900 X24.99 Y96.904 E26.45785
G1 X25.835 Y96.899 E26.49019
G1 X25.975 Y96.901 E26.49555
G1 X28.706 Y96.901 E26.60006
G1 X31.457 Y96.824 E26.70538
G1 X34.178 Y96.67 E26.80968
G1 X36.918 Y96.438 E26.91492
G1 X39.652 Y96.127 E27.02022
G1 X42.324 Y95.746 E27.12351
G1 X45.07 Y95.277 E27.23012
G1 X47.704 Y94.75 E27.33292
G1 X50.405 Y94.128 E27.43899
G1 X52.076 Y93.699 E27.50501
G1 X52.742 Y93.586 E27.53087
G1 X53.551 Y93.55 E27.56186
G1 X151.31 Y93.55 E31.30305
G1 X152.012 Y93.56 E31.32991
G1 X152.511 Y93.607 E31.34909
G1 X152.749 Y93.656 E31.35839
G1 X153.684 Y93.886 E31.39524
G1 X154.695 Y94.148 E31.43521
G1 X157.315 Y94.749 E31.53808
G1 X160.051 Y95.298 E31.64487
G1 X162.686 Y95.744 E31.74715
G1 X165.438 Y96.133 E31.85351
G1 X168.144 Y96.438 E31.95773
G1 X170.886 Y96.669 E32.06303
G1 X173.604 Y96.821 E32.16721
G1 X176.363 Y96.896 E32.27284
G1 X178.331 Y96.903 E32.34815
G1 X178.886 Y96.899 E32.36939
G1 X179.462 Y96.899 E32.39143
G1 X180.163 Y96.909 E32.41826
G1 X180.665 Y96.956 E32.43756
G1 X181.152 Y97.082 E32.45681
G1 X181.614 Y97.283 E32.47609
G1 X182.038 Y97.555 E32.49537
G1 X182.428 Y97.896 E32.5152
G1 X182.874 Y98.349 E32.53952
G1 X183.195 Y98.737 E32.5588
G1 X183.45 Y99.171 E32.57806
G1 X183.634 Y99.64 E32.59734
G1 X183.741 Y100.132 E32.61661
G1 X183.775 Y100.646 E32.63632
G1 X183.78 Y101.033 E32.65113
G1 X183.78 Y103.783 E32.75637
G1 X183.77 Y104.485 E32.78324
G1 X183.723 Y104.987 E32.80254
G1 X183.597 Y105.474 E32.82179
G1 X183.396 Y105.936 E32.84107
G1 X183.124 Y106.36 E32.86035
G1 X182.794 Y106.74 E32.87961
G1 X182.328 Y107.198 E32.90461
G1 X181.939 Y107.518 E32.92389
G1 X181.505 Y107.773 E32.94315
G1 X181.035 Y107.956 E32.96246
G1 X180.543 Y108.063 E32.98172
G1 X180.01 Y108.096 E33.00216
G1 X179.135 Y108.101 E33.03565
G1 X176.336 Y108.141 E33.14278
G1 X173.62 Y108.256 E33.24681
G1 X170.901 Y108.449 E33.35113
G1 X168.132 Y108.723 E33.45761
G1 X165.437 Y109.068 E33.56159
G1 X162.771 Y109.487 E33.66487
G1 X160.032 Y109.996 E33.77148
G1 X157.396 Y110.564 E33.87468
G1 X153.946 Y111.422 E34.01073
G1 X152.785 Y111.732 E34.05672
G1 X152.074 Y111.838 E34.08423
G1 X151.449 Y111.85 E34.10815
G1 X53.69 Y111.85 E37.84934
G1 X52.986 Y111.84 E37.87628
G1 X52.485 Y111.793 E37.89554
G1 X52.19 Y111.727 E37.90711
G1 X51.604 Y111.566 E37.93037
G1 X48.936 Y110.873 E38.03586
G1 X46.302 Y110.268 E38.13928
G1 X43.586 Y109.724 E38.24529
G1 X40.878 Y109.262 E38.35042
G1 X38.206 Y108.882 E38.4537
G1 X35.473 Y108.573 E38.55896
G1 X32.726 Y108.34 E38.66447
G1 X30.006 Y108.187 E38.76872
G1 X25.915 Y108.101 E38.92532
G1 X25.538 Y108.101 E38.93975
G1 X24.836 Y108.091 E38.96661
G1 X24.334 Y108.044 E38.98591
G1 X23.847 Y107.918 E39.00516
G1 X23.385 Y107.717 E39.02444
G1 X22.961 Y107.445 E39.04372
G1 X22.578 Y107.111 E39.06317
G1 X22.126 Y106.653 E39.08779
G1 X21.805 Y106.265 E39.10706
G1 X21.55 Y105.831 E39.12633
G1 X21.366 Y105.362 E39.14561
G1 X21.259 Y104.87 E39.16488
G1 X21.225 Y104.331 E39.18555
G1 X21.22 Y103.922 E39.2012
G1 X21.22 Y101.217 E39.30472
G1 X21.23 Y100.515 E39.33159
G1 X21.277 Y100.013 E39.35088
G1 X21.403 Y99.526 E39.37013
G1 X21.604 Y99.064 E39.38941
G1 X21.876 Y98.64 E39.40869
G1 X22.206 Y98.26 E39.42795
G1 X22.677 Y97.799 E39.45317
G1 X23.066 Y97.479 E39.47245
G1 X23.501 Y97.225 E39.49173
G1 X23.97 Y97.042 E39.51099
G1 X24.462 Y96.937 E39.53025
G0 F1285.7 X24.949 Y100.249
;TYPE:SUPPORT
G1 F900 X26.341 Y100.249 E39.58352
G1 X26.341 Y100.55 E39.59504
G1 X26.691 Y100.9 E39.61398
G1 X52.05 Y100.9 E40.58446
G1 X52.05 Y104.1 E40.70692
G1 X26.691 Y104.1 E41.6774
G1 X26.341 Y104.45 E41.69634
G1 X26.341 Y104.751 E41.70786
G1 X24.949 Y104.751 E41.76113
G1 X24.57 Y104.372 E41.78164
G1 X24.57 Y100.628 E41.92492
G1 X24.949 Y100.249 E41.94543
G0 F1285.7 X25.663 Y100.389
G1 F900 X25.663 Y104.611 E42.10701
G0 F1285.7 X24.709 Y102.652
G1 F900 X51.909 Y102.652 E43.14794
G0 F1285.7 X51.326 Y103.96
G1 F900 X51.326 Y101.04 E43.25969
G0 F1285.7 X48.993 Y101.04
G1 F900 X48.993 Y103.96 E43.37143
G0 F1285.7 X46.66 Y103.96
G1 F900 X46.66 Y101.04 E43.48318
G0 F1285.7 X44.327 Y101.04
G1 F900 X44.327 Y103.96 E43.59493
G0 F1285.7 X41.994 Y103.96
G1 F900 X41.994 Y101.04 E43.70667
G0 F1285.7 X39.661 Y101.04
G1 F900 X39.661 Y103.96 E43.81842
G0 F1285.7 X37.328 Y103.96
G1 F900 X37.328 Y101.04 E43.93017
G0 F1285.7 X34.995 Y101.04
G1 F900 X34.995 Y103.96 E44.04191
G0 F1285.7 X32.662 Y103.96
G1 F900 X32.662 Y101.04 E44.15366
G0 F1285.7 X30.329 Y101.04
G1 F900 X30.329 Y103.96 E44.26541
G0 F1285.7 X27.996 Y103.96
G1 F900 X27.996 Y101.04 E44.37716
G0 F1285.7 X53.1 Y99.85
G1 F900 X53.101 Y96.9 E44.49005
G1 X151.899 Y96.9 E48.271
G1 X151.9 Y99.85 E48.3839
G1 X53.1 Y99.85 E52.16493
G0 F1285.7 X53.659 Y99.71
G1 F900 X53.659 Y97.04 E52.26711
G0 F1285.7 X53.24 Y97.986
G1 F900 X151.76 Y97.986 E56.03742
G0 F1285.7 X151.645 Y97.04
G1 F900 X151.645 Y99.71 E56.1396
G0 F1285.7 X149.312 Y99.71
G1 F900 X149.312 Y97.04 E56.24178
G0 F1285.7 X146.979 Y97.04
G1 F900 X146.979 Y99.71 E56.34396
G0 F1285.7 X144.646 Y99.71
G1 F900 X144.646 Y97.04 E56.44614
G0 F1285.7 X142.313 Y97.04
G1 F900 X142.313 Y99.71 E56.54832
G0 F1285.7 X139.98 Y99.71
G1 F900 X139.98 Y97.04 E56.6505
G0 F1285.7 X137.647 Y97.04
G1 F900 X137.647 Y99.71 E56.75268
G0 F1285.7 X135.314 Y99.71
G1 F900 X135.314 Y97.04 E56.85486
G0 F1285.7 X132.981 Y97.04
G1 F900 X132.981 Y99.71 E56.95704
G0 F1285.7 X130.648 Y99.71
G1 F900 X130.648 Y97.04 E57.05922
G0 F1285.7 X128.315 Y97.04
G1 F900 X128.315 Y99.71 E57.16139
G0 F1285.7 X125.982 Y99.71
G1 F900 X125.982 Y97.04 E57.26357
G0 F1285.7 X123.649 Y97.04
G1 F900 X123.649 Y99.71 E57.36575
G0 F1285.7 X121.316 Y99.71
G1 F900 X121.316 Y97.04 E57.46793
G0 F1285.7 X118.983 Y97.04
G1 F900 X118.983 Y99.71 E57.57011
G0 F1285.7 X116.65 Y99.71
G1 F900 X116.65 Y97.04 E57.67229
G0 F1285.7 X114.317 Y97.04
G1 F900 X114.317 Y99.71 E57.77447
G0 F1285.7 X111.984 Y99.71
G1 F900 X111.984 Y97.04 E57.87665
G0 F1285.7 X109.651 Y97.04
G1 F900 X109.651 Y99.71 E57.97883
G0 F1285.7 X107.318 Y99.71
G1 F900 X107.318 Y97.04 E58.08101
G0 F1285.7 X104.985 Y97.04
G1 F900 X104.985 Y99.71 E58.18319
G0 F1285.7 X102.652 Y99.71
G1 F900 X102.652 Y97.04 E58.28537
G0 F1285.7 X100.319 Y97.04
G1 F900 X100.319 Y99.71 E58.38755
G0 F1285.7 X97.986 Y99.71
G1 F900 X97.986 Y97.04 E58.48973
G0 F1285.7 X95.653 Y97.04
G1 F900 X95.653 Y99.71 E58.59191
G0 F1285.7 X93.32 Y99.71
G1 F900 X93.32 Y97.04 E58.69409
G0 F1285.7 X90.987 Y97.04
G1 F900 X90.987 Y99.71 E58.79627
G0 F1285.7 X88.654 Y99.71
G1 F900 X88.654 Y97.04 E58.89845
G0 F1285.7 X86.321 Y97.04
G1 F900 X86.321 Y99.71 E59.00063
G0 F1285.7 X83.988 Y99.71
G1 F900 X83.988 Y97.04 E59.10281
G0 F1285.7 X81.655 Y97.04
G1 F900 X81.655 Y99.71 E59.20499
G0 F1285.7 X79.322 Y99.71
G1 F900 X79.322 Y97.04 E59.30717
G0 F1285.7 X76.989 Y97.04
G1 F900 X76.989 Y99.71 E59.40935
G0 F1285.7 X74.656 Y99.71
G1 F900 X74.656 Y97.04 E59.51153
G0 F1285.7 X72.323 Y97.04
G1 F900 X72.323 Y99.71 E59.61371
G0 F1285.7 X69.99 Y99.71
G1 F900 X69.99 Y97.04 E59.71589
G0 F1285.7 X67.657 Y97.04
G1 F900 X67.657 Y99.71 E59.81806
G0 F1285.7 X65.324 Y99.71
G1 F900 X65.324 Y97.04 E59.92024
G0 F1285.7 X62.991 Y97.04
G1 F900 X62.991 Y99.71 E60.02242
G0 F1285.7 X60.658 Y99.71
G1 F900 X60.658 Y97.04 E60.1246
G0 F1285.7 X58.325 Y97.04
G1 F900 X58.325 Y99.71 E60.22678
G0 F1285.7 X55.992 Y99.71
G1 F900 X55.992 Y97.04 E60.32896
G1 F3000 E56.82896
G0 F1285.7 X52.264 Y100.554
G0 X52.264 Y104.446
G0 X53.1 Y105.15
G1 F3000 E60.32896
G1 F900 X151.9 Y105.15 E64.10999
G1 X151.899 Y108.5 E64.23819
G1 X53.1 Y108.499 E68.01918
G1 X53.1 Y105.15 E68.14735
G0 F1285.7 X53.659 Y105.29
G1 F900 X53.659 Y108.359 E68.2648
G0 F1285.7 X53.239 Y107.318
G1 F900 X151.759 Y107.318 E72.03511
G0 F1285.7 X151.645 Y108.359
G1 F900 X151.645 Y105.29 E72.15256
G0 F1285.7 X149.312 Y105.29
G1 F900 X149.312 Y108.359 E72.27001
G0 F1285.7 X146.979 Y108.359
G1 F900 X146.979 Y105.29 E72.38746
G0 F1285.7 X144.646 Y105.29
G1 F900 X144.646 Y108.359 E72.50491
G0 F1285.7 X142.313 Y108.359
G1 F900 X142.313 Y105.29 E72.62236
G0 F1285.7 X139.98 Y105.29
G1 F900 X139.98 Y108.359 E72.73981
G0 F1285.7 X137.647 Y108.359
G1 F900 X137.647 Y105.29 E72.85726
G0 F1285.7 X135.314 Y105.29
G1 F900 X135.314 Y108.359 E72.9747
G0 F1285.7 X132.981 Y108.359
G1 F900 X132.981 Y105.29 E73.09215
G0 F1285.7 X130.648 Y105.29
G1 F900 X130.648 Y108.359 E73.2096
G0 F1285.7 X128.315 Y108.359
G1 F900 X128.315 Y105.29 E73.32705
G0 F1285.7 X125.982 Y105.29
G1 F900 X125.982 Y108.359 E73.4445
G0 F1285.7 X123.649 Y108.359
G1 F900 X123.649 Y105.29 E73.56195
G0 F1285.7 X121.316 Y105.29
G1 F900 X121.316 Y108.359 E73.6794
