;FLAVOR:Marlin
;TIME:35900
;Filament used: 44.9337m
;Layer height: 0.3
;MINX:57.672
;MINY:40.372
;MINZ:0.26
;MAXX:147.352
;MAXY:164.642
;MAXZ:189.86
;Generated with Cura_SteamEngine 4.9.1
M82 ;absolute extrusion mode
;Begin Start Gcode for Dagoma DiscoEasy 200
;Sliced: 08-07-2021 11:00:47
;Initial extruder: 0

G90 ;Absolute positioning
M106 S255 ;Fan on full
G28 X Y ;Home stop X Y
G1 X100 ;Centre back during cooldown in case of oozing
M109 R90 ;Cooldown in case too hot
G28 ;Centre
G29 ;Auto-level
M104 S205 ;Pre-heat
M107 ;Fan off
G0 X100 Y5 Z0.5 ;Front centre for degunk
M109 S205 ;Wait for initial temp
M83 ;E Relative
G1 E10 F200 ;Degunk
G1 E-3 F5000 ;Retract
G0 Z3 ;Withdraw
M82 ;E absolute
G92 E0 ;E reset
G1 F6000 ;Set feedrate

;Finish Start Gcode for Dagoma DiscoEasy 200

G92 E0
G92 E0
G1 F3000 E-3.5
;LAYER_COUNT:633
;LAYER:0
M107
G0 F1285.7 X117.671 Y42.923 Z0.26
;TYPE:SKIRT
G1 F3000 E0
G1 F900 X118.053 Y42.283 E0.02852
G1 X118.371 Y41.827 E0.0498
G1 X118.752 Y41.421 E0.07111
G1 X119.187 Y41.074 E0.0924
G1 X119.667 Y40.793 E0.11369
G1 X120.356 Y40.532 E0.14188
G1 X120.491 Y40.495 E0.14724
G1 X121.037 Y40.387 E0.16854
G1 X121.857 Y40.372 E0.19993
G1 X123.155 Y40.487 E0.24979
G1 X123.991 Y40.547 E0.28187
G1 X124.103 Y40.563 E0.2862
G1 X125.414 Y40.67 E0.33654
G1 X125.964 Y40.755 E0.35784
G1 X126.496 Y40.917 E0.37912
G1 X126.994 Y41.151 E0.40018
G1 X127.905 Y41.663 E0.44017
G1 X129.481 Y42.587 E0.51008
G1 X130.106 Y42.964 E0.53802
G1 X130.472 Y43.214 E0.55498
G1 X131.453 Y43.971 E0.6024
G1 X131.847 Y44.284 E0.62166
G1 X134.017 Y45.908 E0.72538
G1 X136.202 Y47.448 E0.82768
G1 X138.511 Y48.98 E0.93373
G1 X140.682 Y50.327 E1.0315
G1 X141.228 Y50.682 E1.05643
G1 X141.596 Y50.946 E1.07376
G1 X143.817 Y52.495 E1.17739
G1 X145.01 Y53.277 E1.23198
G1 X145.625 Y53.693 E1.26039
G1 X146.062 Y54.037 E1.28167
G1 X146.446 Y54.44 E1.30298
G1 X146.768 Y54.894 E1.32428
G1 X147.021 Y55.39 E1.34559
G1 X147.201 Y55.916 E1.36686
G1 X147.311 Y56.498 E1.38953
G1 X147.352 Y57.053 E1.41083
G1 X147.313 Y57.608 E1.43212
G1 X147.195 Y58.152 E1.45342
G1 X147 Y58.673 E1.47471
G1 X146.858 Y58.953 E1.48672
G1 X146.505 Y59.583 E1.51436
G1 X87.352 Y162.038 E6.04184
G1 X86.951 Y162.712 E6.07186
G1 X86.633 Y163.169 E6.09316
G1 X86.253 Y163.575 E6.11444
G1 X85.818 Y163.923 E6.13576
G1 X85.339 Y164.205 E6.15703
G1 X84.638 Y164.47 E6.18571
G1 X84.502 Y164.507 E6.19111
G1 X83.956 Y164.614 E6.2124
G1 X83.401 Y164.642 E6.23367
G1 X83.034 Y164.617 E6.24774
G1 X81.982 Y164.493 E6.28828
G1 X81.752 Y164.462 E6.29716
G1 X79.145 Y164.183 E6.3975
G1 X78.951 Y164.164 E6.40496
G1 X78.403 Y164.07 E6.42624
G1 X77.874 Y163.898 E6.44753
G1 X77.403 Y163.67 E6.46755
G1 X76.654 Y163.241 E6.50059
G1 X75.598 Y162.611 E6.54764
G1 X74.987 Y162.235 E6.5751
G1 X74.544 Y161.917 E6.59597
G1 X73.634 Y161.162 E6.64122
G1 X71.467 Y159.413 E6.74779
G1 X69.317 Y157.777 E6.85118
G1 X67.104 Y156.191 E6.95538
G1 X64.843 Y154.663 E7.05981
G1 X62.564 Y153.216 E7.16312
G1 X59.561 Y151.425 E7.29693
G1 X59.105 Y151.107 E7.31821
G1 X58.699 Y150.726 E7.33951
G1 X58.352 Y150.291 E7.36081
G1 X58.071 Y149.811 E7.3821
G1 X57.861 Y149.296 E7.40338
G1 X57.727 Y148.755 E7.42471
G1 X57.672 Y148.005 E7.45349
G1 X57.677 Y147.795 E7.46153
G1 X57.73 Y147.241 E7.48283
G1 X57.862 Y146.7 E7.50414
G1 X58.173 Y145.989 E7.53384
G1 X58.481 Y145.44 E7.55793
G1 X117.671 Y42.923 E12.08817
G0 F1285.7 X117.971 Y43.102
G1 F900 X118.353 Y42.462 E12.11669
G1 X118.659 Y42.028 E12.13702
G1 X119.026 Y41.645 E12.15732
G1 X119.446 Y41.322 E12.17759
G1 X119.911 Y41.065 E12.19792
G1 X120.448 Y40.869 E12.2198
G1 X120.583 Y40.832 E12.22516
G1 X121.104 Y40.731 E12.24547
G1 X121.826 Y40.721 E12.2731
G1 X123.098 Y40.834 E12.32197
G1 X123.966 Y40.896 E12.35527
G1 X124.076 Y40.912 E12.35953
G1 X125.386 Y41.019 E12.40983
G1 X125.91 Y41.101 E12.43013
G1 X126.416 Y41.262 E12.45045
G1 X126.823 Y41.457 E12.46772
G1 X127.728 Y41.965 E12.50743
G1 X129.301 Y42.887 E12.57721
G1 X129.926 Y43.264 E12.60514
G1 X130.258 Y43.491 E12.62054
G1 X131.235 Y44.245 E12.66776
G1 X131.629 Y44.558 E12.68702
G1 X133.799 Y46.182 E12.79075
G1 X136.034 Y47.757 E12.89538
G1 X138.289 Y49.254 E12.99897
G1 X140.493 Y50.622 E13.09824
G1 X141.024 Y50.967 E13.12247
G1 X141.392 Y51.231 E13.13981
G1 X143.618 Y52.784 E13.24368
G1 X144.814 Y53.567 E13.29838
G1 X145.429 Y53.983 E13.3268
G1 X145.845 Y54.313 E13.34712
G1 X146.207 Y54.701 E13.36743
G1 X146.506 Y55.139 E13.38772
G1 X146.736 Y55.617 E13.40802
G1 X146.892 Y56.125 E13.42836
G1 X146.965 Y56.549 E13.44482
G1 X147.002 Y57.078 E13.46512
G1 X146.959 Y57.607 E13.48543
G1 X146.838 Y58.124 E13.50575
G1 X146.553 Y58.782 E13.53319
G1 X146.202 Y59.408 E13.56066
G1 X87.051 Y161.859 E18.08797
G1 X86.65 Y162.533 E18.11798
G1 X86.345 Y162.968 E18.13831
G1 X85.979 Y163.351 E18.15859
G1 X85.559 Y163.676 E18.17891
G1 X85.095 Y163.933 E18.19921
G1 X84.546 Y164.132 E18.22156
G1 X84.41 Y164.169 E18.22695
G1 X83.889 Y164.27 E18.24726
G1 X83.359 Y164.291 E18.26756
G1 X83.075 Y164.269 E18.27846
G1 X82.029 Y164.146 E18.31876
G1 X81.802 Y164.115 E18.32753
G1 X78.985 Y163.815 E18.43595
G1 X78.463 Y163.724 E18.45622
G1 X77.96 Y163.555 E18.47653
G1 X77.577 Y163.366 E18.49288
G1 X76.775 Y162.906 E18.52826
G1 X75.782 Y162.313 E18.57252
G1 X75.171 Y161.937 E18.59998
G1 X74.767 Y161.648 E18.61899
G1 X73.816 Y160.859 E18.66628
G1 X71.693 Y159.146 E18.77067
G1 X69.523 Y157.494 E18.87504
G1 X67.294 Y155.896 E18.98
G1 X65.057 Y154.385 E19.08331
G1 X62.719 Y152.901 E19.18929
G1 X59.74 Y151.124 E19.32203
G1 X59.306 Y150.819 E19.34233
G1 X58.923 Y150.452 E19.36263
G1 X58.599 Y150.032 E19.38293
G1 X58.342 Y149.567 E19.40327
G1 X58.158 Y149.07 E19.42355
G1 X58.05 Y148.55 E19.44387
G1 X58.022 Y148.013 E19.46445
G1 X58.027 Y147.803 E19.47249
G1 X58.08 Y147.275 E19.4928
G1 X58.211 Y146.761 E19.5131
G1 X58.478 Y146.16 E19.53826
G1 X58.784 Y145.615 E19.56218
G1 X117.971 Y43.102 E24.09224
G0 F1285.7 X118.272 Y43.282
G1 F900 X118.654 Y42.642 E24.12076
G1 X118.945 Y42.231 E24.14003
G1 X119.298 Y41.872 E24.1593
G1 X119.703 Y41.573 E24.17857
G1 X120.151 Y41.342 E24.19786
G1 X120.676 Y41.17 E24.219
G1 X121.17 Y41.076 E24.23824
G1 X121.795 Y41.069 E24.26216
G1 X123.101 Y41.185 E24.31234
G1 X123.941 Y41.245 E24.34457
G1 X124.034 Y41.259 E24.34817
G1 X125.358 Y41.367 E24.399
G1 X125.855 Y41.448 E24.41828
G1 X126.333 Y41.606 E24.43754
G1 X126.652 Y41.762 E24.45113
G1 X127.551 Y42.267 E24.49059
G1 X129.12 Y43.186 E24.56018
G1 X129.745 Y43.563 E24.58811
G1 X130.045 Y43.768 E24.60202
G1 X131.018 Y44.519 E24.64905
G1 X131.429 Y44.845 E24.66913
G1 X133.597 Y46.468 E24.77277
G1 X135.832 Y48.043 E24.87741
G1 X138.12 Y49.562 E24.98251
G1 X140.305 Y50.917 E25.0809
G1 X140.82 Y51.251 E25.10439
G1 X141.188 Y51.515 E25.12172
G1 X143.436 Y53.083 E25.22661
G1 X144.618 Y53.857 E25.28068
G1 X145.233 Y54.273 E25.3091
G1 X145.626 Y54.587 E25.32835
G1 X145.965 Y54.96 E25.34764
G1 X146.241 Y55.382 E25.36694
G1 X146.446 Y55.841 E25.38617
G1 X146.595 Y56.443 E25.40991
G1 X146.618 Y56.6 E25.41598
G1 X146.652 Y57.102 E25.43524
G1 X146.605 Y57.604 E25.45453
G1 X146.48 Y58.091 E25.47377
G1 X146.248 Y58.611 E25.49556
G1 X145.899 Y59.233 E25.52286
G1 X86.751 Y161.68 E30.04998
G1 X86.35 Y162.354 E30.07999
G1 X86.059 Y162.765 E30.09926
G1 X85.706 Y163.125 E30.11856
G1 X85.301 Y163.425 E30.13785
G1 X84.854 Y163.657 E30.15712
G1 X84.318 Y163.832 E30.1787
G1 X83.824 Y163.925 E30.19794
G1 X83.115 Y163.921 E30.22507
G1 X82.076 Y163.799 E30.2651
G1 X81.851 Y163.768 E30.2738
G1 X78.998 Y163.463 E30.3836
G1 X78.524 Y163.378 E30.40203
G1 X78.048 Y163.212 E30.42132
G1 X77.751 Y163.062 E30.43406
G1 X76.954 Y162.605 E30.46921
G1 X75.965 Y162.015 E30.51329
G1 X75.354 Y161.639 E30.54074
G1 X74.991 Y161.379 E30.55783
G1 X74.04 Y160.59 E30.60512
G1 X71.893 Y158.858 E30.71069
G1 X69.729 Y157.211 E30.81476
G1 X67.508 Y155.618 E30.91936
G1 X65.23 Y154.08 E31.02455
G1 X62.927 Y152.617 E31.12896
G1 X59.92 Y150.824 E31.26294
G1 X59.509 Y150.532 E31.28224
G1 X59.15 Y150.18 E31.30148
G1 X58.85 Y149.775 E31.32076
G1 X58.619 Y149.327 E31.34005
G1 X58.461 Y148.849 E31.35932
G1 X58.381 Y148.352 E31.37858
G1 X58.377 Y147.811 E31.39929
G1 X58.429 Y147.311 E31.41853
G1 X58.559 Y146.824 E31.43782
G1 X58.783 Y146.332 E31.45851
G1 X59.087 Y145.79 E31.48229
G1 X118.272 Y43.282 E36.01214
G0 F1285.7 X121.489 Y44.411
;TYPE:SUPPORT
G1 F900 X124.098 Y45.916 E36.1274
G1 X124.575 Y45.792 E36.14626
G1 X125.185 Y44.762 E36.19208
G1 X127.868 Y46.334 E36.31108
G1 X127.488 Y46.978 E36.3397
G1 X127.613 Y47.456 E36.3586
G1 X138.726 Y53.881 E36.84986
G1 X138.691 Y53.942 E36.85255
G1 X138.817 Y54.418 E36.87139
G1 X143.312 Y57.012 E37.07
G1 X83.511 Y160.59 E41.6471
G1 X81.244 Y159.277 E41.74736
G1 X80.804 Y159.276 E41.7642
G1 X79.321 Y160.116 E41.82942
G1 X77.25 Y158.882 E41.92168
G1 X77.91 Y157.76 E41.9715
G1 X77.784 Y157.282 E41.99042
G1 X61.688 Y147.989 E42.70169
G1 X121.489 Y44.411 E47.27879
G0 F1285.7 X123.417 Y56.572
G1 F900 X73.181 Y143.581 E51.12373
G1 X73.409 Y144.42 E51.157
G1 X80.744 Y148.656 E51.48116
G1 X81.583 Y148.428 E51.51443
G1 X131.819 Y61.419 E55.35937
G1 X131.591 Y60.58 E55.39264
G1 X124.256 Y56.344 E55.7168
G1 X123.417 Y56.572 E55.75007
G0 F1285.7 X123.649 Y56.365
G1 F900 X123.649 Y45.819 E56.15366
G0 F1285.7 X125.982 Y45.391
G1 F900 X125.982 Y57.179 E56.60478
G0 F1285.7 X127.967 Y58.325
G1 F900 X142.39 Y58.325 E57.15674
G0 F1285.7 X142.313 Y58.461
G1 F900 X142.313 Y56.598 E57.22804
G0 F1285.7 X141.266 Y55.992
G1 F900 X114.965 Y55.992 E58.23456
G0 F1285.7 X114.317 Y57.114
G1 F900 X114.317 Y72.054 E58.80631
G0 F1285.7 X114.161 Y72.323
G1 F900 X105.536 Y72.323 E59.13639
G0 F1285.7 X104.985 Y73.277
G1 F900 X104.985 Y88.218 E59.70817
G0 F1285.7 X104.732 Y88.654
G1 F900 X96.108 Y88.654 E60.03821
G0 F1285.7 X95.653 Y89.441
G1 F900 X95.653 Y104.381 E60.60995
G0 F1285.7 X95.303 Y104.985
G1 F900 X86.679 Y104.985 E60.93999
G0 F1285.7 X86.321 Y105.604
G1 F900 X86.321 Y120.544 E61.51174
G0 F1285.7 X85.873 Y121.316
G1 F900 X77.25 Y121.316 E61.84173
G0 F1285.7 X76.989 Y121.768
G1 F900 X76.989 Y136.707 E62.41344
G0 F1285.7 X76.445 Y137.647
G1 F900 X67.821 Y137.647 E62.74348
G0 F1285.7 X67.657 Y137.931
G1 F900 X67.657 Y151.273 E63.25407
G0 F1285.7 X68.299 Y151.645
G1 F900 X88.512 Y151.645 E64.02761
G0 F1285.7 X88.654 Y151.401
G1 F900 X88.654 Y136.46 E64.5994
G0 F1285.7 X89.315 Y135.314
G1 F900 X97.94 Y135.314 E64.92947
G0 F1285.7 X97.986 Y135.238
G1 F900 X97.986 Y120.297 E65.50126
G0 F1285.7 X97.397 Y121.316
G1 F900 X106.022 Y121.316 E65.83133
G0 F1285.7 X104.985 Y123.115
G1 F900 X104.985 Y108.174 E66.40312
G0 F1285.7 X105.48 Y107.318
G1 F900 X114.104 Y107.318 E66.73315
G0 F1285.7 X114.317 Y106.952
G1 F900 X114.317 Y92.011 E67.30494
G0 F1285.7 X114.909 Y90.987
G1 F900 X123.533 Y90.987 E67.63497
G0 F1285.7 X123.649 Y90.788
G1 F900 X123.649 Y75.848 E68.20672
G0 F1285.7 X122.99 Y76.989
G1 F900 X131.615 Y76.989 E68.5368
G0 F1285.7 X130.648 Y78.666
G1 F900 X130.648 Y63.725 E69.10858
G0 F1285.7 X131.072 Y62.991
G1 F900 X139.696 Y62.991 E69.43862
G0 F1285.7 X139.98 Y62.502
G1 F900 X139.98 Y55.252 E69.71607
G0 F1285.7 X138.063 Y53.659
G1 F900 X116.312 Y53.659 E70.54847
G0 F1285.7 X116.65 Y53.073
G1 F900 X116.65 Y68.014 E71.12026
G0 F1285.7 X116.855 Y67.657
G1 F900 X108.23 Y67.657 E71.45033
G0 F1285.7 X107.318 Y69.236
G1 F900 X107.318 Y84.177 E72.02212
G0 F1285.7 X107.426 Y83.988
G1 F900 X98.802 Y83.988 E72.35215
G0 F1285.7 X97.986 Y85.4
G1 F900 X97.986 Y100.34 E72.9239
G0 F1285.7 X97.997 Y100.319
G1 F900 X89.373 Y100.319 E73.25394
G0 F1285.7 X88.654 Y101.564
G1 F900 X88.654 Y116.503 E73.82564
G0 F1285.7 X88.568 Y116.65
G1 F900 X79.944 Y116.65 E74.15568
G0 F1285.7 X79.322 Y117.727
G1 F900 X79.322 Y132.666 E74.72739
G0 F1285.7 X79.138 Y132.981
G1 F900 X70.515 Y132.981 E75.05739
G0 F1285.7 X69.99 Y133.891
G1 F900 X69.99 Y152.62 E75.77414
G0 F1285.7 X72.323 Y153.967
G1 F900 X72.323 Y129.85 E76.69708
G0 F1285.7 X71.862 Y130.648
G1 F900 X80.485 Y130.648 E77.02708
G0 F1285.7 X81.655 Y128.626
G1 F900 X81.655 Y113.686 E77.59883
G0 F1285.7 X81.291 Y114.317
G1 F900 X89.915 Y114.317 E77.92886
G0 F1285.7 X90.987 Y112.462
G1 F900 X90.987 Y97.523 E78.50057
G0 F1285.7 X90.72 Y97.986
G1 F900 X99.344 Y97.986 E78.83061
G0 F1285.7 X100.319 Y96.299
G1 F900 X100.319 Y81.359 E79.40235
G0 F1285.7 X100.149 Y81.655
G1 F900 X108.773 Y81.655 E79.73239
G0 F1285.7 X109.651 Y80.136
G1 F900 X109.651 Y65.196 E80.30414
G0 F1285.7 X109.577 Y65.324
G1 F900 X118.202 Y65.324 E80.63421
G0 F1285.7 X118.983 Y63.973
G1 F900 X118.983 Y49.032 E81.206
G0 F1285.7 X119.006 Y48.993
G1 F900 X129.993 Y48.993 E81.62646
G0 F1285.7 X130.648 Y49.373
G1 F900 X130.648 Y59.874 E82.02833
G0 F1285.7 X131.757 Y60.658
G1 F900 X141.043 Y60.658 E82.3837
G0 F1285.7 X138.349 Y65.324
G1 F900 X129.725 Y65.324 E82.71374
G0 F1285.7 X128.378 Y67.657
G1 F900 X137.003 Y67.657 E83.04381
G0 F1285.7 X137.647 Y66.543
G1 F900 X137.647 Y53.42 E83.54603
G0 F1285.7 X135.314 Y52.071
G1 F900 X135.314 Y70.584 E84.25451
G0 F1285.7 X135.656 Y69.99
G1 F900 X127.031 Y69.99 E84.58458
G0 F1285.7 X125.982 Y71.807
G1 F900 X125.982 Y86.747 E85.15633
G0 F1285.7 X126.227 Y86.321
G1 F900 X117.603 Y86.321 E85.48637
G0 F1285.7 X116.65 Y87.97
G1 F900 X116.65 Y102.911 E86.05815
G0 F1285.7 X116.798 Y102.652
G1 F900 X108.174 Y102.652 E86.38819
G0 F1285.7 X107.318 Y104.133
G1 F900 X107.318 Y119.074 E86.95997
G0 F1285.7 X107.369 Y118.983
G1 F900 X98.744 Y118.983 E87.29005
G0 F1285.7 X100.092 Y116.65
G1 F900 X108.717 Y116.65 E87.62012
G0 F1285.7 X109.651 Y115.034
G1 F900 X109.651 Y100.093 E88.19191
G0 F1285.7 X109.521 Y100.319
G1 F900 X118.145 Y100.319 E88.52194
G0 F1285.7 X118.983 Y98.87
G1 F900 X118.983 Y83.929 E89.09373
G0 F1285.7 X118.95 Y83.988
G1 F900 X127.574 Y83.988 E89.42376
G0 F1285.7 X128.315 Y82.707
G1 F900 X128.315 Y67.766 E89.99555
G0 F1285.7 X125.684 Y72.323
G1 F900 X134.309 Y72.323 E90.32562
G0 F1285.7 X132.981 Y74.625
G1 F900 X132.981 Y50.722 E91.24038
G0 F1285.7 X134.028 Y51.326
G1 F900 X117.659 Y51.326 E91.86681
G0 F1285.7 X120.353 Y46.66
G1 F900 X127.512 Y46.66 E92.14079
G0 F1285.7 X128.315 Y48.024
G1 F900 X128.315 Y58.526 E92.54269
G1 F3000 E89.04269
G0 F1285.7 X124.226 Y56.574
G0 X122.243 Y58.325
G1 F3000 E92.54269
G1 F900 X113.618 Y58.325 E92.87277
G0 F1285.7 X112.271 Y60.658
G1 F900 X120.896 Y60.658 E93.20284
G0 F1285.7 X121.316 Y59.932
G1 F900 X121.316 Y44.991 E93.77463
G0 F1285.7 X119.549 Y62.991
G1 F900 X110.924 Y62.991 E94.1047
G0 F1285.7 X111.984 Y61.155
G1 F900 X111.984 Y76.095 E94.67645
G0 F1285.7 X111.467 Y76.989
G1 F900 X102.842 Y76.989 E95.00652
G0 F1285.7 X102.652 Y77.318
G1 F900 X102.652 Y92.258 E95.57827
G0 F1285.7 X102.038 Y93.32
G1 F900 X93.414 Y93.32 E95.9083
G0 F1285.7 X93.32 Y93.482
G1 F900 X93.32 Y108.422 E96.48005
G0 F1285.7 X93.956 Y107.318
G1 F900 X85.332 Y107.318 E96.81009
G0 F1285.7 X83.988 Y109.645
G1 F900 X83.988 Y124.585 E97.38183
G0 F1285.7 X84.526 Y123.649
G1 F900 X75.903 Y123.649 E97.71183
G0 F1285.7 X74.656 Y125.809
G1 F900 X74.656 Y140.748 E98.28354
G0 F1285.7 X75.098 Y139.98
G1 F900 X66.474 Y139.98 E98.61358
G0 F1285.7 X65.324 Y141.972
G1 F900 X65.324 Y149.926 E98.91797
G0 F1285.7 X64.258 Y149.312
G1 F900 X89.859 Y149.312 E99.89771
G0 F1285.7 X90.987 Y147.361
G1 F900 X90.987 Y132.419 E100.46953
G0 F1285.7 X90.662 Y132.981
G1 F900 X99.287 Y132.981 E100.79961
G0 F1285.7 X100.319 Y131.197
G1 F900 X100.319 Y116.256 E101.37139
G0 F1285.7 X101.439 Y114.317
G1 F900 X110.064 Y114.317 E101.70147
G0 F1285.7 X111.411 Y111.984
G1 F900 X102.786 Y111.984 E102.03154
G0 F1285.7 X102.652 Y112.215
G1 F900 X102.652 Y127.156 E102.60333
G0 F1285.7 X101.981 Y128.315
G1 F900 X93.356 Y128.315 E102.9334
G0 F1285.7 X93.32 Y128.378
G1 F900 X93.32 Y143.32 E103.50523
G0 F1285.7 X93.899 Y142.313
G1 F900 X85.274 Y142.313 E103.8353
G0 F1285.7 X86.321 Y140.501
G1 F900 X86.321 Y155.442 E104.40709
G0 F1285.7 X85.818 Y156.311
G1 F900 X76.381 Y156.311 E104.76823
G0 F1285.7 X76.989 Y156.661
G1 F900 X76.989 Y146.649 E105.15139
G0 F1285.7 X77.561 Y146.979
G1 F900 X62.433 Y146.979 E105.73033
G0 F1285.7 X62.991 Y146.013
G1 F900 X62.991 Y148.579 E105.82853
G0 F1285.7 X63.78 Y144.646
