;FLAVOR:Marlin
;TIME:11723
;Filament used: 11.8057m
;Layer height: 0.3
;MINX:56.995
;MINY:28.407
;MINZ:0.26
;MAXX:148.005
;MAXY:176.593
;MAXZ:69.26
;Generated with Cura_SteamEngine 4.9.1
M82 ;absolute extrusion mode
;Begin Start Gcode for Dagoma DiscoEasy 200
;Sliced: 09-07-2021 20:58:23
;Initial extruder: 0

G90 ;Absolute positioning
M106 S255 ;Fan on full
G28 X Y ;Home stop X Y
G1 X100 ;Centre back during cooldown in case of oozing
M109 R90 ;Cooldown in case too hot
G28 ;Centre
G29 ;Auto-level
M104 S205 ;Pre-heat
M107 ;Fan off
G0 X100 Y5 Z0.5 ;Front centre for degunk
M109 S205 ;Wait for initial temp
M83 ;E Relative
G1 E10 F200 ;Degunk
G1 E-3 F5000 ;Retract
G0 Z3 ;Withdraw
M82 ;E absolute
G92 E0 ;E reset
G1 F6000 ;Set feedrate

;Finish Start Gcode for Dagoma DiscoEasy 200

G92 E0
G92 E0
G1 F3000 E-3.5
;LAYER_COUNT:231
;LAYER:0
M107
G0 F1285.7 X118.566 Y55.169 Z0.26
;TYPE:SKIRT
G1 F3000 E0
G1 F900 X118.926 Y54.566 E0.02688
G1 X119.245 Y54.11 E0.04817
G1 X119.532 Y53.793 E0.06454
G1 X120.528 Y52.811 E0.11807
G1 X122.144 Y51.18 E0.20593
G1 X123.982 Y49.226 E0.30859
G1 X125.8 Y47.179 E0.41337
G1 X127.557 Y45.085 E0.51798
G1 X129.256 Y42.939 E0.62272
G1 X130.872 Y40.777 E0.72602
G1 X132.428 Y38.565 E0.82952
G1 X133.93 Y36.298 E0.93359
G1 X135.379 Y33.969 E1.03856
G1 X136.296 Y32.413 E1.10768
G1 X137.179 Y30.885 E1.17522
G1 X137.532 Y30.294 E1.20156
G1 X137.851 Y29.838 E1.22286
G1 X138.232 Y29.432 E1.24417
G1 X138.667 Y29.086 E1.26544
G1 X139.147 Y28.805 E1.28673
G1 X139.663 Y28.595 E1.30805
G1 X140.203 Y28.462 E1.32933
G1 X140.757 Y28.407 E1.35063
G1 X141.313 Y28.433 E1.37194
G1 X141.859 Y28.537 E1.39321
G1 X142.385 Y28.719 E1.41451
G1 X143 Y29.034 E1.44095
G1 X143.09 Y29.084 E1.44489
G1 X145.531 Y30.494 E1.55277
G1 X146.115 Y30.842 E1.57879
G1 X146.571 Y31.161 E1.60008
G1 X146.977 Y31.541 E1.62137
G1 X147.324 Y31.976 E1.64266
G1 X147.606 Y32.456 E1.66397
G1 X147.816 Y32.971 E1.68525
G1 X147.949 Y33.511 E1.70653
G1 X148.005 Y34.065 E1.72784
G1 X147.98 Y34.621 E1.74914
G1 X147.876 Y35.167 E1.77041
G1 X147.694 Y35.693 E1.79171
G1 X147.381 Y36.31 E1.81819
G1 X146.568 Y37.721 E1.88051
G1 X145.253 Y40.077 E1.98377
G1 X143.978 Y42.518 E2.08916
G1 X142.795 Y44.948 E2.19259
G1 X141.673 Y47.432 E2.2969
G1 X140.623 Y49.939 E2.40091
G1 X139.645 Y52.48 E2.50511
G1 X138.745 Y55.028 E2.60853
G1 X137.904 Y57.639 E2.7135
G1 X137.149 Y60.234 E2.81693
G1 X136.646 Y62.214 E2.89511
G1 X136.307 Y63.498 E2.94593
G1 X136.126 Y64.025 E2.96726
G1 X135.947 Y64.391 E2.98285
G1 X135.626 Y64.968 E3.00812
G1 X86.636 Y149.877 E6.75962
G1 X86.246 Y150.531 E6.78876
G1 X85.928 Y150.987 E6.81003
G1 X85.64 Y151.304 E6.82642
G1 X85.054 Y151.882 E6.85792
G1 X84.086 Y152.812 E6.90929
G1 X82.166 Y154.762 E7.01402
G1 X80.341 Y156.722 E7.11651
G1 X78.531 Y158.783 E7.22148
G1 X76.789 Y160.882 E7.32587
G1 X75.116 Y163.019 E7.42973
G1 X73.507 Y165.197 E7.53336
G1 X71.955 Y167.428 E7.63737
G1 X70.468 Y169.7 E7.74128
G1 X68.372 Y173.162 E7.89616
G1 X67.834 Y174.092 E7.93728
G1 X67.469 Y174.704 E7.96455
G1 X67.15 Y175.16 E7.98585
G1 X66.77 Y175.566 E8.00713
G1 X66.335 Y175.913 E8.02842
G1 X65.855 Y176.194 E8.04971
G1 X65.34 Y176.404 E8.07099
G1 X64.799 Y176.538 E8.09232
G1 X64.246 Y176.593 E8.11359
G1 X63.69 Y176.568 E8.13489
G1 X63.143 Y176.463 E8.1562
G1 X62.617 Y176.282 E8.17749
G1 X62 Y175.966 E8.20402
G1 X61.91 Y175.916 E8.20796
G1 X59.469 Y174.506 E8.31584
G1 X58.885 Y174.158 E8.34186
G1 X58.429 Y173.839 E8.36316
G1 X58.023 Y173.459 E8.38444
G1 X57.676 Y173.024 E8.40573
G1 X57.394 Y172.544 E8.42704
G1 X57.184 Y172.029 E8.44832
G1 X57.051 Y171.489 E8.4696
G1 X56.995 Y170.935 E8.49091
G1 X57.02 Y170.379 E8.51221
G1 X57.124 Y169.833 E8.53348
G1 X57.306 Y169.307 E8.55478
G1 X57.665 Y168.608 E8.58486
G1 X57.718 Y168.513 E8.58902
G1 X58.692 Y166.827 E8.66354
G1 X60.051 Y164.395 E8.77015
G1 X61.31 Y161.985 E8.87421
G1 X62.493 Y159.555 E8.97764
G1 X63.61 Y157.084 E9.08141
G1 X64.671 Y154.552 E9.18648
G1 X65.652 Y152.003 E9.291
G1 X66.55 Y149.463 E9.3941
G1 X67.377 Y146.896 E9.49731
G1 X68.144 Y144.26 E9.60237
G1 X68.507 Y142.842 E9.65839
G1 X68.846 Y141.577 E9.70851
G1 X69.028 Y141.051 E9.72981
G1 X69.275 Y140.561 E9.75081
G1 X69.51 Y140.145 E9.76909
G1 X118.566 Y55.169 E13.52408
G0 F1285.7 X118.866 Y55.348
G1 F900 X119.226 Y54.745 E13.55095
G1 X119.532 Y54.311 E13.57127
G1 X119.778 Y54.042 E13.58522
G1 X120.774 Y53.06 E13.63875
G1 X122.4 Y51.419 E13.72716
G1 X124.251 Y49.452 E13.83052
G1 X126.049 Y47.427 E13.93416
G1 X127.837 Y45.296 E14.04062
G1 X129.514 Y43.178 E14.144
G1 X131.158 Y40.977 E14.24914
G1 X132.709 Y38.773 E14.35227
G1 X134.238 Y36.466 E14.45819
G1 X135.673 Y34.158 E14.5622
G1 X136.599 Y32.588 E14.63195
G1 X137.48 Y31.064 E14.69932
G1 X137.833 Y30.473 E14.72566
G1 X138.138 Y30.04 E14.74593
G1 X138.506 Y29.657 E14.76626
G1 X138.926 Y29.333 E14.78656
G1 X139.391 Y29.076 E14.80689
G1 X139.888 Y28.892 E14.82717
G1 X140.408 Y28.785 E14.84749
G1 X140.938 Y28.757 E14.8678
G1 X141.466 Y28.809 E14.88811
G1 X141.981 Y28.939 E14.90843
G1 X142.54 Y29.183 E14.93178
G1 X142.915 Y29.387 E14.94811
G1 X145.351 Y30.795 E15.05579
G1 X145.935 Y31.143 E15.08181
G1 X146.37 Y31.448 E15.10214
G1 X146.753 Y31.815 E15.12244
G1 X147.077 Y32.235 E15.14274
G1 X147.334 Y32.699 E15.16304
G1 X147.519 Y33.197 E15.18337
G1 X147.627 Y33.716 E15.20365
G1 X147.655 Y34.246 E15.22397
G1 X147.604 Y34.775 E15.2443
G1 X147.474 Y35.289 E15.26459
G1 X147.235 Y35.841 E15.28761
G1 X147.021 Y36.236 E15.30481
G1 X146.265 Y37.546 E15.36269
G1 X144.943 Y39.914 E15.46648
G1 X143.659 Y42.374 E15.57267
G1 X142.481 Y44.793 E15.67564
G1 X141.351 Y47.295 E15.7807
G1 X140.293 Y49.819 E15.88544
G1 X139.32 Y52.348 E15.98914
G1 X138.402 Y54.947 E16.09462
G1 X137.583 Y57.493 E16.19697
G1 X136.81 Y60.149 E16.30283
G1 X136.307 Y62.125 E16.38087
G1 X135.968 Y63.409 E16.43169
G1 X135.795 Y63.91 E16.45197
G1 X135.641 Y64.221 E16.46525
G1 X135.323 Y64.793 E16.4903
G1 X86.336 Y149.697 E20.24157
G1 X85.946 Y150.351 E20.27071
G1 X85.64 Y150.785 E20.29104
G1 X85.394 Y151.055 E20.30501
G1 X84.812 Y151.629 E20.3363
G1 X83.842 Y152.561 E20.38778
G1 X81.925 Y154.508 E20.49234
G1 X80.07 Y156.5 E20.59651
G1 X78.247 Y158.576 E20.70224
G1 X76.524 Y160.652 E20.80549
G1 X74.856 Y162.782 E20.90902
G1 X73.219 Y164.999 E21.01449
G1 X71.655 Y167.247 E21.11929
G1 X70.17 Y169.515 E21.22304
G1 X68.085 Y172.959 E21.37711
G1 X67.533 Y173.913 E21.41929
G1 X67.168 Y174.525 E21.44656
G1 X66.863 Y174.959 E21.46686
G1 X66.496 Y175.342 E21.48716
G1 X66.076 Y175.666 E21.50746
G1 X65.611 Y175.923 E21.52779
G1 X65.114 Y176.107 E21.54807
G1 X64.594 Y176.215 E21.5684
G1 X64.064 Y176.243 E21.58871
G1 X63.536 Y176.192 E21.60901
G1 X63.022 Y176.062 E21.6293
G1 X62.46 Y175.817 E21.65276
G1 X62.085 Y175.613 E21.6691
G1 X59.649 Y174.205 E21.77677
G1 X59.065 Y173.857 E21.80279
G1 X58.63 Y173.552 E21.82312
G1 X58.247 Y173.185 E21.84342
G1 X57.923 Y172.765 E21.86372
G1 X57.666 Y172.301 E21.88402
G1 X57.481 Y171.803 E21.90435
G1 X57.373 Y171.284 E21.92464
G1 X57.345 Y170.754 E21.94495
G1 X57.396 Y170.225 E21.96529
G1 X57.526 Y169.711 E21.98558
G1 X57.769 Y169.151 E22.00894
G1 X58.021 Y168.688 E22.02911
G1 X59.023 Y166.954 E22.10576
G1 X60.347 Y164.585 E22.20962
G1 X61.629 Y162.129 E22.31564
G1 X62.807 Y159.71 E22.41861
G1 X63.932 Y157.221 E22.52314
G1 X65.001 Y154.672 E22.62892
G1 X65.977 Y152.134 E22.73298
G1 X66.878 Y149.587 E22.83637
G1 X67.711 Y147.001 E22.94034
G1 X68.483 Y144.344 E23.04623
G1 X68.845 Y142.933 E23.10198
G1 X69.184 Y141.668 E23.1521
G1 X69.475 Y140.928 E23.18253
G1 X69.796 Y140.35 E23.20783
G1 X118.866 Y55.348 E26.96394
G0 F1285.7 X119.167 Y55.527
G1 F900 X119.527 Y54.924 E26.99082
G1 X119.818 Y54.514 E27.01006
G1 X120.024 Y54.291 E27.02168
G1 X121.02 Y53.309 E27.0752
G1 X122.638 Y51.677 E27.16315
G1 X124.52 Y49.676 E27.26828
G1 X126.332 Y47.636 E27.3727
G1 X128.096 Y45.532 E27.47777
G1 X129.806 Y43.373 E27.58317
G1 X131.417 Y41.218 E27.68614
G1 X133.007 Y38.957 E27.79192
G1 X134.53 Y36.658 E27.89746
G1 X135.968 Y34.347 E28.00162
G1 X136.902 Y32.763 E28.07199
G1 X137.78 Y31.244 E28.13914
G1 X138.133 Y30.653 E28.16548
G1 X138.425 Y30.242 E28.18478
G1 X138.778 Y29.883 E28.20404
G1 X139.183 Y29.584 E28.22331
G1 X139.631 Y29.353 E28.2426
G1 X140.109 Y29.196 E28.26185
G1 X140.606 Y29.116 E28.28112
G1 X141.11 Y29.116 E28.30041
G1 X141.607 Y29.195 E28.31966
G1 X142.086 Y29.352 E28.33895
G1 X142.666 Y29.649 E28.36389
G1 X142.74 Y29.69 E28.36713
G1 X145.172 Y31.096 E28.47464
G1 X145.756 Y31.444 E28.50065
G1 X146.167 Y31.735 E28.51992
G1 X146.527 Y32.087 E28.53919
G1 X146.826 Y32.492 E28.55846
G1 X147.057 Y32.94 E28.57775
G1 X147.215 Y33.418 E28.59701
G1 X147.296 Y33.915 E28.61628
G1 X147.296 Y34.419 E28.63557
G1 X147.217 Y34.916 E28.65483
G1 X147.061 Y35.394 E28.67407
G1 X146.764 Y35.978 E28.69915
G1 X146.718 Y36.061 E28.70278
G1 X145.962 Y37.371 E28.76066
G1 X144.625 Y39.767 E28.86566
G1 X143.368 Y42.173 E28.96955
G1 X142.141 Y44.694 E29.07685
G1 X141.05 Y47.109 E29.17826
G1 X139.959 Y49.713 E29.28631
G1 X139 Y52.206 E29.38853
G1 X138.071 Y54.834 E29.4952
G1 X137.246 Y57.398 E29.59828
G1 X136.474 Y60.05 E29.70398
G1 X135.969 Y62.035 E29.78237
G1 X135.63 Y63.319 E29.83319
G1 X135.463 Y63.795 E29.85249
G1 X135.335 Y64.051 E29.86345
G1 X135.02 Y64.618 E29.88827
G1 X86.035 Y149.518 E33.63937
G1 X85.645 Y150.172 E33.66851
G1 X85.354 Y150.583 E33.68779
G1 X85.149 Y150.805 E33.69935
G1 X84.569 Y151.377 E33.73053
G1 X83.597 Y152.311 E33.78211
G1 X81.667 Y154.27 E33.88736
G1 X79.814 Y156.261 E33.99144
G1 X77.995 Y158.332 E34.09693
G1 X76.26 Y160.423 E34.20091
G1 X74.549 Y162.608 E34.30712
G1 X72.946 Y164.778 E34.41036
G1 X71.355 Y167.066 E34.51701
G1 X69.88 Y169.318 E34.62004
G1 X67.782 Y172.784 E34.77508
G1 X67.233 Y173.733 E34.81704
G1 X66.868 Y174.345 E34.84431
G1 X66.576 Y174.756 E34.86361
G1 X66.224 Y175.115 E34.88285
G1 X65.819 Y175.415 E34.90214
G1 X65.371 Y175.646 E34.92143
G1 X64.893 Y175.804 E34.94069
G1 X64.396 Y175.884 E34.95996
G1 X63.892 Y175.884 E34.97924
G1 X63.395 Y175.805 E34.9985
G1 X62.916 Y175.648 E35.01779
G1 X62.334 Y175.351 E35.0428
G1 X62.26 Y175.31 E35.04604
G1 X59.828 Y173.904 E35.15354
G1 X59.244 Y173.556 E35.17956
G1 X58.833 Y173.265 E35.19883
G1 X58.473 Y172.913 E35.2181
G1 X58.174 Y172.508 E35.23736
G1 X57.943 Y172.06 E35.25665
G1 X57.785 Y171.582 E35.27592
G1 X57.704 Y171.085 E35.29519
G1 X57.704 Y170.581 E35.31448
G1 X57.783 Y170.084 E35.33374
G1 X57.939 Y169.606 E35.35298
G1 X58.281 Y168.941 E35.3816
G1 X58.324 Y168.863 E35.38501
G1 X59.326 Y167.129 E35.46165
G1 X60.657 Y164.748 E35.56604
G1 X61.92 Y162.33 E35.67044
G1 X63.134 Y159.836 E35.77659
G1 X64.26 Y157.346 E35.88117
G1 X65.325 Y154.803 E35.98668
G1 X66.302 Y152.266 E36.09072
G1 X67.209 Y149.701 E36.19484
G1 X68.045 Y147.106 E36.29917
G1 X68.821 Y144.437 E36.40554
G1 X69.183 Y143.023 E36.4614
G1 X69.522 Y141.758 E36.51152
G1 X69.784 Y141.092 E36.53891
G1 X70.1 Y140.522 E36.56385
G1 X119.167 Y55.527 E40.31967
G0 F1285.7 X122.361 Y56.696
;TYPE:SUPPORT
G1 F900 X122.37 Y56.694 E40.32003
G1 X125.526 Y58.521 E40.45958
G1 X126.002 Y58.393 E40.47845
G1 X131.887 Y48.2 E40.92887
G1 X134.83 Y49.903 E41.059
G1 X128.941 Y60.105 E41.5098
G1 X129.07 Y60.581 E41.52868
G1 X132.381 Y62.488 E41.6749
G1 X82.811 Y148.403 E45.47084
G1 X79.477 Y146.477 E45.61819
G1 X79.001 Y146.605 E45.63705
G1 X73.109 Y156.796 E46.08755
G1 X70.169 Y155.097 E46.2175
G1 X76.05 Y144.91 E46.66765
G1 X75.922 Y144.434 E46.68651
G1 X72.766 Y142.608 E46.82605
G1 X122.361 Y56.696 E50.62237
G0 F1285.7 X121.354 Y65.57
G1 F900 X120.515 Y65.798 E50.65564
G1 X109.999 Y84.011 E51.46048
G1 X110.227 Y84.85 E51.49375
G1 X113.924 Y86.986 E51.65715
G1 X114.763 Y86.758 E51.69043
G1 X125.28 Y68.545 E52.49529
G1 X125.052 Y67.706 E52.52856
G1 X121.354 Y65.57 E52.69199
G1 F3000 E49.19199
G0 F1285.7 X120.656 Y65.981
G0 X111.272 Y82.235
G0 X91.076 Y118.014
G1 F3000 E52.69199
G1 F900 X90.237 Y118.242 E52.72527
G1 X79.72 Y136.455 E53.53013
G1 X79.948 Y137.294 E53.5634
G1 X83.646 Y139.43 E53.72683
G1 X84.485 Y139.202 E53.76011
G1 X95.001 Y120.989 E54.56495
G1 X94.773 Y120.15 E54.59822
G1 X91.076 Y118.014 E54.76162
G0 F1285.7 X90.987 Y117.894
G1 F900 X90.987 Y111.324 E55.01305
G0 F1285.7 X90.606 Y111.984
G1 F900 X103.661 Y111.984 E55.51266
G0 F1285.7 X102.652 Y113.735
G1 F900 X102.652 Y91.117 E56.37824
G0 F1285.7 X102.727 Y90.987
G1 F900 X115.776 Y90.987 E56.87762
G0 F1285.7 X116.65 Y89.473
G1 F900 X116.65 Y83.769 E57.09591
G0 F1285.7 X116.524 Y83.988
G1 F900 X119.814 Y83.988 E57.22181
G0 F1285.7 X118.983 Y85.43
G1 F900 X118.983 Y79.729 E57.43999
G0 F1285.7 X119.218 Y79.322
G1 F900 X122.506 Y79.322 E57.56582
G0 F1285.7 X123.649 Y77.343
G1 F900 X123.649 Y71.648 E57.78376
G0 F1285.7 X123.259 Y72.323
G1 F900 X126.544 Y72.323 E57.90948
G0 F1285.7 X125.982 Y73.299
G1 F900 X125.982 Y58.543 E58.47419
G0 F1285.7 X126.202 Y58.325
G1 F900 X129.806 Y58.325 E58.61211
G0 F1285.7 X130.648 Y56.868
G1 F900 X130.648 Y50.626 E58.85099
G0 F1285.7 X130.244 Y51.326
G1 F900 X133.846 Y51.326 E58.98883
G0 F1285.7 X132.981 Y52.827
G1 F900 X132.981 Y48.995 E59.13548
G0 F1285.7 X132.981 Y48.993
G1 F900 X131.591 Y48.993 E59.18868
G0 F1285.7 X132.499 Y53.659
G1 F900 X128.897 Y53.659 E59.32652
G0 F1285.7 X128.315 Y54.666
G1 F900 X128.315 Y69.256 E59.88488
G0 F1285.7 X127.89 Y69.99
G1 F900 X124.607 Y69.99 E60.01051
G1 F3000 E56.51051
G0 F1285.7 X125.183 Y67.657
G1 F3000 E60.01051
G1 F900 X129.236 Y67.657 E60.16562
G0 F1285.7 X130.582 Y65.324
G1 F900 X117.542 Y65.324 E60.66466
G0 F1285.7 X116.65 Y66.868
G1 F900 X116.65 Y72.213 E60.86921
G0 F1285.7 X116.585 Y72.323
G1 F900 X113.501 Y72.323 E60.98723
G0 F1285.7 X114.317 Y70.909
G1 F900 X114.317 Y76.254 E61.19178
G0 F1285.7 X113.892 Y76.989
G1 F900 X110.808 Y76.989 E61.3098
G0 F1285.7 X109.651 Y78.992
G1 F900 X109.651 Y101.604 E62.17515
G0 F1285.7 X109.045 Y102.652
G1 F900 X95.993 Y102.652 E62.67465
G0 F1285.7 X95.653 Y103.241
G1 F900 X95.653 Y125.865 E63.54046
G0 F1285.7 X95.584 Y125.982
G1 F900 X92.279 Y125.982 E63.66694
G0 F1285.7 X93.32 Y124.179
G1 F900 X93.32 Y129.909 E63.88622
G0 F1285.7 X92.892 Y130.648
G1 F900 X89.585 Y130.648 E64.01278
G0 F1285.7 X88.654 Y132.26
G1 F900 X88.654 Y137.996 E64.23229
G0 F1285.7 X88.854 Y137.647
G1 F900 X85.544 Y137.647 E64.35897
G0 F1285.7 X86.321 Y136.301
G1 F900 X86.321 Y142.04 E64.57859
G0 F1285.7 X86.161 Y142.313
G1 F900 X73.097 Y142.313 E65.07855
G0 F1285.7 X74.656 Y143.54
G1 F900 X74.656 Y139.613 E65.22883
G0 F1285.7 X74.444 Y139.98
G1 F900 X87.507 Y139.98 E65.72875
G0 F1285.7 X83.988 Y139.481
G1 F900 X83.988 Y146.083 E65.9814
G0 F1285.7 X83.469 Y146.979
G1 F900 X80.625 Y146.979 E66.09024
G0 F1285.7 X81.655 Y147.572
G1 F900 X81.655 Y138.442 E66.43964
G0 F1285.7 X80.279 Y137.647
G1 F900 X75.791 Y137.647 E66.61139
G0 F1285.7 X76.989 Y135.572
G1 F900 X76.989 Y149.806 E67.15612
G0 F1285.7 X77.273 Y149.312
G1 F900 X73.67 Y149.312 E67.29401
G0 F1285.7 X74.656 Y147.605
G1 F900 X74.656 Y153.841 E67.53266
G0 F1285.7 X74.575 Y153.978
G1 F900 X70.976 Y153.978 E67.67039
G0 F1285.7 X72.323 Y156.179
G1 F900 X72.323 Y151.646 E67.84386
G0 F1285.7 X72.323 Y151.645
G1 F900 X75.924 Y151.645 E67.98167
G0 F1285.7 X75.017 Y146.979
G1 F900 X78.622 Y146.979 E68.11963
G0 F1285.7 X79.322 Y146.375
G1 F900 X79.322 Y131.531 E68.68771
G0 F1285.7 X79.831 Y130.648
G1 F900 X82.911 Y130.648 E68.80558
G0 F1285.7 X83.988 Y128.785
G1 F900 X83.988 Y123.448 E69.00982
G0 F1285.7 X83.871 Y123.649
G1 F900 X86.952 Y123.649 E69.12773
G0 F1285.7 X86.321 Y124.745
G1 F900 X86.321 Y119.406 E69.33205
G0 F1285.7 X86.565 Y118.983
G1 F900 X89.646 Y118.983 E69.44996
G0 F1285.7 X88.654 Y120.705
G1 F900 X88.654 Y115.365 E69.65432
G0 F1285.7 X89.26 Y114.317
G1 F900 X102.315 Y114.317 E70.15393
G0 F1285.7 X100.969 Y116.65
G1 F900 X87.913 Y116.65 E70.65357
G0 F1285.7 X88.299 Y121.316
G1 F900 X85.218 Y121.316 E70.77148
G0 F1285.7 X85.605 Y125.982
G1 F900 X82.525 Y125.982 E70.88935
G0 F1285.7 X81.655 Y127.489
G1 F900 X81.655 Y132.826 E71.0936
G0 F1285.7 X81.564 Y132.981
G1 F900 X78.484 Y132.981 E71.21147
G0 F1285.7 X77.138 Y135.314
G1 F900 X80.216 Y135.314 E71.32926
G1 F3000 E67.82926
G0 F1285.7 X79.95 Y136.485
