;FLAVOR:Marlin
;TIME:7791
;Filament used: 7.65506m
;Layer height: 0.3
;MINX:96.825
;MINY:18.654
;MINZ:0.26
;MAXX:108.175
;MAXY:186.346
;MAXZ:85.76
;Generated with Cura_SteamEngine 4.9.1
M82 ;absolute extrusion mode
;Begin Start Gcode for Dagoma DiscoEasy 200
;Sliced: 10-07-2021 02:15:29
;Initial extruder: 0

G90 ;Absolute positioning
M106 S255 ;Fan on full
G28 X Y ;Home stop X Y
G1 X100 ;Centre back during cooldown in case of oozing
M109 R90 ;Cooldown in case too hot
G28 ;Centre
G29 ;Auto-level
M104 S205 ;Pre-heat
M107 ;Fan off
G0 X100 Y5 Z0.5 ;Front centre for degunk
M109 S205 ;Wait for initial temp
M83 ;E Relative
G1 E10 F200 ;Degunk
G1 E-3 F5000 ;Retract
G0 Z3 ;Withdraw
M82 ;E absolute
G92 E0 ;E reset
G1 F6000 ;Set feedrate

;Finish Start Gcode for Dagoma DiscoEasy 200

G92 E0
G92 E0
G1 F3000 E-3.5
;LAYER_COUNT:286
;LAYER:0
M107
G0 F1285.7 X96.909 Y22.024 Z0.26
;TYPE:SKIRT
G1 F3000 E0
G1 F900 X97.036 Y21.482 E0.0213
G1 X97.239 Y20.964 E0.0426
G1 X97.515 Y20.481 E0.06388
G1 X97.967 Y19.925 E0.09131
G1 X98.062 Y19.828 E0.0965
G1 X98.478 Y19.459 E0.11778
G1 X98.944 Y19.154 E0.1391
G1 X99.448 Y18.919 E0.16038
G1 X99.981 Y18.758 E0.18169
G1 X100.72 Y18.666 E0.21019
G1 X101.248 Y18.654 E0.2304
G1 X103.533 Y18.655 E0.31784
G1 X104.203 Y18.664 E0.34349
G1 X104.757 Y18.712 E0.36477
G1 X105.299 Y18.838 E0.38606
G1 X105.818 Y19.041 E0.40739
G1 X106.301 Y19.315 E0.42864
G1 X106.903 Y19.811 E0.45849
G1 X107.018 Y19.927 E0.46474
G1 X107.38 Y20.349 E0.48602
G1 X107.678 Y20.819 E0.50732
G1 X107.906 Y21.327 E0.52863
G1 X108.059 Y21.862 E0.54992
G1 X108.14 Y22.551 E0.57647
G1 X108.15 Y22.989 E0.59324
G1 X108.15 Y35.315 E1.06495
G1 X108.169 Y36.576 E1.11321
G1 X108.175 Y37.657 E1.15458
G1 X108.175 Y63.859 E2.15732
G1 X108.16 Y64.939 E2.19865
G1 X108.15 Y66.326 E2.25173
G1 X108.15 Y138.422 E5.01081
G1 X108.167 Y139.652 E5.05789
G1 X108.175 Y140.754 E5.10006
G1 X108.175 Y166.968 E6.10326
G1 X108.16 Y168.063 E6.14517
G1 X108.15 Y169.451 E6.19829
G1 X108.15 Y181.715 E6.66763
G1 X108.14 Y182.418 E6.69453
G1 X108.092 Y182.972 E6.71581
G1 X107.965 Y183.514 E6.73712
G1 X107.762 Y184.032 E6.75841
G1 X107.487 Y184.516 E6.77971
G1 X107.005 Y185.103 E6.80878
G1 X106.907 Y185.201 E6.81408
G1 X106.486 Y185.565 E6.83538
G1 X106.018 Y185.865 E6.85666
G1 X105.511 Y186.095 E6.87796
G1 X104.977 Y186.25 E6.89924
G1 X104.298 Y186.334 E6.92542
G1 X103.657 Y186.346 E6.94996
G1 X101.48 Y186.346 E7.03327
G1 X100.778 Y186.336 E7.06014
G1 X100.223 Y186.288 E7.08146
G1 X99.682 Y186.161 E7.10273
G1 X99.164 Y185.958 E7.12402
G1 X98.68 Y185.683 E7.14532
G1 X98.121 Y185.229 E7.17288
G1 X98.023 Y185.133 E7.17813
G1 X97.655 Y184.716 E7.19941
G1 X97.35 Y184.251 E7.2207
G1 X97.115 Y183.747 E7.24198
G1 X96.954 Y183.214 E7.26329
G1 X96.862 Y182.494 E7.29106
G1 X96.85 Y181.81 E7.31724
G1 X96.85 Y169.685 E7.78126
G1 X96.831 Y168.424 E7.82953
G1 X96.825 Y167.343 E7.8709
G1 X96.825 Y141.105 E8.87501
G1 X96.84 Y140.036 E8.91592
G1 X96.85 Y138.672 E8.96813
G1 X96.859 Y66.893 E11.71507
G1 X96.83 Y64.88 E11.79212
G1 X96.825 Y64.249 E11.81627
G1 X96.825 Y37.997 E12.82092
G1 X96.84 Y36.937 E12.86149
G1 X96.85 Y35.55 E12.91457
G1 X96.85 Y23.249 E13.38532
G1 X96.86 Y22.578 E13.411
G1 X96.909 Y22.024 E13.43229
G0 F1285.7 X97.258 Y22.055
G1 F900 X97.385 Y21.54 E13.45259
G1 X97.587 Y21.049 E13.47291
G1 X97.861 Y20.595 E13.4932
G1 X98.217 Y20.17 E13.51442
G1 X98.312 Y20.073 E13.51961
G1 X98.71 Y19.722 E13.53992
G1 X99.157 Y19.436 E13.56023
G1 X99.642 Y19.22 E13.58055
G1 X100.154 Y19.079 E13.60087
G1 X100.73 Y19.015 E13.62305
G1 X101.252 Y19.004 E13.64303
G1 X103.528 Y19.005 E13.73013
G1 X104.198 Y19.014 E13.75577
G1 X104.727 Y19.061 E13.7761
G1 X105.242 Y19.187 E13.79639
G1 X105.733 Y19.389 E13.81671
G1 X106.188 Y19.662 E13.83701
G1 X106.654 Y20.057 E13.86039
G1 X106.769 Y20.173 E13.86664
G1 X107.113 Y20.577 E13.88695
G1 X107.393 Y21.028 E13.90727
G1 X107.602 Y21.516 E13.92758
G1 X107.735 Y22.03 E13.9479
G1 X107.79 Y22.56 E13.96829
G1 X107.8 Y22.989 E13.98471
G1 X107.8 Y35.32 E14.45662
G1 X107.819 Y36.578 E14.50476
G1 X107.825 Y37.659 E14.54613
G1 X107.825 Y63.854 E15.5486
G1 X107.81 Y64.934 E15.58994
G1 X107.8 Y66.324 E15.64313
G1 X107.8 Y138.427 E18.40248
G1 X107.817 Y139.654 E18.44944
G1 X107.825 Y140.756 E18.49162
G1 X107.825 Y166.963 E19.49455
G1 X107.81 Y168.058 E19.53646
G1 X107.8 Y169.449 E19.58969
G1 X107.8 Y181.71 E20.05891
G1 X107.79 Y182.413 E20.08582
G1 X107.742 Y182.942 E20.10615
G1 X107.616 Y183.457 E20.12644
G1 X107.414 Y183.948 E20.14676
G1 X107.14 Y184.402 E20.16705
G1 X106.758 Y184.856 E20.18975
G1 X106.66 Y184.954 E20.19506
G1 X106.257 Y185.299 E20.21536
G1 X105.807 Y185.581 E20.23568
G1 X105.32 Y185.792 E20.256
G1 X104.807 Y185.927 E20.2763
G1 X104.286 Y185.984 E20.29635
G1 X103.653 Y185.996 E20.32058
G1 X101.485 Y185.996 E20.40355
G1 X100.783 Y185.986 E20.43042
G1 X100.254 Y185.938 E20.45075
G1 X99.739 Y185.812 E20.47104
G1 X99.248 Y185.61 E20.49136
G1 X98.794 Y185.336 E20.51165
G1 X98.366 Y184.979 E20.53298
G1 X98.268 Y184.883 E20.53823
G1 X97.918 Y184.484 E20.55854
G1 X97.632 Y184.037 E20.57885
G1 X97.416 Y183.553 E20.59913
G1 X97.275 Y183.041 E20.61945
G1 X97.212 Y182.482 E20.64098
G1 X97.2 Y181.806 E20.66686
G1 X97.2 Y169.68 E21.13091
G1 X97.181 Y168.422 E21.17906
G1 X97.175 Y167.341 E21.22043
G1 X97.175 Y141.11 E22.22428
G1 X97.19 Y140.041 E22.26519
G1 X97.2 Y138.675 E22.31747
G1 X97.209 Y66.887 E25.06476
G1 X97.18 Y64.877 E25.14169
G1 X97.175 Y64.246 E25.16584
G1 X97.175 Y38.002 E26.17019
G1 X97.19 Y36.942 E26.21076
G1 X97.2 Y35.552 E26.26395
G1 X97.2 Y23.254 E26.73459
G1 X97.21 Y22.583 E26.76027
G1 X97.258 Y22.055 E26.78056
G0 F1285.7 X97.608 Y22.087
G1 F900 X97.734 Y21.6 E26.79981
G1 X97.935 Y21.138 E26.8191
G1 X98.207 Y20.715 E26.83834
G1 X98.562 Y20.317 E26.85875
G1 X98.941 Y19.987 E26.87798
G1 X99.369 Y19.72 E26.89729
G1 X99.833 Y19.525 E26.91655
G1 X100.322 Y19.405 E26.93582
G1 X101.021 Y19.357 E26.96263
G1 X101.292 Y19.354 E26.973
G1 X103.524 Y19.355 E27.05842
G1 X104.194 Y19.364 E27.08406
G1 X104.695 Y19.411 E27.10332
G1 X105.183 Y19.536 E27.1226
G1 X105.645 Y19.737 E27.14188
G1 X106.069 Y20.009 E27.16116
G1 X106.521 Y20.42 E27.18454
G1 X106.846 Y20.804 E27.20379
G1 X107.106 Y21.235 E27.22305
G1 X107.295 Y21.702 E27.24233
G1 X107.407 Y22.193 E27.26161
G1 X107.449 Y22.903 E27.28883
G1 X107.45 Y35.326 E27.76425
G1 X107.469 Y36.58 E27.81224
G1 X107.475 Y37.661 E27.85361
G1 X107.475 Y63.849 E28.85582
G1 X107.46 Y64.929 E28.89715
G1 X107.45 Y66.321 E28.95042
G1 X107.45 Y138.432 E31.71008
G1 X107.467 Y139.657 E31.75696
G1 X107.475 Y140.759 E31.79914
G1 X107.475 Y166.958 E32.80176
G1 X107.46 Y168.053 E32.84367
G1 X107.45 Y169.446 E32.89698
G1 X107.45 Y181.705 E33.36612
G1 X107.44 Y182.408 E33.39303
G1 X107.393 Y182.91 E33.41233
G1 X107.267 Y183.397 E33.43158
G1 X107.066 Y183.859 E33.45086
G1 X106.794 Y184.283 E33.47014
G1 X106.412 Y184.706 E33.49195
G1 X106.029 Y185.033 E33.51122
G1 X105.599 Y185.295 E33.53049
G1 X105.133 Y185.486 E33.54976
G1 X104.642 Y185.6 E33.56905
G1 X104.126 Y185.639 E33.58886
G1 X103.649 Y185.646 E33.60711
G1 X101.49 Y185.646 E33.68974
G1 X100.788 Y185.636 E33.71661
G1 X100.286 Y185.589 E33.7359
G1 X99.799 Y185.463 E33.75515
G1 X99.337 Y185.262 E33.77443
G1 X98.913 Y184.99 E33.79371
G1 X98.513 Y184.633 E33.81423
G1 X98.183 Y184.253 E33.83349
G1 X97.916 Y183.826 E33.85276
G1 X97.721 Y183.362 E33.87202
G1 X97.601 Y182.873 E33.89129
G1 X97.557 Y182.321 E33.91249
G1 X97.55 Y181.802 E33.93235
G1 X97.55 Y169.674 E34.39648
G1 X97.531 Y168.42 E34.44448
G1 X97.525 Y167.339 E34.48585
G1 X97.525 Y141.114 E35.48947
G1 X97.54 Y140.045 E35.53038
G1 X97.55 Y138.677 E35.58273
G1 X97.559 Y66.882 E38.33029
G1 X97.53 Y64.874 E38.40715
G1 X97.525 Y64.243 E38.4313
G1 X97.525 Y38.007 E39.43534
G1 X97.54 Y36.947 E39.47591
G1 X97.55 Y35.555 E39.52918
G1 X97.55 Y23.26 E39.9997
G1 X97.56 Y22.589 E40.02538
G1 X97.608 Y22.087 E40.04468
G0 F1285.7 X100.9 Y22.704
;TYPE:SUPPORT
G1 F900 X104.084 Y22.705 E40.16653
G1 X104.1 Y22.722 E40.16743
G1 X104.1 Y36.495 E40.69451
G1 X100.9 Y36.494 E40.81697
G1 X100.9 Y22.704 E41.34471
G0 F1285.7 X101.04 Y23.33
G1 F900 X103.96 Y23.33 E41.45646
G0 F1285.7 X102.652 Y22.845
G1 F900 X102.652 Y36.354 E41.97344
G0 F1285.7 X103.96 Y34.995
G1 F900 X101.04 Y34.995 E42.08519
G0 F1285.7 X101.04 Y32.662
G1 F900 X103.96 Y32.662 E42.19693
G0 F1285.7 X103.96 Y30.329
G1 F900 X101.04 Y30.329 E42.30868
G0 F1285.7 X101.04 Y27.996
G1 F900 X103.96 Y27.996 E42.42043
G0 F1285.7 X103.96 Y25.663
G1 F900 X101.04 Y25.663 E42.53218
G1 F3000 E39.03218
G0 F1285.7 X100.064 Y37.195
G0 X100.064 Y64.677
G0 X100.909 Y65.381
G1 F3000 E42.53218
G1 F900 X104.1 Y65.381 E42.65429
G1 X104.1 Y139.619 E45.49535
G1 X100.9 Y139.619 E45.61781
G1 X100.909 Y65.381 E48.45886
G0 F1285.7 X102.652 Y65.521
G1 F900 X102.652 Y139.479 E51.2892
G0 F1285.7 X103.959 Y137.647
G1 F900 X101.04 Y137.647 E51.40091
G0 F1285.7 X101.04 Y135.314
G1 F900 X103.959 Y135.314 E51.51262
G0 F1285.7 X103.959 Y132.981
G1 F900 X101.04 Y132.981 E51.62432
G0 F1285.7 X101.041 Y130.648
G1 F900 X103.959 Y130.648 E51.736
G0 F1285.7 X103.959 Y128.315
G1 F900 X101.041 Y128.315 E51.84767
G0 F1285.7 X101.041 Y125.982
G1 F900 X103.959 Y125.982 E51.95934
G0 F1285.7 X103.959 Y123.649
G1 F900 X101.041 Y123.649 E52.07101
G0 F1285.7 X101.042 Y121.316
G1 F900 X103.959 Y121.316 E52.18264
G0 F1285.7 X103.959 Y118.983
G1 F900 X101.042 Y118.983 E52.29427
G0 F1285.7 X101.043 Y116.65
G1 F900 X103.96 Y116.65 E52.4059
G0 F1285.7 X103.96 Y114.317
G1 F900 X101.044 Y114.317 E52.5175
G0 F1285.7 X101.044 Y111.984
G1 F900 X103.96 Y111.984 E52.62909
G0 F1285.7 X103.96 Y109.651
G1 F900 X101.044 Y109.651 E52.74069
G0 F1285.7 X101.044 Y107.318
G1 F900 X103.96 Y107.318 E52.85228
G0 F1285.7 X103.96 Y104.985
G1 F900 X101.045 Y104.985 E52.96383
G0 F1285.7 X101.045 Y102.652
G1 F900 X103.96 Y102.652 E53.07539
G0 F1285.7 X103.96 Y100.319
G1 F900 X101.045 Y100.319 E53.18695
G0 F1285.7 X101.046 Y97.986
G1 F900 X103.96 Y97.986 E53.29846
G0 F1285.7 X103.96 Y95.653
G1 F900 X101.046 Y95.653 E53.40998
G0 F1285.7 X101.046 Y93.32
G1 F900 X103.96 Y93.32 E53.5215
G0 F1285.7 X103.96 Y90.987
G1 F900 X101.046 Y90.987 E53.63302
G0 F1285.7 X101.047 Y88.654
G1 F900 X103.96 Y88.654 E53.74449
G0 F1285.7 X103.96 Y86.321
G1 F900 X101.047 Y86.321 E53.85597
G0 F1285.7 X101.047 Y83.988
G1 F900 X103.96 Y83.988 E53.96745
G0 F1285.7 X103.96 Y81.655
G1 F900 X101.048 Y81.655 E54.07889
G0 F1285.7 X101.048 Y79.322
G1 F900 X103.96 Y79.322 E54.19033
G0 F1285.7 X103.96 Y76.989
G1 F900 X101.048 Y76.989 E54.30178
G0 F1285.7 X101.048 Y74.656
G1 F900 X103.96 Y74.656 E54.41322
G0 F1285.7 X103.96 Y72.323
G1 F900 X101.049 Y72.323 E54.52462
G0 F1285.7 X101.049 Y69.99
G1 F900 X103.96 Y69.99 E54.63602
G0 F1285.7 X103.96 Y67.657
G1 F900 X101.049 Y67.657 E54.74742
G1 F3000 E51.24742
G0 F1285.7 X100.064 Y140.323
G0 X100.064 Y167.799
G0 X100.9 Y168.505
G1 F3000 E54.74742
G1 F900 X104.1 Y168.506 E54.86989
G1 X104.099 Y182.296 E55.39762
G1 X100.9 Y182.295 E55.52005
G1 X100.9 Y168.505 E56.04778
G0 F1285.7 X102.652 Y168.646
G1 F900 X102.652 Y182.155 E56.56477
G0 F1285.7 X103.958 Y181.974
G1 F900 X101.039 Y181.974 E56.67648
G0 F1285.7 X101.039 Y179.641
G1 F900 X103.958 Y179.641 E56.78818
G0 F1285.7 X103.958 Y177.308
G1 F900 X101.039 Y177.308 E56.89989
G0 F1285.7 X101.039 Y174.975
G1 F900 X103.958 Y174.975 E57.0116
G0 F1285.7 X103.958 Y172.642
G1 F900 X101.039 Y172.642 E57.12331
G0 F1285.7 X101.039 Y170.309
G1 F900 X103.958 Y170.309 E57.23502
G1 F3000 E53.73502
;MESH:basis_basis_wheel_r_bottom.stl
G0 F1285.7 X103.761 Y168.296
G0 X103.761 Y167.117
G0 X103.775 Y167.131
;TYPE:WALL-INNER
G1 F3000 E57.23502
G1 F900 X103.6 Y167.131 E57.24172
G1 X101.225 Y167.13 E57.33261
G1 X101.225 Y140.994 E58.33282
G1 X103.775 Y140.994 E58.43041
G1 X103.775 Y166.956 E59.42396
G1 X103.775 Y167.131 E59.42829
G0 F1285.7 X104.1 Y167.456
;TYPE:WALL-OUTER
G1 F900 X103.925 Y167.456 E59.43499
G1 X100.9 Y167.455 E59.55076
G1 X100.9 Y140.669 E60.57584
G1 X104.1 Y140.669 E60.69831
G1 X104.1 Y167.281 E61.71673
G1 X104.1 Y167.456 E61.72107
G0 F1285.7 X103.925 Y167.456
G0 X103.9 Y167.456
G0 X103.435 Y166.791
;TYPE:SKIN
G1 F900 X101.565 Y166.79 E61.79263
G1 X101.565 Y141.334 E62.76682
G1 X103.435 Y141.334 E62.83839
G1 X103.435 Y166.791 E63.81261
G0 F1285.7 X101.79 Y166.632
G1 F900 X101.721 Y166.563 E63.81635
G0 F1285.7 X101.721 Y166.068
G1 F900 X102.285 Y166.632 E63.84687
G0 F1285.7 X102.78 Y166.632
G1 F900 X101.721 Y165.573 E63.90419
G0 F1285.7 X101.721 Y165.078
G1 F900 X103.275 Y166.632 E63.98829
G0 F1285.7 X103.277 Y166.139
G1 F900 X101.721 Y164.583 E64.0725
G0 F1285.7 X101.721 Y164.088
G1 F900 X103.277 Y165.644 E64.15672
G0 F1285.7 X103.277 Y165.149
G1 F900 X101.721 Y163.593 E64.24093
G0 F1285.7 X101.721 Y163.098
G1 F900 X103.277 Y164.654 E64.32514
G0 F1285.7 X103.277 Y164.159
G1 F900 X101.721 Y162.603 E64.40935
G0 F1285.7 X101.721 Y162.108
G1 F900 X103.277 Y163.664 E64.49357
G0 F1285.7 X103.277 Y163.169
G1 F900 X101.721 Y161.613 E64.57778
G0 F1285.7 X101.721 Y161.118
G1 F900 X103.277 Y162.674 E64.66199
G0 F1285.7 X103.277 Y162.179
G1 F900 X101.721 Y160.623 E64.7462
G0 F1285.7 X101.721 Y160.128
G1 F900 X103.277 Y161.684 E64.83042
G0 F1285.7 X103.277 Y161.189
G1 F900 X101.721 Y159.633 E64.91463
G0 F1285.7 X101.721 Y159.138
G1 F900 X103.277 Y160.694 E64.99884
G0 F1285.7 X103.277 Y160.199
G1 F900 X101.721 Y158.643 E65.08306
G0 F1285.7 X101.721 Y158.148
G1 F900 X103.277 Y159.705 E65.16729
G0 F1285.7 X103.277 Y159.21
G1 F900 X101.721 Y157.653 E65.25153
G0 F1285.7 X101.721 Y157.158
G1 F900 X103.277 Y158.715 E65.33577
G0 F1285.7 X103.277 Y158.22
G1 F900 X101.721 Y156.663 E65.42001
G0 F1285.7 X101.721 Y156.168
G1 F900 X103.277 Y157.725 E65.50425
G0 F1285.7 X103.277 Y157.23
G1 F900 X101.721 Y155.673 E65.58849
G0 F1285.7 X101.721 Y155.178
G1 F900 X103.277 Y156.735 E65.67273
G0 F1285.7 X103.277 Y156.24
G1 F900 X101.721 Y154.683 E65.75697
G0 F1285.7 X101.721 Y154.188
G1 F900 X103.277 Y155.745 E65.84121
G0 F1285.7 X103.277 Y155.25
G1 F900 X101.721 Y153.693 E65.92545
G0 F1285.7 X101.721 Y153.198
G1 F900 X103.277 Y154.755 E66.00969
G0 F1285.7 X103.277 Y154.26
G1 F900 X101.721 Y152.703 E66.09393
G0 F1285.7 X101.721 Y152.208
G1 F900 X103.277 Y153.765 E66.17817
G0 F1285.7 X103.277 Y153.27
G1 F900 X101.721 Y151.714 E66.26238
G0 F1285.7 X101.721 Y151.219
G1 F900 X103.277 Y152.775 E66.3466
G0 F1285.7 X103.277 Y152.28
G1 F900 X101.721 Y150.724 E66.43081
G0 F1285.7 X101.721 Y150.229
G1 F900 X103.277 Y151.785 E66.51502
G0 F1285.7 X103.277 Y151.29
G1 F900 X101.721 Y149.734 E66.59924
G0 F1285.7 X101.721 Y149.239
G1 F900 X103.277 Y150.795 E66.68345
G0 F1285.7 X103.277 Y150.3
G1 F900 X101.721 Y148.744 E66.76766
G0 F1285.7 X101.721 Y148.249
G1 F900 X103.277 Y149.805 E66.85187
G0 F1285.7 X103.277 Y149.31
G1 F900 X101.721 Y147.754 E66.93609
G0 F1285.7 X101.721 Y147.259
G1 F900 X103.277 Y148.815 E67.0203
G0 F1285.7 X103.277 Y148.32
G1 F900 X101.721 Y146.764 E67.10451
G0 F1285.7 X101.721 Y146.269
G1 F900 X103.277 Y147.825 E67.18872
G0 F1285.7 X103.277 Y147.33
G1 F900 X101.721 Y145.774 E67.27294
G0 F1285.7 X101.721 Y145.279
G1 F900 X103.277 Y146.835 E67.35715
G0 F1285.7 X103.277 Y146.34
G1 F900 X101.721 Y144.784 E67.44136
G0 F1285.7 X101.721 Y144.289
G1 F900 X103.277 Y145.845 E67.52558
G0 F1285.7 X103.277 Y145.35
G1 F900 X101.721 Y143.794 E67.60979
G0 F1285.7 X101.721 Y143.299
G1 F900 X103.277 Y144.855 E67.694
G0 F1285.7 X103.277 Y144.36
G1 F900 X101.721 Y142.804 E67.77821
G0 F1285.7 X101.721 Y142.309
G1 F900 X103.277 Y143.865 E67.86243
G0 F1285.7 X103.277 Y143.37
G1 F900 X101.721 Y141.814 E67.94664
G0 F1285.7 X101.891 Y141.489
G1 F900 X103.277 Y142.875 E68.02165
G0 F1285.7 X103.277 Y142.38
G1 F900 X102.386 Y141.489 E68.06987
G0 F1285.7 X102.881 Y141.489
G1 F900 X103.277 Y141.885 E68.09131
G1 F3000 E64.59131
G0 F1285.7 X103.705 Y141.014
G0 X103.705 Y139.829
G0 X103.705 Y65.171
G0 X103.705 Y63.986
G0 X103.775 Y64.006
;TYPE:WALL-INNER
G1 F3000 E68.09131
G1 F900 X101.225 Y64.006 E68.18889
G1 X101.225 Y38.044 E69.18245
G1 X101.225 Y37.869 E69.18914
G1 X101.4 Y37.869 E69.19348
G1 X103.775 Y37.87 E69.28437
G1 X103.775 Y64.006 E70.28458
