;FLAVOR:Marlin
;TIME:34486
;Filament used: 42.4313m
;Layer height: 0.3
;MINX:58.192
;MINY:40.696
;MINZ:0.26
;MAXX:146.808
;MAXY:164.302
;MAXZ:189.86
;Generated with Cura_SteamEngine 4.9.1
M82 ;absolute extrusion mode
;Begin Start Gcode for Dagoma DiscoEasy 200
;Sliced: 09-07-2021 20:52:44
;Initial extruder: 0

G90 ;Absolute positioning
M106 S255 ;Fan on full
G28 X Y ;Home stop X Y
G1 X100 ;Centre back during cooldown in case of oozing
M109 R90 ;Cooldown in case too hot
G28 ;Centre
G29 ;Auto-level
M104 S205 ;Pre-heat
M107 ;Fan off
G0 X100 Y5 Z0.5 ;Front centre for degunk
M109 S205 ;Wait for initial temp
M83 ;E Relative
G1 E10 F200 ;Degunk
G1 E-3 F5000 ;Retract
G0 Z3 ;Withdraw
M82 ;E absolute
G92 E0 ;E reset
G1 F6000 ;Set feedrate

;Finish Start Gcode for Dagoma DiscoEasy 200

G92 E0
G92 E0
G1 F3000 E-3.5
;LAYER_COUNT:633
;LAYER:0
M107
G0 F1285.7 X118.223 Y43.168 Z0.26
;TYPE:SKIRT
G1 F3000 E0
G1 F900 X118.57 Y42.586 E0.02593
G1 X118.888 Y42.129 E0.04724
G1 X119.269 Y41.723 E0.06855
G1 X119.704 Y41.376 E0.08984
G1 X120.184 Y41.095 E0.11113
G1 X120.699 Y40.885 E0.13241
G1 X121.239 Y40.751 E0.1537
G1 X121.99 Y40.696 E0.18252
G1 X122.201 Y40.701 E0.1906
G1 X122.755 Y40.754 E0.2119
G1 X123.295 Y40.886 E0.23317
G1 X124.006 Y41.196 E0.26285
G1 X124.519 Y41.484 E0.28537
G1 X144.269 Y52.888 E1.15814
G1 X144.917 Y53.274 E1.18701
G1 X145.373 Y53.592 E1.20828
G1 X145.779 Y53.973 E1.22959
G1 X146.127 Y54.407 E1.25088
G1 X146.408 Y54.887 E1.27216
G1 X146.618 Y55.403 E1.29348
G1 X146.752 Y55.943 E1.31478
G1 X146.808 Y56.678 E1.34299
G1 X146.804 Y56.886 E1.35095
G1 X146.754 Y57.44 E1.37223
G1 X146.624 Y57.981 E1.39353
G1 X146.309 Y58.708 E1.42385
G1 X146.021 Y59.22 E1.44633
G1 X86.795 Y161.803 E5.97945
G1 X86.43 Y162.415 E6.00672
G1 X86.111 Y162.871 E6.02802
G1 X85.731 Y163.277 E6.0493
G1 X85.296 Y163.624 E6.07059
G1 X84.816 Y163.905 E6.09188
G1 X84.301 Y164.115 E6.11316
G1 X83.76 Y164.249 E6.13449
G1 X82.959 Y164.302 E6.16521
G1 X82.743 Y164.294 E6.17349
G1 X82.189 Y164.234 E6.19481
G1 X81.651 Y164.095 E6.21608
G1 X80.989 Y163.801 E6.2438
G1 X80.46 Y163.504 E6.26701
G1 X60.731 Y152.112 E7.13886
G1 X60.084 Y151.727 E7.16768
G1 X59.628 Y151.409 E7.18895
G1 X59.222 Y151.029 E7.21023
G1 X58.874 Y150.594 E7.23155
G1 X58.592 Y150.114 E7.25286
G1 X58.382 Y149.599 E7.27414
G1 X58.248 Y149.059 E7.29543
G1 X58.192 Y148.322 E7.32372
G1 X58.196 Y148.114 E7.33168
G1 X58.246 Y147.56 E7.35297
G1 X58.376 Y147.019 E7.37426
G1 X58.691 Y146.292 E7.40458
G1 X58.979 Y145.779 E7.4271
G1 X118.223 Y43.168 E11.96149
G0 F1285.7 X118.523 Y43.347
G1 F900 X118.87 Y42.765 E11.98742
G1 X119.176 Y42.331 E12.00774
G1 X119.543 Y41.947 E12.02807
G1 X119.963 Y41.624 E12.04835
G1 X120.427 Y41.367 E12.06865
G1 X120.925 Y41.182 E12.08898
G1 X121.444 Y41.074 E12.10926
G1 X121.982 Y41.046 E12.12988
G1 X122.193 Y41.051 E12.13796
G1 X122.721 Y41.103 E12.15826
G1 X123.235 Y41.235 E12.17857
G1 X123.835 Y41.501 E12.20369
G1 X124.344 Y41.787 E12.22603
G1 X144.09 Y53.189 E13.09863
G1 X144.738 Y53.575 E13.1275
G1 X145.172 Y53.88 E13.1478
G1 X145.556 Y54.247 E13.16813
G1 X145.88 Y54.667 E13.18843
G1 X146.137 Y55.131 E13.20873
G1 X146.322 Y55.628 E13.22902
G1 X146.43 Y56.148 E13.24935
G1 X146.458 Y56.671 E13.26939
G1 X146.454 Y56.879 E13.27735
G1 X146.404 Y57.407 E13.29765
G1 X146.275 Y57.922 E13.31797
G1 X146.004 Y58.537 E13.34369
G1 X145.718 Y59.045 E13.366
G1 X86.494 Y161.624 E17.89894
G1 X86.129 Y162.236 E17.92621
G1 X85.824 Y162.67 E17.94651
G1 X85.457 Y163.053 E17.96681
G1 X85.037 Y163.377 E17.98711
G1 X84.572 Y163.634 E18.00745
G1 X84.075 Y163.818 E18.02773
G1 X83.555 Y163.926 E18.04805
G1 X82.972 Y163.953 E18.07039
G1 X82.756 Y163.945 E18.07866
G1 X82.228 Y163.885 E18.099
G1 X81.716 Y163.747 E18.11929
G1 X81.16 Y163.496 E18.14264
G1 X80.635 Y163.201 E18.16568
G1 X60.91 Y151.811 E19.03736
G1 X60.263 Y151.426 E19.06617
G1 X59.829 Y151.121 E19.08647
G1 X59.446 Y150.755 E19.10675
G1 X59.121 Y150.335 E19.12707
G1 X58.864 Y149.871 E19.14737
G1 X58.679 Y149.373 E19.1677
G1 X58.571 Y148.854 E19.18799
G1 X58.542 Y148.329 E19.20811
G1 X58.546 Y148.121 E19.21607
G1 X58.596 Y147.593 E19.23637
G1 X58.725 Y147.078 E19.25668
G1 X58.996 Y146.463 E19.2824
G1 X59.282 Y145.954 E19.30475
G1 X118.523 Y43.347 E23.83895
G0 F1285.7 X118.824 Y43.526
G1 F900 X119.171 Y42.944 E23.86488
G1 X119.462 Y42.533 E23.88415
G1 X119.815 Y42.174 E23.90342
G1 X120.22 Y41.875 E23.92269
G1 X120.667 Y41.643 E23.94196
G1 X121.146 Y41.485 E23.96126
G1 X121.643 Y41.405 E23.98053
G1 X122.184 Y41.401 E24.00123
G1 X122.685 Y41.453 E24.02051
G1 X123.172 Y41.583 E24.0398
G1 X123.663 Y41.806 E24.06043
G1 X124.169 Y42.09 E24.08264
G1 X143.911 Y53.489 E24.95505
G1 X144.559 Y53.875 E24.98392
G1 X144.97 Y54.166 E25.00319
G1 X145.329 Y54.519 E25.02246
G1 X145.629 Y54.924 E25.04175
G1 X145.86 Y55.371 E25.061
G1 X146.018 Y55.849 E25.08027
G1 X146.099 Y56.346 E25.09954
G1 X146.104 Y56.872 E25.11967
G1 X146.055 Y57.373 E25.13894
G1 X145.927 Y57.86 E25.15821
G1 X145.699 Y58.365 E25.17941
G1 X145.415 Y58.87 E25.20158
G1 X86.194 Y161.444 E29.73431
G1 X85.829 Y162.056 E29.76158
G1 X85.537 Y162.467 E29.78087
G1 X85.185 Y162.826 E29.80011
G1 X84.78 Y163.126 E29.8194
G1 X84.332 Y163.357 E29.83869
G1 X83.854 Y163.515 E29.85796
G1 X83.357 Y163.595 E29.87722
G1 X82.768 Y163.595 E29.89976
G1 X82.268 Y163.536 E29.91903
G1 X81.784 Y163.399 E29.93828
G1 X81.332 Y163.19 E29.95734
G1 X80.81 Y162.898 E29.98023
G1 X61.089 Y151.51 E30.85174
G1 X60.442 Y151.125 E30.88055
G1 X60.031 Y150.834 E30.89982
G1 X59.672 Y150.482 E30.91906
G1 X59.372 Y150.077 E30.93835
G1 X59.14 Y149.63 E30.95762
G1 X58.982 Y149.152 E30.97689
G1 X58.902 Y148.655 E30.99615
G1 X58.896 Y148.128 E31.01632
G1 X58.945 Y147.627 E31.03559
G1 X59.073 Y147.14 E31.05486
G1 X59.301 Y146.635 E31.07606
G1 X59.585 Y146.129 E31.09827
G1 X118.824 Y43.526 E35.6323
G0 F1285.7 X122.008 Y44.712
;TYPE:SUPPORT
G1 F900 X142.792 Y56.712 E36.55075
G1 X82.992 Y160.288 E41.12776
G1 X62.208 Y148.288 E42.04621
G1 X122.008 Y44.712 E46.62322
G0 F1285.7 X123.417 Y56.572
G1 F900 X73.181 Y143.581 E50.46816
G1 X73.409 Y144.42 E50.50144
G1 X80.744 Y148.656 E50.82559
G1 X81.583 Y148.428 E50.85886
G1 X131.819 Y61.419 E54.7038
G1 X131.591 Y60.58 E54.73707
G1 X124.256 Y56.344 E55.06123
G1 X123.417 Y56.572 E55.0945
G0 F1285.7 X123.649 Y56.365
G1 F900 X123.649 Y45.822 E55.49798
G0 F1285.7 X125.103 Y46.66
G1 F900 X121.045 Y46.66 E55.65327
G0 F1285.7 X121.316 Y46.19
G1 F900 X121.316 Y59.932 E56.17917
G0 F1285.7 X120.896 Y60.658
G1 F900 X112.963 Y60.658 E56.48277
G0 F1285.7 X111.984 Y62.354
G1 F900 X111.984 Y76.095 E57.00863
G0 F1285.7 X111.467 Y76.989
G1 F900 X103.535 Y76.989 E57.31218
G0 F1285.7 X102.652 Y78.518
G1 F900 X102.652 Y92.258 E57.838
G0 F1285.7 X102.038 Y93.32
G1 F900 X94.106 Y93.32 E58.14156
G0 F1285.7 X93.32 Y94.681
G1 F900 X93.32 Y108.422 E58.66742
G0 F1285.7 X93.956 Y107.318
G1 F900 X86.025 Y107.318 E58.97093
G0 F1285.7 X86.321 Y106.804
G1 F900 X86.321 Y120.544 E59.49676
G0 F1285.7 X85.873 Y121.316
G1 F900 X77.942 Y121.316 E59.80027
G0 F1285.7 X76.989 Y122.967
G1 F900 X76.989 Y136.707 E60.3261
G0 F1285.7 X76.445 Y137.647
G1 F900 X68.514 Y137.647 E60.62961
G0 F1285.7 X67.657 Y139.131
G1 F900 X67.657 Y151.272 E61.09424
G0 F1285.7 X68.302 Y151.645
G1 F900 X87.819 Y151.645 E61.84115
G0 F1285.7 X88.654 Y150.201
G1 F900 X88.654 Y136.46 E62.36701
G0 F1285.7 X89.315 Y135.314
G1 F900 X97.247 Y135.314 E62.67056
G0 F1285.7 X97.986 Y134.038
G1 F900 X97.986 Y120.297 E63.19643
G0 F1285.7 X97.397 Y121.316
G1 F900 X105.329 Y121.316 E63.49998
G0 F1285.7 X104.985 Y121.915
G1 F900 X104.985 Y108.174 E64.02584
G0 F1285.7 X105.48 Y107.318
G1 F900 X113.411 Y107.318 E64.32936
G0 F1285.7 X114.317 Y105.751
G1 F900 X114.317 Y92.011 E64.85518
G0 F1285.7 X114.909 Y90.987
G1 F900 X122.84 Y90.987 E65.1587
G0 F1285.7 X123.649 Y89.588
G1 F900 X123.649 Y75.848 E65.68452
G0 F1285.7 X122.99 Y76.989
G1 F900 X130.922 Y76.989 E65.98807
G0 F1285.7 X130.648 Y77.465
G1 F900 X130.648 Y63.725 E66.5139
G0 F1285.7 X131.072 Y62.991
G1 F900 X139.003 Y62.991 E66.81741
G0 F1285.7 X139.98 Y61.301
G1 F900 X139.98 Y55.251 E67.04894
G0 F1285.7 X141.267 Y55.992
G1 F900 X115.657 Y55.992 E68.02902
G0 F1285.7 X116.65 Y54.272
G1 F900 X116.65 Y68.014 E68.55492
G0 F1285.7 X116.855 Y67.657
G1 F900 X108.923 Y67.657 E68.85848
G0 F1285.7 X109.651 Y66.395
G1 F900 X109.651 Y80.136 E69.38434
G0 F1285.7 X110.12 Y79.322
G1 F900 X102.188 Y79.322 E69.68789
G0 F1285.7 X100.841 Y81.655
G1 F900 X108.773 Y81.655 E69.99145
G0 F1285.7 X107.426 Y83.988
G1 F900 X99.494 Y83.988 E70.295
G0 F1285.7 X100.319 Y82.558
G1 F900 X100.319 Y96.299 E70.82086
G0 F1285.7 X100.691 Y95.653
G1 F900 X92.759 Y95.653 E71.12442
G0 F1285.7 X91.412 Y97.986
G1 F900 X99.344 Y97.986 E71.42797
G0 F1285.7 X97.997 Y100.319
G1 F900 X90.066 Y100.319 E71.73149
G0 F1285.7 X90.987 Y98.722
G1 F900 X90.987 Y112.462 E72.25731
G0 F1285.7 X91.262 Y111.984
G1 F900 X83.331 Y111.984 E72.56082
G0 F1285.7 X83.988 Y110.845
G1 F900 X83.988 Y124.585 E73.08665
G0 F1285.7 X84.526 Y123.649
G1 F900 X76.595 Y123.649 E73.39016
G0 F1285.7 X75.248 Y125.982
G1 F900 X83.179 Y125.982 E73.69368
G0 F1285.7 X81.832 Y128.315
G1 F900 X73.901 Y128.315 E73.99719
G0 F1285.7 X74.656 Y127.008
G1 F900 X74.656 Y140.748 E74.52302
G0 F1285.7 X75.098 Y139.98
G1 F900 X67.167 Y139.98 E74.82653
G0 F1285.7 X65.82 Y142.313
G1 F900 X73.751 Y142.313 E75.13005
G1 F3000 E71.63005
G0 F1285.7 X73.521 Y144.646
G1 F3000 E75.13005
G1 F900 X64.473 Y144.646 E75.47631
G0 F1285.7 X65.324 Y143.172
G1 F900 X65.324 Y149.925 E75.73474
G0 F1285.7 X64.261 Y149.312
G1 F900 X89.166 Y149.312 E76.68785
G0 F1285.7 X90.512 Y146.979
G1 F900 X82.58 Y146.979 E76.9914
G0 F1285.7 X81.655 Y148.553
G1 F900 X81.655 Y159.353 E77.40471
G0 F1285.7 X80.424 Y158.644
G1 F900 X83.778 Y158.644 E77.53307
G0 F1285.7 X83.988 Y158.283
G1 F900 X83.988 Y144.541 E78.05897
G0 F1285.7 X83.927 Y144.646
G1 F900 X91.859 Y144.646 E78.36252
G0 F1285.7 X90.987 Y146.16
G1 F900 X90.987 Y132.419 E78.88838
G0 F1285.7 X90.662 Y132.981
G1 F900 X98.594 Y132.981 E79.19194
G0 F1285.7 X99.941 Y130.648
G1 F900 X92.009 Y130.648 E79.49549
G0 F1285.7 X93.32 Y128.378
G1 F900 X93.32 Y142.119 E80.02135
G0 F1285.7 X93.206 Y142.313
G1 F900 X85.274 Y142.313 E80.32491
G0 F1285.7 X86.321 Y140.501
G1 F900 X86.321 Y154.242 E80.85077
G0 F1285.7 X86.472 Y153.978
G1 F900 X72.342 Y153.978 E81.39152
G0 F1285.7 X72.323 Y153.965
G1 F900 X72.323 Y131.049 E82.2685
G0 F1285.7 X72.554 Y130.648
G1 F900 X80.485 Y130.648 E82.57202
G0 F1285.7 X79.322 Y132.666
G1 F900 X79.322 Y118.927 E83.0978
G0 F1285.7 X79.289 Y118.983
G1 F900 X87.22 Y118.983 E83.40132
G0 F1285.7 X88.568 Y116.65
G1 F900 X80.637 Y116.65 E83.70483
G0 F1285.7 X81.655 Y114.886
G1 F900 X81.655 Y128.626 E84.23065
G0 F1285.7 X79.138 Y132.981
G1 F900 X71.207 Y132.981 E84.53417
G0 F1285.7 X69.99 Y135.09
G1 F900 X69.99 Y152.618 E85.20496
G0 F1285.7 X74.656 Y155.312
G1 F900 X74.656 Y145.302 E85.58804
G0 F1285.7 X76.989 Y146.649
G1 F900 X76.989 Y156.659 E85.97111
G0 F1285.7 X76.383 Y156.311
G1 F900 X85.125 Y156.311 E86.30567
G0 F1285.7 X79.322 Y158.006
G1 F900 X79.322 Y147.996 E86.68874
G0 F1285.7 X77.561 Y146.979
G1 F900 X63.126 Y146.979 E87.24116
G0 F1285.7 X62.991 Y147.213
G1 F900 X62.991 Y148.578 E87.2934
G0 F1285.7 X69.86 Y135.314
G1 F900 X77.792 Y135.314 E87.59696
G1 F3000 E84.09696
G0 F1285.7 X73.411 Y143.611
G0 X80.774 Y148.426
G0 X86.621 Y139.98
G1 F3000 E87.59696
G1 F900 X94.553 Y139.98 E87.90051
G0 F1285.7 X95.653 Y138.079
G1 F900 X95.653 Y124.337 E88.42641
G0 F1285.7 X96.05 Y123.649
G1 F900 X103.982 Y123.649 E88.72996
G0 F1285.7 X102.652 Y125.956
G1 F900 X102.652 Y112.215 E89.25583
G0 F1285.7 X102.786 Y111.984
G1 F900 X110.718 Y111.984 E89.55938
G0 F1285.7 X109.651 Y113.833
G1 F900 X109.651 Y100.093 E90.0852
G0 F1285.7 X109.521 Y100.319
G1 F900 X117.452 Y100.319 E90.38872
G0 F1285.7 X116.65 Y101.71
G1 F900 X116.65 Y87.97 E90.91454
G0 F1285.7 X116.256 Y88.654
G1 F900 X124.187 Y88.654 E91.21806
G0 F1285.7 X125.534 Y86.321
G1 F900 X117.603 Y86.321 E91.52157
G0 F1285.7 X118.95 Y83.988
G1 F900 X126.881 Y83.988 E91.82509
G0 F1285.7 X125.982 Y85.547
G1 F900 X125.982 Y71.807 E92.35091
G0 F1285.7 X125.684 Y72.323
G1 F900 X133.615 Y72.323 E92.65443
G0 F1285.7 X132.981 Y73.424
G1 F900 X132.981 Y51.21 E93.50455
G0 F1285.7 X133.185 Y51.326
G1 F900 X118.351 Y51.326 E94.07224
G0 F1285.7 X118.983 Y50.231
G1 F900 X118.983 Y63.973 E94.59814
G0 F1285.7 X119.549 Y62.991
G1 F900 X111.617 Y62.991 E94.90169
G0 F1285.7 X110.27 Y65.324
G1 F900 X118.202 Y65.324 E95.20524
G0 F1285.7 X115.508 Y69.99
G1 F900 X107.576 Y69.99 E95.5088
G0 F1285.7 X107.318 Y70.436
G1 F900 X107.318 Y84.177 E96.03466
G0 F1285.7 X106.079 Y86.321
G1 F900 X98.147 Y86.321 E96.33821
G0 F1285.7 X97.986 Y86.599
G1 F900 X97.986 Y100.34 E96.86407
G0 F1285.7 X96.65 Y102.652
G1 F900 X88.719 Y102.652 E97.16759
G0 F1285.7 X88.654 Y102.763
G1 F900 X88.654 Y116.503 E97.69341
G0 F1285.7 X89.915 Y114.317
G1 F900 X81.984 Y114.317 E97.99693
G0 F1285.7 X84.678 Y109.651
G1 F900 X92.609 Y109.651 E98.30044
G0 F1285.7 X95.303 Y104.985
G1 F900 X87.372 Y104.985 E98.60396
G0 F1285.7 X95.653 Y104.381
G1 F900 X95.653 Y90.64 E99.12982
G0 F1285.7 X95.453 Y90.987
G1 F900 X103.385 Y90.987 E99.43337
G0 F1285.7 X104.732 Y88.654
G1 F900 X96.8 Y88.654 E99.73693
G0 F1285.7 X104.985 Y88.218
G1 F900 X104.985 Y74.477 E100.26279
G0 F1285.7 X104.882 Y74.656
G1 F900 X112.814 Y74.656 E100.56634
G0 F1285.7 X114.161 Y72.323
G1 F900 X106.229 Y72.323 E100.8699
G0 F1285.7 X114.317 Y72.054
G1 F900 X114.317 Y58.313 E101.39576
G0 F1285.7 X114.31 Y58.325
G1 F900 X122.243 Y58.325 E101.69935
G1 F3000 E98.19935
G0 F1285.7 X123.558 Y56.755
G0 X125.982 Y57.179
G1 F3000 E101.69935
G1 F900 X125.982 Y47.169 E102.08243
G0 F1285.7 X128.315 Y48.516
G1 F900 X128.315 Y58.526 E102.46551
G0 F1285.7 X127.967 Y58.325
G1 F900 X141.697 Y58.325 E102.99095
G0 F1285.7 X142.313 Y57.261
G1 F900 X142.313 Y56.598 E103.01632
G0 F1285.7 X140.35 Y60.658
G1 F900 X131.757 Y60.658 E103.34517
G0 F1285.7 X130.648 Y59.874
G1 F900 X130.648 Y49.863 E103.72829
G0 F1285.7 X129.144 Y48.993
G1 F900 X119.698 Y48.993 E104.08978
G0 F1285.7 X117.004 Y53.659
G1 F900 X137.226 Y53.659 E104.86367
G0 F1285.7 X137.647 Y53.904
G1 F900 X137.647 Y65.342 E105.30139
G0 F1285.7 X137.656 Y65.324
G1 F900 X129.725 Y65.324 E105.60491
G0 F1285.7 X128.378 Y67.657
G1 F900 X136.309 Y67.657 E105.90842
G0 F1285.7 X135.314 Y69.383
G1 F900 X135.314 Y52.557 E106.55235
G1 F3000 E103.05235
G0 F1285.7 X131.589 Y61.389
G0 X128.315 Y67.766
G1 F3000 E106.55235
G1 F900 X128.315 Y81.506 E107.07817
G0 F1285.7 X128.228 Y81.655
G1 F900 X120.297 Y81.655 E107.38169
G0 F1285.7 X121.316 Y79.889
G1 F900 X121.316 Y93.629 E107.90751
G0 F1285.7 X121.493 Y93.32
G1 F900 X113.562 Y93.32 E108.21102
G0 F1285.7 X112.215 Y95.653
G1 F900 X120.146 Y95.653 E108.51454
G0 F1285.7 X118.983 Y97.67
G1 F900 X118.983 Y83.929 E109.0404
G0 F1285.7 X121.643 Y79.322
G1 F900 X129.575 Y79.322 E109.34396
G0 F1285.7 X132.269 Y74.656
G1 F900 X124.337 Y74.656 E109.64751
G0 F1285.7 X127.031 Y69.99
G1 F900 X134.962 Y69.99 E109.95103
G0 F1285.7 X118.799 Y97.986
G1 F900 X110.868 Y97.986 E110.25454
G0 F1285.7 X111.984 Y96.052
G1 F900 X111.984 Y109.792 E110.78036
G0 F1285.7 X112.064 Y109.651
G1 F900 X104.133 Y109.651 E111.08388
G0 F1285.7 X106.827 Y104.985
G1 F900 X114.758 Y104.985 E111.38739
G0 F1285.7 X116.105 Y102.652
G1 F900 X108.174 Y102.652 E111.69091
G0 F1285.7 X107.318 Y104.133
G1 F900 X107.318 Y117.874 E112.21677
G0 F1285.7 X106.676 Y118.983
G1 F900 X98.744 Y118.983 E112.52033
G0 F1285.7 X100.092 Y116.65
G1 F900 X108.024 Y116.65 E112.82388
G0 F1285.7 X109.371 Y114.317
G1 F900 X101.439 Y114.317 E113.12743
G0 F1285.7 X100.319 Y116.256
G1 F900 X100.319 Y129.997 E113.65329
G0 F1285.7 X101.288 Y128.315
G1 F900 X93.356 Y128.315 E113.95685
G0 F1285.7 X94.703 Y125.982
G1 F900 X102.635 Y125.982 E114.2604
G0 F1285.7 X95.9 Y137.647
G1 F900 X87.968 Y137.647 E114.56396
G1 F3000 E111.06396
;MESH:basis_basis_leg_l.stl
G0 F1285.7 X86.641 Y136.88
G0 X80.774 Y146.885
G0 X80.859 Y146.934
;TYPE:WALL-INNER
G1 F3000 E114.56396
G1 F900 X80.772 Y147.085 E114.57063
G1 X80.621 Y146.998 E114.57494
