;FLAVOR:Marlin
;TIME:24742
;Filament used: 26.8568m
;Layer height: 0.3
;MINX:61.098
;MINY:42.763
;MINZ:0.26
;MAXX:143.902
;MAXY:162.203
;MAXZ:199.76
;Generated with Cura_SteamEngine 4.9.1
M82 ;absolute extrusion mode
;Begin Start Gcode for Dagoma DiscoEasy 200
;Sliced: 26-07-2021 00:26:42
;Initial extruder: 0

G90 ;Absolute positioning
M106 S255 ;Fan on full
G28 X Y ;Home stop X Y
G1 X100 ;Centre back during cooldown in case of oozing
M109 R90 ;Cooldown in case too hot
G28 ;Centre
G29 ;Auto-level
M104 S205 ;Pre-heat
M107 ;Fan off
G0 X100 Y5 Z0.5 ;Front centre for degunk
M109 S205 ;Wait for initial temp
M83 ;E Relative
G1 E10 F200 ;Degunk
G1 E-3 F5000 ;Retract
G0 Z3 ;Withdraw
M82 ;E absolute
G92 E0 ;E reset
G1 F6000 ;Set feedrate

;Finish Start Gcode for Dagoma DiscoEasy 200

G92 E0
G92 E0
G1 F3000 E-3.5
;LAYER_COUNT:666
;LAYER:0
M107
G0 F1285.7 X121.002 Y44.755 Z0.26
;TYPE:SKIRT
G1 F3000 E0
G1 F900 X121.335 Y44.197 E0.02487
G1 X121.614 Y43.807 E0.04322
G1 X121.954 Y43.469 E0.06157
G1 X122.345 Y43.193 E0.07988
G1 X123.023 Y42.903 E0.1081
G1 X123.624 Y42.775 E0.13162
G1 X124.103 Y42.763 E0.14996
G1 X124.577 Y42.831 E0.16828
G1 X125.034 Y42.976 E0.18663
G1 X125.33 Y43.119 E0.19921
G1 X125.912 Y43.442 E0.22468
G1 X141.943 Y52.7 E0.93314
G1 X142.501 Y53.033 E0.95801
G1 X142.891 Y53.312 E0.97636
G1 X143.229 Y53.652 E0.9947
G1 X143.505 Y54.043 E1.01302
G1 X143.713 Y54.475 E1.03137
G1 X143.847 Y54.935 E1.0497
G1 X143.902 Y55.557 E1.0736
G1 X143.849 Y56.243 E1.09993
G1 X143.722 Y56.705 E1.11827
G1 X143.531 Y57.118 E1.13568
G1 X143.249 Y57.62 E1.15772
G1 X84.03 Y160.191 E5.6903
G1 X83.665 Y160.803 E5.71757
G1 X83.386 Y161.192 E5.73589
G1 X83.047 Y161.53 E5.75421
G1 X82.655 Y161.807 E5.77258
G1 X82.224 Y162.015 E5.7909
G1 X81.764 Y162.148 E5.80922
G1 X81.089 Y162.203 E5.83514
G1 X80.398 Y162.137 E5.86171
G1 X79.939 Y162.001 E5.88003
G1 X79.577 Y161.831 E5.89533
G1 X79.075 Y161.55 E5.91735
G1 X63.057 Y152.3 E6.62522
G1 X62.499 Y151.967 E6.65009
G1 X62.109 Y151.688 E6.66844
G1 X61.771 Y151.348 E6.68678
G1 X61.495 Y150.957 E6.7051
G1 X61.287 Y150.525 E6.72345
G1 X61.153 Y150.065 E6.74179
G1 X61.098 Y149.443 E6.76568
G1 X61.151 Y148.757 E6.79201
G1 X61.278 Y148.295 E6.81035
G1 X61.469 Y147.882 E6.82776
G1 X61.751 Y147.379 E6.84983
G1 X121.002 Y44.755 E11.38479
G0 F1285.7 X121.303 Y44.934
G1 F900 X121.636 Y44.376 E11.40966
G1 X121.899 Y44.012 E11.42684
G1 X122.223 Y43.701 E11.44403
G1 X122.597 Y43.452 E11.46122
G1 X123.118 Y43.24 E11.48275
G1 X123.69 Y43.12 E11.50512
G1 X124.139 Y43.116 E11.5223
G1 X124.581 Y43.192 E11.53946
G1 X125.16 Y43.425 E11.56335
G1 X125.737 Y43.745 E11.5886
G1 X141.764 Y53.001 E12.29688
G1 X142.322 Y53.334 E12.32175
G1 X142.686 Y53.597 E12.33894
G1 X142.997 Y53.921 E12.35612
G1 X143.246 Y54.295 E12.37332
G1 X143.424 Y54.706 E12.39046
G1 X143.527 Y55.143 E12.40764
G1 X143.549 Y55.759 E12.43123
G1 X143.5 Y56.206 E12.44844
G1 X143.373 Y56.636 E12.4656
G1 X143.226 Y56.947 E12.47876
G1 X142.946 Y57.445 E12.50063
G1 X83.73 Y160.011 E17.03299
G1 X83.365 Y160.623 E17.06026
G1 X83.101 Y160.987 E17.07747
G1 X82.778 Y161.298 E17.09463
G1 X82.404 Y161.547 E17.11182
G1 X81.992 Y161.726 E17.12901
G1 X81.555 Y161.829 E17.1462
G1 X80.887 Y161.845 E17.17177
G1 X80.442 Y161.789 E17.18893
G1 X80.013 Y161.654 E17.20614
G1 X79.748 Y161.525 E17.21742
G1 X79.25 Y161.247 E17.23925
G1 X63.236 Y151.999 E17.94695
G1 X62.678 Y151.666 E17.97182
G1 X62.314 Y151.403 E17.989
G1 X62.003 Y151.079 E18.00619
G1 X61.754 Y150.705 E18.02338
G1 X61.576 Y150.294 E18.04053
G1 X61.473 Y149.857 E18.05771
G1 X61.451 Y149.241 E18.0813
G1 X61.5 Y148.794 E18.09851
G1 X61.627 Y148.364 E18.11566
G1 X61.774 Y148.053 E18.12883
G1 X62.054 Y147.554 E18.15073
G1 X121.303 Y44.934 E22.68551
G0 F1285.7 X121.603 Y45.113
G1 F900 X121.936 Y44.555 E22.71038
G1 X122.183 Y44.22 E22.72631
G1 X122.489 Y43.937 E22.74226
G1 X122.844 Y43.718 E22.75822
G1 X123.344 Y43.54 E22.77853
G1 X123.754 Y43.466 E22.79448
G1 X124.17 Y43.471 E22.8104
G1 X124.578 Y43.555 E22.82634
G1 X124.99 Y43.731 E22.84349
G1 X125.562 Y44.048 E22.86851
G1 X141.585 Y53.301 E23.57661
G1 X142.143 Y53.634 E23.60147
G1 X142.478 Y53.881 E23.6174
G1 X142.761 Y54.187 E23.63335
G1 X142.98 Y54.542 E23.64932
G1 X143.127 Y54.932 E23.66527
G1 X143.203 Y55.544 E23.68887
G1 X143.151 Y56.167 E23.71279
G1 X142.921 Y56.776 E23.7377
G1 X142.643 Y57.27 E23.7594
G1 X83.429 Y159.832 E28.29159
G1 X83.064 Y160.444 E28.31886
G1 X82.817 Y160.78 E28.33482
G1 X82.511 Y161.062 E28.35075
G1 X82.157 Y161.281 E28.36668
G1 X81.767 Y161.429 E28.38264
G1 X81.115 Y161.503 E28.40775
G1 X80.487 Y161.44 E28.43191
G1 X79.919 Y161.22 E28.45522
G1 X79.425 Y160.944 E28.47687
G1 X63.415 Y151.699 E29.18438
G1 X62.857 Y151.366 E29.20925
G1 X62.522 Y151.119 E29.22518
G1 X62.239 Y150.813 E29.24113
G1 X62.02 Y150.458 E29.25709
G1 X61.873 Y150.068 E29.27304
G1 X61.797 Y149.456 E29.29664
G1 X61.849 Y148.833 E29.32057
G1 X62.079 Y148.224 E29.34548
G1 X62.357 Y147.729 E29.36721
G1 X121.603 Y45.113 E33.9018
G0 F1285.7 X123.914 Y45.812
;TYPE:SUPPORT
G1 F900 X140.886 Y55.612 E34.65182
G1 X81.086 Y159.188 E39.22883
G1 X64.114 Y149.388 E39.97884
G1 X123.914 Y45.812 E44.55586
G0 F1285.7 X124.256 Y56.344
G1 F900 X123.417 Y56.572 E44.58913
G1 X73.181 Y143.581 E48.43407
G1 X73.409 Y144.42 E48.46734
G1 X80.744 Y148.656 E48.79149
G1 X81.583 Y148.428 E48.82477
G1 X131.819 Y61.419 E52.66971
G1 X131.591 Y60.58 E52.70298
G1 X124.256 Y56.344 E53.02713
G0 F1285.7 X123.649 Y56.365
G1 F900 X123.649 Y46.551 E53.40271
G0 F1285.7 X123.586 Y46.66
G1 F900 X125.103 Y46.66 E53.46076
G0 F1285.7 X125.982 Y47.169
G1 F900 X125.982 Y57.179 E53.84384
G0 F1285.7 X127.967 Y58.325
G1 F900 X139.156 Y58.325 E54.27204
G0 F1285.7 X139.98 Y56.9
G1 F900 X139.98 Y55.251 E54.33515
G0 F1285.7 X140.503 Y55.992
G1 F900 X118.198 Y55.992 E55.18875
G0 F1285.7 X118.983 Y54.633
G1 F900 X118.983 Y63.973 E55.54619
G0 F1285.7 X119.549 Y62.991
G1 F900 X114.158 Y62.991 E55.7525
G0 F1285.7 X114.317 Y62.714
G1 F900 X114.317 Y72.054 E56.10993
G0 F1285.7 X114.161 Y72.323
G1 F900 X108.77 Y72.323 E56.31625
G0 F1285.7 X109.651 Y70.796
G1 F900 X109.651 Y80.136 E56.67368
G0 F1285.7 X110.12 Y79.322
G1 F900 X104.729 Y79.322 E56.87999
G0 F1285.7 X104.985 Y78.878
G1 F900 X104.985 Y88.218 E57.23743
G0 F1285.7 X104.732 Y88.654
G1 F900 X99.341 Y88.654 E57.44374
G0 F1285.7 X100.319 Y86.96
G1 F900 X100.319 Y96.299 E57.80114
G0 F1285.7 X100.691 Y95.653
G1 F900 X95.3 Y95.653 E58.00745
G0 F1285.7 X95.653 Y95.042
G1 F900 X95.653 Y104.381 E58.36485
G0 F1285.7 X95.303 Y104.985
G1 F900 X89.913 Y104.985 E58.57112
G0 F1285.7 X90.987 Y103.123
G1 F900 X90.987 Y112.462 E58.92852
G0 F1285.7 X91.262 Y111.984
G1 F900 X85.872 Y111.984 E59.1348
G0 F1285.7 X86.321 Y111.205
G1 F900 X86.321 Y120.544 E59.49219
G0 F1285.7 X85.873 Y121.316
G1 F900 X80.483 Y121.316 E59.69847
G0 F1285.7 X79.322 Y123.328
G1 F900 X79.322 Y132.666 E60.05583
G0 F1285.7 X79.138 Y132.981
G1 F900 X73.748 Y132.981 E60.2621
G0 F1285.7 X74.656 Y131.41
G1 F900 X74.656 Y140.748 E60.61946
G0 F1285.7 X75.098 Y139.98
G1 F900 X69.708 Y139.98 E60.82573
G0 F1285.7 X69.99 Y139.491
G1 F900 X69.99 Y152.618 E61.3281
G0 F1285.7 X68.302 Y151.645
G1 F900 X85.278 Y151.645 E61.97776
G0 F1285.7 X86.321 Y149.841
G1 F900 X86.321 Y140.501 E62.3352
G0 F1285.7 X86.621 Y139.98
G1 F900 X92.012 Y139.98 E62.54151
G0 F1285.7 X90.987 Y141.759
G1 F900 X90.987 Y132.419 E62.89895
G0 F1285.7 X90.662 Y132.981
G1 F900 X96.053 Y132.981 E63.10526
G0 F1285.7 X95.653 Y133.677
G1 F900 X95.653 Y124.337 E63.4627
G0 F1285.7 X96.05 Y123.649
G1 F900 X101.441 Y123.649 E63.66901
G0 F1285.7 X100.319 Y125.595
G1 F900 X100.319 Y116.256 E64.02641
G0 F1285.7 X100.092 Y116.65
G1 F900 X105.483 Y116.65 E64.23272
G0 F1285.7 X104.985 Y117.514
G1 F900 X104.985 Y108.174 E64.59015
G0 F1285.7 X105.48 Y107.318
G1 F900 X110.87 Y107.318 E64.79643
G0 F1285.7 X111.984 Y105.391
G1 F900 X111.984 Y96.052 E65.15383
G0 F1285.7 X112.215 Y95.653
G1 F900 X117.605 Y95.653 E65.3601
G0 F1285.7 X116.65 Y97.309
G1 F900 X116.65 Y87.97 E65.7175
G0 F1285.7 X116.256 Y88.654
G1 F900 X121.646 Y88.654 E65.92377
G0 F1285.7 X121.316 Y89.227
G1 F900 X121.316 Y79.889 E66.28113
G0 F1285.7 X121.643 Y79.322
G1 F900 X127.034 Y79.322 E66.48744
G0 F1285.7 X125.982 Y81.146
G1 F900 X125.982 Y71.807 E66.84484
G0 F1285.7 X125.684 Y72.323
G1 F900 X131.074 Y72.323 E67.05111
G0 F1285.7 X130.648 Y73.064
G1 F900 X130.648 Y63.725 E67.40851
G0 F1285.7 X131.072 Y62.991
G1 F900 X136.462 Y62.991 E67.61479
G0 F1285.7 X135.314 Y64.982
G1 F900 X135.314 Y52.557 E68.09028
G0 F1285.7 X137.225 Y53.659
G1 F900 X119.545 Y53.659 E68.76689
G0 F1285.7 X120.892 Y51.326
G1 F900 X133.185 Y51.326 E69.23734
G0 F1285.7 X132.981 Y51.21
G1 F900 X132.981 Y69.023 E69.91903
G0 F1285.7 X132.421 Y69.99
G1 F900 X127.031 Y69.99 E70.1253
G0 F1285.7 X128.315 Y67.766
G1 F900 X128.315 Y77.105 E70.4827
G0 F1285.7 X128.381 Y76.989
G1 F900 X122.99 Y76.989 E70.68901
G0 F1285.7 X123.649 Y75.848
G1 F900 X123.649 Y85.186 E71.04637
G0 F1285.7 X122.993 Y86.321
G1 F900 X117.603 Y86.321 E71.25265
G0 F1285.7 X118.95 Y83.988
G1 F900 X124.34 Y83.988 E71.45892
G0 F1285.7 X125.687 Y81.655
G1 F900 X120.297 Y81.655 E71.66519
G0 F1285.7 X118.983 Y83.929
G1 F900 X118.983 Y93.268 E72.02259
G0 F1285.7 X118.952 Y93.32
G1 F900 X113.562 Y93.32 E72.22886
G0 F1285.7 X114.317 Y92.011
G1 F900 X114.317 Y101.35 E72.58626
G0 F1285.7 X114.911 Y100.319
G1 F900 X109.521 Y100.319 E72.79254
G0 F1285.7 X109.651 Y100.093
G1 F900 X109.651 Y109.432 E73.14994
G0 F1285.7 X109.523 Y109.651
G1 F900 X104.133 Y109.651 E73.35621
G0 F1285.7 X102.786 Y111.984
G1 F900 X108.176 Y111.984 E73.56248
G0 F1285.7 X107.318 Y113.473
G1 F900 X107.318 Y104.133 E73.91992
G0 F1285.7 X106.827 Y104.985
G1 F900 X112.217 Y104.985 E74.12619
G0 F1285.7 X113.564 Y102.652
G1 F900 X108.174 Y102.652 E74.33246
G0 F1285.7 X110.868 Y97.986
G1 F900 X116.258 Y97.986 E74.53874
G0 F1285.7 X114.909 Y90.987
G1 F900 X120.299 Y90.987 E74.74501
G1 F3000 E71.24501
G0 F1285.7 X131.589 Y61.389
G0 X124.226 Y56.574
G0 X107.426 Y83.988
G1 F3000 E74.74501
G1 F900 X102.035 Y83.988 E74.95132
G0 F1285.7 X102.652 Y82.919
G1 F900 X102.652 Y92.258 E75.30872
G0 F1285.7 X102.038 Y93.32
G1 F900 X96.647 Y93.32 E75.51503
G0 F1285.7 X97.986 Y91.001
G1 F900 X97.986 Y100.34 E75.87243
G0 F1285.7 X97.997 Y100.319
G1 F900 X92.607 Y100.319 E76.0787
G0 F1285.7 X93.32 Y99.082
G1 F900 X93.32 Y108.422 E76.43614
G0 F1285.7 X93.956 Y107.318
G1 F900 X88.566 Y107.318 E76.64241
G0 F1285.7 X88.654 Y107.164
G1 F900 X88.654 Y116.503 E76.99981
G0 F1285.7 X88.568 Y116.65
G1 F900 X83.178 Y116.65 E77.20608
G0 F1285.7 X83.988 Y115.246
G1 F900 X83.988 Y124.585 E77.56348
G0 F1285.7 X84.526 Y123.649
G1 F900 X79.136 Y123.649 E77.76976
G0 F1285.7 X77.789 Y125.982
G1 F900 X83.179 Y125.982 E77.97603
G0 F1285.7 X81.832 Y128.315
G1 F900 X76.442 Y128.315 E78.1823
G0 F1285.7 X76.989 Y127.369
G1 F900 X76.989 Y136.707 E78.53966
G0 F1285.7 X76.445 Y137.647
G1 F900 X71.055 Y137.647 E78.74593
G0 F1285.7 X72.323 Y135.451
G1 F900 X72.323 Y153.965 E79.45446
G0 F1285.7 X72.343 Y153.978
G1 F900 X83.931 Y153.978 E79.89792
G0 F1285.7 X83.988 Y153.882
G1 F900 X83.988 Y144.541 E80.2554
G0 F1285.7 X83.927 Y144.646
G1 F900 X89.318 Y144.646 E80.46171
G0 F1285.7 X88.654 Y145.8
G1 F900 X88.654 Y136.46 E80.81915
G0 F1285.7 X89.315 Y135.314
G1 F900 X94.706 Y135.314 E81.02546
G0 F1285.7 X93.359 Y137.647
G1 F900 X87.968 Y137.647 E81.23177
G0 F1285.7 X93.32 Y137.718
G1 F900 X93.32 Y128.378 E81.58921
G0 F1285.7 X93.356 Y128.315
G1 F900 X98.747 Y128.315 E81.79552
G0 F1285.7 X97.986 Y129.636
G1 F900 X97.986 Y120.297 E82.15292
G0 F1285.7 X97.397 Y121.316
G1 F900 X102.788 Y121.316 E82.35923
G0 F1285.7 X102.652 Y121.555
G1 F900 X102.652 Y112.215 E82.71666
G0 F1285.7 X101.439 Y114.317
G1 F900 X106.83 Y114.317 E82.92298
G0 F1285.7 X104.135 Y118.983
G1 F900 X98.744 Y118.983 E83.12929
G0 F1285.7 X100.094 Y125.982
G1 F900 X94.703 Y125.982 E83.3356
G0 F1285.7 X92.009 Y130.648
G1 F900 X97.4 Y130.648 E83.54191
G0 F1285.7 X90.665 Y142.313
G1 F900 X85.274 Y142.313 E83.74822
G0 F1285.7 X82.58 Y146.979
G1 F900 X87.971 Y146.979 E83.95453
G0 F1285.7 X86.624 Y149.312
G1 F900 X64.32 Y149.312 E84.80809
G0 F1285.7 X65.324 Y149.924
G1 F900 X65.324 Y147.573 E84.89807
G0 F1285.7 X65.667 Y146.979
G1 F900 X77.561 Y146.979 E85.35324
G0 F1285.7 X76.989 Y146.649
G1 F900 X76.989 Y156.659 E85.73632
G0 F1285.7 X76.383 Y156.311
G1 F900 X82.584 Y156.311 E85.97363
G0 F1285.7 X81.655 Y157.923
G1 F900 X81.655 Y148.553 E86.33222
G1 F3000 E82.83222
G0 F1285.7 X79.322 Y147.996
G1 F3000 E86.33222
G1 F900 X79.322 Y158.006 E86.71529
G0 F1285.7 X80.424 Y158.644
G1 F900 X81.237 Y158.644 E86.74641
G0 F1285.7 X74.656 Y155.312
G1 F900 X74.656 Y145.302 E87.12948
G0 F1285.7 X73.521 Y144.646
G1 F900 X67.014 Y144.646 E87.3785
G0 F1285.7 X67.657 Y143.532
G1 F900 X67.657 Y151.271 E87.67467
G0 F1285.7 X68.361 Y142.313
G1 F900 X73.751 Y142.313 E87.88095
G0 F1285.7 X72.402 Y135.314
G1 F900 X77.792 Y135.314 E88.08722
G0 F1285.7 X80.485 Y130.648
G1 F900 X75.095 Y130.648 E88.29349
G0 F1285.7 X81.655 Y128.626
G1 F900 X81.655 Y119.287 E88.65089
G0 F1285.7 X81.83 Y118.983
G1 F900 X87.22 Y118.983 E88.85716
G0 F1285.7 X84.525 Y114.317
G1 F900 X89.915 Y114.317 E89.06344
G0 F1285.7 X92.609 Y109.651
G1 F900 X87.219 Y109.651 E89.26971
G0 F1285.7 X91.26 Y102.652
G1 F900 X96.65 Y102.652 E89.47598
G0 F1285.7 X99.344 Y97.986
G1 F900 X93.954 Y97.986 E89.68225
G0 F1285.7 X97.994 Y90.987
G1 F900 X103.385 Y90.987 E89.88856
G0 F1285.7 X106.079 Y86.321
G1 F900 X100.688 Y86.321 E90.09488
G0 F1285.7 X103.382 Y81.655
G1 F900 X108.773 Y81.655 E90.30119
G0 F1285.7 X107.318 Y84.177
G1 F900 X107.318 Y74.837 E90.65862
G0 F1285.7 X107.423 Y74.656
G1 F900 X112.814 Y74.656 E90.86493
G0 F1285.7 X111.984 Y76.095
G1 F900 X111.984 Y66.755 E91.22237
G0 F1285.7 X111.464 Y67.657
G1 F900 X116.855 Y67.657 E91.42868
G0 F1285.7 X116.65 Y68.014
G1 F900 X116.65 Y58.674 E91.78612
G0 F1285.7 X116.851 Y58.325
G1 F900 X122.243 Y58.325 E91.99247
G0 F1285.7 X121.316 Y59.932
G1 F900 X121.316 Y50.592 E92.34991
G0 F1285.7 X122.239 Y48.993
G1 F900 X129.144 Y48.993 E92.61416
G0 F1285.7 X128.315 Y48.516
G1 F900 X128.315 Y58.526 E92.99724
G0 F1285.7 X130.648 Y59.874
G1 F900 X130.648 Y49.863 E93.38035
G0 F1285.7 X137.647 Y53.904
G1 F900 X137.647 Y60.941 E93.64965
G0 F1285.7 X137.809 Y60.658
G1 F900 X131.757 Y60.658 E93.88126
G1 F3000 E90.38126
G0 F1285.7 X129.725 Y65.324
G1 F3000 E93.88126
G1 F900 X135.115 Y65.324 E94.08753
G0 F1285.7 X133.768 Y67.657
G1 F900 X128.378 Y67.657 E94.29381
G0 F1285.7 X129.727 Y74.656
G1 F900 X124.337 Y74.656 E94.50008
G1 F3000 E91.00008
G0 F1285.7 X131.589 Y61.389
G0 X124.226 Y56.574
G0 X115.508 Y69.99
G1 F3000 E94.50008
G1 F900 X110.117 Y69.99 E94.70639
G0 F1285.7 X112.811 Y65.324
G1 F900 X118.202 Y65.324 E94.9127
G0 F1285.7 X120.896 Y60.658
G1 F900 X115.505 Y60.658 E95.11901
G0 F1285.7 X111.467 Y76.989
G1 F900 X106.076 Y76.989 E95.32532
G1 F3000 E91.82532
;MESH:basis_arm_r.stl
G0 F1285.7 X110.422 Y79.5
G0 X111.447 Y80.091
G0 X80.774 Y146.885
G0 X80.859 Y146.934
;TYPE:WALL-INNER
G1 F3000 E95.32532
G1 F900 X80.772 Y147.085 E95.33199
G1 X80.621 Y146.998 E95.3363
G1 X74.753 Y143.61 E95.59561
G1 X124.141 Y58.066 E99.37577
G1 X124.228 Y57.915 E99.38244
G1 X124.379 Y58.002 E99.38675
G1 X130.247 Y61.39 E99.64606
G1 X80.859 Y146.934 E103.42622
G0 F1285.7 X80.774 Y146.885
G0 X130.151 Y61.415
G0 X130.604 Y61.423
;TYPE:WALL-OUTER
G1 F900 X80.891 Y147.528 E107.23119
G1 X74.46 Y143.815 E107.51538
G1 X74.309 Y143.728 E107.52205
G1 X74.396 Y143.577 E107.52636
G1 X124.109 Y57.472 E111.33133
G1 X130.54 Y61.185 E111.61551
G1 X130.691 Y61.272 E111.62218
G1 X130.604 Y61.423 E111.6265
G0 F1285.7 X130.504 Y61.596
G0 X129.783 Y61.514
;TYPE:SKIN
G1 F900 X80.648 Y146.621 E115.38733
G1 X75.217 Y143.486 E115.62731
G1 X124.352 Y58.379 E119.38815
G1 X129.783 Y61.514 E119.62813
G0 F1285.7 X129.5 Y61.689
G1 F900 X129.13 Y61.318 E119.64818
G0 F1285.7 X129.319 Y62.002
G1 F900 X127.959 Y60.642 E119.72179
G1 X127.897 Y60.58
G0 F1285.7 X126.789 Y59.967
G1 F900 X129.138 Y62.316 E119.84892
G0 F1285.7 X128.957 Y62.63
G1 F900 X125.618 Y59.292 E120.0296
G1 X125.556 Y59.23
