;FLAVOR:Marlin
;TIME:25946
;Filament used: 32.495m
;Layer height: 0.3
;MINX:19.587
;MINY:3.438
;MINZ:0.26
;MAXX:185.423
;MAXY:201.562
;MAXZ:19.76
;Generated with Cura_SteamEngine 4.9.1
M82 ;absolute extrusion mode
;Begin Start Gcode for Dagoma DiscoEasy 200
;Sliced: 26-07-2021 00:47:50
;Initial extruder: 0

G90 ;Absolute positioning
M106 S255 ;Fan on full
G28 X Y ;Home stop X Y
G1 X100 ;Centre back during cooldown in case of oozing
M109 R90 ;Cooldown in case too hot
G28 ;Centre
G29 ;Auto-level
M104 S205 ;Pre-heat
M107 ;Fan off
G0 X100 Y5 Z0.5 ;Front centre for degunk
M109 S205 ;Wait for initial temp
M83 ;E Relative
G1 E10 F200 ;Degunk
G1 E-3 F5000 ;Retract
G0 Z3 ;Withdraw
M82 ;E absolute
G92 E0 ;E reset
G1 F6000 ;Set feedrate

;Finish Start Gcode for Dagoma DiscoEasy 200

G92 E0
G92 E0
G1 F3000 E-3.5
;LAYER_COUNT:66
;LAYER:0
M107
G0 F1285.7 X85.744 Y60.269 Z0.26
;TYPE:SKIRT
G1 F3000 E0
G1 F900 X86.098 Y59.793 E0.0227
G1 X86.969 Y58.832 E0.07234
G1 X88.771 Y56.79 E0.17656
G1 X90.555 Y54.652 E0.28312
G1 X92.221 Y52.535 E0.38622
G1 X93.9 Y50.274 E0.49399
G1 X95.447 Y48.06 E0.59736
G1 X96.956 Y45.769 E0.70234
G1 X98.403 Y43.427 E0.8077
G1 X99.778 Y41.055 E0.91262
G1 X101.105 Y38.611 E1.01905
G1 X102.337 Y36.177 E1.12345
G1 X103.5 Y33.709 E1.22786
G1 X104.608 Y31.175 E1.3337
G1 X105.647 Y28.608 E1.43968
G1 X106.589 Y26.062 E1.54357
G1 X107.476 Y23.453 E1.64903
G1 X107.621 Y22.986 E1.66774
G1 X107.977 Y21.886 E1.71199
G1 X108.2 Y21.373 E1.73339
G1 X108.542 Y20.758 E1.76032
G1 X117.398 Y5.421 E2.43809
G1 X117.744 Y4.84 E2.46397
G1 X118.022 Y4.45 E2.48229
G1 X118.362 Y4.112 E2.50064
G1 X118.753 Y3.835 E2.51898
G1 X119.184 Y3.627 E2.53729
G1 X119.645 Y3.493 E2.55567
G1 X120.121 Y3.438 E2.574
G1 X120.599 Y3.462 E2.59232
G1 X121.067 Y3.565 E2.61066
G1 X121.612 Y3.796 E2.63331
G1 X122.077 Y4.043 E2.65346
G1 X167.477 Y28.979 E4.63572
G1 X168.081 Y29.322 E4.6623
G1 X168.476 Y29.593 E4.68063
G1 X168.821 Y29.925 E4.69896
G1 X169.121 Y30.335 E4.7184
G1 X169.408 Y30.819 E4.73993
G1 X172.231 Y35.831 E4.96007
G1 X172.512 Y36.344 E4.98246
G1 X172.987 Y37.284 E5.02276
G1 X175.366 Y42.203 E5.23187
G1 X175.634 Y42.78 E5.25622
G1 X176.058 Y43.771 E5.29747
G1 X178.087 Y48.745 E5.50305
G1 X178.322 Y49.348 E5.52782
G1 X178.683 Y50.365 E5.56912
G1 X180.403 Y55.479 E5.7756
G1 X180.59 Y56.064 E5.7991
G1 X180.88 Y57.079 E5.8395
G1 X182.259 Y62.222 E6.04327
G1 X182.412 Y62.828 E6.06719
G1 X182.666 Y63.978 E6.11226
G1 X183.731 Y69.26 E6.31847
G1 X183.826 Y69.766 E6.33817
G1 X184.003 Y70.91 E6.38247
G1 X184.735 Y76.258 E6.58905
G1 X184.802 Y76.806 E6.61018
G1 X184.9 Y77.869 E6.65103
G1 X185.301 Y83.314 E6.85997
G1 X185.338 Y83.96 E6.88473
G1 X185.367 Y85.014 E6.92509
G1 X185.423 Y90.445 E7.13294
G1 X185.419 Y91.022 E7.15502
G1 X185.38 Y92.124 E7.19722
G1 X185.098 Y97.508 E7.40354
G1 X185.063 Y98.035 E7.42376
G1 X184.951 Y99.176 E7.46763
G1 X184.329 Y104.553 E7.67478
G1 X184.25 Y105.155 E7.69802
G1 X184.072 Y106.249 E7.74043
G1 X183.121 Y111.533 E7.9459
G1 X183.018 Y112.061 E7.96649
G1 X182.763 Y113.185 E8.01059
G1 X181.47 Y118.448 E8.218
G1 X181.321 Y119.011 E8.24028
G1 X181.007 Y120.079 E8.28288
G1 X179.395 Y125.224 E8.48922
G1 X179.229 Y125.726 E8.50945
G1 X178.846 Y126.781 E8.55241
G1 X176.885 Y131.892 E8.7619
G1 X176.676 Y132.409 E8.78325
G1 X176.238 Y133.408 E8.82499
G1 X173.998 Y138.299 E9.03086
G1 X173.725 Y138.871 E9.05512
G1 X173.227 Y139.84 E9.09681
G1 X170.68 Y144.588 E9.30301
G1 X170.381 Y145.126 E9.32656
G1 X169.837 Y146.036 E9.36714
G1 X167 Y150.61 E9.57312
G1 X166.652 Y151.152 E9.59777
G1 X166.035 Y152.052 E9.63953
G1 X162.92 Y156.435 E9.84531
G1 X162.537 Y156.956 E9.87006
G1 X161.908 Y157.759 E9.90909
G1 X158.498 Y161.971 E10.11649
G1 X158.148 Y162.391 E10.13741
G1 X157.417 Y163.216 E10.17959
G1 X153.75 Y167.203 E10.38689
G1 X153.288 Y167.691 E10.41261
G1 X152.546 Y168.426 E10.45258
G1 X148.699 Y172.115 E10.65655
G1 X148.235 Y172.549 E10.68087
G1 X148.162 Y172.615 E10.68463
G1 X147.402 Y173.278 E10.72323
G1 X143.282 Y176.759 E10.92964
G1 X142.779 Y177.171 E10.95453
G1 X141.92 Y177.832 E10.99601
G1 X137.618 Y181.027 E11.20108
G1 X137.148 Y181.365 E11.22324
G1 X136.202 Y182.005 E11.26695
G1 X131.708 Y184.921 E11.47196
G1 X131.142 Y185.277 E11.49755
G1 X130.201 Y185.827 E11.53926
G1 X125.521 Y188.466 E11.74487
G1 X124.96 Y188.771 E11.76931
G1 X124.05 Y189.229 E11.8083
G1 X119.154 Y191.594 E12.01638
G1 X118.61 Y191.845 E12.03931
G1 X117.579 Y192.288 E12.08225
G1 X112.632 Y194.306 E12.28672
G1 X112.029 Y194.541 E12.31149
G1 X111.012 Y194.902 E12.35278
G1 X105.904 Y196.621 E12.55904
G1 X105.403 Y196.783 E12.57919
G1 X104.343 Y197.087 E12.62139
G1 X99.072 Y198.5 E12.83023
G1 X98.48 Y198.648 E12.85358
G1 X97.407 Y198.883 E12.89562
G1 X92.118 Y199.95 E13.1021
G1 X91.607 Y200.046 E13.122
G1 X90.486 Y200.219 E13.16541
G1 X85.109 Y200.956 E13.37311
G1 X84.483 Y201.031 E13.39724
G1 X83.461 Y201.124 E13.43651
G1 X77.994 Y201.525 E13.64629
G1 X77.354 Y201.562 E13.67083
G1 X76.875 Y201.55 E13.68916
G1 X76.405 Y201.458 E13.70749
G1 X75.935 Y201.28 E13.72672
G1 X75.46 Y201.043 E13.74704
G1 X24.21 Y174.158 E15.96184
G1 X23.581 Y173.815 E15.98926
G1 X23.181 Y173.552 E16.00758
G1 X22.83 Y173.226 E16.02591
G1 X22.538 Y172.845 E16.04428
G1 X22.314 Y172.422 E16.0626
G1 X22.163 Y171.967 E16.08094
G1 X22.089 Y171.49 E16.09942
G1 X21.898 Y168.73 E16.20529
G1 X21.628 Y165.993 E16.31054
G1 X21.286 Y163.287 E16.41493
G1 X20.86 Y160.551 E16.52089
G1 X20.365 Y157.872 E16.62515
G1 X19.935 Y155.92 E16.70165
G1 X19.646 Y154.543 E16.75549
G1 X19.587 Y154.067 E16.77385
G1 X19.608 Y153.588 E16.79219
G1 X19.708 Y153.12 E16.81051
G1 X19.94 Y152.568 E16.83342
G1 X20.478 Y151.589 E16.87617
G1 X47.322 Y105.095 E18.93075
G1 X47.71 Y104.445 E18.95972
G1 X47.989 Y104.056 E18.97804
G1 X48.329 Y103.718 E18.99639
G1 X48.864 Y103.342 E19.02141
G1 X51.18 Y101.776 E19.1284
G1 X53.385 Y100.192 E19.2323
G1 X55.602 Y98.503 E19.33896
G1 X57.722 Y96.791 E19.44325
G1 X59.816 Y94.998 E19.54875
G1 X61.85 Y93.156 E19.65376
G1 X63.829 Y91.259 E19.75867
G1 X65.779 Y89.281 E19.86497
G1 X67.62 Y87.303 E19.96838
G1 X69.449 Y85.223 E20.07438
G1 X71.215 Y83.099 E20.18009
G1 X72.89 Y80.963 E20.28397
G1 X74.537 Y78.735 E20.39
G1 X76.09 Y76.507 E20.49394
G1 X77.62 Y74.171 E20.6008
G1 X79.042 Y71.862 E20.70458
G1 X80.087 Y70.039 E20.78499
G1 X85.378 Y60.881 E21.18975
G1 X85.744 Y60.269 E21.21704
G0 F1285.7 X86.044 Y60.449
G1 F900 X86.357 Y60.027 E21.23715
G1 X87.132 Y59.171 E21.28134
G1 X87.224 Y59.073 E21.28648
G1 X89.053 Y57.001 E21.39225
G1 X90.805 Y54.9 E21.49694
G1 X92.528 Y52.711 E21.60355
G1 X94.14 Y50.54 E21.70704
G1 X95.76 Y48.222 E21.81526
G1 X97.255 Y45.951 E21.91931
G1 X98.698 Y43.617 E22.02433
G1 X100.091 Y41.212 E22.13069
G1 X101.405 Y38.793 E22.23604
G1 X102.645 Y36.342 E22.34116
G1 X103.823 Y33.843 E22.44689
G1 X104.927 Y31.318 E22.55235
G1 X105.974 Y28.73 E22.65919
G1 X106.921 Y26.174 E22.7635
G1 X107.806 Y23.569 E22.86879
G1 X107.954 Y23.094 E22.88783
G1 X108.31 Y21.994 E22.93208
G1 X108.506 Y21.543 E22.9509
G1 X108.845 Y20.933 E22.9776
G1 X117.699 Y5.6 E23.65519
G1 X118.045 Y5.019 E23.68107
G1 X118.308 Y4.655 E23.69826
G1 X118.631 Y4.344 E23.71542
G1 X119.005 Y4.095 E23.73261
G1 X119.416 Y3.915 E23.74978
G1 X119.853 Y3.812 E23.76697
G1 X120.302 Y3.788 E23.78417
G1 X120.747 Y3.843 E23.80133
G1 X121.343 Y4.053 E23.82552
G1 X121.882 Y4.336 E23.84881
G1 X167.304 Y29.283 E25.83201
G1 X167.908 Y29.626 E25.8586
G1 X168.277 Y29.882 E25.87578
G1 X168.595 Y30.199 E25.89297
G1 X168.958 Y30.741 E25.91793
G1 X169.119 Y31.019 E25.93023
G1 X171.924 Y35.999 E26.14896
G1 X172.205 Y36.512 E26.17134
G1 X172.674 Y37.441 E26.21117
G1 X175.049 Y42.351 E26.4199
G1 X175.312 Y42.918 E26.44382
G1 X175.734 Y43.904 E26.48487
G1 X177.762 Y48.872 E26.69022
G1 X177.965 Y49.391 E26.71155
G1 X178.351 Y50.477 E26.75565
G1 X180.07 Y55.586 E26.96194
G1 X180.23 Y56.084 E26.98196
G1 X180.542 Y57.169 E27.02517
G1 X181.919 Y62.308 E27.22877
G1 X182.09 Y62.987 E27.25557
G1 X182.323 Y64.047 E27.2971
G1 X183.387 Y69.325 E27.50315
G1 X183.482 Y69.831 E27.52285
G1 X183.657 Y70.958 E27.5665
G1 X184.387 Y76.301 E27.77287
G1 X184.463 Y76.925 E27.79693
G1 X184.555 Y77.945 E27.83613
G1 X184.952 Y83.335 E28.04296
G1 X184.985 Y83.89 E28.06423
G1 X185.017 Y85.018 E28.10742
G1 X185.073 Y90.443 E28.31504
G1 X185.069 Y91.01 E28.33674
G1 X185.031 Y92.106 E28.37871
G1 X184.748 Y97.484 E28.58481
G1 X184.707 Y98.092 E28.60813
G1 X184.603 Y99.136 E28.64828
G1 X183.982 Y104.508 E28.85523
G1 X183.904 Y105.099 E28.87805
G1 X183.727 Y106.187 E28.92023
G1 X182.777 Y111.466 E29.1255
G1 X182.658 Y112.072 E29.14914
G1 X182.423 Y113.101 E29.18953
G1 X181.131 Y118.36 E29.39677
G1 X180.986 Y118.913 E29.41865
G1 X180.673 Y119.974 E29.46099
G1 X179.062 Y125.114 E29.66713
G1 X178.872 Y125.685 E29.69016
G1 X178.519 Y126.656 E29.72969
G1 X176.56 Y131.762 E29.93899
G1 X176.355 Y132.268 E29.95988
G1 X175.92 Y133.262 E30.0014
G1 X173.682 Y138.149 E30.2071
G1 X173.414 Y138.711 E30.23093
G1 X172.918 Y139.674 E30.27239
G1 X170.374 Y144.419 E30.47843
G1 X170.08 Y144.947 E30.50156
G1 X169.54 Y145.852 E30.54189
G1 X166.705 Y150.421 E30.74767
G1 X166.363 Y150.954 E30.7719
G1 X165.749 Y151.849 E30.81344
G1 X162.638 Y156.228 E31.01901
G1 X162.261 Y156.74 E31.04334
G1 X161.636 Y157.539 E31.08216
G1 X158.229 Y161.746 E31.28933
G1 X157.827 Y162.226 E31.31329
G1 X157.125 Y163.016 E31.35374
G1 X153.495 Y166.963 E31.55896
G1 X153.042 Y167.442 E31.58419
G1 X152.304 Y168.173 E31.62394
G1 X148.46 Y171.859 E31.82775
G1 X147.932 Y172.351 E31.85537
G1 X147.176 Y173.01 E31.89375
G1 X143.06 Y176.489 E32.1
G1 X142.565 Y176.894 E32.12447
G1 X141.711 Y177.551 E32.16571
G1 X137.413 Y180.743 E32.37059
G1 X136.882 Y181.123 E32.39558
G1 X136.012 Y181.711 E32.43576
G1 X131.521 Y184.625 E32.64064
G1 X130.965 Y184.975 E32.66578
G1 X130.029 Y185.522 E32.70727
G1 X125.353 Y188.159 E32.91272
G1 X124.877 Y188.419 E32.93347
G1 X123.898 Y188.913 E32.97544
G1 X119.006 Y191.277 E33.18337
G1 X118.472 Y191.524 E33.20588
G1 X117.447 Y191.964 E33.24857
G1 X112.505 Y193.981 E33.45284
G1 X111.986 Y194.184 E33.47417
G1 X110.9 Y194.57 E33.51828
G1 X105.796 Y196.288 E33.72437
G1 X105.295 Y196.45 E33.74452
G1 X104.208 Y196.761 E33.78779
G1 X98.987 Y198.16 E33.99465
G1 X98.404 Y198.306 E34.01765
G1 X97.338 Y198.54 E34.05941
G1 X92.053 Y199.606 E34.26574
G1 X91.461 Y199.716 E34.28878
G1 X90.439 Y199.873 E34.32835
G1 X85.066 Y200.608 E34.53589
G1 X84.451 Y200.682 E34.5596
G1 X83.436 Y200.775 E34.5986
G1 X77.974 Y201.176 E34.80819
G1 X77.334 Y201.213 E34.83273
G1 X76.885 Y201.199 E34.84992
G1 X76.446 Y201.105 E34.8671
G1 X75.869 Y200.859 E34.8911
G1 X75.599 Y200.721 E34.90271
G1 X24.338 Y173.829 E37.118
G1 X23.749 Y173.508 E37.14368
G1 X23.375 Y173.259 E37.16087
G1 X23.052 Y172.948 E37.17803
G1 X22.788 Y172.584 E37.19524
G1 X22.593 Y172.18 E37.21241
G1 X22.473 Y171.747 E37.2296
G1 X22.438 Y171.466 E37.24044
G1 X22.247 Y168.703 E37.34643
G1 X21.976 Y165.954 E37.45214
G1 X21.631 Y163.224 E37.55745
G1 X21.207 Y160.502 E37.66287
G1 X20.707 Y157.796 E37.76818
G1 X20.278 Y155.848 E37.84452
G1 X19.989 Y154.471 E37.89837
G1 X19.936 Y154.025 E37.91555
G1 X19.963 Y153.577 E37.93273
G1 X20.069 Y153.14 E37.94994
G1 X20.247 Y152.737 E37.9668
G1 X20.781 Y151.764 E38.00927
G1 X47.623 Y105.275 E40.06364
G1 X48.011 Y104.625 E40.09261
G1 X48.274 Y104.261 E40.1098
G1 X48.787 Y103.813 E40.13586
G1 X49.06 Y103.632 E40.1484
G1 X51.37 Y102.07 E40.25512
G1 X53.614 Y100.458 E40.36085
G1 X55.802 Y98.791 E40.46612
G1 X57.96 Y97.049 E40.57226
G1 X60.051 Y95.258 E40.67762
G1 X62.079 Y93.421 E40.78234
G1 X64.073 Y91.51 E40.88803
G1 X66.019 Y89.535 E40.99414
G1 X67.891 Y87.525 E41.09926
G1 X69.716 Y85.45 E41.20501
G1 X71.479 Y83.329 E41.31056
G1 X73.184 Y81.155 E41.41629
G1 X74.809 Y78.956 E41.52093
G1 X76.39 Y76.688 E41.62673
G1 X77.904 Y74.377 E41.73246
G1 X79.352 Y72.025 E41.83816
G1 X80.391 Y70.214 E41.91806
G1 X85.678 Y61.061 E42.32258
G1 X86.044 Y60.449 E42.34987
G0 F1285.7 X86.344 Y60.629
G1 F900 X86.617 Y60.262 E42.36738
G1 X87.388 Y59.41 E42.41135
G1 X87.477 Y59.315 E42.41633
G1 X89.322 Y57.224 E42.52305
G1 X91.082 Y55.114 E42.6282
G1 X92.804 Y52.927 E42.73473
G1 X94.428 Y50.739 E42.83901
G1 X96.028 Y48.45 E42.94588
G1 X97.568 Y46.111 E43.05306
G1 X98.992 Y43.806 E43.15674
G1 X100.408 Y41.363 E43.2648
G1 X101.705 Y38.975 E43.3688
G1 X102.968 Y36.479 E43.47586
G1 X104.141 Y33.991 E43.58112
G1 X105.253 Y31.447 E43.68737
G1 X106.295 Y28.871 E43.79372
G1 X107.26 Y26.266 E43.90003
G1 X108.144 Y23.664 E44.00519
G1 X108.287 Y23.201 E44.02374
G1 X108.643 Y22.101 E44.06799
G1 X108.811 Y21.713 E44.08417
G1 X109.148 Y21.108 E44.11067
G1 X117.999 Y5.779 E44.78807
G1 X118.345 Y5.198 E44.81395
G1 X118.592 Y4.862 E44.82991
G1 X118.898 Y4.579 E44.84586
G1 X119.252 Y4.36 E44.86179
G1 X119.642 Y4.213 E44.87774
G1 X120.052 Y4.142 E44.89366
G1 X120.469 Y4.151 E44.90963
G1 X120.876 Y4.239 E44.92556
G1 X121.351 Y4.448 E44.94542
G1 X121.74 Y4.657 E44.96232
G1 X167.131 Y29.588 E46.94419
G1 X167.735 Y29.931 E46.97077
G1 X168.076 Y30.17 E46.9867
G1 X168.365 Y30.47 E47.00265
G1 X168.658 Y30.922 E47.02326
G1 X168.814 Y31.191 E47.03516
G1 X171.617 Y36.167 E47.25372
G1 X171.933 Y36.747 E47.279
G1 X172.377 Y37.63 E47.31682
G1 X174.732 Y42.499 E47.52381
G1 X174.99 Y43.056 E47.5473
G1 X175.41 Y44.036 E47.5881
G1 X177.436 Y49 E47.79329
G1 X177.639 Y49.519 E47.81461
G1 X178.019 Y50.588 E47.85803
G1 X179.737 Y55.693 E48.06416
G1 X179.917 Y56.257 E48.08682
G1 X180.204 Y57.26 E48.12675
G1 X181.58 Y62.394 E48.33016
G1 X181.748 Y63.063 E48.35655
G1 X181.98 Y64.116 E48.39782
G1 X183.043 Y69.39 E48.60371
G1 X183.138 Y69.896 E48.62341
G1 X183.31 Y71.005 E48.66636
G1 X184.04 Y76.343 E48.87254
G1 X184.114 Y76.957 E48.89621
G1 X184.206 Y77.97 E48.93514
G1 X184.602 Y83.356 E49.14181
G1 X184.638 Y83.979 E49.1657
G1 X184.667 Y85.021 E49.20559
G1 X184.723 Y90.442 E49.41306
G1 X184.72 Y90.997 E49.4343
G1 X184.681 Y92.088 E49.47608
G1 X184.399 Y97.461 E49.68198
G1 X184.358 Y98.058 E49.70488
G1 X184.256 Y99.096 E49.7448
G1 X183.635 Y104.463 E49.95156
G1 X183.559 Y105.043 E49.97395
G1 X183.383 Y106.125 E50.0159
G1 X182.434 Y111.399 E50.22097
G1 X182.317 Y111.994 E50.24418
G1 X182.083 Y113.018 E50.28438
G1 X180.793 Y118.271 E50.49138
G1 X180.65 Y118.814 E50.51287
G1 X180.339 Y119.869 E50.55496
G1 X178.73 Y125.004 E50.7609
G1 X178.543 Y125.565 E50.78353
G1 X178.193 Y126.53 E50.82281
G1 X176.235 Y131.631 E51.03191
G1 X176.034 Y132.128 E51.05243
G1 X175.602 Y133.116 E51.0937
G1 X173.366 Y137.998 E51.29919
G1 X173.102 Y138.551 E51.32264
G1 X172.61 Y139.509 E51.36386
G1 X170.068 Y144.249 E51.56969
G1 X169.78 Y144.768 E51.59241
G1 X169.242 Y145.667 E51.6325
G1 X166.41 Y150.233 E51.83812
G1 X166.074 Y150.756 E51.86191
G1 X165.464 Y151.647 E51.90324
G1 X162.355 Y156.022 E52.10863
G1 X161.986 Y156.525 E52.13251
G1 X161.364 Y157.319 E52.17111
G1 X157.96 Y161.522 E52.37809
G1 X157.566 Y161.994 E52.40162
G1 X156.868 Y162.779 E52.44182
G1 X153.241 Y166.723 E52.64688
G1 X152.847 Y167.141 E52.66886
G1 X152.061 Y167.921 E52.71124
G1 X148.221 Y171.603 E52.91483
G1 X147.757 Y172.037 E52.93915
G1 X146.95 Y172.743 E52.98018
G1 X142.838 Y176.218 E53.18621
G1 X142.351 Y176.616 E53.21028
G1 X141.503 Y177.27 E53.25126
G1 X137.209 Y180.459 E53.45595
G1 X136.739 Y180.797 E53.47811
G1 X135.821 Y181.417 E53.5205
G1 X131.335 Y184.329 E53.72518
G1 X130.788 Y184.673 E53.74991
G1 X129.857 Y185.218 E53.79119
G1 X125.186 Y187.852 E53.99641
G1 X124.645 Y188.146 E54.01997
G1 X123.745 Y188.598 E54.05852
G1 X118.859 Y190.959 E54.26619
G1 X118.334 Y191.202 E54.28833
G1 X117.315 Y191.64 E54.33077
G1 X112.377 Y193.655 E54.53488
G1 X111.858 Y193.858 E54.5562
G1 X110.789 Y194.238 E54.59962
G1 X105.688 Y195.954 E54.80558
G1 X105.115 Y196.139 E54.82863
G1 X104.117 Y196.423 E54.86834
G1 X98.901 Y197.821 E55.07499
G1 X98.329 Y197.964 E55.09756
G1 X97.269 Y198.197 E55.13909
G1 X91.989 Y199.262 E55.34523
G1 X91.407 Y199.37 E55.36788
G1 X90.391 Y199.526 E55.40722
G1 X85.024 Y200.261 E55.61453
G1 X84.419 Y200.334 E55.63785
G1 X83.41 Y200.426 E55.67662
G1 X77.954 Y200.826 E55.88598
G1 X77.314 Y200.863 E55.91051
