;FLAVOR:Marlin
;TIME:11791
;Filament used: 11.812m
;Layer height: 0.3
;MINX:56.995
;MINY:28.407
;MINZ:0.26
;MAXX:148.005
;MAXY:176.593
;MAXZ:69.26
;Generated with Cura_SteamEngine 4.9.1
M82 ;absolute extrusion mode
;Begin Start Gcode for Dagoma DiscoEasy 200
;Sliced: 09-07-2021 21:00:19
;Initial extruder: 0

G90 ;Absolute positioning
M106 S255 ;Fan on full
G28 X Y ;Home stop X Y
G1 X100 ;Centre back during cooldown in case of oozing
M109 R90 ;Cooldown in case too hot
G28 ;Centre
G29 ;Auto-level
M104 S205 ;Pre-heat
M107 ;Fan off
G0 X100 Y5 Z0.5 ;Front centre for degunk
M109 S205 ;Wait for initial temp
M83 ;E Relative
G1 E10 F200 ;Degunk
G1 E-3 F5000 ;Retract
G0 Z3 ;Withdraw
M82 ;E absolute
G92 E0 ;E reset
G1 F6000 ;Set feedrate

;Finish Start Gcode for Dagoma DiscoEasy 200

G92 E0
G92 E0
G1 F3000 E-3.5
;LAYER_COUNT:231
;LAYER:0
M107
G0 F1285.7 X118.385 Y55.087 Z0.26
;TYPE:SKIRT
G1 F3000 E0
G1 F900 X118.752 Y54.471 E0.02744
G1 X119.07 Y54.014 E0.04875
G1 X119.359 Y53.696 E0.06519
G1 X119.923 Y53.141 E0.09547
G1 X120.856 Y52.247 E0.14492
G1 X122.777 Y50.298 E0.24965
G1 X124.636 Y48.302 E0.35404
G1 X126.428 Y46.265 E0.45786
G1 X128.159 Y44.181 E0.56154
G1 X129.866 Y42.005 E0.66738
G1 X131.46 Y39.849 E0.76999
G1 X133.013 Y37.619 E0.87399
G1 X134.512 Y35.334 E0.97857
G1 X135.926 Y33.035 E1.08186
G1 X136.637 Y31.824 E1.1356
G1 X137.179 Y30.886 E1.17706
G1 X137.531 Y30.296 E1.20336
G1 X137.85 Y29.839 E1.22468
G1 X138.231 Y29.434 E1.24596
G1 X138.665 Y29.087 E1.26723
G1 X139.146 Y28.805 E1.28857
G1 X139.661 Y28.596 E1.30984
G1 X140.201 Y28.462 E1.33113
G1 X140.755 Y28.407 E1.35243
G1 X141.311 Y28.432 E1.37373
G1 X141.857 Y28.537 E1.39501
G1 X142.383 Y28.718 E1.4163
G1 X143 Y29.034 E1.44283
G1 X143.09 Y29.084 E1.44677
G1 X145.531 Y30.494 E1.55465
G1 X146.115 Y30.842 E1.58067
G1 X146.571 Y31.161 E1.60196
G1 X146.977 Y31.541 E1.62324
G1 X147.324 Y31.976 E1.64454
G1 X147.606 Y32.456 E1.66584
G1 X147.816 Y32.971 E1.68713
G1 X147.949 Y33.511 E1.70841
G1 X148.005 Y34.065 E1.72972
G1 X147.98 Y34.621 E1.75102
G1 X147.876 Y35.167 E1.77229
G1 X147.694 Y35.693 E1.79359
G1 X147.343 Y36.377 E1.82301
G1 X147.292 Y36.469 E1.82704
G1 X146.328 Y38.138 E1.9008
G1 X144.969 Y40.57 E2.00742
G1 X143.71 Y42.98 E2.11147
G1 X142.527 Y45.41 E2.2149
G1 X141.402 Y47.899 E2.31943
G1 X140.345 Y50.418 E2.42398
G1 X139.377 Y52.937 E2.52725
G1 X138.47 Y55.502 E2.63137
G1 X137.639 Y58.082 E2.7351
G1 X136.875 Y60.705 E2.83965
G1 X136.497 Y62.118 E2.89563
G1 X136.168 Y63.389 E2.94587
G1 X135.991 Y63.916 E2.96715
G1 X135.797 Y64.314 E2.98409
G1 X135.414 Y64.995 E3.01399
G1 X86.424 Y149.849 E6.76367
G1 X86.074 Y150.435 E6.78979
G1 X85.755 Y150.891 E6.81109
G1 X85.468 Y151.207 E6.82742
G1 X84.575 Y152.088 E6.87543
G1 X84.482 Y152.193 E6.8808
G1 X83.362 Y153.301 E6.94109
G1 X81.509 Y155.242 E7.04378
G1 X79.664 Y157.286 E7.14916
G1 X77.909 Y159.347 E7.25275
G1 X76.208 Y161.461 E7.35659
G1 X74.567 Y163.625 E7.46053
G1 X72.986 Y165.835 E7.56452
G1 X71.457 Y168.104 E7.66923
G1 X70.019 Y170.379 E7.77222
G1 X68.704 Y172.587 E7.87057
G1 X67.834 Y174.092 E7.9371
G1 X67.469 Y174.704 E7.96437
G1 X67.15 Y175.16 E7.98567
G1 X66.77 Y175.566 E8.00695
G1 X66.335 Y175.913 E8.02824
G1 X65.855 Y176.194 E8.04953
G1 X65.34 Y176.404 E8.07081
G1 X64.799 Y176.538 E8.09214
G1 X64.246 Y176.593 E8.11341
G1 X63.69 Y176.568 E8.13471
G1 X63.143 Y176.463 E8.15603
G1 X62.617 Y176.282 E8.17731
G1 X62 Y175.966 E8.20384
G1 X61.91 Y175.916 E8.20778
G1 X59.469 Y174.506 E8.31566
G1 X58.885 Y174.158 E8.34168
G1 X58.429 Y173.839 E8.36298
G1 X58.023 Y173.459 E8.38426
G1 X57.676 Y173.024 E8.40555
G1 X57.394 Y172.544 E8.42686
G1 X57.184 Y172.029 E8.44814
G1 X57.051 Y171.489 E8.46943
G1 X56.995 Y170.935 E8.49073
G1 X57.02 Y170.379 E8.51203
G1 X57.124 Y169.833 E8.53331
G1 X57.306 Y169.307 E8.55461
G1 X57.627 Y168.676 E8.5817
G1 X57.684 Y168.573 E8.5862
G1 X58.381 Y167.366 E8.63954
G1 X59.696 Y165.011 E8.74277
G1 X60.971 Y162.57 E8.84816
G1 X62.154 Y160.14 E8.95159
G1 X63.276 Y157.656 E9.0559
G1 X64.326 Y155.149 E9.15991
G1 X65.304 Y152.608 E9.26411
G1 X66.216 Y150.027 E9.36887
G1 X67.036 Y147.48 E9.47127
G1 X67.797 Y144.862 E9.57561
G1 X68.302 Y142.874 E9.6541
G1 X68.666 Y141.486 E9.70902
G1 X68.845 Y140.959 E9.73032
G1 X69.034 Y140.574 E9.74673
G1 X69.391 Y139.937 E9.77467
G1 X118.385 Y55.087 E13.52429
G0 F1285.7 X118.686 Y55.266
G1 F900 X119.053 Y54.65 E13.55173
G1 X119.358 Y54.216 E13.57203
G1 X119.605 Y53.945 E13.58607
G1 X120.165 Y53.393 E13.61616
G1 X121.117 Y52.48 E13.66664
G1 X123.034 Y50.535 E13.77115
G1 X124.892 Y48.542 E13.87542
G1 X126.697 Y46.489 E13.98004
G1 X128.438 Y44.394 E14.08428
G1 X130.125 Y42.241 E14.18896
G1 X131.748 Y40.047 E14.2934
G1 X133.296 Y37.825 E14.39704
G1 X134.811 Y35.515 E14.50275
G1 X136.237 Y33.197 E14.60691
G1 X136.939 Y32.001 E14.65998
G1 X137.48 Y31.065 E14.70135
G1 X137.832 Y30.475 E14.72764
G1 X138.137 Y30.041 E14.74794
G1 X138.504 Y29.658 E14.76824
G1 X138.925 Y29.334 E14.78857
G1 X139.389 Y29.077 E14.80887
G1 X139.887 Y28.893 E14.82919
G1 X140.406 Y28.785 E14.84948
G1 X140.936 Y28.757 E14.86979
G1 X141.464 Y28.808 E14.89009
G1 X141.979 Y28.939 E14.91042
G1 X142.54 Y29.183 E14.93384
G1 X142.915 Y29.387 E14.95017
G1 X145.351 Y30.795 E15.05785
G1 X145.935 Y31.143 E15.08387
G1 X146.37 Y31.448 E15.1042
G1 X146.753 Y31.815 E15.1245
G1 X147.077 Y32.235 E15.1448
G1 X147.334 Y32.699 E15.1651
G1 X147.519 Y33.197 E15.18543
G1 X147.627 Y33.716 E15.20572
G1 X147.655 Y34.246 E15.22603
G1 X147.604 Y34.775 E15.24637
G1 X147.474 Y35.289 E15.26666
G1 X147.231 Y35.85 E15.29005
G1 X146.989 Y36.294 E15.3094
G1 X145.998 Y38.01 E15.38524
G1 X144.673 Y40.38 E15.48915
G1 X143.391 Y42.836 E15.59517
G1 X142.213 Y45.255 E15.69814
G1 X141.08 Y47.762 E15.80343
G1 X140.02 Y50.288 E15.90826
G1 X139.048 Y52.818 E16.01198
G1 X138.142 Y55.378 E16.11591
G1 X137.302 Y57.988 E16.22084
G1 X136.537 Y60.613 E16.32547
G1 X136.167 Y61.999 E16.38037
G1 X135.83 Y63.301 E16.43184
G1 X135.658 Y63.804 E16.45218
G1 X135.491 Y64.143 E16.46665
G1 X135.111 Y64.82 E16.49636
G1 X86.123 Y149.67 E20.24586
G1 X85.773 Y150.256 E20.27198
G1 X85.468 Y150.689 E20.29225
G1 X85.222 Y150.958 E20.3062
G1 X84.29 Y151.877 E20.35629
G1 X84.235 Y151.945 E20.35964
G1 X83.128 Y153.041 E20.41925
G1 X81.244 Y155.014 E20.52366
G1 X79.403 Y157.053 E20.62879
G1 X77.651 Y159.11 E20.73219
G1 X75.92 Y161.263 E20.83791
G1 X74.283 Y163.42 E20.94154
G1 X72.696 Y165.639 E21.04594
G1 X71.162 Y167.916 E21.15101
G1 X69.716 Y170.202 E21.25453
G1 X68.401 Y172.412 E21.35295
G1 X67.533 Y173.913 E21.4193
G1 X67.168 Y174.525 E21.44657
G1 X66.863 Y174.959 E21.46687
G1 X66.496 Y175.342 E21.48717
G1 X66.076 Y175.666 E21.50747
G1 X65.611 Y175.923 E21.5278
G1 X65.114 Y176.107 E21.54809
G1 X64.594 Y176.215 E21.56841
G1 X64.064 Y176.243 E21.58872
G1 X63.536 Y176.192 E21.60902
G1 X63.022 Y176.062 E21.62931
G1 X62.46 Y175.817 E21.65277
G1 X62.085 Y175.613 E21.66911
G1 X59.649 Y174.205 E21.77679
G1 X59.065 Y173.857 E21.80281
G1 X58.63 Y173.552 E21.82314
G1 X58.247 Y173.185 E21.84344
G1 X57.923 Y172.765 E21.86374
G1 X57.666 Y172.301 E21.88404
G1 X57.481 Y171.803 E21.90437
G1 X57.373 Y171.284 E21.92465
G1 X57.345 Y170.754 E21.94496
G1 X57.396 Y170.225 E21.9653
G1 X57.526 Y169.711 E21.98559
G1 X57.764 Y169.16 E22.00856
G1 X57.987 Y168.748 E22.02649
G1 X58.684 Y167.541 E22.07983
G1 X60.006 Y165.174 E22.18359
G1 X61.29 Y162.714 E22.28978
G1 X62.468 Y160.295 E22.39275
G1 X63.598 Y157.793 E22.49781
G1 X64.656 Y155.269 E22.60255
G1 X65.629 Y152.74 E22.70625
G1 X66.543 Y150.151 E22.81132
G1 X67.37 Y147.585 E22.91449
G1 X68.135 Y144.954 E23.01935
G1 X68.64 Y142.963 E23.09796
G1 X69.004 Y141.575 E23.15287
G1 X69.177 Y141.073 E23.17319
G1 X69.339 Y140.745 E23.18719
G1 X69.694 Y140.112 E23.21497
G1 X118.686 Y55.266 E26.96441
G0 F1285.7 X118.986 Y55.445
G1 F900 X119.353 Y54.829 E26.99185
G1 X119.645 Y54.418 E27.01115
G1 X119.851 Y54.194 E27.02279
G1 X120.407 Y53.646 E27.05267
G1 X121.363 Y52.73 E27.10334
G1 X123.275 Y50.79 E27.20758
G1 X125.163 Y48.764 E27.31356
G1 X126.964 Y46.716 E27.41793
G1 X128.702 Y44.623 E27.52205
G1 X130.402 Y42.456 E27.62745
G1 X132.036 Y40.246 E27.73263
G1 X133.596 Y38.007 E27.83706
G1 X135.096 Y35.72 E27.94173
G1 X136.543 Y33.367 E28.04744
G1 X137.241 Y32.178 E28.10021
G1 X137.78 Y31.244 E28.14148
G1 X138.132 Y30.654 E28.16777
G1 X138.424 Y30.244 E28.18703
G1 X138.777 Y29.884 E28.20633
G1 X139.182 Y29.585 E28.22559
G1 X139.629 Y29.354 E28.24485
G1 X140.107 Y29.196 E28.26411
G1 X140.605 Y29.116 E28.28342
G1 X141.108 Y29.116 E28.30267
G1 X141.606 Y29.195 E28.32196
G1 X142.084 Y29.352 E28.34122
G1 X142.666 Y29.649 E28.36622
G1 X142.74 Y29.69 E28.36946
G1 X145.172 Y31.096 E28.47697
G1 X145.756 Y31.444 E28.50298
G1 X146.167 Y31.735 E28.52226
G1 X146.527 Y32.087 E28.54152
G1 X146.826 Y32.492 E28.56079
G1 X147.057 Y32.94 E28.58008
G1 X147.215 Y33.418 E28.59934
G1 X147.296 Y33.915 E28.61862
G1 X147.296 Y34.419 E28.6379
G1 X147.217 Y34.916 E28.65716
G1 X147.061 Y35.394 E28.6764
G1 X146.728 Y36.043 E28.70432
G1 X145.694 Y37.835 E28.7835
G1 X144.363 Y40.217 E28.88792
G1 X143.1 Y42.635 E28.99232
G1 X141.886 Y45.129 E29.09847
G1 X140.766 Y47.607 E29.20254
G1 X139.696 Y50.156 E29.30833
G1 X138.707 Y52.73 E29.41386
G1 X137.811 Y55.264 E29.51672
G1 X136.968 Y57.883 E29.62201
G1 X136.203 Y60.509 E29.72668
G1 X135.828 Y61.912 E29.78226
G1 X135.491 Y63.214 E29.83373
G1 X135.326 Y63.69 E29.85301
G1 X135.186 Y63.971 E29.86502
G1 X134.808 Y64.645 E29.8946
G1 X85.823 Y149.49 E33.64388
G1 X85.473 Y150.076 E33.67
G1 X85.181 Y150.487 E33.68929
G1 X84.976 Y150.709 E33.70086
G1 X84.075 Y151.597 E33.74927
G1 X83.989 Y151.696 E33.75429
G1 X82.876 Y152.797 E33.8142
G1 X80.978 Y154.785 E33.91939
G1 X79.155 Y156.805 E34.02352
G1 X77.363 Y158.909 E34.12929
G1 X75.648 Y161.041 E34.234
G1 X73.999 Y163.214 E34.33839
G1 X72.412 Y165.433 E34.44279
G1 X70.872 Y167.719 E34.54828
G1 X69.416 Y170.021 E34.65252
G1 X68.076 Y172.273 E34.7528
G1 X67.233 Y173.733 E34.81732
G1 X66.868 Y174.345 E34.84459
G1 X66.576 Y174.756 E34.86388
G1 X66.224 Y175.115 E34.88313
G1 X65.819 Y175.415 E34.90241
G1 X65.371 Y175.646 E34.9217
G1 X64.893 Y175.804 E34.94097
G1 X64.396 Y175.884 E34.96023
G1 X63.892 Y175.884 E34.97952
G1 X63.395 Y175.805 E34.99878
G1 X62.916 Y175.648 E35.01807
G1 X62.334 Y175.351 E35.04308
G1 X62.26 Y175.31 E35.04631
G1 X59.828 Y173.904 E35.15382
G1 X59.244 Y173.556 E35.17984
G1 X58.833 Y173.265 E35.19911
G1 X58.473 Y172.913 E35.21838
G1 X58.174 Y172.508 E35.23764
G1 X57.943 Y172.06 E35.25693
G1 X57.785 Y171.582 E35.2762
G1 X57.704 Y171.085 E35.29547
G1 X57.704 Y170.581 E35.31476
G1 X57.783 Y170.084 E35.33402
G1 X57.939 Y169.606 E35.35326
G1 X58.244 Y169.007 E35.37898
G1 X58.968 Y167.751 E35.43446
G1 X60.324 Y165.321 E35.54096
G1 X61.581 Y162.915 E35.64484
G1 X62.808 Y160.394 E35.75214
G1 X63.901 Y157.974 E35.85376
G1 X64.997 Y155.358 E35.96231
G1 X65.953 Y152.871 E36.06427
G1 X66.874 Y150.264 E36.17008
G1 X67.704 Y147.69 E36.27358
G1 X68.471 Y145.053 E36.37868
G1 X68.979 Y143.052 E36.45769
G1 X69.343 Y141.664 E36.5126
G1 X69.509 Y141.188 E36.53189
G1 X69.645 Y140.916 E36.54353
G1 X69.997 Y140.287 E36.57112
G1 X118.986 Y55.445 E40.32038
G0 F1285.7 X122.187 Y56.603
;TYPE:SUPPORT
G1 F900 X125.519 Y58.532 E40.46772
G1 X125.995 Y58.404 E40.48658
G1 X131.888 Y48.2 E40.93753
G1 X134.832 Y49.903 E41.06768
G1 X128.945 Y60.094 E41.51808
G1 X129.074 Y60.57 E41.53696
G1 X132.235 Y62.394 E41.67662
G1 X132.236 Y62.399 E41.67682
G1 X82.641 Y148.302 E45.47284
G1 X82.635 Y148.304 E45.47308
G1 X79.473 Y146.485 E45.61268
G1 X78.996 Y146.613 E45.63158
G1 X73.108 Y156.797 E46.08177
G1 X70.17 Y155.097 E46.21167
G1 X76.057 Y144.901 E46.66224
G1 X75.929 Y144.425 E46.6811
G1 X72.595 Y142.502 E46.82839
G1 X72.592 Y142.493 E46.82875
G1 X122.187 Y56.603 E50.62434
G0 F1285.7 X121.354 Y65.57
G1 F900 X120.515 Y65.798 E50.65761
G1 X109.999 Y84.011 E51.46246
G1 X110.227 Y84.85 E51.49573
G1 X113.924 Y86.986 E51.65913
G1 X114.763 Y86.758 E51.6924
G1 X125.28 Y68.545 E52.49726
G1 X125.052 Y67.706 E52.53054
G1 X121.354 Y65.57 E52.69397
G1 F3000 E49.19397
G0 F1285.7 X120.656 Y65.981
G0 X111.272 Y82.235
G0 X91.076 Y118.014
G1 F3000 E52.69397
G1 F900 X90.237 Y118.242 E52.72724
G1 X79.72 Y136.455 E53.5321
G1 X79.948 Y137.294 E53.56538
G1 X83.646 Y139.43 E53.72881
G1 X84.485 Y139.202 E53.76208
G1 X95.001 Y120.989 E54.56693
G1 X94.773 Y120.15 E54.6002
G1 X91.076 Y118.014 E54.7636
G0 F1285.7 X90.987 Y117.894
G1 F900 X90.987 Y110.917 E55.0306
G0 F1285.7 X90.372 Y111.984
G1 F900 X103.446 Y111.984 E55.53094
G0 F1285.7 X102.652 Y113.362
G1 F900 X102.652 Y90.715 E56.39763
G0 F1285.7 X102.496 Y90.987
G1 F900 X115.569 Y90.987 E56.89793
G0 F1285.7 X116.65 Y89.116
G1 F900 X116.65 Y83.769 E57.10255
G0 F1285.7 X116.524 Y83.988
G1 F900 X119.609 Y83.988 E57.22061
G0 F1285.7 X118.983 Y85.075
G1 F900 X118.983 Y79.729 E57.4252
G0 F1285.7 X119.218 Y79.322
G1 F900 X122.303 Y79.322 E57.54327
G0 F1285.7 X121.316 Y81.034
G1 F900 X121.316 Y75.688 E57.74785
G0 F1285.7 X121.912 Y74.656
G1 F900 X124.997 Y74.656 E57.86592
G0 F1285.7 X125.982 Y72.952
G1 F900 X125.982 Y58.552 E58.417
G0 F1285.7 X126.202 Y58.325
G1 F900 X129.805 Y58.325 E58.55488
G0 F1285.7 X130.648 Y56.867
G1 F900 X130.648 Y50.627 E58.79368
G0 F1285.7 X130.245 Y51.326
G1 F900 X133.847 Y51.326 E58.93153
G0 F1285.7 X132.981 Y52.828
G1 F900 X132.981 Y48.994 E59.07826
G0 F1285.7 X132.983 Y48.993
G1 F900 X131.592 Y48.993 E59.13149
G0 F1285.7 X132.5 Y53.659
G1 F900 X128.897 Y53.659 E59.26937
G0 F1285.7 X128.315 Y54.666
G1 F900 X128.315 Y68.912 E59.81456
G0 F1285.7 X127.691 Y69.99
G1 F900 X124.607 Y69.99 E59.93258
G0 F1285.7 X123.649 Y71.648
G1 F900 X123.649 Y76.993 E60.13714
G0 F1285.7 X123.65 Y76.989
G1 F900 X120.565 Y76.989 E60.2552
G0 F1285.7 X120.956 Y81.655
G1 F900 X117.871 Y81.655 E60.37326
G0 F1285.7 X118.263 Y86.321
G1 F900 X115.177 Y86.321 E60.49136
G0 F1285.7 X114.317 Y87.024
G1 F900 X114.317 Y93.157 E60.72606
G0 F1285.7 X114.222 Y93.32
G1 F900 X101.148 Y93.32 E61.2264
G0 F1285.7 X100.319 Y94.756
G1 F900 X100.319 Y117.403 E62.09309
G0 F1285.7 X100.752 Y116.65
G1 F900 X87.678 Y116.65 E62.59343
G0 F1285.7 X88.654 Y114.958
G1 F900 X88.654 Y120.705 E62.81336
G0 F1285.7 X88.299 Y121.316
G1 F900 X84.982 Y121.316 E62.9403
G0 F1285.7 X83.988 Y123.039
G1 F900 X83.988 Y128.785 E63.1602
G0 F1285.7 X84.258 Y128.315
G1 F900 X80.941 Y128.315 E63.28714
G0 F1285.7 X81.655 Y127.079
G1 F900 X81.655 Y132.826 E63.50707
G0 F1285.7 X81.564 Y132.981
G1 F900 X78.247 Y132.981 E63.63401
G0 F1285.7 X79.322 Y131.119
G1 F900 X79.322 Y146.381 E64.21808
G0 F1285.7 X78.621 Y146.979
G1 F900 X75.018 Y146.979 E64.35597
G0 F1285.7 X74.656 Y147.607
G1 F900 X74.656 Y153.84 E64.5945
G0 F1285.7 X74.574 Y153.978
G1 F900 X70.978 Y153.978 E64.73212
G0 F1285.7 X72.323 Y156.181
G1 F900 X72.323 Y151.648 E64.90559
G0 F1285.7 X72.325 Y151.645
G1 F900 X75.923 Y151.645 E65.04329
G0 F1285.7 X76.989 Y149.805
G1 F900 X76.989 Y135.16 E65.60374
G0 F1285.7 X76.9 Y135.314
G1 F900 X80.216 Y135.314 E65.73065
G1 F3000 E62.23065
G0 F1285.7 X80.279 Y137.647
G1 F3000 E65.73065
G1 F900 X75.553 Y137.647 E65.91151
G0 F1285.7 X74.656 Y139.2
G1 F900 X74.656 Y143.528 E66.07714
G0 F1285.7 X76.132 Y144.646
G1 F900 X84.588 Y144.646 E66.40075
G0 F1285.7 X83.988 Y145.689
G1 F900 X83.988 Y139.481 E66.63832
G0 F1285.7 X85.544 Y137.647
G1 F900 X88.629 Y137.647 E66.75638
G0 F1285.7 X88.654 Y137.607
G1 F900 X88.654 Y132.26 E66.96101
G0 F1285.7 X88.238 Y132.981
G1 F900 X91.323 Y132.981 E67.07907
G0 F1285.7 X90.987 Y133.566
G1 F900 X90.987 Y128.219 E67.2837
G0 F1285.7 X90.932 Y128.315
G1 F900 X94.017 Y128.315 E67.40176
G0 F1285.7 X93.32 Y129.525
G1 F900 X93.32 Y124.179 E67.60635
G0 F1285.7 X93.626 Y123.649
G1 F900 X96.711 Y123.649 E67.72441
G0 F1285.7 X95.653 Y125.484
G1 F900 X95.653 Y102.837 E68.5911
G0 F1285.7 X95.76 Y102.652
G1 F900 X108.834 Y102.652 E69.09144
G0 F1285.7 X109.651 Y101.239
G1 F900 X109.651 Y78.594 E69.95805
G0 F1285.7 X109.231 Y79.322
G1 F900 X112.545 Y79.322 E70.08488
G0 F1285.7 X111.984 Y80.295
G1 F900 X111.984 Y74.554 E70.30458
G0 F1285.7 X111.925 Y74.656
G1 F900 X115.239 Y74.656 E70.43141
G0 F1285.7 X114.317 Y76.254
