;FLAVOR:Marlin
;TIME:8755
;Filament used: 10.4414m
;Layer height: 0.3
;MINX:23.048
;MINY:42.395
;MINZ:0.26
;MAXX:190.727
;MAXY:135.012
;MAXZ:7.76
;Generated with Cura_SteamEngine 4.9.1
M82 ;absolute extrusion mode
;Begin Start Gcode for Dagoma DiscoEasy 200
;Sliced: 08-07-2021 02:09:40
;Initial extruder: 0

G90 ;Absolute positioning
M106 S255 ;Fan on full
G28 X Y ;Home stop X Y
G1 X100 ;Centre back during cooldown in case of oozing
M109 R90 ;Cooldown in case too hot
G28 ;Centre
G29 ;Auto-level
M104 S205 ;Pre-heat
M107 ;Fan off
G0 X100 Y5 Z0.5 ;Front centre for degunk
M109 S205 ;Wait for initial temp
M83 ;E Relative
G1 E10 F200 ;Degunk
G1 E-3 F5000 ;Retract
G0 Z3 ;Withdraw
M82 ;E absolute
G92 E0 ;E reset
G1 F6000 ;Set feedrate

;Finish Start Gcode for Dagoma DiscoEasy 200

G92 E0
G92 E0
G1 F3000 E-3.5
;LAYER_COUNT:26
;LAYER:0
M107
G0 F1285.7 X51.989 Y47.268 Z0.26
;TYPE:SKIRT
G1 F3000 E0
G1 F900 X52.414 Y46.908 E0.02132
G1 X52.885 Y46.613 E0.04258
G1 X53.394 Y46.388 E0.06388
G1 X53.93 Y46.238 E0.08518
G1 X54.438 Y46.17 E0.1048
G1 X54.906 Y46.14 E0.12274
G1 X152.24 Y42.412 E3.8504
G1 X152.92 Y42.395 E3.87643
G1 X153.476 Y42.421 E3.89773
G1 X154.022 Y42.527 E3.91902
G1 X154.548 Y42.709 E3.94032
G1 X155.042 Y42.965 E3.96161
G1 X155.494 Y43.289 E3.98289
G1 X155.895 Y43.675 E4.00419
G1 X156.237 Y44.114 E4.02549
G1 X156.513 Y44.597 E4.04678
G1 X156.718 Y45.117 E4.06817
G1 X157.512 Y47.611 E4.16834
G1 X158.419 Y50.202 E4.27339
G1 X159.383 Y52.729 E4.3769
G1 X160.418 Y55.223 E4.48023
G1 X161.55 Y57.747 E4.5861
G1 X162.712 Y60.157 E4.68849
G1 X163.961 Y62.569 E4.79243
G1 X165.305 Y64.992 E4.89847
G1 X166.669 Y67.296 E5.00094
G1 X168.116 Y69.591 E5.10476
G1 X169.638 Y71.859 E5.20929
G1 X171.209 Y74.063 E5.31287
G1 X172.954 Y76.367 E5.42348
G1 X173.318 Y76.835 E5.44617
G1 X173.962 Y77.681 E5.48686
G1 X174.366 Y78.223 E5.51273
G1 X174.685 Y78.656 E5.53331
G1 X175.052 Y79.162 E5.55723
G1 X175.569 Y79.891 E5.59144
G1 X176.195 Y80.795 E5.63352
G1 X176.665 Y81.492 E5.66569
G1 X177.078 Y82.116 E5.69432
G1 X177.558 Y82.857 E5.72811
G1 X177.916 Y83.421 E5.75368
G1 X178.485 Y84.337 E5.79494
G1 X179.034 Y85.248 E5.83565
G1 X179.557 Y86.143 E5.87532
G1 X179.909 Y86.757 E5.9024
G1 X180.407 Y87.649 E5.9415
G1 X180.761 Y88.299 E5.96983
G1 X181.06 Y88.86 E5.99415
G1 X181.418 Y89.544 E6.0237
G1 X181.793 Y90.278 E6.05524
G1 X182.221 Y91.138 E6.092
G1 X182.53 Y91.775 E6.1191
G1 X182.897 Y92.549 E6.15188
G1 X183.294 Y93.411 E6.1882
G1 X183.634 Y94.167 E6.21992
G1 X184.077 Y95.188 E6.26252
G1 X184.349 Y95.837 E6.28945
G1 X184.595 Y96.433 E6.31412
G1 X184.904 Y97.202 E6.34584
G1 X185.186 Y97.922 E6.37543
G1 X185.44 Y98.591 E6.40281
G1 X185.777 Y99.502 E6.43999
G1 X186.017 Y100.172 E6.46722
G1 X186.341 Y101.111 E6.50524
G1 X186.575 Y101.809 E6.53341
G1 X186.831 Y102.6 E6.56523
G1 X186.995 Y103.117 E6.58598
G1 X187.318 Y104.179 E6.62846
G1 X187.631 Y105.257 E6.67142
G1 X187.802 Y105.872 E6.69585
G1 X187.963 Y106.465 E6.71937
G1 X188.189 Y107.33 E6.75358
G1 X188.34 Y107.935 E6.77744
G1 X188.582 Y108.935 E6.81682
G1 X188.786 Y109.831 E6.85199
G1 X188.96 Y110.631 E6.88332
G1 X189.142 Y111.506 E6.91752
G1 X189.244 Y112.018 E6.9375
G1 X189.364 Y112.645 E6.96193
G1 X189.49 Y113.335 E6.98877
G1 X189.562 Y113.746 E7.00474
G1 X189.681 Y114.445 E7.03188
G1 X189.845 Y115.479 E7.07194
G1 X189.997 Y116.531 E7.11262
G1 X190.141 Y117.615 E7.15447
G1 X190.229 Y118.348 E7.18272
G1 X190.313 Y119.092 E7.21137
G1 X190.424 Y120.195 E7.2538
G1 X190.499 Y121.027 E7.28577
G1 X190.558 Y121.75 E7.31353
G1 X190.633 Y122.85 E7.35572
G1 X190.675 Y123.56 E7.38294
G1 X190.709 Y124.27 E7.41014
G1 X190.727 Y124.904 E7.43442
G1 X190.703 Y125.46 E7.45571
G1 X190.6 Y126.007 E7.47702
G1 X190.419 Y126.533 E7.4983
G1 X190.165 Y127.028 E7.5196
G1 X189.842 Y127.481 E7.54089
G1 X189.458 Y127.884 E7.56219
G1 X189.02 Y128.227 E7.58348
G1 X188.538 Y128.504 E7.60475
G1 X188.02 Y128.709 E7.62607
G1 X187.479 Y128.838 E7.64736
G1 X186.922 Y128.895 E7.66879
G1 X186.573 Y128.912 E7.68216
G1 X170.168 Y129.539 E8.31043
G1 X169.479 Y129.556 E8.3368
G1 X169.148 Y129.55 E8.34947
G1 X168.123 Y129.488 E8.38877
G1 X165.362 Y129.36 E8.49455
G1 X162.68 Y129.31 E8.5972
G1 X159.93 Y129.338 E8.70245
G1 X157.221 Y129.441 E8.8062
G1 X154.541 Y129.621 E8.90899
G1 X151.789 Y129.882 E9.01478
G1 X149.265 Y130.193 E9.1121
G1 X148.046 Y130.359 E9.15918
G1 X147.661 Y130.394 E9.17398
G1 X147.008 Y130.427 E9.199
G1 X127.684 Y131.167 E9.93906
G1 X126.99 Y131.182 E9.96563
G1 X126.347 Y131.143 E9.99028
G1 X125.278 Y130.986 E10.03163
G1 X124.652 Y130.885 E10.0559
G1 X121.905 Y130.521 E10.16194
G1 X119.239 Y130.246 E10.26451
G1 X116.53 Y130.042 E10.36848
G1 X113.782 Y129.914 E10.47375
G1 X111.102 Y129.864 E10.57633
G1 X108.353 Y129.892 E10.68154
G1 X105.671 Y129.994 E10.78426
G1 X102.934 Y130.175 E10.88923
G1 X100.222 Y130.433 E10.99348
G1 X97.532 Y130.766 E11.09721
G1 X94.845 Y131.176 E11.20123
G1 X92.167 Y131.661 E11.30539
G1 X89.513 Y132.221 E11.40919
G1 X88.848 Y132.381 E11.43537
G1 X87.777 Y132.621 E11.47737
G1 X87.133 Y132.71 E11.50225
G1 X86.374 Y132.749 E11.53133
G1 X67.099 Y133.488 E12.26952
G1 X66.412 Y133.504 E12.29582
G1 X66.086 Y133.498 E12.3083
G1 X65.082 Y133.437 E12.34679
G1 X62.316 Y133.308 E12.45276
G1 X59.637 Y133.258 E12.5553
G1 X56.888 Y133.286 E12.66051
G1 X54.176 Y133.389 E12.76437
G1 X51.496 Y133.568 E12.86716
G1 X48.75 Y133.828 E12.97272
G1 X46.229 Y134.138 E13.06992
G1 X44.989 Y134.307 E13.11782
G1 X44.619 Y134.341 E13.13204
G1 X43.943 Y134.375 E13.15794
G1 X27.764 Y134.995 E13.77756
G1 X27.089 Y135.012 E13.8034
G1 X26.533 Y134.986 E13.8247
G1 X25.986 Y134.881 E13.84601
G1 X25.461 Y134.698 E13.86729
G1 X24.967 Y134.442 E13.88858
G1 X24.514 Y134.118 E13.9099
G1 X24.113 Y133.733 E13.93117
G1 X23.771 Y133.294 E13.95247
G1 X23.495 Y132.81 E13.97379
G1 X23.292 Y132.293 E13.99505
G1 X23.165 Y131.751 E14.01635
G1 X23.113 Y131.228 E14.03646
G1 X23.084 Y130.508 E14.06404
G1 X23.06 Y129.477 E14.10351
G1 X23.051 Y128.627 E14.13604
G1 X23.048 Y127.89 E14.16424
G1 X23.054 Y127.039 E14.19681
G1 X23.063 Y126.486 E14.21798
G1 X23.084 Y125.623 E14.25101
G1 X23.118 Y124.67 E14.28751
G1 X23.156 Y123.842 E14.31923
G1 X23.199 Y123.058 E14.34928
G1 X23.256 Y122.191 E14.38253
G1 X23.335 Y121.149 E14.42252
G1 X23.413 Y120.262 E14.4566
G1 X23.478 Y119.61 E14.48167
G1 X23.57 Y118.742 E14.51507
G1 X23.621 Y118.305 E14.53191
G1 X23.743 Y117.31 E14.57028
G1 X23.844 Y116.559 E14.59927
G1 X23.986 Y115.577 E14.63725
G1 X24.13 Y114.659 E14.67281
G1 X24.283 Y113.748 E14.70816
G1 X24.456 Y112.784 E14.74564
G1 X24.666 Y111.686 E14.78842
G1 X24.771 Y111.168 E14.80865
G1 X24.951 Y110.316 E14.84197
G1 X25.031 Y109.95 E14.85631
G1 X25.264 Y108.93 E14.89635
G1 X25.555 Y107.727 E14.94372
G1 X25.854 Y106.573 E14.98934
G1 X26.068 Y105.783 E15.02066
G1 X26.285 Y105.01 E15.05139
G1 X26.615 Y103.886 E15.09622
G1 X26.853 Y103.112 E15.12721
G1 X27.027 Y102.559 E15.14939
G1 X27.271 Y101.805 E15.17972
G1 X27.525 Y101.049 E15.21024
G1 X27.777 Y100.32 E15.23976
G1 X27.984 Y99.739 E15.26336
G1 X28.254 Y98.996 E15.29362
G1 X28.452 Y98.468 E15.3152
G1 X28.752 Y97.685 E15.34729
G1 X28.932 Y97.226 E15.36616
G1 X29.263 Y96.4 E15.40021
G1 X29.493 Y95.845 E15.4232
G1 X29.754 Y95.226 E15.44891
G1 X30.051 Y94.535 E15.47769
G1 X30.38 Y93.791 E15.50882
G1 X30.698 Y93.087 E15.53839
G1 X31.115 Y92.195 E15.57607
G1 X31.404 Y91.59 E15.60173
G1 X31.796 Y90.791 E15.63579
G1 X32.184 Y90.018 E15.66889
G1 X32.472 Y89.456 E15.69306
G1 X32.808 Y88.817 E15.72068
G1 X33.045 Y88.374 E15.73991
G1 X33.593 Y87.369 E15.78372
G1 X34.151 Y86.377 E15.82728
G1 X34.531 Y85.726 E15.85612
G1 X34.857 Y85.175 E15.88062
G1 X35.22 Y84.568 E15.90769
G1 X35.734 Y83.731 E15.94528
G1 X36.329 Y82.792 E15.98782
G1 X36.729 Y82.177 E16.0159
G1 X37.224 Y81.425 E16.05035
G1 X38.728 Y79.08 E16.15696
G1 X40.129 Y76.752 E16.26094
G1 X41.441 Y74.425 E16.36318
G1 X42.74 Y71.963 E16.46971
G1 X43.923 Y69.557 E16.57231
G1 X45.064 Y67.058 E16.67744
G1 X46.116 Y64.575 E16.78064
G1 X47.117 Y62.009 E16.88605
G1 X48.021 Y59.484 E16.98869
G1 X48.862 Y56.904 E17.09254
G1 X49.636 Y54.289 E17.1969
G1 X50.339 Y51.635 E17.30197
G1 X50.664 Y50.291 E17.35489
G1 X50.944 Y49.106 E17.40149
G1 X51.081 Y48.654 E17.41956
G1 X51.316 Y48.15 E17.44084
G1 X51.621 Y47.685 E17.46213
G1 X51.989 Y47.268 E17.48341
G0 F1285.7 X52.342 Y47.417
G1 F900 X52.762 Y47.092 E17.50373
G1 X53.225 Y46.835 E17.524
G1 X53.723 Y46.649 E17.54434
G1 X54.462 Y46.519 E17.57306
G1 X54.919 Y46.49 E17.59058
G1 X152.249 Y42.762 E21.31809
G1 X152.929 Y42.745 E21.34412
G1 X153.459 Y42.772 E21.36443
G1 X153.979 Y42.878 E21.38474
G1 X154.477 Y43.061 E21.40504
G1 X154.942 Y43.316 E21.42534
G1 X155.364 Y43.639 E21.44567
G1 X155.732 Y44.021 E21.46597
G1 X156.039 Y44.454 E21.48629
G1 X156.357 Y45.143 E21.51533
G1 X156.405 Y45.286 E21.5211
G1 X157.188 Y47.744 E21.61982
G1 X158.076 Y50.285 E21.72283
G1 X159.053 Y52.846 E21.82773
G1 X160.113 Y55.401 E21.93359
G1 X161.214 Y57.857 E22.03659
G1 X162.406 Y60.328 E22.14158
G1 X163.664 Y62.757 E22.24627
G1 X164.979 Y65.129 E22.35006
G1 X166.369 Y67.475 E22.45442
G1 X167.836 Y69.802 E22.55969
G1 X169.342 Y72.047 E22.66314
G1 X170.941 Y74.289 E22.76853
G1 X172.651 Y76.547 E22.87693
G1 X173.041 Y77.048 E22.90122
G1 X173.25 Y77.32 E22.91435
G1 X173.681 Y77.89 E22.9417
G1 X174.084 Y78.43 E22.96748
G1 X174.402 Y78.861 E22.98798
G1 X174.766 Y79.365 E23.01177
G1 X175.281 Y80.091 E23.04584
G1 X175.904 Y80.991 E23.08773
G1 X176.373 Y81.685 E23.11978
G1 X176.806 Y82.34 E23.14983
G1 X177.262 Y83.045 E23.18196
G1 X177.619 Y83.606 E23.20741
G1 X178.185 Y84.518 E23.24849
G1 X178.732 Y85.425 E23.28902
G1 X179.254 Y86.316 E23.32854
G1 X179.603 Y86.928 E23.3555
G1 X180.1 Y87.816 E23.39445
G1 X180.452 Y88.464 E23.42267
G1 X180.75 Y89.023 E23.44691
G1 X181.106 Y89.704 E23.47632
G1 X181.48 Y90.434 E23.50771
G1 X181.907 Y91.291 E23.54435
G1 X182.214 Y91.925 E23.57131
G1 X182.579 Y92.696 E23.60395
G1 X182.975 Y93.555 E23.64015
G1 X183.313 Y94.306 E23.67167
G1 X183.755 Y95.324 E23.71414
G1 X184.026 Y95.97 E23.74095
G1 X184.27 Y96.564 E23.76553
G1 X184.578 Y97.33 E23.79712
G1 X184.858 Y98.046 E23.82654
G1 X185.112 Y98.713 E23.85386
G1 X185.448 Y99.62 E23.89087
G1 X185.686 Y100.287 E23.91797
G1 X186.01 Y101.222 E23.95584
G1 X186.242 Y101.917 E23.98388
G1 X186.498 Y102.705 E24.01559
G1 X186.66 Y103.219 E24.03622
G1 X186.982 Y104.277 E24.07854
G1 X187.294 Y105.351 E24.12134
G1 X187.464 Y105.964 E24.14568
G1 X187.625 Y106.553 E24.16905
G1 X187.849 Y107.415 E24.20314
G1 X188 Y108.017 E24.22689
G1 X188.241 Y109.013 E24.2661
G1 X188.444 Y109.906 E24.30115
G1 X188.617 Y110.702 E24.33232
G1 X188.799 Y111.575 E24.36645
G1 X188.9 Y112.084 E24.38631
G1 X189.019 Y112.708 E24.41062
G1 X189.145 Y113.396 E24.43739
G1 X189.217 Y113.804 E24.45324
G1 X189.335 Y114.5 E24.48026
G1 X189.499 Y115.529 E24.52014
G1 X189.65 Y116.577 E24.56066
G1 X189.794 Y117.657 E24.60235
G1 X189.882 Y118.387 E24.63049
G1 X189.965 Y119.127 E24.65899
G1 X190.076 Y120.226 E24.70126
G1 X190.15 Y121.055 E24.73311
G1 X190.209 Y121.774 E24.76072
G1 X190.284 Y122.871 E24.8028
G1 X190.326 Y123.577 E24.82987
G1 X190.36 Y124.28 E24.8568
G1 X190.378 Y124.914 E24.88107
G1 X190.353 Y125.444 E24.90138
G1 X190.248 Y125.964 E24.92168
G1 X190.067 Y126.463 E24.942
G1 X189.813 Y126.929 E24.96231
G1 X189.492 Y127.352 E24.98263
G1 X189.112 Y127.721 E25.0029
G1 X188.68 Y128.029 E25.0232
G1 X188.206 Y128.269 E25.04354
G1 X187.702 Y128.435 E25.06384
G1 X187.113 Y128.529 E25.08667
G1 X186.591 Y128.561 E25.10668
G1 X170.159 Y129.189 E25.73599
G1 X169.47 Y129.206 E25.76236
G1 X169.169 Y129.201 E25.77388
G1 X168.116 Y129.137 E25.81426
G1 X165.385 Y129.01 E25.91888
G1 X162.682 Y128.96 E26.02234
G1 X159.913 Y128.988 E26.12832
G1 X157.219 Y129.091 E26.23149
G1 X154.484 Y129.274 E26.33639
G1 X151.784 Y129.531 E26.44019
G1 X149.192 Y129.85 E26.54013
G1 X147.999 Y130.012 E26.5862
G1 X147.643 Y130.044 E26.59988
G1 X146.995 Y130.077 E26.62471
G1 X127.676 Y130.817 E27.36458
G1 X126.982 Y130.832 E27.39115
G1 X126.398 Y130.796 E27.41354
G1 X125.334 Y130.641 E27.45469
G1 X124.685 Y130.536 E27.47985
G1 X121.952 Y130.174 E27.58535
G1 X119.266 Y129.897 E27.68869
G1 X116.537 Y129.692 E27.79342
G1 X113.804 Y129.564 E27.89813
G1 X111.104 Y129.514 E28.00147
G1 X108.336 Y129.542 E28.10741
G1 X105.634 Y129.645 E28.21089
G1 X102.913 Y129.825 E28.31525
G1 X100.181 Y130.085 E28.42027
G1 X97.506 Y130.416 E28.52342
G1 X94.764 Y130.834 E28.62957
G1 X92.107 Y131.316 E28.73291
G1 X89.46 Y131.874 E28.83644
G1 X88.772 Y132.04 E28.86352
G1 X87.701 Y132.28 E28.90553
G1 X87.115 Y132.36 E28.92816
G1 X86.36 Y132.399 E28.95709
G1 X67.091 Y133.138 E29.69505
G1 X66.404 Y133.154 E29.72135
G1 X66.108 Y133.148 E29.73268
G1 X65.123 Y133.088 E29.77044
G1 X62.339 Y132.958 E29.8771
G1 X59.64 Y132.908 E29.98041
G1 X56.871 Y132.936 E30.08638
G1 X54.172 Y133.039 E30.18975
G1 X51.442 Y133.221 E30.29445
G1 X48.744 Y133.477 E30.39817
G1 X46.156 Y133.795 E30.49796
G1 X44.942 Y133.96 E30.54484
G1 X44.601 Y133.991 E30.55795
G1 X43.93 Y134.025 E30.58366
G1 X27.755 Y134.645 E31.20312
G1 X27.08 Y134.662 E31.22896
G1 X26.55 Y134.635 E31.24927
G1 X26.03 Y134.529 E31.26958
G1 X25.532 Y134.347 E31.28987
G1 X25.066 Y134.091 E31.31022
G1 X24.645 Y133.769 E31.3305
G1 X24.277 Y133.387 E31.3508
G1 X23.97 Y132.954 E31.37111
G1 X23.731 Y132.48 E31.39143
G1 X23.567 Y131.975 E31.41175
G1 X23.474 Y131.371 E31.43514
G1 X23.458 Y131.112 E31.44507
G1 X23.434 Y130.5 E31.46851
G1 X23.41 Y129.473 E31.50782
G1 X23.401 Y128.625 E31.54027
G1 X23.398 Y127.892 E31.56833
G1 X23.404 Y127.045 E31.60074
G1 X23.413 Y126.494 E31.62183
G1 X23.434 Y125.636 E31.65468
G1 X23.468 Y124.686 E31.69106
G1 X23.505 Y123.862 E31.72262
G1 X23.548 Y123.081 E31.75255
G1 X23.605 Y122.217 E31.78569
G1 X23.684 Y121.176 E31.82564
G1 X23.761 Y120.297 E31.85941
G1 X23.826 Y119.647 E31.88441
G1 X23.918 Y118.782 E31.9177
G1 X23.968 Y118.347 E31.93446
G1 X24.089 Y117.356 E31.97266
G1 X24.19 Y116.609 E32.00151
G1 X24.331 Y115.631 E32.03933
G1 X24.475 Y114.717 E32.07474
G1 X24.627 Y113.81 E32.10993
G1 X24.8 Y112.85 E32.14726
G1 X25.009 Y111.755 E32.18992
G1 X25.114 Y111.241 E32.21
G1 X25.293 Y110.39 E32.24328
G1 X25.373 Y110.027 E32.25751
G1 X25.604 Y109.012 E32.29734
G1 X25.883 Y107.858 E32.34278
G1 X26.192 Y106.665 E32.38994
G1 X26.405 Y105.878 E32.42114
G1 X26.621 Y105.108 E32.45175
G1 X26.94 Y104.02 E32.49514
G1 X27.187 Y103.217 E32.52729
G1 X27.36 Y102.667 E32.54935
G1 X27.603 Y101.916 E32.57956
G1 X27.856 Y101.163 E32.60996
G1 X28.107 Y100.437 E32.63936
G1 X28.313 Y99.859 E32.66284
G1 X28.582 Y99.119 E32.69297
G1 X28.779 Y98.593 E32.71447
G1 X29.078 Y97.813 E32.74644
G1 X29.257 Y97.356 E32.76522
G1 X29.587 Y96.534 E32.79912
G1 X29.815 Y95.981 E32.82201
G1 X30.075 Y95.364 E32.84763
G1 X30.371 Y94.677 E32.87626
G1 X30.699 Y93.935 E32.90731
G1 X31.015 Y93.236 E32.93666
G1 X31.431 Y92.346 E32.97426
G1 X31.718 Y91.744 E32.99978
G1 X32.109 Y90.948 E33.03372
G1 X32.496 Y90.178 E33.0667
G1 X32.782 Y89.619 E33.09073
G1 X33.117 Y88.982 E33.11827
G1 X33.352 Y88.541 E33.1374
G1 X33.898 Y87.54 E33.18103
G1 X34.454 Y86.554 E33.22435
G1 X34.833 Y85.904 E33.25315
G1 X35.157 Y85.355 E33.27754
G1 X35.519 Y84.751 E33.30449
G1 X36.03 Y83.918 E33.34189
G1 X36.622 Y82.982 E33.38427
G1 X37.021 Y82.369 E33.41227
G1 X37.543 Y81.577 E33.44857
G1 X39.016 Y79.28 E33.55299
G1 X40.428 Y76.934 E33.65778
G1 X41.766 Y74.56 E33.76207
G1 X43.044 Y72.139 E33.86684
G1 X44.238 Y69.709 E33.97045
G1 X45.372 Y67.227 E34.07488
G1 X46.444 Y64.697 E34.18003
G1 X47.44 Y62.143 E34.28494
G1 X48.359 Y59.579 E34.38918
G1 X49.199 Y57.001 E34.49294
G1 X49.968 Y54.4 E34.59674
G1 X50.677 Y51.722 E34.70276
G1 X51.004 Y50.373 E34.75588
G1 X51.286 Y49.175 E34.80298
G1 X51.435 Y48.711 E34.82163
G1 X51.671 Y48.235 E34.84196
G1 X51.975 Y47.801 E34.86224
G1 X52.342 Y47.417 E34.88257
G0 F1285.7 X52.329 Y47.925
G1 F900 X52.693 Y47.577 E34.90184
G1 X53.107 Y47.29 E34.92112
G1 X53.561 Y47.073 E34.94038
G1 X54.044 Y46.93 E34.95965
G1 X54.839 Y46.844 E34.99025
G1 X54.932 Y46.839 E34.99382
G1 X152.258 Y43.112 E38.72117
G1 X152.938 Y43.095 E38.7472
