;FLAVOR:Marlin
;TIME:7803
;Filament used: 7.65502m
;Layer height: 0.3
;MINX:96.825
;MINY:18.654
;MINZ:0.26
;MAXX:108.175
;MAXY:186.346
;MAXZ:85.76
;Generated with Cura_SteamEngine 4.9.1
M82 ;absolute extrusion mode
;Begin Start Gcode for Dagoma DiscoEasy 200
;Sliced: 10-07-2021 02:12:35
;Initial extruder: 0

G90 ;Absolute positioning
M106 S255 ;Fan on full
G28 X Y ;Home stop X Y
G1 X100 ;Centre back during cooldown in case of oozing
M109 R90 ;Cooldown in case too hot
G28 ;Centre
G29 ;Auto-level
M104 S205 ;Pre-heat
M107 ;Fan off
G0 X100 Y5 Z0.5 ;Front centre for degunk
M109 S205 ;Wait for initial temp
M83 ;E Relative
G1 E10 F200 ;Degunk
G1 E-3 F5000 ;Retract
G0 Z3 ;Withdraw
M82 ;E absolute
G92 E0 ;E reset
G1 F6000 ;Set feedrate

;Finish Start Gcode for Dagoma DiscoEasy 200

G92 E0
G92 E0
G1 F3000 E-3.5
;LAYER_COUNT:286
;LAYER:0
M107
G0 F1285.7 X96.909 Y22.025 Z0.26
;TYPE:SKIRT
G1 F3000 E0
G1 F900 X97.036 Y21.483 E0.0213
G1 X97.239 Y20.965 E0.0426
G1 X97.515 Y20.482 E0.06388
G1 X97.995 Y19.897 E0.09284
G1 X98.093 Y19.799 E0.09815
G1 X98.514 Y19.435 E0.11945
G1 X98.982 Y19.135 E0.14072
G1 X99.489 Y18.905 E0.16203
G1 X100.023 Y18.75 E0.18331
G1 X100.702 Y18.666 E0.20949
G1 X101.343 Y18.654 E0.23402
G1 X103.52 Y18.654 E0.31734
G1 X104.222 Y18.664 E0.3442
G1 X104.777 Y18.712 E0.36552
G1 X105.318 Y18.839 E0.38679
G1 X105.836 Y19.042 E0.40808
G1 X106.32 Y19.317 E0.42938
G1 X106.907 Y19.799 E0.45845
G1 X107.005 Y19.897 E0.46376
G1 X107.369 Y20.318 E0.48505
G1 X107.669 Y20.786 E0.50633
G1 X107.899 Y21.293 E0.52763
G1 X108.054 Y21.827 E0.54891
G1 X108.138 Y22.506 E0.5751
G1 X108.15 Y23.113 E0.59833
G1 X108.15 Y35.321 E1.06553
G1 X108.167 Y36.569 E1.11329
G1 X108.175 Y37.65 E1.15466
G1 X108.175 Y63.859 E2.15767
G1 X108.16 Y64.939 E2.199
G1 X108.15 Y66.326 E2.25208
G1 X108.15 Y138.422 E5.01116
G1 X108.167 Y139.652 E5.05824
G1 X108.175 Y140.754 E5.10041
G1 X108.175 Y166.968 E6.10361
G1 X108.16 Y168.063 E6.14552
G1 X108.15 Y169.451 E6.19864
G1 X108.15 Y181.683 E6.66675
G1 X108.14 Y182.417 E6.69484
G1 X108.092 Y182.971 E6.71612
G1 X107.966 Y183.513 E6.73742
G1 X107.763 Y184.031 E6.75871
G1 X107.488 Y184.515 E6.78001
G1 X107.005 Y185.104 E6.80916
G1 X106.908 Y185.201 E6.81441
G1 X106.487 Y185.565 E6.83571
G1 X106.019 Y185.865 E6.85699
G1 X105.512 Y186.095 E6.87829
G1 X104.978 Y186.25 E6.89957
G1 X104.279 Y186.334 E6.92651
G1 X103.752 Y186.346 E6.94669
G1 X101.467 Y186.345 E7.03413
G1 X100.797 Y186.336 E7.05978
G1 X100.243 Y186.288 E7.08106
G1 X99.701 Y186.162 E7.10235
G1 X99.182 Y185.959 E7.12368
G1 X98.699 Y185.685 E7.14493
G1 X98.259 Y185.343 E7.16626
G1 X97.893 Y184.972 E7.1862
G1 X97.545 Y184.538 E7.20749
G1 X97.262 Y184.058 E7.22882
G1 X97.052 Y183.543 E7.2501
G1 X96.917 Y183.004 E7.27136
G1 X96.861 Y182.46 E7.29229
G1 X96.851 Y182.085 E7.30665
G1 X96.85 Y169.679 E7.78142
G1 X96.833 Y168.431 E7.82919
G1 X96.825 Y167.35 E7.87056
G1 X96.825 Y141.105 E8.87494
G1 X96.84 Y140.036 E8.91585
G1 X96.85 Y138.672 E8.96805
G1 X96.859 Y66.893 E11.715
G1 X96.83 Y64.88 E11.79205
G1 X96.825 Y64.249 E11.8162
G1 X96.825 Y37.997 E12.82085
G1 X96.84 Y36.937 E12.86142
G1 X96.85 Y35.55 E12.9145
G1 X96.85 Y23.247 E13.38533
G1 X96.86 Y22.579 E13.4109
G1 X96.909 Y22.025 E13.43218
G0 F1285.7 X97.258 Y22.056
G1 F900 X97.385 Y21.54 E13.45252
G1 X97.587 Y21.05 E13.4728
G1 X97.861 Y20.595 E13.49312
G1 X98.242 Y20.144 E13.51572
G1 X98.34 Y20.046 E13.52102
G1 X98.743 Y19.701 E13.54132
G1 X99.193 Y19.419 E13.56165
G1 X99.68 Y19.208 E13.58196
G1 X100.193 Y19.073 E13.60226
G1 X100.714 Y19.016 E13.62232
G1 X101.347 Y19.004 E13.64655
G1 X103.515 Y19.004 E13.72951
G1 X104.217 Y19.014 E13.75638
G1 X104.746 Y19.062 E13.77671
G1 X105.261 Y19.188 E13.797
G1 X105.752 Y19.39 E13.81732
G1 X106.206 Y19.664 E13.83761
G1 X106.66 Y20.046 E13.86032
G1 X106.758 Y20.144 E13.86562
G1 X107.103 Y20.547 E13.88592
G1 X107.385 Y20.997 E13.90625
G1 X107.596 Y21.484 E13.92656
G1 X107.731 Y21.997 E13.94686
G1 X107.788 Y22.518 E13.96692
G1 X107.8 Y23.118 E13.98988
G1 X107.8 Y35.326 E14.45708
G1 X107.817 Y36.572 E14.50477
G1 X107.825 Y37.653 E14.54614
G1 X107.825 Y63.854 E15.54884
G1 X107.81 Y64.934 E15.59017
G1 X107.8 Y66.324 E15.64337
G1 X107.8 Y138.427 E18.40271
G1 X107.817 Y139.654 E18.44968
G1 X107.825 Y140.756 E18.49185
G1 X107.825 Y166.963 E19.49478
G1 X107.81 Y168.058 E19.53669
G1 X107.8 Y169.449 E19.58992
G1 X107.8 Y181.678 E20.05792
G1 X107.79 Y182.412 E20.08601
G1 X107.743 Y182.941 E20.10634
G1 X107.617 Y183.456 E20.12663
G1 X107.415 Y183.947 E20.14695
G1 X107.141 Y184.402 E20.16727
G1 X106.758 Y184.857 E20.19003
G1 X106.661 Y184.954 E20.19528
G1 X106.258 Y185.299 E20.21558
G1 X105.808 Y185.581 E20.23591
G1 X105.321 Y185.792 E20.25622
G1 X104.808 Y185.927 E20.27652
G1 X104.269 Y185.985 E20.29727
G1 X103.748 Y185.996 E20.31721
G1 X101.472 Y185.995 E20.40431
G1 X100.802 Y185.986 E20.42995
G1 X100.273 Y185.939 E20.45028
G1 X99.758 Y185.813 E20.47057
G1 X99.267 Y185.611 E20.49089
G1 X98.812 Y185.338 E20.51119
G1 X98.264 Y184.858 E20.53907
G1 X98.149 Y184.734 E20.54554
G1 X97.819 Y184.319 E20.56583
G1 X97.554 Y183.859 E20.58615
G1 X97.362 Y183.364 E20.60647
G1 X97.246 Y182.846 E20.62678
G1 X97.203 Y182.197 E20.65168
G1 X97.201 Y182.085 E20.65596
G1 X97.2 Y169.674 E21.13093
G1 X97.183 Y168.428 E21.17861
G1 X97.175 Y167.347 E21.21998
G1 X97.175 Y141.11 E22.22406
G1 X97.19 Y140.041 E22.26498
G1 X97.2 Y138.675 E22.31725
G1 X97.209 Y66.887 E25.06455
G1 X97.18 Y64.877 E25.14148
G1 X97.175 Y64.246 E25.16562
G1 X97.175 Y38.002 E26.16997
G1 X97.19 Y36.942 E26.21054
G1 X97.2 Y35.552 E26.26374
G1 X97.2 Y23.252 E26.73445
G1 X97.21 Y22.584 E26.76002
G1 X97.258 Y22.056 E26.78031
G0 F1285.7 X97.608 Y22.088
G1 F900 X97.734 Y21.601 E26.79956
G1 X97.936 Y21.139 E26.81885
G1 X98.208 Y20.715 E26.83813
G1 X98.588 Y20.294 E26.85984
G1 X98.971 Y19.967 E26.87911
G1 X99.401 Y19.705 E26.89838
G1 X99.867 Y19.514 E26.91765
G1 X100.358 Y19.4 E26.93694
G1 X100.874 Y19.361 E26.95675
G1 X101.351 Y19.354 E26.975
G1 X103.51 Y19.354 E27.05763
G1 X104.212 Y19.364 E27.08449
G1 X104.714 Y19.411 E27.10379
G1 X105.201 Y19.537 E27.12304
G1 X105.663 Y19.738 E27.14232
G1 X106.087 Y20.01 E27.1616
G1 X106.51 Y20.392 E27.18341
G1 X106.837 Y20.775 E27.20268
G1 X107.099 Y21.205 E27.22195
G1 X107.29 Y21.671 E27.24123
G1 X107.404 Y22.162 E27.26052
G1 X107.443 Y22.678 E27.28032
G1 X107.45 Y23.122 E27.29732
G1 X107.45 Y35.331 E27.76455
G1 X107.467 Y36.575 E27.81216
G1 X107.475 Y37.656 E27.85353
G1 X107.475 Y63.849 E28.85592
G1 X107.46 Y64.929 E28.89726
G1 X107.45 Y66.321 E28.95053
G1 X107.45 Y138.432 E31.71018
G1 X107.467 Y139.657 E31.75707
G1 X107.475 Y140.759 E31.79924
G1 X107.475 Y166.958 E32.80187
G1 X107.46 Y168.053 E32.84378
G1 X107.45 Y169.446 E32.89709
G1 X107.45 Y181.673 E33.36501
G1 X107.44 Y182.407 E33.3931
G1 X107.393 Y182.909 E33.4124
G1 X107.267 Y183.396 E33.43165
G1 X107.066 Y183.858 E33.45093
G1 X106.795 Y184.282 E33.47019
G1 X106.413 Y184.706 E33.49203
G1 X106.03 Y185.033 E33.5113
G1 X105.6 Y185.295 E33.53057
G1 X105.134 Y185.486 E33.54984
G1 X104.643 Y185.6 E33.56913
G1 X103.98 Y185.643 E33.59456
G1 X103.708 Y185.646 E33.60497
G1 X101.476 Y185.645 E33.69039
G1 X100.806 Y185.636 E33.71603
G1 X100.305 Y185.589 E33.73529
G1 X99.817 Y185.464 E33.75456
G1 X99.355 Y185.263 E33.77385
G1 X98.931 Y184.991 E33.79312
G1 X98.521 Y184.62 E33.81428
G1 X98.406 Y184.496 E33.82076
G1 X98.094 Y184.101 E33.84002
G1 X97.848 Y183.661 E33.85931
G1 X97.675 Y183.188 E33.87859
G1 X97.579 Y182.694 E33.89784
G1 X97.553 Y182.186 E33.91731
G1 X97.551 Y182.085 E33.92118
G1 X97.55 Y169.669 E34.39633
G1 X97.533 Y168.425 E34.44394
G1 X97.525 Y167.344 E34.48531
G1 X97.525 Y141.114 E35.48912
G1 X97.54 Y140.045 E35.53004
G1 X97.55 Y138.677 E35.58239
G1 X97.559 Y66.882 E38.32995
G1 X97.53 Y64.874 E38.4068
G1 X97.525 Y64.243 E38.43095
G1 X97.525 Y38.007 E39.43499
G1 X97.54 Y36.947 E39.47556
G1 X97.55 Y35.555 E39.52883
G1 X97.55 Y23.257 E39.99947
G1 X97.56 Y22.589 E40.02504
G1 X97.608 Y22.088 E40.0443
G0 F1285.7 X100.901 Y22.704
;TYPE:SUPPORT
G1 F900 X104.099 Y22.704 E40.16669
G1 X104.1 Y36.495 E40.69446
G1 X100.9 Y36.494 E40.81692
G1 X100.901 Y22.704 E41.34466
G0 F1285.7 X101.041 Y23.33
G1 F900 X103.96 Y23.33 E41.45637
G0 F1285.7 X102.652 Y22.844
G1 F900 X102.652 Y36.354 E41.97339
G0 F1285.7 X103.96 Y34.995
G1 F900 X101.041 Y34.995 E42.0851
G0 F1285.7 X101.041 Y32.662
G1 F900 X103.96 Y32.662 E42.19681
G0 F1285.7 X103.96 Y30.329
G1 F900 X101.041 Y30.329 E42.30852
G0 F1285.7 X101.041 Y27.996
G1 F900 X103.96 Y27.996 E42.42023
G0 F1285.7 X103.96 Y25.663
G1 F900 X101.041 Y25.663 E42.53193
G1 F3000 E39.03193
G0 F1285.7 X100.064 Y37.195
G0 X100.064 Y64.677
G0 X100.909 Y65.381
G1 F3000 E42.53193
G1 F900 X104.1 Y65.381 E42.65405
G1 X104.1 Y139.619 E45.49511
G1 X100.9 Y139.619 E45.61757
G1 X100.909 Y65.381 E48.45862
G0 F1285.7 X102.652 Y65.521
G1 F900 X102.652 Y139.479 E51.28896
G0 F1285.7 X103.959 Y137.647
G1 F900 X101.04 Y137.647 E51.40067
G0 F1285.7 X101.04 Y135.314
G1 F900 X103.959 Y135.314 E51.51238
G0 F1285.7 X103.959 Y132.981
G1 F900 X101.04 Y132.981 E51.62408
G0 F1285.7 X101.041 Y130.648
G1 F900 X103.959 Y130.648 E51.73575
G0 F1285.7 X103.959 Y128.315
G1 F900 X101.041 Y128.315 E51.84742
G0 F1285.7 X101.041 Y125.982
G1 F900 X103.959 Y125.982 E51.9591
G0 F1285.7 X103.959 Y123.649
G1 F900 X101.041 Y123.649 E52.07077
G0 F1285.7 X101.042 Y121.316
G1 F900 X103.959 Y121.316 E52.1824
G0 F1285.7 X103.959 Y118.983
G1 F900 X101.042 Y118.983 E52.29403
G0 F1285.7 X101.043 Y116.65
G1 F900 X103.96 Y116.65 E52.40566
G0 F1285.7 X103.96 Y114.317
G1 F900 X101.044 Y114.317 E52.51726
G0 F1285.7 X101.044 Y111.984
G1 F900 X103.96 Y111.984 E52.62885
G0 F1285.7 X103.96 Y109.651
G1 F900 X101.044 Y109.651 E52.74044
G0 F1285.7 X101.044 Y107.318
G1 F900 X103.96 Y107.318 E52.85204
G0 F1285.7 X103.96 Y104.985
G1 F900 X101.045 Y104.985 E52.96359
G0 F1285.7 X101.045 Y102.652
G1 F900 X103.96 Y102.652 E53.07515
G0 F1285.7 X103.96 Y100.319
G1 F900 X101.045 Y100.319 E53.1867
G0 F1285.7 X101.046 Y97.986
G1 F900 X103.96 Y97.986 E53.29822
G0 F1285.7 X103.96 Y95.653
G1 F900 X101.046 Y95.653 E53.40974
G0 F1285.7 X101.046 Y93.32
G1 F900 X103.96 Y93.32 E53.52126
G0 F1285.7 X103.96 Y90.987
G1 F900 X101.046 Y90.987 E53.63277
G0 F1285.7 X101.047 Y88.654
G1 F900 X103.96 Y88.654 E53.74425
G0 F1285.7 X103.96 Y86.321
G1 F900 X101.047 Y86.321 E53.85573
G0 F1285.7 X101.047 Y83.988
G1 F900 X103.96 Y83.988 E53.96721
G0 F1285.7 X103.96 Y81.655
G1 F900 X101.048 Y81.655 E54.07865
G0 F1285.7 X101.048 Y79.322
G1 F900 X103.96 Y79.322 E54.19009
G0 F1285.7 X103.96 Y76.989
G1 F900 X101.048 Y76.989 E54.30153
G0 F1285.7 X101.048 Y74.656
G1 F900 X103.96 Y74.656 E54.41298
G0 F1285.7 X103.96 Y72.323
G1 F900 X101.049 Y72.323 E54.52438
G0 F1285.7 X101.049 Y69.99
G1 F900 X103.96 Y69.99 E54.63578
G0 F1285.7 X103.96 Y67.657
G1 F900 X101.049 Y67.657 E54.74718
G1 F3000 E51.24718
G0 F1285.7 X100.064 Y140.323
G0 X100.064 Y167.799
G0 X100.9 Y168.505
G1 F3000 E54.74718
G1 F900 X104.1 Y168.506 E54.86965
G1 X104.1 Y182.296 E55.39738
G1 X100.916 Y182.295 E55.51923
G1 X100.9 Y182.278 E55.52013
G1 X100.9 Y168.505 E56.04721
G0 F1285.7 X102.652 Y168.646
G1 F900 X102.652 Y182.155 E56.56419
G0 F1285.7 X103.959 Y181.974
G1 F900 X101.039 Y181.974 E56.67594
G0 F1285.7 X101.039 Y179.641
G1 F900 X103.959 Y179.641 E56.78769
G0 F1285.7 X103.959 Y177.308
G1 F900 X101.039 Y177.308 E56.89944
G0 F1285.7 X101.039 Y174.975
G1 F900 X103.959 Y174.975 E57.01118
G0 F1285.7 X103.959 Y172.642
G1 F900 X101.039 Y172.642 E57.12293
G0 F1285.7 X101.039 Y170.309
G1 F900 X103.959 Y170.309 E57.23468
G1 F3000 E53.73468
;MESH:basis_basis_wheel_l_bottom.stl
G0 F1285.7 X103.761 Y168.296
G0 X103.761 Y167.117
G0 X103.775 Y167.131
;TYPE:WALL-INNER
G1 F3000 E57.23468
G1 F900 X103.6 Y167.131 E57.24137
G1 X101.225 Y167.13 E57.33226
G1 X101.225 Y140.994 E58.33248
G1 X103.775 Y140.994 E58.43006
G1 X103.775 Y166.956 E59.42362
G1 X103.775 Y167.131 E59.42795
G0 F1285.7 X104.1 Y167.456
;TYPE:WALL-OUTER
G1 F900 X103.925 Y167.456 E59.43465
G1 X100.9 Y167.455 E59.55041
G1 X100.9 Y140.669 E60.5755
G1 X104.1 Y140.669 E60.69796
G1 X104.1 Y167.281 E61.71639
G1 X104.1 Y167.456 E61.72073
G0 F1285.7 X103.925 Y167.456
G0 X103.9 Y167.456
G0 X103.435 Y166.791
;TYPE:SKIN
G1 F900 X101.565 Y166.79 E61.79229
G1 X101.565 Y141.334 E62.76648
G1 X103.435 Y141.334 E62.83804
G1 X103.435 Y166.791 E63.81227
G0 F1285.7 X101.79 Y166.632
G1 F900 X101.721 Y166.563 E63.816
G0 F1285.7 X101.721 Y166.068
G1 F900 X102.285 Y166.632 E63.84653
G0 F1285.7 X102.78 Y166.632
G1 F900 X101.721 Y165.573 E63.90384
G0 F1285.7 X101.721 Y165.078
G1 F900 X103.275 Y166.632 E63.98795
G0 F1285.7 X103.277 Y166.139
G1 F900 X101.721 Y164.583 E64.07216
G0 F1285.7 X101.721 Y164.088
G1 F900 X103.277 Y165.644 E64.15637
G0 F1285.7 X103.277 Y165.149
G1 F900 X101.721 Y163.593 E64.24059
G0 F1285.7 X101.721 Y163.098
G1 F900 X103.277 Y164.654 E64.3248
G0 F1285.7 X103.277 Y164.159
G1 F900 X101.721 Y162.603 E64.40901
G0 F1285.7 X101.721 Y162.108
G1 F900 X103.277 Y163.664 E64.49322
G0 F1285.7 X103.277 Y163.169
G1 F900 X101.721 Y161.613 E64.57744
G0 F1285.7 X101.721 Y161.118
G1 F900 X103.277 Y162.674 E64.66165
G0 F1285.7 X103.277 Y162.179
G1 F900 X101.721 Y160.623 E64.74586
G0 F1285.7 X101.721 Y160.128
G1 F900 X103.277 Y161.684 E64.83007
G0 F1285.7 X103.277 Y161.189
G1 F900 X101.721 Y159.633 E64.91429
G0 F1285.7 X101.721 Y159.138
G1 F900 X103.277 Y160.694 E64.9985
G0 F1285.7 X103.277 Y160.199
G1 F900 X101.721 Y158.643 E65.08271
G0 F1285.7 X101.721 Y158.148
G1 F900 X103.277 Y159.705 E65.16695
G0 F1285.7 X103.277 Y159.21
G1 F900 X101.721 Y157.653 E65.25119
G0 F1285.7 X101.721 Y157.158
G1 F900 X103.277 Y158.715 E65.33543
G0 F1285.7 X103.277 Y158.22
G1 F900 X101.721 Y156.663 E65.41967
G0 F1285.7 X101.721 Y156.168
G1 F900 X103.277 Y157.725 E65.50391
G0 F1285.7 X103.277 Y157.23
G1 F900 X101.721 Y155.673 E65.58815
G0 F1285.7 X101.721 Y155.178
G1 F900 X103.277 Y156.735 E65.67239
G0 F1285.7 X103.277 Y156.24
G1 F900 X101.721 Y154.683 E65.75663
G0 F1285.7 X101.721 Y154.188
G1 F900 X103.277 Y155.745 E65.84087
G0 F1285.7 X103.277 Y155.25
G1 F900 X101.721 Y153.693 E65.92511
G0 F1285.7 X101.721 Y153.198
G1 F900 X103.277 Y154.755 E66.00935
G0 F1285.7 X103.277 Y154.26
G1 F900 X101.721 Y152.703 E66.09359
G0 F1285.7 X101.721 Y152.208
G1 F900 X103.277 Y153.765 E66.17783
G0 F1285.7 X103.277 Y153.27
G1 F900 X101.721 Y151.714 E66.26204
G0 F1285.7 X101.721 Y151.219
G1 F900 X103.277 Y152.775 E66.34625
G0 F1285.7 X103.277 Y152.28
G1 F900 X101.721 Y150.724 E66.43047
G0 F1285.7 X101.721 Y150.229
G1 F900 X103.277 Y151.785 E66.51468
G0 F1285.7 X103.277 Y151.29
G1 F900 X101.721 Y149.734 E66.59889
G0 F1285.7 X101.721 Y149.239
G1 F900 X103.277 Y150.795 E66.68311
G0 F1285.7 X103.277 Y150.3
G1 F900 X101.721 Y148.744 E66.76732
G0 F1285.7 X101.721 Y148.249
G1 F900 X103.277 Y149.805 E66.85153
G0 F1285.7 X103.277 Y149.31
G1 F900 X101.721 Y147.754 E66.93574
G0 F1285.7 X101.721 Y147.259
G1 F900 X103.277 Y148.815 E67.01996
G0 F1285.7 X103.277 Y148.32
G1 F900 X101.721 Y146.764 E67.10417
G0 F1285.7 X101.721 Y146.269
G1 F900 X103.277 Y147.825 E67.18838
G0 F1285.7 X103.277 Y147.33
G1 F900 X101.721 Y145.774 E67.27259
G0 F1285.7 X101.721 Y145.279
G1 F900 X103.277 Y146.835 E67.35681
G0 F1285.7 X103.277 Y146.34
G1 F900 X101.721 Y144.784 E67.44102
G0 F1285.7 X101.721 Y144.289
G1 F900 X103.277 Y145.845 E67.52523
G0 F1285.7 X103.277 Y145.35
G1 F900 X101.721 Y143.794 E67.60945
G0 F1285.7 X101.721 Y143.299
G1 F900 X103.277 Y144.855 E67.69366
G0 F1285.7 X103.277 Y144.36
G1 F900 X101.721 Y142.804 E67.77787
G0 F1285.7 X101.721 Y142.309
G1 F900 X103.277 Y143.865 E67.86208
G0 F1285.7 X103.277 Y143.37
G1 F900 X101.721 Y141.814 E67.9463
G0 F1285.7 X101.891 Y141.489
G1 F900 X103.277 Y142.875 E68.02131
G0 F1285.7 X103.277 Y142.38
G1 F900 X102.386 Y141.489 E68.06953
G0 F1285.7 X102.881 Y141.489
G1 F900 X103.277 Y141.885 E68.09096
G1 F3000 E64.59096
G0 F1285.7 X103.705 Y141.014
G0 X103.705 Y139.829
G0 X103.705 Y65.171
G0 X103.705 Y63.986
G0 X103.775 Y64.006
;TYPE:WALL-INNER
G1 F3000 E68.09096
G1 F900 X101.225 Y64.006 E68.18855
G1 X101.225 Y38.044 E69.1821
G1 X101.225 Y37.869 E69.1888
