;FLAVOR:Marlin
;TIME:23005
;Filament used: 14.7515m
;Layer height: 0.2
;MINX:20.52
;MINY:92.45
;MINZ:0.26
;MAXX:184.48
;MAXY:112.15
;MAXZ:149.26
;Generated with Cura_SteamEngine 4.9.1
M82 ;absolute extrusion mode
;Begin Start Gcode for Dagoma DiscoEasy 200
;Sliced: 13-07-2021 06:50:59
;Initial extruder: 0

G90 ;Absolute positioning
M106 S255 ;Fan on full
G28 X Y ;Home stop X Y
G1 X100 ;Centre back during cooldown in case of oozing
M109 R90 ;Cooldown in case too hot
G28 ;Centre
G29 ;Auto-level
M104 S205 ;Pre-heat
M107 ;Fan off
G0 X100 Y5 Z0.5 ;Front centre for degunk
M109 S205 ;Wait for initial temp
M83 ;E Relative
G1 E10 F200 ;Degunk
G1 E-3 F5000 ;Retract
G0 Z3 ;Withdraw
M82 ;E absolute
G92 E0 ;E reset
G1 F6000 ;Set feedrate

;Finish Start Gcode for Dagoma DiscoEasy 200

G92 E0
G92 E0
G1 F3000 E-3.5
;LAYER_COUNT:746
;LAYER:0
M107
G0 F1285.7 X24.14 Y96.281 Z0.26
;TYPE:SKIRT
G1 F3000 E0
G1 F900 X24.75 Y96.211 E0.0235
G1 X25.391 Y96.199 E0.04803
G1 X25.855 Y96.199 E0.06579
G1 X28.625 Y96.16 E0.17181
G1 X31.372 Y96.043 E0.27703
G1 X34.051 Y95.853 E0.37981
G1 X36.745 Y95.586 E0.48341
G1 X39.469 Y95.238 E0.58851
G1 X42.137 Y94.818 E0.69187
G1 X44.837 Y94.317 E0.79696
G1 X47.443 Y93.756 E0.89897
G1 X50.825 Y92.914 E1.03235
G1 X52.034 Y92.591 E1.08024
G1 X52.581 Y92.487 E1.10155
G1 X53.134 Y92.455 E1.12275
G1 X53.543 Y92.45 E1.1384
G1 X151.32 Y92.45 E4.88028
G1 X152.023 Y92.46 E4.90719
G1 X152.577 Y92.508 E4.92847
G1 X152.995 Y92.598 E4.94483
G1 X153.565 Y92.755 E4.96746
G1 X156.218 Y93.444 E5.07236
G1 X158.872 Y94.053 E5.17656
G1 X161.562 Y94.594 E5.28157
G1 X164.215 Y95.045 E5.38455
G1 X166.897 Y95.426 E5.48822
G1 X169.595 Y95.731 E5.59213
G1 X172.301 Y95.96 E5.69606
G1 X175.021 Y96.114 E5.80032
G1 X179.1 Y96.199 E5.95645
G1 X179.472 Y96.199 E5.97069
G1 X180.173 Y96.209 E5.99752
G1 X180.728 Y96.257 E6.01884
G1 X181.269 Y96.384 E6.04011
G1 X181.787 Y96.587 E6.0614
G1 X182.271 Y96.862 E6.0827
G1 X182.753 Y97.242 E6.10619
G1 X183.376 Y97.862 E6.13983
G1 X183.734 Y98.288 E6.16112
G1 X184.027 Y98.761 E6.18241
G1 X184.249 Y99.271 E6.2037
G1 X184.396 Y99.808 E6.22501
G1 X184.467 Y100.408 E6.24813
G1 X184.48 Y101.024 E6.27171
G1 X184.48 Y103.793 E6.37768
G1 X184.47 Y104.495 E6.40455
G1 X184.422 Y105.05 E6.42586
G1 X184.295 Y105.591 E6.44713
G1 X184.092 Y106.109 E6.46842
G1 X183.817 Y106.593 E6.48973
G1 X183.447 Y107.064 E6.51265
G1 X182.814 Y107.701 E6.54701
G1 X182.388 Y108.058 E6.56829
G1 X181.914 Y108.351 E6.58961
G1 X181.404 Y108.572 E6.61088
G1 X180.867 Y108.718 E6.63218
G1 X180.25 Y108.789 E6.65595
G1 X179.609 Y108.801 E6.68048
G1 X176.277 Y108.799 E6.808
G1 X173.602 Y108.874 E6.91041
G1 X170.85 Y109.03 E7.01589
G1 X168.151 Y109.259 E7.11955
G1 X165.457 Y109.564 E7.22331
G1 X162.784 Y109.945 E7.32664
G1 X160.075 Y110.409 E7.43182
G1 X157.42 Y110.94 E7.53544
G1 X154.765 Y111.551 E7.6397
G1 X153.098 Y111.979 E7.70556
G1 X152.355 Y112.108 E7.73442
G1 X151.457 Y112.15 E7.76883
G1 X53.68 Y112.15 E11.51071
G1 X52.978 Y112.14 E11.53757
G1 X52.369 Y112.083 E11.56098
G1 X52.084 Y112.024 E11.57212
G1 X51.141 Y111.791 E11.60929
G1 X50.194 Y111.546 E11.64673
G1 X47.5 Y110.927 E11.75251
G1 X44.857 Y110.397 E11.85567
G1 X42.172 Y109.943 E11.95989
G1 X39.49 Y109.563 E12.06355
G1 X36.757 Y109.255 E12.1688
G1 X34.087 Y109.031 E12.27134
G1 X31.373 Y108.879 E12.37537
G1 X28.616 Y108.804 E12.48092
G1 X26.672 Y108.797 E12.55531
G1 X26.119 Y108.801 E12.57648
G1 X25.528 Y108.801 E12.59909
G1 X24.826 Y108.791 E12.62596
G1 X24.271 Y108.743 E12.64728
G1 X23.73 Y108.616 E12.66855
G1 X23.212 Y108.413 E12.68984
G1 X22.728 Y108.138 E12.71114
G1 X22.256 Y107.766 E12.73414
G1 X21.624 Y107.14 E12.76818
G1 X21.266 Y106.714 E12.78948
G1 X20.973 Y106.241 E12.81077
G1 X20.751 Y105.731 E12.83206
G1 X20.604 Y105.194 E12.85336
G1 X20.532 Y104.571 E12.87736
G1 X20.52 Y103.93 E12.9019
G1 X20.52 Y101.207 E13.00611
G1 X20.53 Y100.505 E13.03298
G1 X20.578 Y99.95 E13.05429
G1 X20.705 Y99.409 E13.07556
G1 X20.908 Y98.891 E13.09685
G1 X21.183 Y98.407 E13.11816
G1 X21.553 Y97.936 E13.14108
G1 X22.191 Y97.295 E13.17569
G1 X22.618 Y96.938 E13.19699
G1 X23.092 Y96.647 E13.21827
G1 X23.603 Y96.426 E13.23958
G1 X24.14 Y96.281 E13.26087
G0 F1285.7 X24.303 Y96.607
G1 F900 X24.91 Y96.556 E13.28418
G1 X25.86 Y96.549 E13.32054
G1 X28.644 Y96.51 E13.42709
G1 X31.378 Y96.394 E13.53181
G1 X34.072 Y96.203 E13.63517
G1 X36.828 Y95.929 E13.74116
G1 X39.499 Y95.588 E13.84421
G1 X42.18 Y95.166 E13.94807
G1 X44.899 Y94.661 E14.0539
G1 X47.516 Y94.098 E14.15635
G1 X50.928 Y93.248 E14.29091
G1 X52.124 Y92.929 E14.33828
G1 X52.646 Y92.831 E14.35861
G1 X53.547 Y92.8 E14.39311
G1 X151.315 Y92.8 E18.13465
G1 X152.018 Y92.81 E18.16155
G1 X152.547 Y92.858 E18.18188
G1 X152.902 Y92.936 E18.19579
G1 X153.452 Y93.087 E18.21762
G1 X156.12 Y93.78 E18.32311
G1 X158.8 Y94.395 E18.42834
G1 X161.497 Y94.937 E18.53361
G1 X164.147 Y95.388 E18.63648
G1 X166.848 Y95.772 E18.74089
G1 X169.593 Y96.082 E18.84661
G1 X172.289 Y96.311 E18.95015
G1 X174.993 Y96.463 E19.0538
G1 X179.093 Y96.549 E19.21074
G1 X179.467 Y96.549 E19.22505
G1 X180.168 Y96.559 E19.25188
G1 X180.697 Y96.607 E19.27221
G1 X181.212 Y96.733 E19.2925
G1 X181.703 Y96.935 E19.31282
G1 X182.158 Y97.209 E19.33314
G1 X182.666 Y97.639 E19.35861
G1 X183.125 Y98.105 E19.38364
G1 X183.465 Y98.513 E19.40397
G1 X183.739 Y98.967 E19.42426
G1 X183.943 Y99.457 E19.44457
G1 X184.071 Y99.972 E19.46488
G1 X184.122 Y100.548 E19.48701
G1 X184.13 Y101.028 E19.50538
G1 X184.13 Y103.788 E19.61101
G1 X184.12 Y104.49 E19.63788
G1 X184.072 Y105.019 E19.6582
G1 X183.946 Y105.534 E19.67849
G1 X183.744 Y106.025 E19.69881
G1 X183.47 Y106.479 E19.71911
G1 X183.051 Y106.977 E19.74401
G1 X182.571 Y107.45 E19.7698
G1 X182.163 Y107.789 E19.7901
G1 X181.708 Y108.063 E19.81043
G1 X181.218 Y108.266 E19.83073
G1 X180.703 Y108.393 E19.85103
G1 X180.089 Y108.444 E19.8746
G1 X179.16 Y108.451 E19.91016
G1 X179.02 Y108.449 E19.91552
G1 X176.303 Y108.449 E20.01949
G1 X173.537 Y108.526 E20.12539
G1 X170.839 Y108.679 E20.22881
G1 X168.152 Y108.907 E20.332
G1 X165.398 Y109.22 E20.43808
G1 X162.715 Y109.602 E20.54179
G1 X160.016 Y110.064 E20.64658
G1 X157.349 Y110.597 E20.75066
G1 X154.678 Y111.212 E20.85556
G1 X153.011 Y111.64 E20.92142
G1 X152.307 Y111.761 E20.94876
G1 X151.453 Y111.8 E20.98147
G1 X53.685 Y111.8 E24.72301
G1 X52.983 Y111.79 E24.74988
G1 X52.429 Y111.738 E24.77117
G1 X52.168 Y111.684 E24.78137
G1 X51.229 Y111.453 E24.81838
G1 X50.255 Y111.201 E24.85688
G1 X47.572 Y110.585 E24.96223
G1 X44.916 Y110.052 E25.0659
G1 X42.21 Y109.594 E25.17093
G1 X39.543 Y109.217 E25.27401
G1 X36.822 Y108.91 E25.3788
G1 X34.067 Y108.679 E25.4846
G1 X31.401 Y108.529 E25.58679
G1 X28.626 Y108.454 E25.69303
G1 X26.671 Y108.447 E25.76785
G1 X26.117 Y108.451 E25.78905
G1 X25.533 Y108.451 E25.8114
G1 X24.831 Y108.441 E25.83826
G1 X24.302 Y108.393 E25.85859
G1 X23.787 Y108.267 E25.87888
G1 X23.296 Y108.065 E25.8992
G1 X22.842 Y107.791 E25.91949
G1 X22.341 Y107.369 E25.94456
G1 X21.875 Y106.896 E25.96997
G1 X21.535 Y106.489 E25.99027
G1 X21.26 Y106.035 E26.01058
G1 X21.057 Y105.545 E26.03088
G1 X20.929 Y105.03 E26.05119
G1 X20.877 Y104.409 E26.07504
G1 X20.87 Y103.926 E26.09352
G1 X20.87 Y101.212 E26.19739
G1 X20.88 Y100.51 E26.22425
G1 X20.928 Y99.981 E26.24458
G1 X21.054 Y99.466 E26.26487
G1 X21.256 Y98.975 E26.28519
G1 X21.53 Y98.521 E26.30548
G1 X21.949 Y98.023 E26.33039
G1 X22.434 Y97.547 E26.3564
G1 X22.842 Y97.208 E26.3767
G1 X23.297 Y96.935 E26.397
G1 X23.788 Y96.733 E26.41732
G1 X24.303 Y96.607 E26.43761
G0 F1285.7 X24.462 Y96.937
G1 F900 X24.99 Y96.904 E26.45786
G1 X25.865 Y96.899 E26.49134
G1 X28.664 Y96.859 E26.59847
G1 X31.38 Y96.744 E26.7025
G1 X34.099 Y96.551 E26.80682
G1 X36.868 Y96.277 E26.91331
G1 X39.563 Y95.932 E27.01728
G1 X42.229 Y95.513 E27.12056
G1 X44.968 Y95.004 E27.22718
G1 X47.604 Y94.436 E27.33037
G1 X51.054 Y93.578 E27.46642
G1 X52.215 Y93.268 E27.51241
G1 X52.926 Y93.162 E27.53992
G1 X53.551 Y93.15 E27.56384
G1 X151.31 Y93.15 E31.30503
G1 X152.013 Y93.16 E31.33194
G1 X152.515 Y93.207 E31.35124
G1 X152.809 Y93.273 E31.36277
G1 X153.395 Y93.434 E31.38602
G1 X156.03 Y94.118 E31.49021
G1 X158.721 Y94.736 E31.59587
G1 X161.438 Y95.282 E31.70193
G1 X164.109 Y95.736 E31.80561
G1 X166.794 Y96.118 E31.9094
G1 X169.527 Y96.427 E32.01466
G1 X172.274 Y96.66 E32.12016
G1 X174.994 Y96.813 E32.22442
G1 X179.085 Y96.899 E32.38101
G1 X179.462 Y96.899 E32.39544
G1 X180.163 Y96.909 E32.42227
G1 X180.665 Y96.956 E32.44157
G1 X181.152 Y97.082 E32.46082
G1 X181.614 Y97.283 E32.4801
G1 X182.038 Y97.555 E32.49938
G1 X182.428 Y97.896 E32.5192
G1 X182.874 Y98.349 E32.54353
G1 X183.195 Y98.737 E32.5628
G1 X183.45 Y99.171 E32.58207
G1 X183.634 Y99.64 E32.60135
G1 X183.741 Y100.132 E32.62061
G1 X183.775 Y100.646 E32.64033
G1 X183.78 Y101.033 E32.65514
G1 X183.78 Y103.783 E32.76038
G1 X183.77 Y104.485 E32.78725
G1 X183.723 Y104.987 E32.80654
G1 X183.597 Y105.474 E32.82579
G1 X183.396 Y105.936 E32.84508
G1 X183.124 Y106.36 E32.86435
G1 X182.794 Y106.74 E32.88362
G1 X182.328 Y107.198 E32.90862
G1 X181.939 Y107.518 E32.9279
G1 X181.505 Y107.773 E32.94716
G1 X181.035 Y107.956 E32.96646
G1 X180.543 Y108.063 E32.98573
G1 X180.01 Y108.096 E33.00617
G1 X179.165 Y108.101 E33.03851
G1 X179.025 Y108.099 E33.04386
G1 X176.294 Y108.099 E33.14838
G1 X173.543 Y108.176 E33.2537
G1 X170.822 Y108.33 E33.358
G1 X168.082 Y108.562 E33.46323
G1 X165.348 Y108.873 E33.56853
G1 X162.676 Y109.254 E33.67182
G1 X159.93 Y109.723 E33.77843
G1 X157.296 Y110.25 E33.88123
G1 X154.595 Y110.872 E33.98731
G1 X152.924 Y111.301 E34.05333
G1 X152.258 Y111.414 E34.07918
G1 X151.449 Y111.45 E34.11017
G1 X53.69 Y111.45 E37.85136
G1 X52.988 Y111.44 E37.87823
G1 X52.489 Y111.393 E37.89741
G1 X52.251 Y111.344 E37.90671
G1 X51.316 Y111.114 E37.94356
G1 X50.305 Y110.852 E37.98353
G1 X47.685 Y110.251 E38.0864
G1 X44.949 Y109.702 E38.19319
G1 X42.314 Y109.256 E38.29546
G1 X39.562 Y108.867 E38.40183
G1 X36.856 Y108.562 E38.50604
G1 X34.114 Y108.331 E38.61135
G1 X31.396 Y108.179 E38.71553
G1 X28.637 Y108.104 E38.82115
G1 X26.669 Y108.097 E38.89647
G1 X26.114 Y108.101 E38.91771
G1 X25.538 Y108.101 E38.93975
G1 X24.836 Y108.091 E38.96662
G1 X24.334 Y108.044 E38.98591
G1 X23.847 Y107.918 E39.00516
G1 X23.385 Y107.717 E39.02445
G1 X22.961 Y107.445 E39.04372
G1 X22.578 Y107.111 E39.06317
G1 X22.126 Y106.653 E39.0878
G1 X21.805 Y106.265 E39.10707
G1 X21.55 Y105.831 E39.12633
G1 X21.366 Y105.362 E39.14561
G1 X21.259 Y104.87 E39.16488
G1 X21.225 Y104.331 E39.18555
G1 X21.22 Y103.922 E39.2012
G1 X21.22 Y101.217 E39.30472
G1 X21.23 Y100.515 E39.33159
G1 X21.277 Y100.013 E39.35088
G1 X21.403 Y99.526 E39.37014
G1 X21.604 Y99.064 E39.38942
G1 X21.876 Y98.64 E39.4087
G1 X22.206 Y98.26 E39.42796
G1 X22.677 Y97.799 E39.45318
G1 X23.066 Y97.479 E39.47245
G1 X23.501 Y97.225 E39.49173
G1 X23.97 Y97.042 E39.511
G1 X24.462 Y96.937 E39.53025
G0 F1285.7 X24.949 Y100.249
;TYPE:SUPPORT
G1 F900 X26.341 Y100.249 E39.58352
G1 X26.341 Y100.55 E39.59504
G1 X26.691 Y100.9 E39.61398
G1 X52.05 Y100.9 E40.58446
G1 X52.05 Y104.1 E40.70692
G1 X26.691 Y104.1 E41.6774
G1 X26.341 Y104.45 E41.69634
G1 X26.341 Y104.751 E41.70786
G1 X24.949 Y104.751 E41.76113
G1 X24.57 Y104.372 E41.78164
G1 X24.57 Y100.628 E41.92493
G1 X24.949 Y100.249 E41.94544
G0 F1285.7 X25.663 Y100.389
G1 F900 X25.663 Y104.611 E42.10701
G0 F1285.7 X24.709 Y102.652
G1 F900 X51.909 Y102.652 E43.14794
G0 F1285.7 X51.326 Y103.96
G1 F900 X51.326 Y101.04 E43.25969
G0 F1285.7 X48.993 Y101.04
G1 F900 X48.993 Y103.96 E43.37144
G0 F1285.7 X46.66 Y103.96
G1 F900 X46.66 Y101.04 E43.48318
G0 F1285.7 X44.327 Y101.04
G1 F900 X44.327 Y103.96 E43.59493
G0 F1285.7 X41.994 Y103.96
G1 F900 X41.994 Y101.04 E43.70668
G0 F1285.7 X39.661 Y101.04
G1 F900 X39.661 Y103.96 E43.81842
G0 F1285.7 X37.328 Y103.96
G1 F900 X37.328 Y101.04 E43.93017
G0 F1285.7 X34.995 Y101.04
G1 F900 X34.995 Y103.96 E44.04192
G0 F1285.7 X32.662 Y103.96
G1 F900 X32.662 Y101.04 E44.15367
G0 F1285.7 X30.329 Y101.04
G1 F900 X30.329 Y103.96 E44.26541
G0 F1285.7 X27.996 Y103.96
G1 F900 X27.996 Y101.04 E44.37716
G0 F1285.7 X53.1 Y99.85
G1 F900 X53.101 Y96.5 E44.50536
G1 X151.899 Y96.5 E48.28631
G1 X151.9 Y99.85 E48.41452
G1 X53.1 Y99.85 E52.19555
G0 F1285.7 X53.659 Y99.71
G1 F900 X53.659 Y96.64 E52.31303
G0 F1285.7 X53.24 Y97.986
G1 F900 X151.76 Y97.986 E56.08335
G0 F1285.7 X151.645 Y96.64
G1 F900 X151.645 Y99.71 E56.20083
G0 F1285.7 X149.312 Y99.71
G1 F900 X149.312 Y96.64 E56.31832
G0 F1285.7 X146.979 Y96.64
G1 F900 X146.979 Y99.71 E56.43581
G0 F1285.7 X144.646 Y99.71
G1 F900 X144.646 Y96.64 E56.5533
G0 F1285.7 X142.313 Y96.64
G1 F900 X142.313 Y99.71 E56.67078
G0 F1285.7 X139.98 Y99.71
G1 F900 X139.98 Y96.64 E56.78827
G0 F1285.7 X137.647 Y96.64
G1 F900 X137.647 Y99.71 E56.90576
G0 F1285.7 X135.314 Y99.71
G1 F900 X135.314 Y96.64 E57.02325
G0 F1285.7 X132.981 Y96.64
G1 F900 X132.981 Y99.71 E57.14073
G0 F1285.7 X130.648 Y99.71
G1 F900 X130.648 Y96.64 E57.25822
G0 F1285.7 X128.315 Y96.64
G1 F900 X128.315 Y99.71 E57.37571
G0 F1285.7 X125.982 Y99.71
G1 F900 X125.982 Y96.64 E57.4932
G0 F1285.7 X123.649 Y96.64
G1 F900 X123.649 Y99.71 E57.61068
G0 F1285.7 X121.316 Y99.71
G1 F900 X121.316 Y96.64 E57.72817
G0 F1285.7 X118.983 Y96.64
G1 F900 X118.983 Y99.71 E57.84566
G0 F1285.7 X116.65 Y99.71
G1 F900 X116.65 Y96.64 E57.96314
G0 F1285.7 X114.317 Y96.64
G1 F900 X114.317 Y99.71 E58.08063
G0 F1285.7 X111.984 Y99.71
G1 F900 X111.984 Y96.64 E58.19812
G0 F1285.7 X109.651 Y96.64
G1 F900 X109.651 Y99.71 E58.31561
G0 F1285.7 X107.318 Y99.71
G1 F900 X107.318 Y96.64 E58.43309
G0 F1285.7 X104.985 Y96.64
G1 F900 X104.985 Y99.71 E58.55058
G0 F1285.7 X102.652 Y99.71
G1 F900 X102.652 Y96.64 E58.66807
G0 F1285.7 X100.319 Y96.64
G1 F900 X100.319 Y99.71 E58.78556
G0 F1285.7 X97.986 Y99.71
G1 F900 X97.986 Y96.64 E58.90304
G0 F1285.7 X95.653 Y96.64
G1 F900 X95.653 Y99.71 E59.02053
G0 F1285.7 X93.32 Y99.71
G1 F900 X93.32 Y96.64 E59.13802
G0 F1285.7 X90.987 Y96.64
G1 F900 X90.987 Y99.71 E59.25551
G0 F1285.7 X88.654 Y99.71
G1 F900 X88.654 Y96.64 E59.37299
G0 F1285.7 X86.321 Y96.64
G1 F900 X86.321 Y99.71 E59.49048
G0 F1285.7 X83.988 Y99.71
G1 F900 X83.988 Y96.64 E59.60797
G0 F1285.7 X81.655 Y96.64
G1 F900 X81.655 Y99.71 E59.72546
G0 F1285.7 X79.322 Y99.71
G1 F900 X79.322 Y96.64 E59.84294
G0 F1285.7 X76.989 Y96.64
G1 F900 X76.989 Y99.71 E59.96043
G0 F1285.7 X74.656 Y99.71
G1 F900 X74.656 Y96.64 E60.07792
G0 F1285.7 X72.323 Y96.64
G1 F900 X72.323 Y99.71 E60.19541
G0 F1285.7 X69.99 Y99.71
G1 F900 X69.99 Y96.64 E60.31289
G0 F1285.7 X67.657 Y96.64
G1 F900 X67.657 Y99.71 E60.43038
G0 F1285.7 X65.324 Y99.71
G1 F900 X65.324 Y96.64 E60.54787
G0 F1285.7 X62.991 Y96.64
G1 F900 X62.991 Y99.71 E60.66536
G0 F1285.7 X60.658 Y99.71
G1 F900 X60.658 Y96.64 E60.78284
G0 F1285.7 X58.325 Y96.64
G1 F900 X58.325 Y99.71 E60.90033
G0 F1285.7 X55.992 Y99.71
G1 F900 X55.992 Y96.64 E61.01782
G1 F3000 E57.51782
G0 F1285.7 X52.264 Y100.554
G0 X52.264 Y104.446
G0 X53.1 Y105.15
G1 F3000 E61.01782
G1 F900 X151.9 Y105.15 E64.79885
G1 X151.899 Y108.1 E64.91174
G1 X53.1 Y108.099 E68.69273
G1 X53.1 Y105.15 E68.80559
G0 F1285.7 X53.659 Y105.29
G1 F900 X53.659 Y107.959 E68.90773
G0 F1285.7 X53.239 Y107.318
G1 F900 X151.759 Y107.318 E72.67804
G0 F1285.7 X151.645 Y107.959
G1 F900 X151.645 Y105.29 E72.78018
G0 F1285.7 X149.312 Y105.29
G1 F900 X149.312 Y107.959 E72.88233
G0 F1285.7 X146.979 Y107.959
G1 F900 X146.979 Y105.29 E72.98447
G0 F1285.7 X144.646 Y105.29
G1 F900 X144.646 Y107.959 E73.08661
G0 F1285.7 X142.313 Y107.959
G1 F900 X142.313 Y105.29 E73.18875
G0 F1285.7 X139.98 Y105.29
G1 F900 X139.98 Y107.959 E73.29089
G0 F1285.7 X137.647 Y107.959
G1 F900 X137.647 Y105.29 E73.39303
G0 F1285.7 X135.314 Y105.29
G1 F900 X135.314 Y107.959 E73.49517
G0 F1285.7 X132.981 Y107.959
G1 F900 X132.981 Y105.29 E73.59732
G0 F1285.7 X130.648 Y105.29
G1 F900 X130.648 Y107.959 E73.69946
G0 F1285.7 X128.315 Y107.959
G1 F900 X128.315 Y105.29 E73.8016
G0 F1285.7 X125.982 Y105.29
G1 F900 X125.982 Y107.959 E73.90374
G0 F1285.7 X123.649 Y107.959
G1 F900 X123.649 Y105.29 E74.00588
G0 F1285.7 X121.316 Y105.29
G1 F900 X121.316 Y107.959 E74.10802
