;FLAVOR:Marlin
;TIME:11770
;Filament used: 11.747m
;Layer height: 0.3
;MINX:57.08
;MINY:28.458
;MINZ:0.26
;MAXX:147.92
;MAXY:176.543
;MAXZ:69.26
;Generated with Cura_SteamEngine 4.9.1
M82 ;absolute extrusion mode
;Begin Start Gcode for Dagoma DiscoEasy 200
;Sliced: 10-07-2021 02:11:30
;Initial extruder: 0

G90 ;Absolute positioning
M106 S255 ;Fan on full
G28 X Y ;Home stop X Y
G1 X100 ;Centre back during cooldown in case of oozing
M109 R90 ;Cooldown in case too hot
G28 ;Centre
G29 ;Auto-level
M104 S205 ;Pre-heat
M107 ;Fan off
G0 X100 Y5 Z0.5 ;Front centre for degunk
M109 S205 ;Wait for initial temp
M83 ;E Relative
G1 E10 F200 ;Degunk
G1 E-3 F5000 ;Retract
G0 Z3 ;Withdraw
M82 ;E absolute
G92 E0 ;E reset
G1 F6000 ;Set feedrate

;Finish Start Gcode for Dagoma DiscoEasy 200

G92 E0
G92 E0
G1 F3000 E-3.5
;LAYER_COUNT:231
;LAYER:0
M107
G0 F1285.7 X118.543 Y55.404 Z0.26
;TYPE:SKIRT
G1 F3000 E0
G1 F900 X118.911 Y54.787 E0.02749
G1 X119.23 Y54.331 E0.04879
G1 X119.518 Y54.013 E0.06521
G1 X120.469 Y53.075 E0.11633
G1 X120.554 Y52.979 E0.12123
G1 X121.181 Y52.366 E0.15479
G1 X123.083 Y50.4 E0.25948
G1 X124.925 Y48.383 E0.36401
G1 X126.687 Y46.341 E0.46723
G1 X128.424 Y44.209 E0.57247
G1 X130.05 Y42.093 E0.6746
G1 X131.666 Y39.865 E0.77993
G1 X133.186 Y37.639 E0.88308
G1 X134.664 Y35.334 E0.98787
G1 X136.315 Y32.582 E1.11069
G1 X137.284 Y30.904 E1.18484
G1 X137.622 Y30.34 E1.21
G1 X137.942 Y29.885 E1.23129
G1 X138.323 Y29.48 E1.25257
G1 X138.759 Y29.133 E1.2739
G1 X139.239 Y28.853 E1.29516
G1 X139.755 Y28.644 E1.31647
G1 X140.296 Y28.512 E1.33778
G1 X140.85 Y28.458 E1.35908
G1 X141.405 Y28.484 E1.38034
G1 X141.952 Y28.59 E1.40167
G1 X142.477 Y28.772 E1.42293
G1 X143.074 Y29.077 E1.44859
G1 X143.178 Y29.134 E1.45312
G1 X145.471 Y30.459 E1.55447
G1 X146.031 Y30.793 E1.57943
G1 X146.487 Y31.112 E1.60072
G1 X146.893 Y31.492 E1.62201
G1 X147.24 Y31.927 E1.6433
G1 X147.521 Y32.407 E1.66459
G1 X147.731 Y32.923 E1.68591
G1 X147.865 Y33.463 E1.7072
G1 X147.92 Y34.016 E1.72847
G1 X147.895 Y34.572 E1.74976
G1 X147.79 Y35.119 E1.77108
G1 X147.609 Y35.645 E1.79237
G1 X147.275 Y36.297 E1.8204
G1 X146.786 Y37.146 E1.8579
G1 X145.419 Y39.592 E1.96513
G1 X144.173 Y41.977 E2.06811
G1 X142.995 Y44.393 E2.17097
G1 X141.861 Y46.902 E2.27634
G1 X140.805 Y49.42 E2.38084
G1 X139.824 Y51.97 E2.4854
G1 X138.926 Y54.508 E2.58843
G1 X138.095 Y57.088 E2.69216
G1 X137.341 Y59.676 E2.79532
G1 X136.32 Y63.695 E2.95401
G1 X136.144 Y64.223 E2.97531
G1 X135.946 Y64.633 E2.99273
G1 X135.596 Y65.257 E3.02011
G1 X86.812 Y149.788 E6.75514
G1 X86.449 Y150.399 E6.78234
G1 X85.991 Y151.02 E6.81187
G1 X85.782 Y151.237 E6.8234
G1 X83.78 Y153.158 E6.92958
G1 X81.877 Y155.089 E7.03333
G1 X80.018 Y157.086 E7.13774
G1 X78.225 Y159.126 E7.24168
G1 X76.482 Y161.226 E7.34612
G1 X74.807 Y163.363 E7.45003
G1 X73.214 Y165.517 E7.55256
G1 X71.611 Y167.821 E7.65998
G1 X70.165 Y170.028 E7.76095
G1 X68.05 Y173.52 E7.91719
G1 X67.754 Y174.032 E7.93982
G1 X67.383 Y174.654 E7.96754
G1 X67.064 Y175.11 E7.98883
G1 X66.684 Y175.516 E8.01012
G1 X66.249 Y175.863 E8.03141
G1 X65.769 Y176.144 E8.0527
G1 X65.253 Y176.354 E8.07402
G1 X64.713 Y176.488 E8.09531
G1 X64.16 Y176.543 E8.11658
G1 X63.604 Y176.518 E8.13787
G1 X63.057 Y176.413 E8.15919
G1 X62.531 Y176.232 E8.18048
G1 X61.918 Y175.918 E8.20684
G1 X61.823 Y175.866 E8.21098
G1 X59.528 Y174.54 E8.31242
G1 X58.967 Y174.205 E8.33742
G1 X58.511 Y173.886 E8.35872
G1 X58.106 Y173.505 E8.38
G1 X57.759 Y173.07 E8.40129
G1 X57.478 Y172.59 E8.42258
G1 X57.268 Y172.074 E8.4439
G1 X57.135 Y171.534 E8.46518
G1 X57.08 Y170.981 E8.48645
G1 X57.106 Y170.425 E8.50775
G1 X57.21 Y169.878 E8.52906
G1 X57.392 Y169.352 E8.55036
G1 X57.716 Y168.721 E8.5775
G1 X58.874 Y166.713 E8.66621
G1 X60.22 Y164.303 E8.77185
G1 X61.48 Y161.89 E8.87603
G1 X62.678 Y159.43 E8.98074
G1 X63.781 Y156.99 E9.08322
G1 X64.848 Y154.443 E9.1889
G1 X65.829 Y151.893 E9.29346
G1 X66.723 Y149.367 E9.396
G1 X67.56 Y146.762 E9.50071
G1 X68.313 Y144.179 E9.60368
G1 X68.644 Y142.88 E9.65498
G1 X68.678 Y142.778 E9.65909
G1 X69.021 Y141.479 E9.71051
G1 X69.202 Y140.952 E9.73183
G1 X69.422 Y140.507 E9.75083
G1 X69.705 Y140.003 E9.77295
G1 X118.543 Y55.404 E13.51127
G0 F1285.7 X118.844 Y55.583
G1 F900 X119.212 Y54.966 E13.53876
G1 X119.517 Y54.532 E13.55906
G1 X119.764 Y54.262 E13.57306
G1 X120.753 Y53.286 E13.62624
G1 X120.799 Y53.23 E13.62901
G1 X121.431 Y52.612 E13.66284
G1 X123.329 Y50.649 E13.76734
G1 X125.168 Y48.637 E13.87165
G1 X126.975 Y46.543 E13.9775
G1 X128.676 Y44.455 E14.08057
G1 X130.344 Y42.284 E14.18534
G1 X131.946 Y40.075 E14.28977
G1 X133.489 Y37.815 E14.39449
G1 X134.953 Y35.533 E14.49825
G1 X136.615 Y32.762 E14.62191
G1 X137.584 Y31.084 E14.69606
G1 X137.922 Y30.52 E14.72122
G1 X138.229 Y30.087 E14.74154
G1 X138.597 Y29.704 E14.76186
G1 X139.018 Y29.381 E14.78217
G1 X139.482 Y29.125 E14.80245
G1 X139.98 Y28.942 E14.82276
G1 X140.5 Y28.835 E14.84307
G1 X141.03 Y28.808 E14.86338
G1 X141.558 Y28.861 E14.88369
G1 X142.072 Y28.992 E14.90399
G1 X142.615 Y29.227 E14.92663
G1 X143.003 Y29.437 E14.94352
G1 X145.292 Y30.76 E15.04469
G1 X145.852 Y31.094 E15.06965
G1 X146.286 Y31.399 E15.08995
G1 X146.669 Y31.766 E15.11025
G1 X146.993 Y32.186 E15.13055
G1 X147.25 Y32.651 E15.15088
G1 X147.434 Y33.148 E15.17116
G1 X147.542 Y33.668 E15.19149
G1 X147.57 Y34.198 E15.2118
G1 X147.519 Y34.726 E15.2321
G1 X147.389 Y35.24 E15.25239
G1 X147.147 Y35.797 E15.27563
G1 X146.918 Y36.218 E15.29397
G1 X146.455 Y37.019 E15.32938
G1 X145.124 Y39.402 E15.43383
G1 X143.861 Y41.818 E15.53816
G1 X142.674 Y44.254 E15.64187
G1 X141.538 Y46.765 E15.74734
G1 X140.475 Y49.3 E15.85254
G1 X139.499 Y51.838 E15.9566
G1 X138.598 Y54.384 E16.05995
G1 X137.758 Y56.994 E16.16488
G1 X136.998 Y59.604 E16.26892
G1 X135.98 Y63.609 E16.42706
G1 X135.811 Y64.112 E16.44737
G1 X135.64 Y64.462 E16.46227
G1 X135.293 Y65.082 E16.48946
G1 X86.512 Y149.609 E20.2243
G1 X86.149 Y150.22 E20.2515
G1 X85.732 Y150.785 E20.27837
G1 X85.539 Y150.985 E20.28901
G1 X83.535 Y152.907 E20.39527
G1 X81.618 Y154.853 E20.49981
G1 X79.763 Y156.845 E20.60398
G1 X77.958 Y158.899 E20.70862
G1 X76.217 Y160.996 E20.81293
G1 X74.53 Y163.149 E20.9176
G1 X72.909 Y165.342 E21.02197
G1 X71.362 Y167.565 E21.12561
G1 X69.861 Y169.857 E21.23046
G1 X67.729 Y173.375 E21.38789
G1 X67.453 Y173.853 E21.40901
G1 X67.082 Y174.475 E21.43673
G1 X66.777 Y174.909 E21.45703
G1 X66.41 Y175.292 E21.47733
G1 X65.99 Y175.616 E21.49763
G1 X65.525 Y175.873 E21.51796
G1 X65.028 Y176.057 E21.53824
G1 X64.508 Y176.165 E21.55857
G1 X63.978 Y176.193 E21.57888
G1 X63.45 Y176.142 E21.59918
G1 X62.936 Y176.012 E21.61947
G1 X62.378 Y175.77 E21.64274
G1 X61.998 Y175.563 E21.6593
G1 X59.708 Y174.239 E21.76053
G1 X59.147 Y173.904 E21.78554
G1 X58.713 Y173.599 E21.80584
G1 X58.33 Y173.232 E21.82614
G1 X58.006 Y172.811 E21.84647
G1 X57.75 Y172.347 E21.86675
G1 X57.565 Y171.849 E21.88708
G1 X57.458 Y171.329 E21.9074
G1 X57.43 Y170.799 E21.92771
G1 X57.482 Y170.271 E21.94801
G1 X57.612 Y169.757 E21.9683
G1 X57.858 Y169.193 E21.99185
G1 X58.067 Y168.811 E22.00852
G1 X59.175 Y166.891 E22.09335
G1 X60.53 Y164.465 E22.19969
G1 X61.799 Y162.034 E22.30464
G1 X62.992 Y159.585 E22.40889
G1 X64.103 Y157.127 E22.51212
G1 X65.178 Y154.563 E22.61852
G1 X66.154 Y152.025 E22.72258
G1 X67.051 Y149.49 E22.82549
G1 X67.897 Y146.857 E22.93132
G1 X68.651 Y144.272 E23.03437
G1 X68.983 Y142.967 E23.08591
G1 X69.018 Y142.864 E23.09007
G1 X69.36 Y141.568 E23.14136
G1 X69.634 Y140.854 E23.17063
G1 X69.727 Y140.678 E23.17825
G1 X70.008 Y140.178 E23.2002
G1 X118.844 Y55.583 E26.93834
G0 F1285.7 X119.144 Y55.763
G1 F900 X119.512 Y55.146 E26.96584
G1 X119.804 Y54.735 E26.98513
G1 X120.009 Y54.512 E26.99672
G1 X120.965 Y53.569 E27.04811
G1 X121.043 Y53.48 E27.05264
G1 X121.697 Y52.84 E27.08766
G1 X123.574 Y50.9 E27.19096
G1 X125.443 Y48.854 E27.29701
G1 X127.231 Y46.782 E27.40175
G1 X128.962 Y44.657 E27.50664
G1 X130.625 Y42.493 E27.61108
G1 X132.222 Y40.291 E27.71518
G1 X133.776 Y38.015 E27.82065
G1 X135.256 Y35.707 E27.92558
G1 X136.915 Y32.942 E28.04898
G1 X137.885 Y31.264 E28.12315
G1 X138.223 Y30.7 E28.14831
G1 X138.515 Y30.29 E28.16758
G1 X138.868 Y29.931 E28.18685
G1 X139.274 Y29.633 E28.20612
G1 X139.722 Y29.402 E28.22541
G1 X140.201 Y29.246 E28.24469
G1 X140.698 Y29.167 E28.26395
G1 X141.201 Y29.167 E28.2832
G1 X141.699 Y29.247 E28.3025
G1 X142.177 Y29.405 E28.32176
G1 X142.743 Y29.693 E28.34607
G1 X145.112 Y31.06 E28.45074
G1 X145.672 Y31.394 E28.47569
G1 X146.083 Y31.686 E28.49499
G1 X146.442 Y32.038 E28.51423
G1 X146.742 Y32.443 E28.53352
G1 X146.973 Y32.891 E28.55281
G1 X147.131 Y33.369 E28.57207
G1 X147.211 Y33.866 E28.59134
G1 X147.211 Y34.37 E28.61062
G1 X147.132 Y34.867 E28.62988
G1 X146.975 Y35.346 E28.64917
G1 X146.659 Y35.964 E28.67574
G1 X146.152 Y36.844 E28.7146
G1 X144.82 Y39.226 E28.81905
G1 X143.549 Y41.658 E28.92406
G1 X142.353 Y44.112 E29.02853
G1 X141.216 Y46.626 E29.13413
G1 X140.151 Y49.169 E29.23964
G1 X139.179 Y51.695 E29.34321
G1 X138.264 Y54.282 E29.44823
G1 X137.424 Y56.889 E29.55305
G1 X136.662 Y59.504 E29.65728
G1 X135.641 Y63.523 E29.81598
G1 X135.479 Y64 E29.83525
G1 X135.335 Y64.291 E29.84768
G1 X134.99 Y64.907 E29.8747
G1 X86.211 Y149.431 E33.6094
G1 X85.848 Y150.042 E33.6366
G1 X85.472 Y150.55 E33.66078
G1 X85.297 Y150.732 E33.67045
G1 X83.291 Y152.656 E33.77682
G1 X81.361 Y154.616 E33.88209
G1 X79.508 Y156.605 E33.98612
G1 X77.692 Y158.672 E34.09142
G1 X75.935 Y160.787 E34.19664
G1 X74.253 Y162.935 E34.30105
G1 X72.637 Y165.121 E34.40508
G1 X71.062 Y167.384 E34.5106
G1 X69.555 Y169.684 E34.61583
G1 X67.464 Y173.135 E34.77025
G1 X67.153 Y173.673 E34.79403
G1 X66.782 Y174.295 E34.82174
G1 X66.49 Y174.706 E34.84104
G1 X66.138 Y175.066 E34.86031
G1 X65.732 Y175.365 E34.8796
G1 X65.285 Y175.596 E34.89886
G1 X64.807 Y175.754 E34.91813
G1 X64.31 Y175.834 E34.93739
G1 X63.806 Y175.834 E34.95668
G1 X63.309 Y175.755 E34.97594
G1 X62.83 Y175.598 E34.99523
G1 X62.251 Y175.303 E35.0201
G1 X59.887 Y173.939 E35.12454
G1 X59.326 Y173.604 E35.14955
G1 X58.916 Y173.312 E35.16881
G1 X58.556 Y172.959 E35.18811
G1 X58.257 Y172.554 E35.20737
G1 X58.026 Y172.107 E35.22663
G1 X57.869 Y171.628 E35.24592
G1 X57.789 Y171.131 E35.26518
G1 X57.789 Y170.628 E35.28443
G1 X57.868 Y170.13 E35.30373
G1 X58.025 Y169.652 E35.32299
G1 X58.331 Y169.055 E35.34866
G1 X59.503 Y167.023 E35.43843
G1 X60.84 Y164.628 E35.5434
G1 X62.104 Y162.207 E35.64792
G1 X63.293 Y159.768 E35.75176
G1 X64.45 Y157.206 E35.85934
G1 X65.502 Y154.694 E35.96356
G1 X66.474 Y152.168 E36.06714
G1 X67.382 Y149.603 E36.17127
G1 X68.234 Y146.951 E36.27787
G1 X68.986 Y144.371 E36.38071
G1 X69.322 Y143.053 E36.43277
G1 X69.355 Y142.958 E36.43662
G1 X69.698 Y141.657 E36.48811
G1 X69.946 Y141.014 E36.51448
G1 X70.033 Y140.849 E36.52162
G1 X70.311 Y140.353 E36.54338
G1 X119.144 Y55.763 E40.2813
G0 F1285.7 X122.343 Y56.921
;TYPE:SUPPORT
G1 F900 X125.505 Y58.753 E40.42115
G1 X125.981 Y58.625 E40.44001
G1 X131.976 Y48.255 E40.89841
G1 X134.743 Y49.853 E41.0207
G1 X128.761 Y60.213 E41.47851
G1 X128.889 Y60.689 E41.49738
G1 X132.389 Y62.711 E41.65207
G1 X83.007 Y148.28 E45.43294
G1 X79.497 Y146.24 E45.5883
G1 X79.021 Y146.366 E45.60715
G1 X73.02 Y156.744 E46.06593
G1 X70.258 Y155.148 E46.18801
G1 X76.238 Y144.792 E46.64565
G1 X76.11 Y144.316 E46.66452
G1 X72.95 Y142.488 E46.80423
G1 X122.343 Y56.921 E50.58524
G0 F1285.7 X121.441 Y65.62
G1 F900 X120.602 Y65.848 E50.61852
G1 X110.085 Y84.061 E51.42338
G1 X110.313 Y84.9 E51.45665
G1 X113.838 Y86.936 E51.61244
G1 X114.677 Y86.708 E51.64571
G1 X125.193 Y68.495 E52.45055
G1 X124.965 Y67.656 E52.48382
G1 X121.441 Y65.62 E52.63958
G1 F3000 E49.13958
G0 F1285.7 X120.743 Y66.031
G0 X111.358 Y82.285
G0 X91.162 Y118.064
G1 F3000 E52.63958
G1 F900 X90.323 Y118.292 E52.67285
G1 X79.807 Y136.505 E53.47769
G1 X80.035 Y137.344 E53.51096
G1 X83.559 Y139.38 E53.66672
G1 X84.398 Y139.152 E53.69999
G1 X94.915 Y120.939 E54.50485
G1 X94.687 Y120.1 E54.53812
G1 X91.162 Y118.064 E54.69391
G0 F1285.7 X90.987 Y117.967
G1 F900 X90.987 Y111.52 E54.94063
G0 F1285.7 X90.72 Y111.984
G1 F900 X103.791 Y111.984 E55.44085
G0 F1285.7 X102.652 Y113.96
G1 F900 X102.652 Y91.312 E56.30758
G0 F1285.7 X102.84 Y90.987
G1 F900 X115.909 Y90.987 E56.80773
G0 F1285.7 X116.65 Y89.704
G1 F900 X116.65 Y83.57 E57.04247
G0 F1285.7 X116.409 Y83.988
G1 F900 X119.948 Y83.988 E57.17791
G0 F1285.7 X118.983 Y85.662
G1 F900 X118.983 Y79.529 E57.41261
G0 F1285.7 X119.103 Y79.322
G1 F900 X122.64 Y79.322 E57.54797
G0 F1285.7 X123.649 Y77.576
G1 F900 X123.649 Y71.447 E57.78253
G0 F1285.7 X123.144 Y72.323
G1 F900 X126.679 Y72.323 E57.91781
G0 F1285.7 X125.982 Y73.534
G1 F900 X125.982 Y58.769 E58.48286
G0 F1285.7 X126.316 Y58.325
G1 F900 X129.688 Y58.325 E58.6119
G0 F1285.7 X130.648 Y56.665
G1 F900 X130.648 Y50.832 E58.83513
G0 F1285.7 X130.362 Y51.326
G1 F900 X133.729 Y51.326 E58.96398
G0 F1285.7 X132.981 Y52.624
G1 F900 X132.981 Y48.998 E59.10275
G0 F1285.7 X132.975 Y48.993
G1 F900 X131.711 Y48.993 E59.15112
G0 F1285.7 X132.382 Y53.659
G1 F900 X129.013 Y53.659 E59.28005
G0 F1285.7 X128.315 Y54.867
G1 F900 X128.315 Y69.491 E59.83971
G0 F1285.7 X128.026 Y69.99
G1 F900 X124.491 Y69.99 E59.97499
G1 F3000 E56.47499
G0 F1285.7 X125.11 Y67.657
G1 F3000 E59.97499
G1 F900 X129.372 Y67.657 E60.13809
G0 F1285.7 X130.648 Y65.448
G1 F900 X130.648 Y61.867 E60.27514
G0 F1285.7 X132.065 Y62.991
G1 F900 X119 Y62.991 E60.77513
G0 F1285.7 X118.983 Y63.021
G1 F900 X118.983 Y68.373 E60.97995
G0 F1285.7 X119.395 Y67.657
G1 F900 X116.307 Y67.657 E61.09812
G0 F1285.7 X116.65 Y67.062
G1 F900 X116.65 Y72.413 E61.3029
G0 F1285.7 X116.701 Y72.323
G1 F900 X113.614 Y72.323 E61.42104
G0 F1285.7 X114.317 Y71.104
G1 F900 X114.317 Y76.454 E61.62578
G0 F1285.7 X114.007 Y76.989
G1 F900 X110.92 Y76.989 E61.74392
G0 F1285.7 X111.984 Y75.146
G1 F900 X111.984 Y80.494 E61.94859
G0 F1285.7 X111.313 Y81.655
G1 F900 X108.227 Y81.655 E62.06669
G0 F1285.7 X107.318 Y83.229
G1 F900 X107.318 Y105.875 E62.93334
G0 F1285.7 X107.83 Y104.985
G1 F900 X94.76 Y104.985 E63.43352
G0 F1285.7 X95.653 Y103.437
G1 F900 X95.653 Y126.088 E64.30036
G0 F1285.7 X95.712 Y125.982
G1 F900 X92.164 Y125.982 E64.43614
G0 F1285.7 X93.32 Y123.98
G1 F900 X93.32 Y130.131 E64.67154
G0 F1285.7 X93.02 Y130.648
G1 F900 X89.469 Y130.648 E64.80743
G0 F1285.7 X88.654 Y132.06
G1 F900 X88.654 Y138.216 E65.04302
G0 F1285.7 X88.98 Y137.647
G1 F900 X85.428 Y137.647 E65.17895
G0 F1285.7 X86.321 Y136.101
G1 F900 X86.321 Y142.259 E65.41462
G0 F1285.7 X86.288 Y142.313
G1 F900 X73.212 Y142.313 E65.91503
G0 F1285.7 X74.656 Y143.313
G1 F900 X74.656 Y139.812 E66.04901
G0 F1285.7 X74.559 Y139.98
G1 F900 X87.634 Y139.98 E66.54939
G0 F1285.7 X83.988 Y139.408
G1 F900 X83.988 Y146.301 E66.81318
G0 F1285.7 X83.595 Y146.979
G1 F900 X81.045 Y146.979 E66.91077
G0 F1285.7 X81.655 Y147.332
G1 F900 X81.655 Y138.442 E67.25098
G0 F1285.7 X80.28 Y137.647
G1 F900 X75.905 Y137.647 E67.41841
G0 F1285.7 X76.989 Y135.77
G1 F900 X76.989 Y149.601 E67.94772
G0 F1285.7 X77.154 Y149.312
G1 F900 X73.789 Y149.312 E68.07649
G0 F1285.7 X74.656 Y147.811
G1 F900 X74.656 Y153.637 E68.29945
G0 F1285.7 X74.457 Y153.978
G1 F900 X71.096 Y153.978 E68.42808
G0 F1285.7 X72.323 Y151.852
G1 F900 X72.323 Y156.179 E68.59367
G0 F1285.7 X72.55 Y156.311
G1 F900 X73.108 Y156.311 E68.61502
G0 F1285.7 X72.442 Y151.645
G1 F900 X75.806 Y151.645 E68.74376
G0 F1285.7 X75.136 Y146.979
G1 F900 X78.503 Y146.979 E68.87261
G0 F1285.7 X79.322 Y146.142
G1 F900 X79.322 Y131.729 E69.42419
G0 F1285.7 X79.946 Y130.648
G1 F900 X83.026 Y130.648 E69.54206
G0 F1285.7 X83.988 Y128.985
G1 F900 X83.988 Y123.645 E69.74642
G0 F1285.7 X83.986 Y123.649
G1 F900 X87.067 Y123.649 E69.86433
G0 F1285.7 X86.321 Y124.945
G1 F900 X86.321 Y119.604 E70.06873
G0 F1285.7 X86.679 Y118.983
G1 F900 X89.761 Y118.983 E70.18667
G0 F1285.7 X88.654 Y120.904
G1 F900 X88.654 Y115.562 E70.39111
G0 F1285.7 X88.027 Y116.65
G1 F900 X101.099 Y116.65 E70.89137
G0 F1285.7 X100.319 Y118.003
G1 F900 X100.319 Y95.354 E71.75814
G0 F1285.7 X100.147 Y95.653
G1 F900 X113.216 Y95.653 E72.25828
G0 F1285.7 X114.317 Y93.747
G1 F900 X114.317 Y86.95 E72.5184
