;FLAVOR:Marlin
;TIME:35683
;Filament used: 34.5415m
;Layer height: 0.2
;MINX:18.671
;MINY:24.039
;MINZ:0.26
;MAXX:186.33
;MAXY:180.991
;MAXZ:11.86
;Generated with Cura_SteamEngine 4.9.1
M82 ;absolute extrusion mode
;Begin Start Gcode for Dagoma DiscoEasy 200
;Sliced: 12-07-2021 15:59:49
;Initial extruder: 0

G90 ;Absolute positioning
M106 S255 ;Fan on full
G28 X Y ;Home stop X Y
G1 X100 ;Centre back during cooldown in case of oozing
M109 R90 ;Cooldown in case too hot
G28 ;Centre
G29 ;Auto-level
M104 S205 ;Pre-heat
M107 ;Fan off
G0 X100 Y5 Z0.5 ;Front centre for degunk
M109 S205 ;Wait for initial temp
M83 ;E Relative
G1 E10 F200 ;Degunk
G1 E-3 F5000 ;Retract
G0 Z3 ;Withdraw
M82 ;E absolute
G92 E0 ;E reset
G1 F6000 ;Set feedrate

;Finish Start Gcode for Dagoma DiscoEasy 200

G92 E0
G92 E0
G1 F3000 E-3.5
;LAYER_COUNT:59
;LAYER:0
M107
G0 F1285.7 X44.559 Y47.257 Z0.26
;TYPE:SKIRT
G1 F3000 E0
G1 F900 X45.701 Y46.186 E0.05992
G1 X46.471 Y45.486 E0.09974
G1 X47.735 Y44.373 E0.16419
G1 X48.377 Y43.826 E0.19647
G1 X49.721 Y42.717 E0.26315
G1 X50.616 Y42.003 E0.30697
G1 X51.829 Y41.065 E0.36565
G1 X52.646 Y40.452 E0.40474
G1 X53.957 Y39.5 E0.46674
G1 X54.714 Y38.968 E0.50215
G1 X56.02 Y38.081 E0.56257
G1 X56.888 Y37.51 E0.60233
G1 X58.309 Y36.607 E0.66676
G1 X59.118 Y36.112 E0.70306
G1 X60.627 Y35.22 E0.77014
G1 X61.423 Y34.769 E0.80515
G1 X62.895 Y33.964 E0.86936
G1 X63.777 Y33.5 E0.9075
G1 X65.061 Y32.845 E0.96266
G1 X66.085 Y32.342 E1.00632
G1 X67.589 Y31.633 E1.06995
G1 X68.446 Y31.245 E1.10596
G1 X69.971 Y30.585 E1.16955
G1 X70.984 Y30.166 E1.2115
G1 X72.487 Y29.572 E1.27335
G1 X73.454 Y29.209 E1.31288
G1 X74.903 Y28.687 E1.37182
G1 X75.861 Y28.36 E1.41056
G1 X77.291 Y27.896 E1.46809
G1 X78.308 Y27.582 E1.50882
G1 X79.937 Y27.11 E1.57373
G1 X80.865 Y26.859 E1.61052
G1 X82.414 Y26.465 E1.67169
G1 X83.517 Y26.203 E1.71507
G1 X85.027 Y25.866 E1.77428
G1 X86.022 Y25.658 E1.81318
G1 X87.65 Y25.347 E1.87661
G1 X88.677 Y25.166 E1.91652
G1 X90.178 Y24.927 E1.97469
G1 X91.233 Y24.775 E2.01548
G1 X93.111 Y24.538 E2.08792
G1 X93.725 Y24.471 E2.11156
G1 X95.325 Y24.324 E2.17304
G1 X96.298 Y24.251 E2.21039
G1 X98.044 Y24.147 E2.27732
G1 X99.093 Y24.101 E2.31751
G1 X100.555 Y24.057 E2.37348
G1 X101.692 Y24.04 E2.417
G1 X103.274 Y24.039 E2.47754
G1 X104.563 Y24.06 E2.52688
G1 X105.929 Y24.101 E2.57918
G1 X107.052 Y24.15 E2.62219
G1 X108.756 Y24.253 E2.68752
G1 X109.53 Y24.312 E2.71723
G1 X111.343 Y24.481 E2.78691
G1 X112.275 Y24.585 E2.8228
G1 X113.974 Y24.8 E2.88834
G1 X114.546 Y24.882 E2.91046
G1 X116.244 Y25.153 E2.97626
G1 X117.643 Y25.399 E3.03062
G1 X119.26 Y25.71 E3.09364
G1 X120.071 Y25.879 E3.12534
G1 X121.555 Y26.211 E3.18353
G1 X122.524 Y26.442 E3.22166
G1 X124.085 Y26.841 E3.28332
G1 X125.039 Y27.102 E3.32117
G1 X126.687 Y27.581 E3.38685
G1 X127.868 Y27.947 E3.43416
G1 X129.367 Y28.436 E3.4945
G1 X130.141 Y28.7 E3.5258
G1 X131.657 Y29.246 E3.58746
G1 X132.462 Y29.55 E3.6204
G1 X134.067 Y30.187 E3.68648
G1 X135.112 Y30.621 E3.72978
G1 X136.66 Y31.294 E3.79438
G1 X137.434 Y31.644 E3.82689
G1 X138.943 Y32.356 E3.89074
G1 X139.893 Y32.822 E3.93124
G1 X141.301 Y33.54 E3.99172
G1 X142.159 Y33.997 E4.02892
G1 X143.49 Y34.728 E4.08704
G1 X144.591 Y35.355 E4.13553
G1 X145.95 Y36.158 E4.19593
G1 X146.714 Y36.625 E4.2302
G1 X148.162 Y37.542 E4.29579
G1 X148.932 Y38.048 E4.33105
G1 X150.285 Y38.967 E4.39365
G1 X151.219 Y39.626 E4.43739
G1 X152.451 Y40.522 E4.49569
G1 X153.321 Y41.177 E4.53737
G1 X154.522 Y42.105 E4.59545
G1 X155.203 Y42.646 E4.62873
G1 X156.68 Y43.868 E4.7021
G1 X157.407 Y44.494 E4.73881
G1 X158.5 Y45.46 E4.79464
G1 X159.362 Y46.244 E4.83923
G1 X160.485 Y47.297 E4.89814
G1 X161.158 Y47.946 E4.93392
G1 X162.432 Y49.22 E5.00287
G1 X163.071 Y49.884 E5.03814
G1 X164.135 Y51.018 E5.09765
G1 X164.879 Y51.835 E5.13994
G1 X165.975 Y53.08 E5.20341
G1 X166.531 Y53.734 E5.23626
G1 X167.588 Y55.011 E5.2997
G1 X168.234 Y55.819 E5.33929
G1 X169.27 Y57.154 E5.40396
G1 X169.868 Y57.951 E5.44209
G1 X170.799 Y59.23 E5.50263
G1 X171.342 Y60.002 E5.53875
G1 X172.33 Y61.456 E5.60603
G1 X172.89 Y62.31 E5.64511
G1 X173.748 Y63.661 E5.70636
G1 X174.167 Y64.343 E5.73699
G1 X175.115 Y65.95 E5.80839
G1 X175.702 Y66.983 E5.85386
G1 X176.361 Y68.184 E5.90629
G1 X176.856 Y69.114 E5.94661
G1 X177.594 Y70.563 E6.00884
G1 X177.872 Y71.131 E6.03304
G1 X178.579 Y72.632 E6.09653
G1 X179.217 Y74.046 E6.1559
G1 X179.877 Y75.57 E6.21946
G1 X180.139 Y76.204 E6.24571
G1 X180.726 Y77.684 E6.30664
G1 X181.123 Y78.73 E6.34946
G1 X181.702 Y80.34 E6.41494
G1 X181.98 Y81.155 E6.44789
G1 X182.479 Y82.694 E6.5098
G1 X182.759 Y83.607 E6.54635
G1 X183.271 Y85.37 E6.61661
G1 X183.488 Y86.174 E6.64848
G1 X183.837 Y87.531 E6.7021
G1 X184.106 Y88.65 E6.74614
G1 X184.465 Y90.246 E6.80875
G1 X184.724 Y91.487 E6.85726
G1 X185.024 Y93.043 E6.91791
G1 X185.173 Y93.896 E6.95104
G1 X185.435 Y95.544 E7.01491
G1 X185.57 Y96.492 E7.05155
G1 X185.789 Y98.245 E7.11916
G1 X185.87 Y99.006 E7.14845
G1 X185.994 Y100.33 E7.19934
G1 X186.114 Y101.836 E7.25715
G1 X186.207 Y103.283 E7.31264
G1 X186.274 Y104.622 E7.36395
G1 X186.313 Y105.739 E7.40672
G1 X186.33 Y106.984 E7.45437
G1 X186.325 Y108.687 E7.51955
G1 X186.304 Y109.913 E7.56647
G1 X186.263 Y111.243 E7.6174
G1 X186.213 Y112.375 E7.66076
G1 X186.116 Y114.001 E7.7231
G1 X186.047 Y114.923 E7.75848
G1 X185.885 Y116.673 E7.82574
G1 X185.799 Y117.457 E7.85592
G1 X185.582 Y119.194 E7.92291
G1 X185.479 Y119.916 E7.95082
G1 X185.222 Y121.552 E8.0142
G1 X185.015 Y122.74 E8.06035
G1 X184.678 Y124.5 E8.12892
G1 X184.519 Y125.258 E8.15856
G1 X184.213 Y126.629 E8.21232
G1 X183.879 Y128.024 E8.26722
G1 X183.511 Y129.465 E8.32413
G1 X183.267 Y130.362 E8.35971
G1 X182.748 Y132.148 E8.43089
G1 X182.481 Y133.009 E8.46538
G1 X182.015 Y134.447 E8.52323
G1 X181.697 Y135.379 E8.56092
G1 X181.131 Y136.956 E8.62504
G1 X180.764 Y137.929 E8.66484
G1 X180.173 Y139.424 E8.72636
G1 X179.757 Y140.432 E8.76809
G1 X179.042 Y142.078 E8.83677
G1 X178.683 Y142.871 E8.87008
G1 X178.001 Y144.316 E8.93123
G1 X177.655 Y145.022 E8.96132
G1 X176.91 Y146.487 E9.02422
G1 X176.314 Y147.614 E9.07301
G1 X175.553 Y149.003 E9.13362
G1 X175.14 Y149.729 E9.16558
G1 X174.387 Y151.008 E9.22238
G1 X173.752 Y152.048 E9.26901
G1 X172.784 Y153.572 E9.33811
G1 X172.198 Y154.46 E9.37882
G1 X171.326 Y155.742 E9.43816
G1 X170.81 Y156.473 E9.4724
G1 X169.947 Y157.662 E9.52863
G1 X169.263 Y158.574 E9.57225
G1 X168.28 Y159.845 E9.63374
G1 X167.598 Y160.696 E9.67548
G1 X166.943 Y161.486 E9.71475
G1 X165.256 Y163.582 E9.81772
G1 X163.581 Y165.788 E9.92372
G1 X162.015 Y167.976 E10.02669
G1 X160.486 Y170.245 E10.1314
G1 X159.038 Y172.531 E10.23496
G1 X157.657 Y174.856 E10.33845
G1 X156.323 Y177.25 E10.44333
G1 X155.877 Y178.108 E10.48033
G1 X155.477 Y178.848 E10.51252
G1 X155.178 Y179.317 E10.53381
G1 X154.822 Y179.731 E10.55471
G1 X154.722 Y179.832 E10.56014
G1 X154.303 Y180.199 E10.58146
G1 X153.836 Y180.501 E10.60274
G1 X153.33 Y180.734 E10.62406
G1 X152.797 Y180.891 E10.64533
G1 X152.098 Y180.979 E10.67229
G1 X151.457 Y180.991 E10.69682
G1 X53.698 Y180.991 E14.43801
G1 X52.996 Y180.981 E14.46488
G1 X52.441 Y180.933 E14.4862
G1 X51.9 Y180.806 E14.50747
G1 X51.382 Y180.603 E14.52876
G1 X50.898 Y180.328 E14.55006
G1 X50.459 Y179.986 E14.57136
G1 X50.09 Y179.613 E14.59144
G1 X49.74 Y179.181 E14.61272
G1 X49.498 Y178.784 E14.63051
G1 X48.955 Y177.763 E14.67476
G1 X47.624 Y175.344 E14.78043
G1 X46.226 Y172.962 E14.88612
G1 X44.806 Y170.695 E14.9885
G1 X43.289 Y168.415 E15.0933
G1 X41.736 Y166.222 E15.19614
G1 X40.09 Y164.029 E15.30107
G1 X38.1 Y161.541 E15.423
G1 X37.37 Y160.659 E15.46681
G1 X36.762 Y159.9 E15.50403
G1 X35.746 Y158.588 E15.56753
G1 X35.045 Y157.65 E15.61235
G1 X34.093 Y156.336 E15.67444
G1 X33.56 Y155.573 E15.71006
G1 X32.695 Y154.299 E15.76899
G1 X32.173 Y153.504 E15.80539
G1 X31.237 Y152.029 E15.87224
G1 X30.661 Y151.086 E15.91453
G1 X29.841 Y149.695 E15.97633
G1 X29.405 Y148.928 E16.01009
G1 X28.672 Y147.59 E16.06847
G1 X28.149 Y146.602 E16.11126
G1 X27.365 Y145.059 E16.17749
G1 X26.88 Y144.066 E16.21978
G1 X26.226 Y142.671 E16.27874
G1 X25.836 Y141.806 E16.31506
G1 X25.204 Y140.346 E16.37594
G1 X24.886 Y139.578 E16.40775
G1 X24.252 Y137.974 E16.47376
G1 X23.798 Y136.77 E16.523
G1 X23.242 Y135.215 E16.5862
G1 X23.003 Y134.513 E16.61458
G1 X22.514 Y133 E16.67543
G1 X22.222 Y132.044 E16.71368
G1 X21.75 Y130.417 E16.77852
G1 X21.456 Y129.333 E16.8215
G1 X21.051 Y127.747 E16.88414
G1 X20.794 Y126.663 E16.92678
G1 X20.49 Y125.306 E16.97999
G1 X20.302 Y124.402 E17.01533
G1 X19.956 Y122.599 E17.08559
G1 X19.782 Y121.594 E17.12462
G1 X19.531 Y119.996 E17.18653
G1 X19.409 Y119.129 E17.22003
G1 X19.199 Y117.45 E17.28479
G1 X19.103 Y116.569 E17.3187
G1 X18.943 Y114.82 E17.38592
G1 X18.882 Y113.998 E17.41746
G1 X18.783 Y112.317 E17.4819
G1 X18.736 Y111.219 E17.52396
G1 X18.695 Y109.861 E17.57595
G1 X18.675 Y108.684 E17.621
G1 X18.671 Y106.979 E17.68625
G1 X18.685 Y106.125 E17.71894
G1 X18.744 Y104.292 E17.78913
G1 X18.815 Y102.869 E17.84365
G1 X18.896 Y101.579 E17.89312
G1 X18.955 Y100.802 E17.92294
G1 X19.129 Y98.974 E17.99321
G1 X19.218 Y98.172 E18.02409
G1 X19.431 Y96.508 E18.08829
G1 X19.61 Y95.268 E18.13624
G1 X19.842 Y93.807 E18.19285
G1 X19.995 Y92.935 E18.22673
G1 X20.317 Y91.255 E18.29219
G1 X20.544 Y90.171 E18.33458
G1 X20.887 Y88.649 E18.39428
G1 X21.083 Y87.834 E18.42636
G1 X21.529 Y86.109 E18.49455
G1 X21.806 Y85.106 E18.53437
G1 X22.226 Y83.669 E18.59166
G1 X22.498 Y82.785 E18.62706
G1 X23.041 Y81.115 E18.69426
G1 X23.368 Y80.164 E18.73275
G1 X23.943 Y78.572 E18.79753
G1 X24.354 Y77.492 E18.84175
G1 X24.935 Y76.029 E18.90199
G1 X25.273 Y75.215 E18.93572
G1 X25.882 Y73.809 E18.99436
G1 X26.299 Y72.886 E19.03312
G1 X26.993 Y71.41 E19.09554
G1 X27.397 Y70.584 E19.13073
G1 X28.171 Y69.068 E19.19587
G1 X28.684 Y68.101 E19.23776
G1 X29.469 Y66.674 E19.30009
G1 X29.913 Y65.897 E19.33433
G1 X30.772 Y64.445 E19.3989
G1 X31.236 Y63.691 E19.43278
G1 X32.105 Y62.322 E19.49483
G1 X32.814 Y61.243 E19.54424
G1 X33.814 Y59.773 E19.61228
G1 X34.105 Y59.361 E19.63158
G1 X35.009 Y58.118 E19.6904
G1 X35.849 Y56.998 E19.74398
G1 X36.811 Y55.758 E19.80404
G1 X37.369 Y55.061 E19.83821
G1 X38.545 Y53.64 E19.9088
G1 X39.106 Y52.985 E19.9418
G1 X40.199 Y51.751 E20.00489
G1 X40.871 Y51.015 E20.04303
G1 X41.939 Y49.876 E20.10278
G1 X42.565 Y49.227 E20.13729
G1 X43.908 Y47.884 E20.20998
G1 X44.559 Y47.257 E20.24456
G0 F1285.7 X44.798 Y47.512
G1 F900 X45.936 Y46.445 E20.30426
G1 X46.702 Y45.749 E20.34387
G1 X47.962 Y44.64 E20.40811
G1 X48.6 Y44.096 E20.4402
G1 X49.939 Y42.99 E20.50666
G1 X50.83 Y42.28 E20.55026
G1 X52.04 Y41.345 E20.60878
G1 X52.852 Y40.735 E20.64765
G1 X54.158 Y39.786 E20.70943
G1 X54.911 Y39.257 E20.74464
G1 X56.213 Y38.374 E20.80485
G1 X57.076 Y37.805 E20.84441
G1 X58.492 Y36.906 E20.9086
G1 X59.296 Y36.413 E20.94469
G1 X60.799 Y35.525 E21.0115
G1 X61.591 Y35.076 E21.04634
G1 X63.058 Y34.274 E21.11032
G1 X63.936 Y33.812 E21.14829
G1 X65.216 Y33.159 E21.20328
G1 X66.234 Y32.658 E21.2467
G1 X67.733 Y31.951 E21.31013
G1 X68.585 Y31.567 E21.34589
G1 X70.105 Y30.908 E21.40929
G1 X71.113 Y30.491 E21.45104
G1 X72.61 Y29.899 E21.51265
G1 X73.573 Y29.538 E21.55201
G1 X75.017 Y29.018 E21.61074
G1 X75.969 Y28.692 E21.64925
G1 X77.394 Y28.23 E21.70658
G1 X78.405 Y27.918 E21.74707
G1 X80.029 Y27.448 E21.81177
G1 X80.951 Y27.198 E21.84833
G1 X82.495 Y26.805 E21.9093
G1 X83.593 Y26.545 E21.95248
G1 X85.098 Y26.209 E22.0115
G1 X86.088 Y26.002 E22.0502
G1 X87.71 Y25.691 E22.11341
G1 X88.732 Y25.512 E22.15311
G1 X90.229 Y25.274 E22.21112
G1 X91.277 Y25.122 E22.25165
G1 X93.149 Y24.886 E22.32386
G1 X93.757 Y24.82 E22.34726
G1 X95.351 Y24.673 E22.40852
G1 X96.319 Y24.6 E22.44567
G1 X98.06 Y24.496 E22.51242
G1 X99.104 Y24.451 E22.55241
G1 X100.56 Y24.407 E22.60815
G1 X101.692 Y24.39 E22.65148
G1 X103.333 Y24.389 E22.71428
G1 X104.553 Y24.41 E22.76098
G1 X105.914 Y24.45 E22.81308
G1 X107.031 Y24.499 E22.85587
G1 X108.73 Y24.602 E22.92101
G1 X109.498 Y24.66 E22.95048
G1 X111.305 Y24.829 E23.01994
G1 X112.231 Y24.932 E23.0556
G1 X113.924 Y25.146 E23.1209
G1 X114.491 Y25.228 E23.14283
G1 X116.183 Y25.498 E23.2084
G1 X117.577 Y25.743 E23.26256
G1 X119.189 Y26.053 E23.32538
G1 X119.994 Y26.221 E23.35685
G1 X121.474 Y26.551 E23.41488
G1 X122.437 Y26.781 E23.45277
G1 X123.993 Y27.179 E23.51424
G1 X124.941 Y27.438 E23.55185
G1 X126.584 Y27.915 E23.61732
G1 X127.759 Y28.28 E23.66441
G1 X129.253 Y28.767 E23.72454
G1 X130.022 Y29.03 E23.75565
G1 X131.533 Y29.573 E23.81709
G1 X132.333 Y29.876 E23.84983
G1 X133.933 Y30.51 E23.91569
G1 X134.973 Y30.943 E23.9588
G1 X136.516 Y31.613 E24.02318
G1 X137.284 Y31.961 E24.05545
G1 X138.789 Y32.671 E24.11913
G1 X139.734 Y33.134 E24.1594
G1 X141.137 Y33.849 E24.21967
G1 X141.991 Y34.303 E24.25668
G1 X143.317 Y35.032 E24.31459
G1 X144.413 Y35.656 E24.36285
G1 X145.767 Y36.457 E24.42306
G1 X146.527 Y36.921 E24.45714
G1 X147.97 Y37.835 E24.5225
G1 X148.736 Y38.337 E24.55755
G1 X150.084 Y39.253 E24.61992
G1 X151.013 Y39.909 E24.66345
G1 X152.24 Y40.801 E24.7215
G1 X153.107 Y41.454 E24.76304
G1 X154.305 Y42.379 E24.82096
G1 X154.98 Y42.916 E24.85397
G1 X156.452 Y44.134 E24.92709
G1 X157.175 Y44.756 E24.96359
G1 X158.264 Y45.719 E25.01922
G1 X159.122 Y46.5 E25.06362
G1 X160.242 Y47.549 E25.12235
G1 X160.911 Y48.193 E25.15788
G1 X162.18 Y49.463 E25.22659
G1 X162.816 Y50.124 E25.26169
G1 X163.876 Y51.253 E25.32096
G1 X164.616 Y52.066 E25.36303
G1 X165.709 Y53.307 E25.42632
G1 X166.262 Y53.957 E25.45898
G1 X167.315 Y55.23 E25.5222
G1 X167.958 Y56.033 E25.56157
G1 X168.954 Y57.315 E25.6237
G1 X169.585 Y58.157 E25.66396
G1 X170.513 Y59.431 E25.72428
G1 X171.053 Y60.199 E25.76021
G1 X172.037 Y61.648 E25.82724
G1 X172.595 Y62.498 E25.86615
G1 X173.45 Y63.844 E25.92718
G1 X173.865 Y64.521 E25.95757
G1 X174.811 Y66.123 E26.02877
G1 X175.395 Y67.151 E26.07401
G1 X176.052 Y68.349 E26.1263
G1 X176.545 Y69.273 E26.16638
G1 X177.28 Y70.717 E26.22839
G1 X177.556 Y71.28 E26.25238
G1 X178.26 Y72.776 E26.31566
G1 X178.895 Y74.185 E26.3748
G1 X179.553 Y75.704 E26.43815
G1 X179.814 Y76.333 E26.46422
G1 X180.398 Y77.808 E26.52493
G1 X180.794 Y78.849 E26.56755
G1 X181.371 Y80.453 E26.63279
G1 X181.647 Y81.263 E26.66553
G1 X182.144 Y82.797 E26.72724
G1 X182.423 Y83.705 E26.7636
G1 X182.933 Y85.462 E26.83361
G1 X183.149 Y86.261 E26.86529
G1 X183.496 Y87.614 E26.91874
G1 X183.765 Y88.727 E26.96256
G1 X184.123 Y90.318 E27.02497
G1 X184.38 Y91.553 E27.07324
G1 X184.679 Y93.104 E27.13369
G1 X184.827 Y93.951 E27.1666
G1 X185.088 Y95.594 E27.23026
G1 X185.223 Y96.535 E27.26664
G1 X185.441 Y98.282 E27.33402
G1 X185.522 Y99.039 E27.36316
G1 X185.645 Y100.358 E27.41385
G1 X185.765 Y101.859 E27.47148
G1 X185.858 Y103.301 E27.52678
G1 X185.924 Y104.635 E27.57789
G1 X185.963 Y105.744 E27.62036
G1 X185.98 Y106.984 E27.66782
G1 X185.975 Y108.681 E27.73276
G1 X185.954 Y109.903 E27.77953
G1 X185.914 Y111.227 E27.83022
G1 X185.864 Y112.354 E27.8734
G1 X185.767 Y113.975 E27.93554
G1 X185.698 Y114.891 E27.9707
G1 X185.537 Y116.635 E28.03772
G1 X185.452 Y117.414 E28.06771
G1 X185.236 Y119.145 E28.13447
G1 X185.133 Y119.861 E28.16215
G1 X184.877 Y121.492 E28.22533
G1 X184.671 Y122.674 E28.27125
G1 X184.335 Y124.428 E28.3396
G1 X184.178 Y125.182 E28.36907
G1 X183.873 Y126.548 E28.42263
G1 X183.54 Y127.937 E28.4773
G1 X183.173 Y129.373 E28.53402
G1 X182.931 Y130.265 E28.56939
G1 X182.413 Y132.045 E28.64033
G1 X182.148 Y132.901 E28.67463
G1 X181.684 Y134.334 E28.73227
G1 X181.368 Y135.261 E28.76975
G1 X180.803 Y136.833 E28.83368
G1 X180.438 Y137.8 E28.87323
G1 X179.849 Y139.29 E28.93455
G1 X179.436 Y140.293 E28.97606
G1 X178.724 Y141.934 E29.04452
G1 X178.367 Y142.722 E29.07762
G1 X177.686 Y144.162 E29.13858
G1 X177.343 Y144.864 E29.16848
G1 X176.6 Y146.324 E29.23118
G1 X176.007 Y147.446 E29.27974
G1 X175.249 Y148.83 E29.34013
G1 X174.839 Y149.551 E29.37187
G1 X174.088 Y150.826 E29.4285
G1 X173.457 Y151.86 E29.47486
G1 X172.492 Y153.38 E29.54376
G1 X171.908 Y154.264 E29.58431
G1 X171.04 Y155.54 E29.64337
G1 X170.527 Y156.268 E29.67745
G1 X169.667 Y157.452 E29.73345
G1 X168.986 Y158.359 E29.77686
