;FLAVOR:Marlin
;TIME:48115
;Filament used: 69.4653m
;Layer height: 0.3
;MINX:3.428
;MINY:3.522
;MINZ:0.26
;MAXX:201.581
;MAXY:201.479
;MAXZ:44.06
;Generated with Cura_SteamEngine 4.9.1
M82 ;absolute extrusion mode
;Begin Start Gcode for Dagoma DiscoEasy 200
;Sliced: 09-07-2021 20:53:41
;Initial extruder: 0

G90 ;Absolute positioning
M106 S255 ;Fan on full
G28 X Y ;Home stop X Y
G1 X100 ;Centre back during cooldown in case of oozing
M109 R90 ;Cooldown in case too hot
G28 ;Centre
G29 ;Auto-level
M104 S205 ;Pre-heat
M107 ;Fan off
G0 X100 Y5 Z0.5 ;Front centre for degunk
M109 S205 ;Wait for initial temp
M83 ;E Relative
G1 E10 F200 ;Degunk
G1 E-3 F5000 ;Retract
G0 Z3 ;Withdraw
M82 ;E absolute
G92 E0 ;E reset
G1 F6000 ;Set feedrate

;Finish Start Gcode for Dagoma DiscoEasy 200

G92 E0
G92 E0
G1 F3000 E-3.5
;LAYER_COUNT:147
;LAYER:0
M107
G0 F1285.7 X31.812 Y33.056 Z0.26
;TYPE:SKIRT
G1 F3000 E0
G1 F900 X32.559 Y32.355 E0.0392
G1 X40.23 Y25.446 E0.43429
G1 X40.747 Y24.996 E0.46052
G1 X41.344 Y24.539 E0.48929
G1 X50.156 Y18.404 E0.9002
G1 X50.91 Y17.894 E0.93504
G1 X51.34 Y17.629 E0.95437
G1 X51.8 Y17.37 E0.97457
G1 X61.32 Y12.375 E1.386
G1 X61.964 Y12.048 E1.41364
G1 X62.589 Y11.78 E1.43966
G1 X62.694 Y11.739 E1.44398
G1 X73.074 Y7.903 E1.86747
G1 X73.622 Y7.709 E1.88972
G1 X73.958 Y7.607 E1.90316
G1 X75.097 Y7.317 E1.94814
G1 X85.111 Y4.97 E2.34175
G1 X85.75 Y4.83 E2.36679
G1 X86.559 Y4.713 E2.39807
G1 X97.193 Y3.595 E2.80727
G1 X97.815 Y3.538 E2.83117
G1 X98.172 Y3.522 E2.84485
G1 X99.364 Y3.524 E2.89047
G1 X110.11 Y3.745 E3.3018
G1 X110.709 Y3.766 E3.32474
G1 X111.061 Y3.795 E3.33825
G1 X112.299 Y3.953 E3.38601
G1 X122.116 Y5.404 E3.76579
G1 X122.69 Y5.497 E3.78804
G1 X123.037 Y5.57 E3.80161
G1 X124.263 Y5.887 E3.85007
G1 X134.425 Y8.734 E4.25394
G1 X134.986 Y8.9 E4.27633
G1 X135.314 Y9.013 E4.28961
G1 X136.391 Y9.441 E4.33396
G1 X145.669 Y13.334 E4.71901
G1 X146.16 Y13.549 E4.73953
G1 X146.472 Y13.703 E4.75284
G1 X147.563 Y14.304 E4.80051
G1 X156.617 Y19.535 E5.20067
G1 X157.134 Y19.844 E5.22372
G1 X157.421 Y20.033 E5.23688
G1 X158.39 Y20.737 E5.28271
G1 X166.53 Y26.908 E5.67363
G1 X167.157 Y27.396 E5.70403
G1 X167.554 Y27.741 E5.72416
G1 X167.835 Y28.008 E5.73899
G1 X175.486 Y35.5 E6.1488
G1 X175.89 Y35.905 E6.17069
G1 X176.136 Y36.177 E6.18472
G1 X176.918 Y37.125 E6.23175
G1 X183.307 Y45.188 E6.62545
G1 X183.684 Y45.678 E6.64911
G1 X183.886 Y45.966 E6.66257
G1 X184.482 Y46.906 E6.70516
G1 X189.828 Y55.722 E7.09973
G1 X190.208 Y56.369 E7.12845
G1 X190.44 Y56.819 E7.14782
G1 X190.715 Y57.417 E7.17301
G1 X195.023 Y67.107 E7.57884
G1 X195.274 Y67.692 E7.6032
G1 X195.399 Y68.025 E7.61681
G1 X195.758 Y69.132 E7.66135
G1 X198.743 Y78.989 E8.05549
G1 X198.906 Y79.56 E8.07822
G1 X198.986 Y79.895 E8.0914
G1 X199.217 Y81.106 E8.13858
G1 X200.794 Y90.446 E8.50107
G1 X200.934 Y91.239 E8.53189
G1 X201.082 Y92.125 E8.56627
G1 X201.129 Y92.544 E8.5824
G1 X201.167 Y93.226 E8.60854
G1 X201.553 Y102.936 E8.98043
G1 X201.581 Y104.417 E9.03712
G1 X201.573 Y104.756 E9.0501
G1 X201.521 Y105.497 E9.07853
G1 X200.633 Y116.057 E9.48408
G1 X200.579 Y116.612 E9.50542
G1 X200.497 Y117.204 E9.52829
G1 X200.272 Y118.364 E9.57351
G1 X198.19 Y128.128 E9.95557
G1 X198.054 Y128.721 E9.97886
G1 X197.963 Y129.051 E9.99196
G1 X197.592 Y130.191 E10.03784
G1 X194.155 Y140.074 E10.43827
G1 X193.936 Y140.679 E10.4629
G1 X193.797 Y141.012 E10.47671
G1 X193.28 Y142.108 E10.52308
G1 X188.81 Y151.124 E10.9082
G1 X188.536 Y151.66 E10.93123
G1 X188.354 Y151.978 E10.94526
G1 X187.685 Y153.027 E10.99287
G1 X181.881 Y161.757 E11.39406
G1 X181.547 Y162.244 E11.41666
G1 X181.335 Y162.524 E11.4301
G1 X180.542 Y163.48 E11.47763
G1 X173.864 Y171.215 E11.86871
G1 X173.368 Y171.77 E11.89719
G1 X172.886 Y172.241 E11.92298
G1 X164.826 Y179.501 E12.33812
G1 X164.257 Y180 E12.36708
G1 X163.834 Y180.346 E12.38799
G1 X163.344 Y180.701 E12.41115
G1 X154.88 Y186.584 E12.80562
G1 X154.218 Y187.03 E12.83617
G1 X153.923 Y187.21 E12.84939
G1 X152.818 Y187.817 E12.89764
G1 X143.555 Y192.67 E13.29784
G1 X142.932 Y192.984 E13.32454
G1 X142.287 Y193.258 E13.35135
G1 X132.087 Y197.043 E13.76771
G1 X131.481 Y197.258 E13.79232
G1 X131.147 Y197.36 E13.80568
G1 X130.007 Y197.651 E13.85071
G1 X119.892 Y200.029 E14.24836
G1 X119.221 Y200.177 E14.27466
G1 X118.397 Y200.293 E14.3065
G1 X107.823 Y201.405 E14.7134
G1 X107.194 Y201.463 E14.73757
G1 X106.835 Y201.479 E14.75132
G1 X105.642 Y201.477 E14.79698
G1 X94.858 Y201.255 E15.20976
G1 X94.307 Y201.236 E15.23086
G1 X93.956 Y201.208 E15.24434
G1 X92.775 Y201.059 E15.28989
G1 X82.861 Y199.593 E15.67342
G1 X82.314 Y199.505 E15.69462
G1 X81.96 Y199.431 E15.70846
G1 X80.781 Y199.125 E15.75508
G1 X70.552 Y196.259 E16.16161
G1 X69.98 Y196.089 E16.18445
G1 X69.658 Y195.978 E16.19748
G1 X68.622 Y195.567 E16.24014
G1 X59.467 Y191.726 E16.62008
G1 X58.937 Y191.494 E16.64222
G1 X58.626 Y191.341 E16.65549
G1 X57.588 Y190.771 E16.7008
G1 X48.346 Y185.433 E17.10925
G1 X47.847 Y185.135 E17.13149
G1 X47.556 Y184.943 E17.14483
G1 X46.603 Y184.249 E17.18995
G1 X38.347 Y177.987 E17.5865
G1 X37.936 Y177.663 E17.60653
G1 X37.419 Y177.22 E17.63259
G1 X36.843 Y176.674 E17.66296
G1 X29.579 Y169.558 E18.05211
G1 X29.178 Y169.154 E18.0739
G1 X28.939 Y168.891 E18.0875
G1 X28.135 Y167.915 E18.13589
G1 X21.65 Y159.731 E18.5355
G1 X21.248 Y159.207 E18.56077
G1 X21.05 Y158.924 E18.57399
G1 X20.419 Y157.928 E18.61911
G1 X15.179 Y149.29 E19.00575
G1 X14.797 Y148.639 E19.03464
G1 X14.577 Y148.218 E19.05282
G1 X14.157 Y147.3 E19.09145
G1 X9.978 Y137.857 E19.48663
G1 X9.72 Y137.252 E19.51181
G1 X9.596 Y136.923 E19.52526
G1 X9.288 Y135.969 E19.56363
G1 X6.259 Y125.974 E19.96331
G1 X6.087 Y125.372 E19.98727
G1 X6.007 Y125.034 E20.00056
G1 X5.763 Y123.752 E20.0505
G1 X4.077 Y113.752 E20.4386
G1 X3.979 Y113.117 E20.46319
G1 X3.941 Y112.766 E20.4767
G1 X3.871 Y111.625 E20.52045
G1 X3.454 Y101.716 E20.89999
G1 X3.428 Y100.489 E20.94696
G1 X3.437 Y100.135 E20.96051
G1 X3.481 Y99.509 E20.98453
G1 X4.389 Y88.873 E21.39305
G1 X4.449 Y88.272 E21.41616
G1 X4.499 Y87.927 E21.4295
G1 X4.717 Y86.795 E21.47362
G1 X6.852 Y76.731 E21.86733
G1 X6.991 Y76.12 E21.89131
G1 X7.084 Y75.782 E21.90473
G1 X7.472 Y74.593 E21.95259
G1 X10.806 Y65.042 E22.33973
G1 X11.007 Y64.489 E22.36225
G1 X11.144 Y64.16 E22.37589
G1 X11.632 Y63.127 E22.41961
G1 X16.247 Y53.802 E22.81779
G1 X16.527 Y53.256 E22.84127
G1 X16.704 Y52.947 E22.8549
G1 X17.371 Y51.898 E22.90247
G1 X23.112 Y43.262 E23.29933
G1 X23.455 Y42.762 E23.32254
G1 X23.665 Y42.483 E23.3359
G1 X24.42 Y41.572 E23.38118
G1 X31.171 Y33.755 E23.77645
G1 X31.565 Y33.31 E23.7992
G1 X31.812 Y33.056 E23.81276
G0 F1285.7 X32.051 Y33.311
G1 F900 X32.793 Y32.615 E23.85169
G1 X40.46 Y25.71 E24.24656
G1 X40.977 Y25.26 E24.27279
G1 X41.552 Y24.821 E24.30047
G1 X41.635 Y24.761 E24.30439
G1 X50.397 Y18.663 E24.71292
G1 X51.106 Y18.184 E24.74567
G1 X51.61 Y17.876 E24.76827
G1 X51.962 Y17.68 E24.78369
G1 X61.478 Y12.687 E25.19495
G1 X62.122 Y12.36 E25.22259
G1 X62.72 Y12.105 E25.24747
G1 X73.191 Y8.233 E25.67471
G1 X73.739 Y8.039 E25.69696
G1 X74.044 Y7.946 E25.70916
G1 X75.177 Y7.658 E25.7539
G1 X85.186 Y5.312 E26.14732
G1 X85.825 Y5.172 E26.17235
G1 X86.599 Y5.061 E26.20228
G1 X97.178 Y3.948 E26.60936
G1 X97.847 Y3.887 E26.63507
G1 X98.172 Y3.872 E26.64752
G1 X99.357 Y3.874 E26.69287
G1 X110.098 Y4.095 E27.10401
G1 X110.697 Y4.116 E27.12695
G1 X111.017 Y4.142 E27.13924
G1 X112.247 Y4.299 E27.18669
G1 X122.06 Y5.749 E27.56631
G1 X122.634 Y5.842 E27.58856
G1 X122.95 Y5.909 E27.60092
G1 X124.169 Y6.224 E27.6491
G1 X134.326 Y9.07 E28.05278
G1 X134.887 Y9.236 E28.07517
G1 X135.185 Y9.339 E28.08723
G1 X136.256 Y9.764 E28.13133
G1 X145.529 Y13.655 E28.51618
G1 X146.02 Y13.87 E28.53669
G1 X146.304 Y14.01 E28.54881
G1 X147.388 Y14.607 E28.59617
G1 X156.437 Y19.835 E28.99611
G1 X156.954 Y20.144 E29.01916
G1 X157.216 Y20.317 E29.03117
G1 X158.178 Y21.016 E29.07668
G1 X166.315 Y27.184 E29.46743
G1 X166.942 Y27.672 E29.49784
G1 X167.319 Y28.001 E29.51699
G1 X167.59 Y28.258 E29.53128
G1 X175.239 Y35.748 E29.94098
G1 X175.643 Y36.153 E29.96287
G1 X175.866 Y36.399 E29.97557
G1 X176.644 Y37.343 E30.02239
G1 X183.03 Y45.401 E30.41586
G1 X183.407 Y45.891 E30.43952
G1 X183.59 Y46.153 E30.45175
G1 X184.223 Y47.153 E30.49705
G1 X189.527 Y55.899 E30.88849
G1 X189.907 Y56.546 E30.91721
G1 X190.122 Y56.965 E30.93523
G1 X190.395 Y57.559 E30.96025
G1 X194.701 Y67.245 E31.3659
G1 X194.952 Y67.83 E31.39027
G1 X195.066 Y68.133 E31.40265
G1 X195.423 Y69.234 E31.44695
G1 X198.407 Y79.085 E31.84086
G1 X198.57 Y79.656 E31.86358
G1 X198.642 Y79.961 E31.87558
G1 X198.872 Y81.165 E31.92249
G1 X200.446 Y90.482 E32.2841
G1 X200.589 Y91.296 E32.31572
G1 X200.737 Y92.182 E32.3501
G1 X200.779 Y92.563 E32.36477
G1 X200.817 Y93.24 E32.39072
G1 X201.203 Y102.942 E32.7623
G1 X201.231 Y104.423 E32.81899
G1 X201.224 Y104.732 E32.83082
G1 X201.173 Y105.467 E32.85901
G1 X200.284 Y116.023 E33.26442
G1 X200.218 Y116.689 E33.29003
G1 X200.153 Y117.138 E33.30739
G1 X199.93 Y118.291 E33.35233
G1 X197.849 Y128.05 E33.7342
G1 X197.713 Y128.643 E33.75749
G1 X197.63 Y128.943 E33.7694
G1 X197.261 Y130.076 E33.815
G1 X193.826 Y139.955 E34.21527
G1 X193.607 Y140.56 E34.23989
G1 X193.481 Y140.863 E34.25245
G1 X192.966 Y141.953 E34.29858
G1 X188.499 Y150.964 E34.68348
G1 X188.225 Y151.5 E34.70651
G1 X188.059 Y151.79 E34.7193
G1 X187.393 Y152.834 E34.76669
G1 X181.592 Y161.559 E35.16766
G1 X181.258 Y162.046 E35.19026
G1 X181.066 Y162.3 E35.20244
G1 X180.277 Y163.251 E35.24973
G1 X173.603 Y170.982 E35.64059
G1 X173.107 Y171.537 E35.66908
G1 X172.648 Y171.985 E35.69362
G1 X164.595 Y179.238 E36.10838
G1 X164.033 Y179.731 E36.13699
G1 X163.624 Y180.066 E36.15722
G1 X163.142 Y180.415 E36.17999
G1 X154.685 Y186.293 E36.57413
G1 X154.023 Y186.739 E36.60468
G1 X153.754 Y186.904 E36.61676
G1 X152.721 Y187.473 E36.66189
G1 X143.398 Y192.358 E37.06469
G1 X142.775 Y192.672 E37.09139
G1 X142.157 Y192.933 E37.11706
G1 X131.965 Y196.715 E37.53309
G1 X131.364 Y196.928 E37.55749
G1 X131.061 Y197.021 E37.56962
G1 X129.927 Y197.31 E37.61441
G1 X119.816 Y199.687 E38.0119
G1 X119.145 Y199.835 E38.0382
G1 X118.356 Y199.946 E38.06869
G1 X107.791 Y201.056 E38.47523
G1 X107.162 Y201.114 E38.49941
G1 X106.835 Y201.129 E38.51193
G1 X105.649 Y201.127 E38.55732
G1 X94.871 Y200.905 E38.96988
G1 X94.32 Y200.886 E38.99098
G1 X94 Y200.86 E39.00326
G1 X92.744 Y200.701 E39.05171
G1 X82.916 Y199.247 E39.43192
G1 X82.369 Y199.159 E39.45312
G1 X82.047 Y199.092 E39.46571
G1 X80.875 Y198.788 E39.51204
G1 X70.652 Y195.924 E39.91834
G1 X70.08 Y195.754 E39.94117
G1 X69.787 Y195.653 E39.95303
G1 X68.757 Y195.244 E39.99545
G1 X59.607 Y191.405 E40.37518
G1 X59.077 Y191.173 E40.39732
G1 X58.794 Y191.034 E40.40939
G1 X57.756 Y190.464 E40.45471
G1 X48.526 Y185.132 E40.86264
G1 X48.027 Y184.834 E40.88488
G1 X47.762 Y184.66 E40.89702
G1 X46.815 Y183.971 E40.94183
G1 X38.562 Y177.71 E41.33827
G1 X38.161 Y177.395 E41.35779
G1 X37.66 Y176.966 E41.38303
G1 X37.088 Y176.424 E41.41319
G1 X29.827 Y169.311 E41.80218
G1 X29.426 Y168.907 E41.82396
G1 X29.209 Y168.668 E41.83631
G1 X28.409 Y167.697 E41.88446
G1 X21.927 Y159.518 E42.28385
G1 X21.525 Y158.994 E42.30912
G1 X21.345 Y158.736 E42.32116
G1 X20.718 Y157.746 E42.36601
G1 X15.481 Y149.113 E42.75242
G1 X15.099 Y148.462 E42.78131
G1 X14.896 Y148.072 E42.79814
G1 X14.477 Y147.159 E42.83658
G1 X10.3 Y137.72 E43.23159
G1 X10.042 Y137.115 E43.25676
G1 X9.929 Y136.815 E43.26903
G1 X9.621 Y135.861 E43.3074
G1 X6.596 Y125.877 E43.70663
G1 X6.424 Y125.275 E43.73059
G1 X6.351 Y124.968 E43.74267
G1 X6.108 Y123.694 E43.7923
G1 X4.423 Y113.699 E44.18021
G1 X4.325 Y113.064 E44.20479
G1 X4.291 Y112.744 E44.21711
G1 X4.221 Y111.611 E44.26055
G1 X3.804 Y101.709 E44.63983
G1 X3.778 Y100.482 E44.6868
G1 X3.786 Y100.159 E44.69916
G1 X3.83 Y99.539 E44.72295
G1 X4.737 Y88.908 E45.13127
G1 X4.797 Y88.307 E45.15439
G1 X4.843 Y87.993 E45.16653
G1 X5.06 Y86.868 E45.21038
G1 X7.193 Y76.809 E45.60389
G1 X7.332 Y76.198 E45.62787
G1 X7.417 Y75.89 E45.6401
G1 X7.802 Y74.708 E45.68767
G1 X11.135 Y65.162 E46.07462
G1 X11.336 Y64.609 E46.09714
G1 X11.461 Y64.31 E46.10954
G1 X11.946 Y63.283 E46.15301
G1 X16.558 Y53.961 E46.55103
G1 X16.838 Y53.415 E46.57451
G1 X16.999 Y53.134 E46.5869
G1 X17.662 Y52.092 E46.63417
G1 X23.4 Y43.46 E47.03084
G1 X23.743 Y42.96 E47.05404
G1 X23.935 Y42.706 E47.06623
G1 X24.685 Y41.801 E47.11121
G1 X31.433 Y33.987 E47.50632
G1 X31.827 Y33.542 E47.52906
G1 X32.051 Y33.311 E47.54138
G0 F1285.7 X32.291 Y33.566
G1 F900 X33.027 Y32.875 E47.58001
G1 X40.689 Y25.974 E47.97464
G1 X41.206 Y25.524 E48.00087
G1 X41.76 Y25.102 E48.02752
G1 X41.835 Y25.048 E48.03105
G1 X50.593 Y18.953 E48.43939
G1 X51.302 Y18.474 E48.47214
G1 X51.782 Y18.181 E48.49366
G1 X52.125 Y17.99 E48.50869
G1 X61.637 Y12.999 E48.91977
G1 X62.281 Y12.672 E48.94741
G1 X62.851 Y12.429 E48.97113
G1 X73.307 Y8.563 E49.39775
G1 X73.855 Y8.369 E49.42
G1 X74.131 Y8.285 E49.43104
G1 X75.257 Y7.999 E49.4755
G1 X85.26 Y5.654 E49.86868
G1 X85.899 Y5.514 E49.89372
G1 X86.64 Y5.408 E49.92236
G1 X97.257 Y4.292 E50.33091
G1 X97.879 Y4.235 E50.35481
G1 X98.172 Y4.222 E50.36604
G1 X99.349 Y4.224 E50.41108
G1 X110.085 Y4.445 E50.82203
G1 X110.684 Y4.466 E50.84497
G1 X110.972 Y4.489 E50.85602
G1 X112.196 Y4.645 E50.90325
G1 X122.004 Y6.095 E51.28267
G1 X122.578 Y6.188 E51.30493
G1 X122.863 Y6.248 E51.31607
G1 X124.075 Y6.561 E51.36398
G1 X134.227 Y9.405 E51.76745
G1 X134.788 Y9.571 E51.78983
G1 X135.056 Y9.664 E51.80069
G1 X136.12 Y10.086 E51.8445
G1 X145.389 Y13.976 E52.22919
G1 X145.88 Y14.191 E52.2497
G1 X146.135 Y14.316 E52.26057
G1 X147.213 Y14.91 E52.30767
G1 X156.258 Y20.136 E52.70744
G1 X156.775 Y20.445 E52.73049
G1 X157.01 Y20.6 E52.74127
G1 X157.967 Y21.295 E52.78653
G1 X166.1 Y27.46 E53.17709
G1 X166.727 Y27.948 E53.2075
G1 X167.142 Y28.314 E53.22867
G1 X167.345 Y28.508 E53.23942
G1 X174.991 Y35.995 E53.64895
G1 X175.395 Y36.4 E53.67084
G1 X175.596 Y36.622 E53.6823
G1 X176.369 Y37.56 E53.72882
G1 X182.752 Y45.615 E54.12213
G1 X183.129 Y46.105 E54.14579
G1 X183.294 Y46.341 E54.15681
G1 X183.924 Y47.335 E54.20185
G1 X189.225 Y56.076 E54.59307
G1 X189.605 Y56.723 E54.62178
G1 X189.804 Y57.112 E54.63851
G1 X190.075 Y57.701 E54.66332
G1 X194.38 Y67.383 E55.06882
G1 X194.631 Y67.968 E55.09318
G1 X194.733 Y68.24 E55.1043
G1 X195.088 Y69.335 E55.14835
G1 X198.07 Y79.181 E55.54205
G1 X198.233 Y79.752 E55.56478
G1 X198.298 Y80.027 E55.57559
G1 X198.527 Y81.223 E55.62219
G1 X200.101 Y90.542 E55.98388
G1 X200.244 Y91.354 E56.01543
G1 X200.392 Y92.24 E56.04981
G1 X200.43 Y92.583 E56.06302
G1 X200.467 Y93.253 E56.0887
G1 X200.853 Y102.949 E56.46005
G1 X200.881 Y104.43 E56.51674
G1 X200.874 Y104.708 E56.52738
G1 X200.824 Y105.438 E56.55538
G1 X199.936 Y115.989 E56.96059
G1 X199.871 Y116.644 E56.98578
G1 X199.809 Y117.071 E57.00229
G1 X199.587 Y118.218 E57.047
G1 X197.508 Y127.972 E57.42867
G1 X197.372 Y128.565 E57.45195
G1 X197.297 Y128.835 E57.46268
G1 X196.931 Y129.961 E57.50799
G1 X193.496 Y139.836 E57.90811
G1 X193.277 Y140.441 E57.93273
G1 X193.164 Y140.714 E57.94404
G1 X192.653 Y141.797 E57.98987
G1 X188.187 Y150.805 E58.37464
G1 X187.913 Y151.341 E58.39768
G1 X187.764 Y151.602 E58.40918
G1 X187.102 Y152.64 E58.45629
G1 X181.303 Y161.361 E58.85709
G1 X180.969 Y161.848 E58.87969
G1 X180.796 Y162.077 E58.89068
G1 X180.012 Y163.023 E58.93769
G1 X173.342 Y170.749 E59.32831
G1 X172.846 Y171.304 E59.35679
G1 X172.409 Y171.729 E59.38012
G1 X164.364 Y178.975 E59.79447
G1 X163.808 Y179.463 E59.82278
G1 X163.415 Y179.785 E59.84222
G1 X162.94 Y180.129 E59.86467
G1 X154.489 Y186.003 E60.25853
G1 X153.827 Y186.449 E60.28908
G1 X153.585 Y186.597 E60.29994
G1 X152.494 Y187.197 E60.34759
G1 X143.24 Y192.045 E60.74739
G1 X142.617 Y192.359 E60.77409
G1 X142.027 Y192.608 E60.7986
G1 X131.8 Y196.403 E61.21606
G1 X131.247 Y196.599 E61.23851
G1 X130.974 Y196.682 E61.24943
G1 X129.847 Y196.97 E61.29394
G1 X119.741 Y199.345 E61.69123
G1 X119.07 Y199.493 E61.71753
G1 X118.315 Y199.598 E61.7467
G1 X107.759 Y200.708 E62.1529
G1 X107.13 Y200.766 E62.17707
G1 X106.835 Y200.779 E62.18837
G1 X105.657 Y200.777 E62.23346
