;FLAVOR:Marlin
;TIME:8513
;Filament used: 10.3334m
;Layer height: 0.3
;MINX:55.6
;MINY:18.637
;MINZ:0.26
;MAXX:149.388
;MAXY:186.366
;MAXZ:3.56
;Generated with Cura_SteamEngine 4.9.1
M82 ;absolute extrusion mode
;Begin Start Gcode for Dagoma DiscoEasy 200
;Sliced: 09-07-2021 20:59:55
;Initial extruder: 0

G90 ;Absolute positioning
M106 S255 ;Fan on full
G28 X Y ;Home stop X Y
G1 X100 ;Centre back during cooldown in case of oozing
M109 R90 ;Cooldown in case too hot
G28 ;Centre
G29 ;Auto-level
M104 S205 ;Pre-heat
M107 ;Fan off
G0 X100 Y5 Z0.5 ;Front centre for degunk
M109 S205 ;Wait for initial temp
M83 ;E Relative
G1 E10 F200 ;Degunk
G1 E-3 F5000 ;Retract
G0 Z3 ;Withdraw
M82 ;E absolute
G92 E0 ;E reset
G1 F6000 ;Set feedrate

;Finish Start Gcode for Dagoma DiscoEasy 200

G92 E0
G92 E0
G1 F3000 E-3.5
;LAYER_COUNT:12
;LAYER:0
M107
G0 F1285.7 X61.863 Y21.27 Z0.26
;TYPE:SKIRT
G1 F3000 E0
G1 F900 X62.078 Y20.757 E0.02129
G1 X62.365 Y20.28 E0.04259
G1 X62.718 Y19.849 E0.06391
G1 X63.128 Y19.474 E0.08517
G1 X63.588 Y19.161 E0.10647
G1 X64.088 Y18.917 E0.12776
G1 X64.618 Y18.747 E0.14906
G1 X65.166 Y18.654 E0.17033
G1 X65.533 Y18.637 E0.18439
G1 X66.339 Y18.637 E0.21524
G1 X67.353 Y18.653 E0.25405
G1 X69.025 Y18.706 E0.31807
G1 X70.01 Y18.754 E0.35581
G1 X71.65 Y18.858 E0.41869
G1 X72.611 Y18.933 E0.45558
G1 X74.216 Y19.085 E0.51728
G1 X75.254 Y19.2 E0.55725
G1 X76.869 Y19.404 E0.61954
G1 X77.896 Y19.551 E0.65925
G1 X79.447 Y19.797 E0.71934
G1 X80.453 Y19.973 E0.75843
G1 X82.089 Y20.286 E0.82217
G1 X83.052 Y20.485 E0.85981
G1 X84.643 Y20.842 E0.92221
G1 X85.61 Y21.074 E0.96026
G1 X87.222 Y21.489 E1.02396
G1 X88.164 Y21.747 E1.06134
G1 X89.72 Y22.199 E1.12335
G1 X90.688 Y22.497 E1.16211
G1 X92.275 Y23.014 E1.22599
G1 X93.186 Y23.327 E1.26285
G1 X94.722 Y23.881 E1.32534
G1 X95.645 Y24.229 E1.36309
G1 X97.212 Y24.85 E1.4276
G1 X98.122 Y25.228 E1.46531
G1 X99.594 Y25.865 E1.52669
G1 X100.524 Y26.286 E1.56575
G1 X101.975 Y26.969 E1.62713
G1 X102.918 Y27.431 E1.66731
G1 X104.343 Y28.158 E1.72854
G1 X105.256 Y28.641 E1.76806
G1 X106.646 Y29.406 E1.82878
G1 X107.553 Y29.925 E1.86877
G1 X108.93 Y30.74 E1.93001
G1 X109.782 Y31.263 E1.96827
G1 X111.166 Y32.14 E2.03097
G1 X112.036 Y32.712 E2.07082
G1 X113.349 Y33.606 E2.13161
G1 X114.211 Y34.212 E2.17193
G1 X115.491 Y35.143 E2.2325
G1 X116.281 Y35.736 E2.27031
G1 X117.61 Y36.768 E2.3347
G1 X118.359 Y37.369 E2.37145
G1 X119.645 Y38.432 E2.4353
G1 X120.411 Y39.087 E2.47387
G1 X121.61 Y40.146 E2.53509
G1 X122.363 Y40.831 E2.57405
G1 X123.544 Y41.941 E2.63607
G1 X124.232 Y42.608 E2.67275
G1 X125.46 Y43.837 E2.73923
G1 X126.126 Y44.524 E2.77585
G1 X127.233 Y45.705 E2.8378
G1 X127.918 Y46.458 E2.87675
G1 X128.978 Y47.661 E2.93812
G1 X129.636 Y48.432 E2.97691
G1 X130.688 Y49.707 E3.04016
G1 X131.296 Y50.464 E3.07732
G1 X132.328 Y51.795 E3.14178
G1 X132.914 Y52.577 E3.17917
G1 X133.853 Y53.868 E3.24026
G1 X134.453 Y54.724 E3.28027
G1 X135.346 Y56.039 E3.3411
G1 X135.919 Y56.912 E3.38106
G1 X136.793 Y58.291 E3.44354
G1 X137.313 Y59.14 E3.48165
G1 X138.13 Y60.523 E3.54312
G1 X138.65 Y61.435 E3.58329
G1 X139.411 Y62.821 E3.6438
G1 X139.895 Y63.735 E3.68338
G1 X140.621 Y65.161 E3.74462
G1 X141.082 Y66.103 E3.78476
G1 X141.764 Y67.554 E3.84611
G1 X142.186 Y68.49 E3.88541
G1 X142.819 Y69.955 E3.94648
G1 X143.2 Y70.876 E3.98462
G1 X143.818 Y72.437 E4.04887
G1 X144.163 Y73.355 E4.08641
G1 X144.719 Y74.899 E4.14921
G1 X145.039 Y75.834 E4.18703
G1 X145.542 Y77.383 E4.24935
G1 X145.842 Y78.362 E4.28854
G1 X146.289 Y79.903 E4.34994
G1 X146.557 Y80.882 E4.38879
G1 X146.962 Y82.459 E4.4511
G1 X147.186 Y83.396 E4.48797
G1 X147.552 Y85.032 E4.55212
G1 X147.751 Y85.994 E4.58972
G1 X148.064 Y87.635 E4.65365
G1 X148.237 Y88.635 E4.69249
G1 X148.483 Y90.191 E4.75277
G1 X148.629 Y91.215 E4.79236
G1 X148.831 Y92.828 E4.85457
G1 X148.94 Y93.809 E4.89234
G1 X149.097 Y95.477 E4.95646
G1 X149.171 Y96.431 E4.99308
G1 X149.275 Y98.073 E5.05604
G1 X149.319 Y99.014 E5.09209
G1 X149.374 Y100.737 E5.15807
G1 X149.388 Y101.669 E5.19374
G1 X149.388 Y103.331 E5.25734
G1 X149.372 Y104.328 E5.2955
G1 X149.319 Y106 E5.35952
G1 X149.271 Y106.985 E5.39726
G1 X149.167 Y108.625 E5.46015
G1 X149.092 Y109.586 E5.49704
G1 X148.94 Y111.191 E5.55873
G1 X148.825 Y112.229 E5.5987
G1 X148.621 Y113.844 E5.661
G1 X148.474 Y114.871 E5.7007
G1 X148.228 Y116.422 E5.7608
G1 X148.052 Y117.428 E5.79988
G1 X147.739 Y119.064 E5.86363
G1 X147.54 Y120.027 E5.90126
G1 X147.183 Y121.618 E5.96366
G1 X146.947 Y122.602 E6.00238
G1 X146.541 Y124.179 E6.0647
G1 X146.273 Y125.153 E6.10336
G1 X145.825 Y126.696 E6.16485
G1 X145.523 Y127.678 E6.20417
G1 X145.02 Y129.221 E6.26628
G1 X144.698 Y130.161 E6.3043
G1 X144.144 Y131.697 E6.36679
G1 X143.796 Y132.619 E6.40451
G1 X143.176 Y134.186 E6.469
G1 X142.797 Y135.097 E6.50676
G1 X142.16 Y136.569 E6.56814
G1 X141.739 Y137.499 E6.60721
G1 X141.056 Y138.95 E6.66858
G1 X140.594 Y139.893 E6.70877
G1 X139.867 Y141.318 E6.76999
G1 X139.384 Y142.23 E6.80948
G1 X138.619 Y143.621 E6.87023
G1 X138.101 Y144.527 E6.91017
G1 X137.279 Y145.915 E6.97191
G1 X136.762 Y146.757 E7.00972
G1 X135.885 Y148.141 E7.07242
G1 X135.313 Y149.011 E7.11227
G1 X134.419 Y150.324 E7.17306
G1 X133.813 Y151.186 E7.21338
G1 X132.882 Y152.466 E7.27396
G1 X132.289 Y153.256 E7.31176
G1 X131.257 Y154.585 E7.37615
G1 X130.656 Y155.334 E7.4129
G1 X129.593 Y156.62 E7.47675
G1 X128.938 Y157.386 E7.51532
G1 X127.879 Y158.585 E7.57654
G1 X127.194 Y159.338 E7.6155
G1 X126.084 Y160.519 E7.67753
G1 X125.417 Y161.207 E7.7142
G1 X124.199 Y162.424 E7.78009
G1 X123.501 Y163.101 E7.8173
G1 X122.32 Y164.208 E7.87925
G1 X121.567 Y164.893 E7.91821
G1 X120.364 Y165.953 E7.97957
G1 X119.593 Y166.611 E8.01836
G1 X118.318 Y167.663 E8.08162
G1 X117.561 Y168.271 E8.11877
G1 X116.23 Y169.303 E8.18323
G1 X115.448 Y169.889 E8.22062
G1 X114.157 Y170.828 E8.28172
G1 X113.301 Y171.428 E8.32172
G1 X111.986 Y172.321 E8.38255
G1 X111.113 Y172.894 E8.42252
G1 X109.734 Y173.768 E8.485
G1 X108.885 Y174.288 E8.5231
G1 X107.502 Y175.105 E8.58457
G1 X106.59 Y175.625 E8.62475
G1 X105.204 Y176.386 E8.68526
G1 X104.29 Y176.87 E8.72484
G1 X102.864 Y177.596 E8.78607
G1 X101.921 Y178.057 E8.82624
G1 X100.472 Y178.738 E8.88752
G1 X99.535 Y179.161 E8.92686
G1 X98.07 Y179.794 E8.98793
G1 X97.149 Y180.175 E9.02608
G1 X95.588 Y180.793 E9.09033
G1 X94.67 Y181.138 E9.12786
G1 X93.126 Y181.694 E9.19066
G1 X92.19 Y182.014 E9.22852
G1 X90.642 Y182.517 E9.29081
G1 X89.663 Y182.817 E9.32999
G1 X88.122 Y183.264 E9.39139
G1 X87.143 Y183.532 E9.43024
G1 X85.565 Y183.937 E9.49259
G1 X84.586 Y184.172 E9.53112
G1 X82.993 Y184.527 E9.59357
G1 X82.031 Y184.726 E9.63117
G1 X80.39 Y185.039 E9.6951
G1 X79.39 Y185.212 E9.73394
G1 X77.834 Y185.458 E9.79423
G1 X76.809 Y185.604 E9.83385
G1 X75.197 Y185.806 E9.89602
G1 X74.216 Y185.915 E9.9338
G1 X72.548 Y186.072 E9.99791
G1 X71.594 Y186.146 E10.03453
G1 X69.95 Y186.25 E10.09757
G1 X68.964 Y186.296 E10.13535
G1 X67.288 Y186.349 E10.19952
G1 X66.245 Y186.364 E10.23944
G1 X65.543 Y186.366 E10.2663
G1 X64.988 Y186.328 E10.28759
G1 X64.444 Y186.21 E10.30889
G1 X63.923 Y186.016 E10.33017
G1 X63.434 Y185.749 E10.35149
G1 X62.989 Y185.415 E10.37278
G1 X62.597 Y185.021 E10.39405
G1 X62.265 Y184.574 E10.41536
G1 X62 Y184.085 E10.43665
G1 X61.864 Y183.739 E10.45088
G1 X61.428 Y182.457 E10.5027
G1 X60.506 Y179.868 E10.60787
G1 X59.516 Y177.322 E10.71241
G1 X58.459 Y174.811 E10.81667
G1 X57.335 Y172.341 E10.92053
G1 X56.429 Y170.507 E10.99881
G1 X56.005 Y169.628 E11.03616
G1 X55.8 Y169.11 E11.05748
G1 X55.671 Y168.569 E11.07876
G1 X55.621 Y168.022 E11.09978
G1 X55.6 Y166.953 E11.1407
G1 X55.6 Y140.847 E12.13977
G1 X55.611 Y140.138 E12.1669
G1 X55.66 Y139.584 E12.18819
G1 X55.787 Y139.042 E12.20949
G1 X56.04 Y138.384 E12.23647
G1 X57.037 Y135.795 E12.34264
G1 X57.934 Y133.258 E12.44562
G1 X58.774 Y130.648 E12.55055
G1 X59.531 Y128.044 E12.65433
G1 X60.216 Y125.417 E12.75822
G1 X60.835 Y122.735 E12.86356
G1 X61.365 Y120.086 E12.96695
G1 X61.824 Y117.411 E13.07081
G1 X62.207 Y114.726 E13.17461
G1 X62.514 Y112.029 E13.27849
G1 X62.745 Y109.324 E13.38238
G1 X62.901 Y106.576 E13.48772
G1 X62.978 Y103.898 E13.59024
G1 X62.978 Y101.146 E13.69556
G1 X62.903 Y98.468 E13.79809
G1 X62.748 Y95.722 E13.90334
G1 X62.519 Y93.02 E14.00712
G1 X62.212 Y90.315 E14.1113
G1 X61.831 Y87.635 E14.2149
G1 X61.367 Y84.925 E14.32012
G1 X60.838 Y82.288 E14.42304
G1 X60.239 Y79.671 E14.52578
G1 X59.541 Y76.993 E14.63169
G1 X58.784 Y74.386 E14.73558
G1 X57.955 Y71.806 E14.83929
G1 X57.052 Y69.243 E14.94328
G1 X56.363 Y67.484 E15.01558
G1 X55.875 Y66.205 E15.06797
G1 X55.714 Y65.673 E15.08924
G1 X55.621 Y64.902 E15.11896
G1 X55.6 Y63.828 E15.16007
G1 X55.6 Y37.724 E16.15906
G1 X55.61 Y37.023 E16.18589
G1 X55.658 Y36.468 E16.20721
G1 X55.785 Y35.927 E16.22847
G1 X56.026 Y35.331 E16.25307
G1 X56.274 Y34.84 E16.27413
G1 X57.451 Y32.417 E16.37721
G1 X58.579 Y29.918 E16.48214
G1 X59.631 Y27.403 E16.58647
G1 X60.624 Y24.825 E16.69219
G1 X61.526 Y22.267 E16.796
G1 X61.863 Y21.27 E16.83627
G0 F1285.7 X62.194 Y21.382
G1 F900 X62.402 Y20.894 E16.85657
G1 X62.68 Y20.442 E16.87688
G1 X63.023 Y20.037 E16.89719
G1 X63.423 Y19.688 E16.91751
G1 X63.871 Y19.403 E16.93783
G1 X64.356 Y19.189 E16.95811
G1 X64.868 Y19.05 E16.97842
G1 X65.533 Y18.987 E17.00398
G1 X66.334 Y18.987 E17.03463
G1 X67.342 Y19.003 E17.07321
G1 X69.008 Y19.056 E17.137
G1 X69.988 Y19.103 E17.17455
G1 X71.623 Y19.207 E17.23725
G1 X72.578 Y19.282 E17.27391
G1 X74.24 Y19.44 E17.3378
G1 X75.21 Y19.548 E17.37515
G1 X76.819 Y19.751 E17.43721
G1 X77.841 Y19.897 E17.47672
G1 X79.387 Y20.142 E17.53662
G1 X80.387 Y20.317 E17.57548
G1 X82.018 Y20.628 E17.63902
G1 X82.975 Y20.827 E17.67643
G1 X84.561 Y21.182 E17.73862
G1 X85.523 Y21.413 E17.77648
G1 X87.13 Y21.826 E17.83998
G1 X88.066 Y22.083 E17.87713
G1 X89.618 Y22.534 E17.93898
G1 X90.579 Y22.83 E17.97746
G1 X92.162 Y23.346 E18.04118
G1 X93.067 Y23.656 E18.07779
G1 X94.598 Y24.208 E18.14007
G1 X95.516 Y24.554 E18.17761
G1 X97.078 Y25.173 E18.24191
G1 X97.983 Y25.55 E18.27943
G1 X99.449 Y26.184 E18.34056
G1 X100.375 Y26.603 E18.37945
G1 X101.821 Y27.284 E18.44062
G1 X102.759 Y27.743 E18.48059
G1 X104.18 Y28.467 E18.54162
G1 X105.087 Y28.948 E18.58091
G1 X106.473 Y29.71 E18.64144
G1 X107.374 Y30.226 E18.68117
G1 X108.747 Y31.038 E18.74222
G1 X109.595 Y31.559 E18.78031
G1 X110.973 Y32.433 E18.84275
G1 X111.839 Y33.002 E18.88241
G1 X113.148 Y33.893 E18.94301
G1 X114.005 Y34.495 E18.98309
G1 X115.281 Y35.424 E19.04349
G1 X116.067 Y36.013 E19.08108
G1 X117.391 Y37.041 E19.14523
G1 X118.136 Y37.639 E19.18179
G1 X119.418 Y38.698 E19.24542
G1 X120.179 Y39.35 E19.28377
G1 X121.375 Y40.405 E19.34481
G1 X122.123 Y41.087 E19.38354
G1 X123.301 Y42.192 E19.44536
G1 X123.985 Y42.855 E19.48181
G1 X125.209 Y44.08 E19.54808
G1 X125.87 Y44.764 E19.58448
G1 X126.974 Y45.941 E19.64624
G1 X127.655 Y46.69 E19.68498
G1 X128.712 Y47.888 E19.74612
G1 X129.366 Y48.655 E19.7847
G1 X130.415 Y49.926 E19.84776
G1 X131.019 Y50.678 E19.88468
G1 X132.047 Y52.005 E19.94892
G1 X132.631 Y52.783 E19.98614
G1 X133.566 Y54.069 E20.04699
G1 X134.163 Y54.921 E20.0868
G1 X135.053 Y56.231 E20.14741
G1 X135.623 Y57.099 E20.18715
G1 X136.494 Y58.474 E20.24944
G1 X137.011 Y59.318 E20.28732
G1 X137.826 Y60.696 E20.34859
G1 X138.343 Y61.603 E20.38854
G1 X139.102 Y62.985 E20.44888
G1 X139.583 Y63.894 E20.48824
G1 X140.307 Y65.315 E20.54927
G1 X140.765 Y66.252 E20.58919
G1 X141.445 Y67.698 E20.65034
G1 X141.864 Y68.629 E20.68941
G1 X142.496 Y70.09 E20.75033
G1 X142.875 Y71.004 E20.78819
G1 X143.49 Y72.561 E20.85226
G1 X143.834 Y73.474 E20.8896
G1 X144.388 Y75.012 E20.95216
G1 X144.706 Y75.943 E20.98981
G1 X145.208 Y77.486 E21.0519
G1 X145.506 Y78.459 E21.09085
G1 X145.952 Y79.996 E21.15209
G1 X146.218 Y80.969 E21.1907
G1 X146.622 Y82.541 E21.25281
G1 X146.845 Y83.473 E21.28948
G1 X147.21 Y85.103 E21.35341
G1 X147.407 Y86.06 E21.3908
G1 X147.719 Y87.695 E21.4545
G1 X147.891 Y88.69 E21.49314
G1 X148.137 Y90.24 E21.5532
G1 X148.281 Y91.259 E21.59259
G1 X148.483 Y92.866 E21.65457
G1 X148.591 Y93.842 E21.69215
G1 X148.748 Y95.504 E21.75604
G1 X148.822 Y96.453 E21.79246
G1 X148.925 Y98.09 E21.85524
G1 X148.969 Y99.025 E21.89106
G1 X149.024 Y100.742 E21.9568
G1 X149.038 Y101.674 E21.99247
G1 X149.038 Y103.326 E22.05569
G1 X149.022 Y104.317 E22.09362
G1 X148.969 Y105.983 E22.15741
G1 X148.922 Y106.963 E22.19496
G1 X148.818 Y108.598 E22.25766
G1 X148.743 Y109.553 E22.29432
G1 X148.585 Y111.215 E22.35821
G1 X148.477 Y112.185 E22.39556
G1 X148.274 Y113.794 E22.45762
G1 X148.128 Y114.816 E22.49713
G1 X147.883 Y116.362 E22.55703
G1 X147.708 Y117.362 E22.59588
G1 X147.397 Y118.993 E22.65943
G1 X147.198 Y119.95 E22.69683
G1 X146.843 Y121.537 E22.75907
G1 X146.608 Y122.515 E22.79756
G1 X146.204 Y124.086 E22.85964
G1 X145.937 Y125.056 E22.89814
G1 X145.491 Y126.593 E22.95939
G1 X145.19 Y127.569 E22.99847
G1 X144.689 Y129.108 E23.06041
G1 X144.369 Y130.042 E23.0982
G1 X143.817 Y131.573 E23.16048
G1 X143.471 Y132.491 E23.19802
G1 X142.853 Y134.051 E23.26224
G1 X142.475 Y134.958 E23.29984
G1 X141.841 Y136.424 E23.36097
G1 X141.422 Y137.35 E23.39986
G1 X140.741 Y138.796 E23.46103
G1 X140.282 Y139.734 E23.50099
G1 X139.558 Y141.155 E23.56203
G1 X139.077 Y142.062 E23.60132
G1 X138.315 Y143.448 E23.66185
G1 X137.799 Y144.349 E23.70158
G1 X136.981 Y145.732 E23.76307
G1 X136.466 Y146.57 E23.80071
G1 X135.592 Y147.948 E23.86316
G1 X135.023 Y148.814 E23.90282
G1 X134.132 Y150.123 E23.96342
G1 X133.53 Y150.98 E24.0035
G1 X132.601 Y152.256 E24.0639
G1 X132.012 Y153.042 E24.10149
G1 X130.984 Y154.366 E24.16564
G1 X130.386 Y155.111 E24.20219
G1 X129.327 Y156.393 E24.26583
G1 X128.675 Y157.154 E24.30418
G1 X127.62 Y158.35 E24.36521
G1 X126.938 Y159.098 E24.40395
G1 X125.833 Y160.276 E24.46576
G1 X125.17 Y160.96 E24.50222
G1 X123.955 Y162.173 E24.56792
G1 X123.261 Y162.845 E24.60489
G1 X122.084 Y163.949 E24.66665
G1 X121.335 Y164.63 E24.70539
G1 X120.137 Y165.687 E24.76653
G1 X119.37 Y166.341 E24.8051
G1 X118.099 Y167.39 E24.86817
G1 X117.347 Y167.994 E24.90508
G1 X116.02 Y169.022 E24.96932
G1 X115.242 Y169.606 E25.00655
G1 X113.956 Y170.541 E25.0674
G1 X113.104 Y171.138 E25.10721
G1 X111.794 Y172.028 E25.16782
G1 X110.926 Y172.598 E25.20756
G1 X109.551 Y173.469 E25.26985
G1 X108.707 Y173.986 E25.30773
G1 X107.329 Y174.801 E25.369
G1 X106.422 Y175.318 E25.40895
G1 X105.04 Y176.077 E25.46929
G1 X104.131 Y176.558 E25.50865
G1 X102.71 Y177.282 E25.56968
G1 X101.772 Y177.74 E25.60963
G1 X100.327 Y178.419 E25.67073
G1 X99.396 Y178.839 E25.70981
G1 X97.935 Y179.471 E25.77073
G1 X97.021 Y179.85 E25.8086
G1 X95.464 Y180.465 E25.87266
G1 X94.551 Y180.809 E25.91
G1 X93.013 Y181.363 E25.97256
G1 X92.082 Y181.681 E26.01021
G1 X90.539 Y182.182 E26.0723
G1 X89.566 Y182.481 E26.11125
G1 X88.029 Y182.927 E26.1725
G1 X87.056 Y183.193 E26.2111
G1 X85.483 Y183.597 E26.27325
G1 X84.509 Y183.83 E26.31158
G1 X82.922 Y184.185 E26.37381
G1 X81.965 Y184.382 E26.41121
G1 X80.33 Y184.694 E26.47491
G1 X79.335 Y184.866 E26.51355
G1 X77.785 Y185.112 E26.57361
G1 X76.766 Y185.256 E26.61299
G1 X75.158 Y185.458 E26.67501
G1 X74.183 Y185.566 E26.71255
G1 X72.521 Y185.723 E26.77644
G1 X71.572 Y185.797 E26.81287
G1 X69.933 Y185.9 E26.87572
G1 X68.953 Y185.946 E26.91326
G1 X67.283 Y185.999 E26.9772
G1 X66.244 Y186.014 E27.01697
G1 X65.542 Y186.016 E27.04384
G1 X65.013 Y185.978 E27.06413
G1 X64.495 Y185.86 E27.08446
G1 X64.001 Y185.666 E27.10478
G1 X63.542 Y185.401 E27.12506
G1 X63.128 Y185.069 E27.14537
G1 X62.768 Y184.679 E27.16568
G1 X62.471 Y184.239 E27.18599
G1 X62.195 Y183.627 E27.21169
G1 X61.757 Y182.34 E27.26371
G1 X60.825 Y179.723 E27.37003
G1 X59.845 Y177.202 E27.47354
G1 X58.78 Y174.673 E27.57855
G1 X57.642 Y172.172 E27.68371
G1 X56.744 Y170.354 E27.76131
G1 X56.32 Y169.475 E27.79865
G1 X56.126 Y168.982 E27.81893
G1 X56.009 Y168.464 E27.83925
G1 X55.971 Y168.015 E27.8565
G1 X55.95 Y166.953 E27.89715
G1 X55.95 Y140.852 E28.89602
G1 X55.961 Y140.143 E28.92316
G1 X56.01 Y139.615 E28.94345
G1 X56.216 Y138.881 E28.97262
G1 X56.382 Y138.469 E28.98962
G1 X57.366 Y135.914 E29.0944
G1 X58.266 Y133.371 E29.19764
