;FLAVOR:Marlin
;TIME:15050
;Filament used: 20.8018m
;Layer height: 0.3
;MINX:48.672
;MINY:48.757
;MINZ:0.26
;MAXX:156.329
;MAXY:156.242
;MAXZ:44.66
;Generated with Cura_SteamEngine 4.9.1
M82 ;absolute extrusion mode
;Begin Start Gcode for Dagoma DiscoEasy 200
;Sliced: 08-07-2021 11:05:23
;Initial extruder: 0

G90 ;Absolute positioning
M106 S255 ;Fan on full
G28 X Y ;Home stop X Y
G1 X100 ;Centre back during cooldown in case of oozing
M109 R90 ;Cooldown in case too hot
G28 ;Centre
G29 ;Auto-level
M104 S205 ;Pre-heat
M107 ;Fan off
G0 X100 Y5 Z0.5 ;Front centre for degunk
M109 S205 ;Wait for initial temp
M83 ;E Relative
G1 E10 F200 ;Degunk
G1 E-3 F5000 ;Retract
G0 Z3 ;Withdraw
M82 ;E absolute
G92 E0 ;E reset
G1 F6000 ;Set feedrate

;Finish Start Gcode for Dagoma DiscoEasy 200

G92 E0
G92 E0
G1 F3000 E-3.5
;LAYER_COUNT:149
;LAYER:0
M107
G0 F1285.7 X64.131 Y64.729 Z0.26
;TYPE:SKIRT
G1 F3000 E0
G1 F900 X65.031 Y63.886 E0.04719
G1 X68.29 Y60.955 E0.21493
G1 X68.822 Y60.491 E0.24195
G1 X69.284 Y60.128 E0.26443
G1 X69.985 Y59.631 E0.29732
G1 X73.77 Y57.002 E0.47368
G1 X74.27 Y56.666 E0.49674
G1 X74.566 Y56.486 E0.50999
G1 X75.65 Y55.891 E0.55732
G1 X79.845 Y53.695 E0.73852
G1 X80.506 Y53.361 E0.76686
G1 X81.01 Y53.143 E0.78788
G1 X81.358 Y53.01 E0.80214
G1 X85.996 Y51.281 E0.99156
G1 X86.536 Y51.088 E1.01351
G1 X87.093 Y50.92 E1.03577
G1 X87.219 Y50.886 E1.04077
G1 X88.113 Y50.663 E1.07603
G1 X92.462 Y49.646 E1.24695
G1 X93.2 Y49.485 E1.27586
G1 X93.915 Y49.38 E1.30352
G1 X99.145 Y48.828 E1.50478
G1 X99.743 Y48.773 E1.52776
G1 X100.101 Y48.757 E1.54147
G1 X101.308 Y48.759 E1.58767
G1 X106.425 Y48.862 E1.78353
G1 X107.013 Y48.883 E1.80605
G1 X107.36 Y48.911 E1.81937
G1 X108.51 Y49.056 E1.86373
G1 X112.828 Y49.695 E2.03078
G1 X113.414 Y49.79 E2.05349
G1 X113.758 Y49.862 E2.06694
G1 X114.834 Y50.139 E2.10946
G1 X119.245 Y51.362 E2.28464
G1 X119.807 Y51.527 E2.30706
G1 X120.136 Y51.64 E2.32037
G1 X121.315 Y52.106 E2.36888
G1 X125.667 Y53.931 E2.54948
G1 X126.168 Y54.15 E2.57041
G1 X126.482 Y54.305 E2.58381
G1 X127.606 Y54.924 E2.63292
G1 X131.505 Y57.179 E2.80529
G1 X131.998 Y57.474 E2.82727
G1 X132.286 Y57.664 E2.84048
G1 X133.263 Y58.375 E2.88672
G1 X135.333 Y59.948 E2.98622
G1 X136.552 Y60.887 E3.0451
G1 X136.992 Y61.217 E3.06615
G1 X137.581 Y61.672 E3.09463
G1 X138.009 Y62.047 E3.11641
G1 X138.27 Y62.296 E3.13021
G1 X141.918 Y65.87 E3.32566
G1 X142.311 Y66.264 E3.34695
G1 X142.556 Y66.534 E3.36091
G1 X143.327 Y67.47 E3.40731
G1 X146.053 Y70.91 E3.57529
G1 X146.433 Y71.403 E3.59911
G1 X146.638 Y71.696 E3.61279
G1 X147.289 Y72.725 E3.65939
G1 X149.732 Y76.769 E3.8402
G1 X150.036 Y77.288 E3.86322
G1 X150.199 Y77.6 E3.87669
G1 X150.704 Y78.676 E3.92218
G1 X152.666 Y83.078 E4.10661
G1 X152.896 Y83.614 E4.12894
G1 X153.021 Y83.945 E4.14248
G1 X153.393 Y85.095 E4.18873
G1 X154.68 Y89.354 E4.359
G1 X154.846 Y89.934 E4.38209
G1 X154.927 Y90.273 E4.39543
G1 X155.164 Y91.518 E4.44393
G1 X155.779 Y95.169 E4.58562
G1 X155.916 Y95.952 E4.61604
G1 X156.062 Y96.832 E4.65018
G1 X156.108 Y97.256 E4.6665
G1 X156.146 Y97.962 E4.69355
G1 X156.301 Y101.986 E4.84767
G1 X156.329 Y103.422 E4.90263
G1 X156.317 Y103.908 E4.92124
G1 X156.275 Y104.503 E4.94406
G1 X155.855 Y109.55 E5.13788
G1 X155.803 Y110.086 E5.15848
G1 X155.752 Y110.44 E5.17217
G1 X155.51 Y111.7 E5.22127
G1 X154.597 Y115.991 E5.38916
G1 X154.474 Y116.527 E5.41021
G1 X154.383 Y116.856 E5.42327
G1 X154.015 Y117.988 E5.46883
G1 X152.451 Y122.478 E5.65078
G1 X152.246 Y123.04 E5.67368
G1 X152.111 Y123.364 E5.68711
G1 X151.587 Y124.475 E5.73412
G1 X149.537 Y128.611 E5.91078
G1 X149.251 Y129.17 E5.93481
G1 X149.074 Y129.479 E5.94843
G1 X148.454 Y130.457 E5.99275
G1 X145.88 Y134.347 E6.17126
G1 X145.479 Y134.934 E6.19846
G1 X145.055 Y135.475 E6.22477
G1 X141.603 Y139.475 E6.42697
G1 X141.102 Y140.039 E6.45584
G1 X140.642 Y140.495 E6.48062
G1 X140.56 Y140.571 E6.4849
G1 X138.844 Y142.105 E6.57299
G1 X138.536 Y142.377 E6.58871
G1 X137.467 Y143.335 E6.64365
G1 X136.597 Y144.127 E6.68867
G1 X136.056 Y144.606 E6.71632
G1 X135.6 Y144.963 E6.73849
G1 X135.493 Y145.04 E6.74353
G1 X131.205 Y148.019 E6.94335
G1 X130.71 Y148.352 E6.96618
G1 X130.412 Y148.534 E6.97954
G1 X129.362 Y149.109 E7.02535
G1 X125.14 Y151.319 E7.20773
G1 X124.612 Y151.585 E7.23035
G1 X124.295 Y151.727 E7.24364
G1 X123.16 Y152.175 E7.29034
G1 X118.98 Y153.725 E7.46095
G1 X118.334 Y153.954 E7.48718
G1 X117.792 Y154.115 E7.50882
G1 X117.064 Y154.294 E7.53751
G1 X112.535 Y155.355 E7.71552
G1 X111.818 Y155.513 E7.74362
G1 X111.225 Y155.604 E7.76658
G1 X105.85 Y156.174 E7.97343
G1 X105.285 Y156.226 E7.99515
G1 X104.93 Y156.242 E8.00875
G1 X103.697 Y156.241 E8.05593
G1 X98.554 Y156.136 E8.25279
G1 X97.986 Y156.117 E8.27454
G1 X97.629 Y156.088 E8.28825
G1 X96.37 Y155.928 E8.33682
G1 X92.265 Y155.318 E8.49564
G1 X91.611 Y155.212 E8.521
G1 X91.27 Y155.141 E8.53433
G1 X90.208 Y154.868 E8.57629
G1 X85.727 Y153.626 E8.75424
G1 X85.044 Y153.426 E8.78148
G1 X84.516 Y153.235 E8.80296
G1 X83.635 Y152.861 E8.83959
G1 X81.625 Y152.023 E8.92293
G1 X81.033 Y151.783 E8.94738
G1 X79.389 Y151.091 E9.01564
G1 X78.861 Y150.86 E9.03769
G1 X78.548 Y150.706 E9.05104
G1 X77.518 Y150.139 E9.09604
G1 X73.423 Y147.779 E9.27692
G1 X72.953 Y147.499 E9.29785
G1 X72.658 Y147.305 E9.31136
G1 X71.662 Y146.58 E9.35851
G1 X67.946 Y143.762 E9.53699
G1 X67.3 Y143.236 E9.56887
G1 X66.386 Y142.376 E9.61689
G1 X63.173 Y139.224 E9.78914
G1 X62.911 Y138.971 E9.80308
G1 X62.549 Y138.609 E9.82267
G1 X62.133 Y138.136 E9.84678
G1 X62.063 Y138.05 E9.85102
G1 X58.868 Y134.017 E10.04793
G1 X58.53 Y133.577 E10.06916
G1 X58.33 Y133.29 E10.08255
G1 X57.662 Y132.235 E10.13034
G1 X55.264 Y128.264 E10.30786
G1 X54.97 Y127.763 E10.33009
G1 X54.801 Y127.441 E10.34401
G1 X54.263 Y126.288 E10.3927
G1 X52.366 Y122.005 E10.57197
G1 X52.142 Y121.481 E10.59378
G1 X52.018 Y121.15 E10.6073
G1 X51.674 Y120.084 E10.65017
G1 X50.285 Y115.505 E10.83329
G1 X50.097 Y114.85 E10.85937
G1 X49.958 Y114.219 E10.8841
G1 X49.935 Y114.097 E10.88885
G1 X49.087 Y109.031 E11.08542
G1 X48.993 Y108.412 E11.10938
G1 X48.957 Y108.071 E11.1225
G1 X48.887 Y106.936 E11.16602
G1 X48.692 Y102.352 E11.34161
G1 X48.672 Y101.648 E11.36856
G1 X48.681 Y101.194 E11.38594
G1 X48.733 Y100.462 E11.41402
G1 X49.154 Y95.529 E11.60349
G1 X49.218 Y94.887 E11.62818
G1 X49.268 Y94.544 E11.64145
G1 X49.484 Y93.415 E11.68544
G1 X50.397 Y89.113 E11.85374
G1 X50.609 Y88.196 E11.88976
G1 X50.703 Y87.857 E11.90322
G1 X51.023 Y86.885 E11.94238
G1 X52.549 Y82.536 E12.11876
G1 X52.76 Y81.961 E12.1422
G1 X52.892 Y81.646 E12.15528
G1 X53.314 Y80.75 E12.19318
G1 X55.464 Y76.39 E12.37922
G1 X55.776 Y75.779 E12.40547
G1 X56.126 Y75.191 E12.43166
G1 X56.185 Y75.099 E12.43584
G1 X59.152 Y70.626 E12.64126
G1 X59.474 Y70.156 E12.66306
G1 X59.684 Y69.877 E12.67642
G1 X60.466 Y68.932 E12.72336
G1 X63.484 Y65.434 E12.90017
G1 X63.882 Y64.985 E12.92313
G1 X64.131 Y64.729 E12.9368
G0 F1285.7 X64.37 Y64.984
G1 F900 X65.265 Y64.146 E12.98372
G1 X68.52 Y61.218 E13.15127
G1 X69.052 Y60.754 E13.17828
G1 X69.486 Y60.414 E13.19938
G1 X70.185 Y59.918 E13.23218
G1 X73.965 Y57.292 E13.40832
G1 X74.465 Y56.956 E13.43138
G1 X74.734 Y56.792 E13.44343
G1 X75.812 Y56.201 E13.49048
G1 X80.003 Y54.008 E13.6715
G1 X80.664 Y53.674 E13.69984
G1 X81.135 Y53.47 E13.71949
G1 X81.48 Y53.338 E13.73362
G1 X86.114 Y51.611 E13.92288
G1 X86.654 Y51.418 E13.94482
G1 X87.19 Y51.256 E13.96625
G1 X88.138 Y51.017 E14.00367
G1 X92.537 Y49.988 E14.17656
G1 X93.275 Y49.827 E14.20547
G1 X93.958 Y49.728 E14.23188
G1 X94.02 Y49.72 E14.23427
G1 X99.177 Y49.177 E14.43272
G1 X99.775 Y49.122 E14.4557
G1 X100.101 Y49.107 E14.46819
G1 X101.301 Y49.109 E14.51411
G1 X106.413 Y49.212 E14.70979
G1 X107.001 Y49.233 E14.7323
G1 X107.316 Y49.259 E14.7444
G1 X108.541 Y49.414 E14.79165
G1 X112.772 Y50.04 E14.95533
G1 X113.358 Y50.135 E14.97805
G1 X113.671 Y50.201 E14.99029
G1 X114.741 Y50.476 E15.03257
G1 X119.146 Y51.698 E15.20752
G1 X119.708 Y51.863 E15.22993
G1 X120.008 Y51.966 E15.24207
G1 X121.179 Y52.428 E15.29025
G1 X125.527 Y54.252 E15.47069
G1 X126.028 Y54.471 E15.49161
G1 X126.314 Y54.612 E15.50382
G1 X127.431 Y55.227 E15.55262
G1 X131.325 Y57.479 E15.72476
G1 X131.818 Y57.774 E15.74675
G1 X132.08 Y57.947 E15.75877
G1 X133.051 Y58.654 E15.80473
G1 X135.12 Y60.225 E15.90415
G1 X136.377 Y61.193 E15.96487
G1 X136.778 Y61.494 E15.98405
G1 X137.367 Y61.949 E16.01254
G1 X137.772 Y62.304 E16.03315
G1 X138.025 Y62.546 E16.04655
G1 X141.67 Y66.118 E16.24185
G1 X142.063 Y66.512 E16.26315
G1 X142.286 Y66.757 E16.27583
G1 X143.053 Y67.687 E16.32196
G1 X145.776 Y71.124 E16.48977
G1 X146.156 Y71.617 E16.51359
G1 X146.342 Y71.883 E16.52601
G1 X146.989 Y72.906 E16.57234
G1 X149.43 Y76.946 E16.75297
G1 X149.734 Y77.465 E16.77599
G1 X149.883 Y77.748 E16.78823
G1 X150.385 Y78.819 E16.8335
G1 X152.344 Y83.216 E17.01771
G1 X152.574 Y83.752 E17.04004
G1 X152.688 Y84.054 E17.05239
G1 X153.058 Y85.197 E17.09837
G1 X154.344 Y89.45 E17.2684
G1 X154.51 Y90.03 E17.29149
G1 X154.583 Y90.339 E17.30364
G1 X154.819 Y91.576 E17.35184
G1 X155.435 Y95.229 E17.49361
G1 X155.57 Y96.009 E17.5239
G1 X155.716 Y96.889 E17.55804
G1 X155.759 Y97.275 E17.5729
G1 X155.796 Y97.976 E17.59977
G1 X155.951 Y101.993 E17.75361
G1 X155.979 Y103.429 E17.80858
G1 X155.967 Y103.884 E17.82599
G1 X155.926 Y104.474 E17.84863
G1 X155.507 Y109.516 E18.04225
G1 X155.455 Y110.052 E18.06286
G1 X155.408 Y110.374 E18.07531
G1 X155.168 Y111.628 E18.12417
G1 X154.256 Y115.912 E18.29179
G1 X154.133 Y116.448 E18.31284
G1 X154.05 Y116.748 E18.32475
G1 X153.684 Y117.873 E18.37002
G1 X152.123 Y122.358 E18.55176
G1 X151.918 Y122.92 E18.57465
G1 X151.795 Y123.215 E18.58689
G1 X151.304 Y124.257 E18.63097
G1 X149.225 Y128.452 E18.81014
G1 X148.939 Y129.011 E18.83417
G1 X148.779 Y129.291 E18.84651
G1 X148.162 Y130.264 E18.89061
G1 X145.591 Y134.149 E19.06889
G1 X145.19 Y134.736 E19.0961
G1 X144.784 Y135.253 E19.12125
G1 X141.305 Y139.285 E19.32506
G1 X140.841 Y139.807 E19.35178
G1 X140.402 Y140.241 E19.37541
G1 X138.612 Y141.842 E19.46731
G1 X138.324 Y142.097 E19.48203
G1 X137.233 Y143.075 E19.53811
G1 X136.365 Y143.865 E19.58302
G1 X135.824 Y144.344 E19.61068
G1 X135.39 Y144.683 E19.63175
G1 X135.293 Y144.753 E19.63633
G1 X131.01 Y147.729 E19.83592
G1 X130.515 Y148.062 E19.85875
G1 X130.243 Y148.227 E19.87093
G1 X129.2 Y148.799 E19.91645
G1 X124.983 Y151.006 E20.0986
G1 X124.455 Y151.272 E20.12122
G1 X124.166 Y151.402 E20.13335
G1 X123.039 Y151.847 E20.17972
G1 X118.863 Y153.395 E20.35016
G1 X118.217 Y153.624 E20.37639
G1 X117.709 Y153.775 E20.39667
G1 X116.985 Y153.953 E20.4252
G1 X112.46 Y155.013 E20.60306
G1 X111.743 Y155.171 E20.63116
G1 X111.181 Y155.257 E20.65292
G1 X105.818 Y155.825 E20.85931
G1 X105.253 Y155.877 E20.88102
G1 X104.93 Y155.892 E20.89339
G1 X103.704 Y155.891 E20.94031
G1 X98.566 Y155.786 E21.13698
G1 X97.998 Y155.767 E21.15873
G1 X97.673 Y155.741 E21.17121
G1 X96.421 Y155.582 E21.21951
G1 X92.321 Y154.973 E21.37813
G1 X91.667 Y154.867 E21.40349
G1 X91.357 Y154.802 E21.41561
G1 X90.301 Y154.531 E21.45733
G1 X85.825 Y153.29 E21.63509
G1 X85.142 Y153.09 E21.66232
G1 X84.651 Y152.912 E21.68231
G1 X83.808 Y152.554 E21.71736
G1 X81.756 Y151.698 E21.80245
G1 X81.168 Y151.46 E21.82672
G1 X79.529 Y150.77 E21.89478
G1 X79.001 Y150.539 E21.91683
G1 X78.717 Y150.399 E21.92895
G1 X77.693 Y149.836 E21.97367
G1 X73.602 Y147.478 E22.15438
G1 X73.132 Y147.198 E22.17531
G1 X72.864 Y147.022 E22.18758
G1 X71.873 Y146.301 E22.23448
G1 X68.162 Y143.486 E22.41274
G1 X67.54 Y142.981 E22.4434
G1 X66.631 Y142.126 E22.49116
G1 X63.443 Y138.999 E22.66205
G1 X63.158 Y138.724 E22.67721
G1 X62.796 Y138.362 E22.6968
G1 X62.401 Y137.911 E22.71975
G1 X62.337 Y137.833 E22.72361
G1 X59.146 Y133.803 E22.92033
G1 X58.808 Y133.363 E22.94156
G1 X58.625 Y133.102 E22.95376
G1 X57.962 Y132.054 E23.00122
G1 X55.566 Y128.087 E23.17857
G1 X55.272 Y127.586 E23.2008
G1 X55.118 Y127.293 E23.21347
G1 X54.583 Y126.146 E23.26191
G1 X52.688 Y121.868 E23.44097
G1 X52.464 Y121.344 E23.46278
G1 X52.351 Y121.042 E23.47512
G1 X52.009 Y119.982 E23.51774
G1 X50.622 Y115.408 E23.70066
G1 X50.434 Y114.753 E23.72674
G1 X50.301 Y114.15 E23.75037
G1 X50.28 Y114.039 E23.75469
G1 X49.433 Y108.978 E23.95107
G1 X49.339 Y108.359 E23.97503
G1 X49.306 Y108.049 E23.98696
G1 X49.236 Y106.921 E24.03021
G1 X49.041 Y102.342 E24.2056
G1 X49.021 Y101.638 E24.23255
G1 X49.03 Y101.219 E24.24859
G1 X49.082 Y100.491 E24.27652
G1 X49.502 Y95.563 E24.4658
G1 X49.566 Y94.921 E24.49049
G1 X49.612 Y94.61 E24.50252
G1 X49.827 Y93.487 E24.54628
G1 X50.738 Y89.192 E24.7143
G1 X50.95 Y88.275 E24.75032
G1 X51.036 Y87.967 E24.76256
G1 X51.378 Y86.93 E24.80435
G1 X52.878 Y82.657 E24.97766
G1 X53.089 Y82.082 E25.0011
G1 X53.209 Y81.795 E25.013
G1 X53.628 Y80.904 E25.05068
G1 X55.776 Y76.549 E25.23652
G1 X56.088 Y75.938 E25.26277
G1 X56.423 Y75.376 E25.28781
G1 X56.476 Y75.293 E25.29158
G1 X59.441 Y70.824 E25.49682
G1 X59.763 Y70.354 E25.51863
G1 X59.954 Y70.1 E25.53079
G1 X60.732 Y69.161 E25.57745
G1 X63.746 Y65.666 E25.75407
G1 X64.144 Y65.217 E25.77703
G1 X64.37 Y64.984 E25.78946
G0 F1285.7 X64.61 Y65.239
G1 F900 X65.499 Y64.406 E25.83608
G1 X68.75 Y61.482 E26.00341
G1 X69.282 Y61.018 E26.03043
G1 X69.689 Y60.699 E26.05022
G1 X70.384 Y60.206 E26.08283
G1 X74.16 Y57.583 E26.25878
G1 X74.66 Y57.247 E26.28183
G1 X74.903 Y57.099 E26.29272
G1 X75.975 Y56.511 E26.33951
G1 X80.161 Y54.32 E26.52032
G1 X80.822 Y53.986 E26.54867
G1 X81.577 Y53.676 E26.5799
G1 X86.231 Y51.94 E26.76999
G1 X86.771 Y51.747 E26.79194
G1 X87.286 Y51.593 E26.81251
G1 X87.389 Y51.565 E26.8166
G1 X88.272 Y51.344 E26.85143
G1 X92.611 Y50.33 E27.02196
G1 X93.349 Y50.169 E27.05086
G1 X94 Y50.075 E27.07603
G1 X99.209 Y49.525 E27.27649
G1 X99.807 Y49.47 E27.29947
G1 X100.101 Y49.457 E27.31073
G1 X101.294 Y49.459 E27.35639
G1 X106.4 Y49.562 E27.55183
G1 X106.988 Y49.583 E27.57435
G1 X107.272 Y49.606 E27.58525
G1 X108.49 Y49.76 E27.63224
G1 X112.716 Y50.386 E27.79573
G1 X113.302 Y50.481 E27.81845
G1 X113.583 Y50.54 E27.82944
G1 X114.647 Y50.813 E27.87147
G1 X119.047 Y52.034 E28.04622
G1 X119.609 Y52.199 E28.06864
G1 X119.879 Y52.291 E28.07955
G1 X121.044 Y52.751 E28.12749
G1 X125.387 Y54.573 E28.30773
G1 X125.888 Y54.792 E28.32865
G1 X126.145 Y54.918 E28.3396
G1 X127.256 Y55.53 E28.38814
G1 X131.145 Y57.78 E28.56009
G1 X131.638 Y58.075 E28.58208
G1 X131.874 Y58.231 E28.5929
G1 X132.839 Y58.933 E28.63857
G1 X134.906 Y60.502 E28.73788
G1 X136.163 Y61.47 E28.7986
G1 X136.564 Y61.771 E28.81779
G1 X137.153 Y62.226 E28.84627
G1 X137.535 Y62.562 E28.86574
G1 X137.78 Y62.795 E28.87868
G1 X141.422 Y66.365 E29.07385
G1 X141.815 Y66.759 E29.09514
G1 X142.016 Y66.98 E29.10658
G1 X142.778 Y67.905 E29.15244
G1 X145.499 Y71.338 E29.32008
G1 X145.879 Y71.831 E29.3439
G1 X146.046 Y72.07 E29.35506
G1 X146.69 Y73.087 E29.40113
G1 X149.128 Y77.123 E29.58158
G1 X149.432 Y77.642 E29.6046
G1 X149.566 Y77.897 E29.61562
G1 X150.065 Y78.961 E29.66059
G1 X152.023 Y83.354 E29.84466
G1 X152.253 Y83.89 E29.86698
G1 X152.355 Y84.162 E29.87809
G1 X152.723 Y85.298 E29.92379
G1 X154.007 Y89.546 E30.09362
G1 X154.173 Y90.126 E30.11671
G1 X154.24 Y90.404 E30.12766
G1 X154.474 Y91.634 E30.17557
G1 X155.09 Y95.289 E30.31742
G1 X155.225 Y96.066 E30.3476
G1 X155.371 Y96.946 E30.38174
G1 X155.409 Y97.294 E30.39513
G1 X155.447 Y97.989 E30.42177
G1 X155.601 Y102 E30.57538
G1 X155.629 Y103.436 E30.63035
G1 X155.618 Y103.859 E30.64654
G1 X155.577 Y104.445 E30.66902
G1 X155.158 Y109.483 E30.86249
G1 X155.106 Y110.019 E30.8831
G1 X155.065 Y110.308 E30.89427
G1 X154.839 Y111.49 E30.94032
G1 X153.915 Y115.834 E31.11029
G1 X153.792 Y116.37 E31.13133
G1 X153.717 Y116.64 E31.14206
G1 X153.354 Y117.758 E31.18704
G1 X151.794 Y122.238 E31.36858
G1 X151.589 Y122.8 E31.39148
G1 X151.478 Y123.065 E31.40247
G1 X150.96 Y124.164 E31.44897
G1 X148.914 Y128.292 E31.62529
G1 X148.628 Y128.851 E31.64932
G1 X148.483 Y129.104 E31.66048
G1 X147.87 Y130.071 E31.70429
G1 X145.302 Y133.952 E31.88239
G1 X144.901 Y134.539 E31.90959
G1 X144.513 Y135.032 E31.9336
G1 X141.043 Y139.052 E32.13683
G1 X140.579 Y139.574 E32.16356
