;FLAVOR:Marlin
;TIME:35244
;Filament used: 34.0697m
;Layer height: 0.2
;MINX:18.671
;MINY:24.038
;MINZ:0.26
;MAXX:186.331
;MAXY:180.991
;MAXZ:11.86
;Generated with Cura_SteamEngine 4.9.1
M82 ;absolute extrusion mode
;Begin Start Gcode for Dagoma DiscoEasy 200
;Sliced: 12-07-2021 16:01:22
;Initial extruder: 0

G90 ;Absolute positioning
M106 S255 ;Fan on full
G28 X Y ;Home stop X Y
G1 X100 ;Centre back during cooldown in case of oozing
M109 R90 ;Cooldown in case too hot
G28 ;Centre
G29 ;Auto-level
M104 S205 ;Pre-heat
M107 ;Fan off
G0 X100 Y5 Z0.5 ;Front centre for degunk
M109 S205 ;Wait for initial temp
M83 ;E Relative
G1 E10 F200 ;Degunk
G1 E-3 F5000 ;Retract
G0 Z3 ;Withdraw
M82 ;E absolute
G92 E0 ;E reset
G1 F6000 ;Set feedrate

;Finish Start Gcode for Dagoma DiscoEasy 200

G92 E0
G92 E0
G1 F3000 E-3.5
;LAYER_COUNT:59
;LAYER:0
M107
G0 F1285.7 X44.566 Y47.247 Z0.26
;TYPE:SKIRT
G1 F3000 E0
G1 F900 X45.722 Y46.165 E0.06059
G1 X46.455 Y45.499 E0.0985
G1 X47.693 Y44.412 E0.16154
G1 X48.46 Y43.758 E0.20012
G1 X49.718 Y42.72 E0.26253
G1 X50.585 Y42.027 E0.30501
G1 X51.846 Y41.051 E0.36604
G1 X52.625 Y40.468 E0.40327
G1 X53.903 Y39.542 E0.46367
G1 X54.723 Y38.965 E0.50204
G1 X56.004 Y38.092 E0.56137
G1 X56.93 Y37.481 E0.60382
G1 X58.312 Y36.603 E0.66648
G1 X59.146 Y36.093 E0.70389
G1 X60.582 Y35.246 E0.7677
G1 X61.432 Y34.763 E0.80511
G1 X62.859 Y33.983 E0.86735
G1 X63.807 Y33.483 E0.90836
G1 X65.037 Y32.857 E0.96118
G1 X66.083 Y32.342 E1.0058
G1 X67.628 Y31.614 E1.07116
G1 X68.432 Y31.252 E1.1049
G1 X69.927 Y30.605 E1.16724
G1 X71.06 Y30.135 E1.21419
G1 X72.573 Y29.537 E1.27645
G1 X73.363 Y29.239 E1.30876
G1 X74.85 Y28.704 E1.36924
G1 X75.866 Y28.357 E1.41032
G1 X77.381 Y27.865 E1.47128
G1 X78.238 Y27.601 E1.5056
G1 X79.881 Y27.124 E1.57107
G1 X80.871 Y26.855 E1.61033
G1 X82.459 Y26.452 E1.67303
G1 X83.415 Y26.226 E1.71063
G1 X84.853 Y25.905 E1.76701
G1 X86.099 Y25.645 E1.81572
G1 X87.752 Y25.327 E1.88014
G1 X88.664 Y25.166 E1.91558
G1 X90.208 Y24.92 E1.97542
G1 X91.269 Y24.768 E2.01644
G1 X93.013 Y24.548 E2.08371
G1 X93.689 Y24.475 E2.10973
G1 X95.356 Y24.322 E2.17379
G1 X96.328 Y24.248 E2.2111
G1 X97.975 Y24.149 E2.27424
G1 X99.144 Y24.098 E2.31902
G1 X100.57 Y24.056 E2.37362
G1 X101.686 Y24.038 E2.41633
G1 X103.314 Y24.038 E2.47863
G1 X104.472 Y24.057 E2.52296
G1 X105.953 Y24.102 E2.57966
G1 X107.061 Y24.151 E2.6221
G1 X108.716 Y24.251 E2.68555
G1 X109.671 Y24.325 E2.72221
G1 X111.326 Y24.478 E2.78582
G1 X112.139 Y24.566 E2.81711
G1 X113.822 Y24.779 E2.88203
G1 X114.924 Y24.937 E2.92464
G1 X116.399 Y25.17 E2.98179
G1 X117.435 Y25.351 E3.02203
G1 X119.166 Y25.683 E3.08948
G1 X120.022 Y25.863 E3.12296
G1 X121.422 Y26.177 E3.17787
G1 X122.465 Y26.426 E3.21891
G1 X124.003 Y26.82 E3.27966
G1 X125.112 Y27.123 E3.32366
G1 X126.791 Y27.612 E3.39059
G1 X127.791 Y27.921 E3.43064
G1 X129.297 Y28.412 E3.49126
G1 X130.196 Y28.719 E3.52761
G1 X131.676 Y29.253 E3.58783
G1 X132.474 Y29.555 E3.62048
G1 X134.125 Y30.209 E3.68844
G1 X135.102 Y30.616 E3.72894
G1 X136.66 Y31.292 E3.79394
G1 X137.427 Y31.64 E3.82617
G1 X138.976 Y32.371 E3.89172
G1 X139.949 Y32.85 E3.93322
G1 X141.262 Y33.52 E3.98964
G1 X142.079 Y33.952 E4.025
G1 X143.532 Y34.75 E4.08844
G1 X144.499 Y35.302 E4.13106
G1 X146 Y36.186 E4.19772
G1 X146.792 Y36.672 E4.23328
G1 X148.179 Y37.551 E4.29612
G1 X148.878 Y38.01 E4.32812
G1 X150.298 Y38.976 E4.39385
G1 X151.154 Y39.579 E4.43392
G1 X152.482 Y40.546 E4.49679
G1 X153.261 Y41.131 E4.53407
G1 X154.537 Y42.119 E4.59583
G1 X155.255 Y42.693 E4.63101
G1 X156.648 Y43.843 E4.70014
G1 X157.328 Y44.427 E4.73444
G1 X158.576 Y45.528 E4.79813
G1 X159.375 Y46.257 E4.83952
G1 X160.376 Y47.197 E4.89207
G1 X161.134 Y47.928 E4.93237
G1 X162.463 Y49.255 E5.00424
G1 X163.078 Y49.895 E5.03821
G1 X164.056 Y50.938 E5.09293
G1 X164.903 Y51.869 E5.1411
G1 X166.032 Y53.149 E5.20641
G1 X166.481 Y53.677 E5.23294
G1 X167.559 Y54.98 E5.29766
G1 X168.295 Y55.901 E5.34278
G1 X169.33 Y57.237 E5.40745
G1 X169.894 Y57.991 E5.44349
G1 X170.783 Y59.215 E5.50138
G1 X171.426 Y60.13 E5.54418
G1 X172.357 Y61.495 E5.60741
G1 X172.85 Y62.245 E5.64176
G1 X173.722 Y63.618 E5.704
G1 X174.251 Y64.482 E5.74277
G1 X174.983 Y65.72 E5.79781
G1 X175.522 Y66.662 E5.83935
G1 X176.401 Y68.254 E5.90894
G1 X176.85 Y69.104 E5.94573
G1 X177.581 Y70.541 E6.00743
G1 X177.96 Y71.315 E6.04041
G1 X178.667 Y72.821 E6.10408
G1 X179.216 Y74.041 E6.15528
G1 X179.833 Y75.468 E6.21477
G1 X180.115 Y76.151 E6.24305
G1 X180.704 Y77.634 E6.30412
G1 X181.157 Y78.826 E6.35292
G1 X181.729 Y80.415 E6.41755
G1 X181.965 Y81.105 E6.44546
G1 X182.438 Y82.563 E6.50412
G1 X182.734 Y83.521 E6.54249
G1 X183.237 Y85.253 E6.61151
G1 X183.522 Y86.304 E6.65318
G1 X183.889 Y87.739 E6.70987
G1 X184.135 Y88.758 E6.74999
G1 X184.473 Y90.26 E6.8089
G1 X184.727 Y91.478 E6.85652
G1 X185.049 Y93.152 E6.92176
G1 X185.175 Y93.874 E6.94981
G1 X185.438 Y95.534 E7.01412
G1 X185.569 Y96.455 E7.04973
G1 X185.79 Y98.247 E7.11882
G1 X185.867 Y98.97 E7.14665
G1 X185.995 Y100.336 E7.19915
G1 X186.107 Y101.745 E7.25325
G1 X186.204 Y103.246 E7.31081
G1 X186.275 Y104.658 E7.36491
G1 X186.314 Y105.783 E7.40799
G1 X186.331 Y107 E7.45457
G1 X186.326 Y108.701 E7.51967
G1 X186.306 Y109.869 E7.56437
G1 X186.264 Y111.223 E7.61622
G1 X186.213 Y112.37 E7.66015
G1 X186.114 Y114.004 E7.7228
G1 X186.047 Y114.894 E7.75696
G1 X185.884 Y116.66 E7.82483
G1 X185.794 Y117.48 E7.8564
G1 X185.58 Y119.197 E7.92262
G1 X185.454 Y120.081 E7.95679
G1 X185.193 Y121.741 E8.0211
G1 X185.039 Y122.628 E8.05555
G1 X184.69 Y124.441 E8.1262
G1 X184.513 Y125.288 E8.15932
G1 X184.199 Y126.699 E8.21464
G1 X183.918 Y127.877 E8.26098
G1 X183.453 Y129.691 E8.33265
G1 X183.25 Y130.425 E8.36179
G1 X182.801 Y131.964 E8.42315
G1 X182.483 Y132.998 E8.46455
G1 X182.017 Y134.435 E8.52236
G1 X181.701 Y135.362 E8.55984
G1 X181.1 Y137.037 E8.62794
G1 X180.75 Y137.962 E8.66579
G1 X180.178 Y139.411 E8.72541
G1 X179.808 Y140.309 E8.76258
G1 X179.113 Y141.921 E8.82976
G1 X178.683 Y142.875 E8.8698
G1 X177.954 Y144.425 E8.93535
G1 X177.594 Y145.158 E8.96661
G1 X176.876 Y146.565 E9.02706
G1 X176.439 Y147.39 E9.06278
G1 X175.679 Y148.772 E9.12314
G1 X174.985 Y149.993 E9.17689
G1 X174.182 Y151.35 E9.23723
G1 X173.774 Y152.014 E9.26706
G1 X172.896 Y153.399 E9.32981
G1 X172.273 Y154.345 E9.37316
G1 X171.369 Y155.673 E9.43464
G1 X170.781 Y156.509 E9.47376
G1 X169.939 Y157.668 E9.52858
G1 X169.263 Y158.572 E9.57178
G1 X168.223 Y159.916 E9.63681
G1 X167.583 Y160.715 E9.67599
G1 X166.905 Y161.534 E9.71668
G1 X165.199 Y163.656 E9.82088
G1 X163.562 Y165.814 E9.92454
G1 X161.976 Y168.033 E10.02892
G1 X160.471 Y170.27 E10.1321
G1 X158.997 Y172.599 E10.23758
G1 X157.625 Y174.91 E10.34043
G1 X156.297 Y177.301 E10.4451
G1 X155.845 Y178.168 E10.48252
G1 X155.478 Y178.847 E10.51206
G1 X155.179 Y179.316 E10.53334
G1 X154.823 Y179.731 E10.55427
G1 X154.722 Y179.833 E10.55976
G1 X154.303 Y180.199 E10.58105
G1 X153.836 Y180.501 E10.60233
G1 X153.33 Y180.734 E10.62365
G1 X152.796 Y180.891 E10.64495
G1 X152.098 Y180.979 E10.67188
G1 X151.457 Y180.991 E10.69641
G1 X53.696 Y180.991 E14.43768
G1 X52.993 Y180.981 E14.46458
G1 X52.439 Y180.933 E14.48586
G1 X51.897 Y180.806 E14.50717
G1 X51.379 Y180.603 E14.52846
G1 X50.895 Y180.328 E14.54976
G1 X50.456 Y179.986 E14.57106
G1 X50.06 Y179.581 E14.59274
G1 X49.715 Y179.144 E14.61404
G1 X49.498 Y178.785 E14.6301
G1 X48.922 Y177.702 E14.67704
G1 X47.612 Y175.321 E14.78104
G1 X46.224 Y172.959 E14.88589
G1 X44.798 Y170.681 E14.98874
G1 X43.292 Y168.42 E15.0927
G1 X41.699 Y166.17 E15.1982
G1 X40.089 Y164.027 E15.30078
G1 X38.211 Y161.675 E15.41596
G1 X37.389 Y160.677 E15.46544
G1 X36.629 Y159.726 E15.51203
G1 X35.767 Y158.614 E15.56588
G1 X35.149 Y157.792 E15.60523
G1 X34.09 Y156.333 E15.67423
G1 X33.59 Y155.618 E15.70762
G1 X32.739 Y154.367 E15.76552
G1 X32.209 Y153.564 E15.80234
G1 X31.214 Y151.995 E15.87344
G1 X30.652 Y151.069 E15.91489
G1 X29.839 Y149.687 E15.97626
G1 X29.411 Y148.935 E16.00937
G1 X28.648 Y147.543 E16.07012
G1 X28.094 Y146.496 E16.11545
G1 X27.384 Y145.103 E16.17528
G1 X26.994 Y144.306 E16.20924
G1 X26.288 Y142.804 E16.27275
G1 X25.864 Y141.862 E16.31229
G1 X25.153 Y140.21 E16.38112
G1 X24.792 Y139.331 E16.41748
G1 X24.258 Y137.977 E16.47318
G1 X23.855 Y136.917 E16.51658
G1 X23.263 Y135.275 E16.58338
G1 X23.014 Y134.544 E16.61293
G1 X22.48 Y132.885 E16.67963
G1 X22.106 Y131.652 E16.72894
G1 X21.759 Y130.449 E16.77685
G1 X21.492 Y129.473 E16.81558
G1 X21.042 Y127.711 E16.88517
G1 X20.806 Y126.711 E16.92449
G1 X20.516 Y125.41 E16.9755
G1 X20.296 Y124.359 E17.0166
G1 X19.952 Y122.566 E17.08647
G1 X19.786 Y121.607 E17.12371
G1 X19.539 Y120.036 E17.18457
G1 X19.403 Y119.069 E17.22194
G1 X19.206 Y117.488 E17.28291
G1 X19.109 Y116.592 E17.3174
G1 X18.942 Y114.789 E17.3867
G1 X18.881 Y113.972 E17.41805
G1 X18.783 Y112.304 E17.482
G1 X18.738 Y111.26 E17.52199
G1 X18.693 Y109.769 E17.57907
G1 X18.674 Y108.669 E17.62118
G1 X18.671 Y107.003 E17.68493
G1 X18.685 Y106.095 E17.71969
G1 X18.742 Y104.312 E17.78795
G1 X18.807 Y103.019 E17.8375
G1 X18.902 Y101.498 E17.89582
G1 X18.968 Y100.658 E17.92807
G1 X19.119 Y99.032 E17.99056
G1 X19.206 Y98.23 E18.02143
G1 X19.431 Y96.447 E18.09021
G1 X19.572 Y95.47 E18.12799
G1 X19.832 Y93.841 E18.19112
G1 X19.993 Y92.92 E18.2269
G1 X20.32 Y91.22 E18.29315
G1 X20.467 Y90.521 E18.32048
G1 X20.833 Y88.898 E18.38415
G1 X21.153 Y87.575 E18.43624
G1 X21.499 Y86.23 E18.48939
G1 X21.752 Y85.3 E18.52628
G1 X22.281 Y83.478 E18.59888
G1 X22.548 Y82.616 E18.63342
G1 X23.049 Y81.076 E18.69539
G1 X23.321 Y80.283 E18.72748
G1 X23.94 Y78.572 E18.79711
G1 X24.316 Y77.579 E18.83774
G1 X24.9 Y76.111 E18.89821
G1 X25.26 Y75.244 E18.93413
G1 X25.883 Y73.805 E18.99414
G1 X26.265 Y72.961 E19.02959
G1 X26.975 Y71.449 E19.09352
G1 X27.43 Y70.523 E19.133
G1 X28.161 Y69.091 E19.19453
G1 X28.672 Y68.125 E19.23636
G1 X29.472 Y66.667 E19.3
G1 X29.824 Y66.047 E19.32729
G1 X30.733 Y64.511 E19.39559
G1 X31.318 Y63.559 E19.43835
G1 X32.275 Y62.054 E19.5066
G1 X32.785 Y61.283 E19.54198
G1 X33.715 Y59.918 E19.60519
G1 X34.177 Y59.265 E19.6358
G1 X35.052 Y58.059 E19.69282
G1 X35.699 Y57.192 E19.73422
G1 X36.875 Y55.677 E19.80762
G1 X37.439 Y54.975 E19.84208
G1 X38.468 Y53.734 E19.90378
G1 X39.115 Y52.978 E19.94186
G1 X40.115 Y51.844 E19.99972
G1 X40.868 Y51.016 E20.04255
G1 X41.97 Y49.84 E20.10423
G1 X42.599 Y49.188 E20.1389
G1 X43.83 Y47.959 E20.20547
G1 X44.566 Y47.247 E20.24465
G0 F1285.7 X44.806 Y47.503
G1 F900 X45.957 Y46.424 E20.30503
G1 X46.686 Y45.762 E20.34272
G1 X47.92 Y44.678 E20.40557
G1 X48.683 Y44.028 E20.44393
G1 X49.936 Y42.993 E20.50613
G1 X50.799 Y42.304 E20.54839
G1 X52.056 Y41.331 E20.60922
G1 X52.83 Y40.752 E20.64621
G1 X54.104 Y39.828 E20.70644
G1 X54.92 Y39.254 E20.74462
G1 X56.197 Y38.384 E20.80376
G1 X57.118 Y37.777 E20.84597
G1 X58.495 Y36.902 E20.9084
G1 X59.324 Y36.394 E20.94561
G1 X60.755 Y35.55 E21.00919
G1 X61.6 Y35.07 E21.04638
G1 X63.023 Y34.293 E21.10843
G1 X63.966 Y33.795 E21.14924
G1 X65.192 Y33.171 E21.20189
G1 X66.232 Y32.659 E21.24625
G1 X67.772 Y31.933 E21.31141
G1 X68.571 Y31.573 E21.34494
G1 X70.061 Y30.929 E21.40706
G1 X71.189 Y30.461 E21.4538
G1 X72.696 Y29.864 E21.51583
G1 X73.481 Y29.568 E21.54794
G1 X74.963 Y29.035 E21.60821
G1 X75.975 Y28.69 E21.64913
G1 X77.484 Y28.199 E21.70986
G1 X78.335 Y27.937 E21.74393
G1 X79.973 Y27.462 E21.8092
G1 X80.957 Y27.195 E21.84822
G1 X82.54 Y26.793 E21.91072
G1 X83.491 Y26.568 E21.94812
G1 X84.924 Y26.248 E22.00431
G1 X86.165 Y25.988 E22.05284
G1 X87.813 Y25.672 E22.11705
G1 X88.719 Y25.512 E22.15226
G1 X90.258 Y25.267 E22.2119
G1 X91.313 Y25.116 E22.25269
G1 X93.119 Y24.888 E22.32235
G1 X93.721 Y24.824 E22.34552
G1 X95.383 Y24.671 E22.40939
G1 X96.349 Y24.597 E22.44647
G1 X97.99 Y24.498 E22.50938
G1 X99.155 Y24.448 E22.55401
G1 X100.575 Y24.405 E22.60837
G1 X101.629 Y24.388 E22.64872
G1 X103.372 Y24.388 E22.71542
G1 X104.461 Y24.407 E22.7571
G1 X105.938 Y24.451 E22.81365
G1 X107.04 Y24.5 E22.85586
G1 X108.689 Y24.6 E22.91909
G1 X109.639 Y24.674 E22.95555
G1 X111.288 Y24.826 E23.01893
G1 X112.095 Y24.914 E23.04999
G1 X113.773 Y25.125 E23.11472
G1 X114.87 Y25.282 E23.15713
G1 X116.339 Y25.515 E23.21405
G1 X117.369 Y25.695 E23.25406
G1 X119.094 Y26.025 E23.32127
G1 X119.946 Y26.204 E23.35459
G1 X121.341 Y26.517 E23.4093
G1 X122.378 Y26.765 E23.45011
G1 X123.911 Y27.158 E23.51067
G1 X125.014 Y27.459 E23.55443
G1 X126.688 Y27.946 E23.62115
G1 X127.683 Y28.254 E23.66101
G1 X129.184 Y28.743 E23.72142
G1 X130.078 Y29.049 E23.75758
G1 X131.552 Y29.58 E23.81754
G1 X132.345 Y29.88 E23.84999
G1 X133.99 Y30.533 E23.91772
G1 X134.963 Y30.937 E23.95804
G1 X136.516 Y31.611 E24.02283
G1 X137.277 Y31.957 E24.05482
G1 X138.821 Y32.685 E24.12015
G1 X139.79 Y33.162 E24.16148
G1 X141.098 Y33.829 E24.21767
G1 X141.911 Y34.259 E24.25286
G1 X143.359 Y35.054 E24.31608
G1 X144.322 Y35.603 E24.3585
G1 X145.817 Y36.485 E24.42493
G1 X146.605 Y36.968 E24.4603
G1 X147.987 Y37.844 E24.52292
G1 X148.681 Y38.299 E24.55468
G1 X150.097 Y39.262 E24.62021
G1 X150.948 Y39.862 E24.66006
G1 X152.272 Y40.825 E24.72271
G1 X153.047 Y41.408 E24.75983
G1 X154.319 Y42.392 E24.82137
G1 X155.032 Y42.963 E24.85633
G1 X156.42 Y44.109 E24.92521
G1 X157.097 Y44.689 E24.95933
G1 X158.34 Y45.787 E25.0228
G1 X159.135 Y46.513 E25.064
G1 X160.134 Y47.449 E25.11639
G1 X160.887 Y48.175 E25.15642
G1 X162.211 Y49.498 E25.22805
G1 X162.823 Y50.134 E25.26183
G1 X163.797 Y51.173 E25.31633
G1 X164.64 Y52.1 E25.36428
G1 X165.765 Y53.376 E25.42938
G1 X166.211 Y53.9 E25.45572
G1 X167.286 Y55.199 E25.52024
G1 X168.019 Y56.115 E25.56514
G1 X169.016 Y57.402 E25.62744
G1 X169.611 Y58.196 E25.66541
G1 X170.496 Y59.416 E25.72309
G1 X171.137 Y60.327 E25.76572
G1 X172.064 Y61.687 E25.82871
G1 X172.554 Y62.433 E25.86287
G1 X173.423 Y63.8 E25.92486
G1 X173.949 Y64.66 E25.96344
G1 X174.679 Y65.894 E26.0183
G1 X175.216 Y66.831 E26.05963
G1 X176.091 Y68.417 E26.12895
G1 X176.538 Y69.263 E26.16557
G1 X177.267 Y70.695 E26.22707
G1 X177.643 Y71.464 E26.25982
G1 X178.348 Y72.965 E26.32329
G1 X178.895 Y74.18 E26.37428
G1 X179.51 Y75.602 E26.43357
G1 X179.79 Y76.28 E26.46164
G1 X180.377 Y77.758 E26.5225
G1 X180.827 Y78.944 E26.57105
G1 X181.398 Y80.529 E26.63552
G1 X181.632 Y81.213 E26.66319
G1 X182.104 Y82.666 E26.72165
G1 X182.398 Y83.619 E26.75982
G1 X182.899 Y85.344 E26.82856
G1 X183.183 Y86.391 E26.87008
G1 X183.549 Y87.821 E26.92657
G1 X183.794 Y88.835 E26.96649
G1 X184.13 Y90.331 E27.02517
G1 X184.383 Y91.544 E27.07259
G1 X184.704 Y93.213 E27.13763
G1 X184.829 Y93.929 E27.16545
G1 X185.092 Y95.583 E27.22954
G1 X185.221 Y96.498 E27.2649
G1 X185.442 Y98.284 E27.33377
G1 X185.519 Y99.002 E27.36141
G1 X185.646 Y100.364 E27.41376
G1 X185.758 Y101.768 E27.46766
G1 X185.855 Y103.263 E27.52499
G1 X185.925 Y104.67 E27.5789
G1 X185.964 Y105.788 E27.62171
G1 X185.981 Y107 E27.6681
G1 X185.976 Y108.695 E27.73297
G1 X185.956 Y109.858 E27.77748
G1 X185.915 Y111.208 E27.82917
G1 X185.864 Y112.349 E27.87288
G1 X185.765 Y113.978 E27.93534
G1 X185.698 Y114.862 E27.96926
G1 X185.536 Y116.622 E28.0369
G1 X185.447 Y117.437 E28.06828
G1 X185.233 Y119.148 E28.13427
G1 X185.108 Y120.027 E28.16824
G1 X184.848 Y121.681 E28.23232
G1 X184.695 Y122.562 E28.26654
G1 X184.348 Y124.37 E28.33699
G1 X184.172 Y125.212 E28.36991
G1 X183.859 Y126.618 E28.42504
G1 X183.579 Y127.79 E28.47115
G1 X183.115 Y129.598 E28.54258
G1 X182.914 Y130.327 E28.57152
G1 X182.467 Y131.861 E28.63267
G1 X182.15 Y132.89 E28.67388
G1 X181.686 Y134.322 E28.73148
G1 X181.372 Y135.244 E28.76876
G1 X180.773 Y136.914 E28.83665
G1 X180.425 Y137.834 E28.8743
G1 X179.854 Y139.278 E28.93372
G1 X179.486 Y140.171 E28.97068
G1 X178.794 Y141.777 E29.03761
G1 X178.366 Y142.726 E29.07745
G1 X177.64 Y144.271 E29.14278
G1 X177.282 Y145 E29.17386
G1 X176.567 Y146.402 E29.23409
G1 X176.132 Y147.222 E29.26961
G1 X175.375 Y148.599 E29.32975
G1 X174.684 Y149.815 E29.38327
G1 X173.883 Y151.167 E29.44341
G1 X173.478 Y151.827 E29.47304
G1 X172.604 Y153.206 E29.53552
G1 X171.984 Y154.148 E29.57868
G1 X171.083 Y155.472 E29.63997
G1 X170.498 Y156.303 E29.67886
G1 X169.659 Y157.459 E29.73352
G1 X168.987 Y158.357 E29.77645
