;FLAVOR:Marlin
;TIME:10934
;Filament used: 11.7757m
;Layer height: 0.3
;MINX:49.928
;MINY:45.197
;MINZ:0.26
;MAXX:159.498
;MAXY:181.799
;MAXZ:29.96
;Generated with Cura_SteamEngine 4.9.1
M82 ;absolute extrusion mode
;Begin Start Gcode for Dagoma DiscoEasy 200
;Sliced: 26-07-2021 00:33:22
;Initial extruder: 0

G90 ;Absolute positioning
M106 S255 ;Fan on full
G28 X Y ;Home stop X Y
G1 X100 ;Centre back during cooldown in case of oozing
M109 R90 ;Cooldown in case too hot
G28 ;Centre
G29 ;Auto-level
M104 S205 ;Pre-heat
M107 ;Fan off
G0 X100 Y5 Z0.5 ;Front centre for degunk
M109 S205 ;Wait for initial temp
M83 ;E Relative
G1 E10 F200 ;Degunk
G1 E-3 F5000 ;Retract
G0 Z3 ;Withdraw
M82 ;E absolute
G92 E0 ;E reset
G1 F6000 ;Set feedrate

;Finish Start Gcode for Dagoma DiscoEasy 200

G92 E0
G92 E0
G1 F3000 E-3.5
;LAYER_COUNT:100
;LAYER:0
M107
G0 F1285.7 X67.531 Y69.867 Z0.26
;TYPE:SKIRT
G1 F3000 E0
G1 F900 X67.895 Y69.606 E0.01714
G1 X68.843 Y69.033 E0.05953
G1 X108.915 Y45.884 E1.83056
G1 X109.497 Y45.56 E1.85606
G1 X109.933 Y45.363 E1.87437
G1 X110.397 Y45.241 E1.89273
G1 X110.874 Y45.197 E1.91106
G1 X111.247 Y45.217 E1.92535
G1 X111.719 Y45.298 E1.94368
G1 X112.38 Y45.559 E1.97088
G1 X112.793 Y45.786 E1.98891
G1 X120.313 Y50.129 E2.32125
G1 X120.944 Y50.505 E2.34936
G1 X121.519 Y50.956 E2.37732
G1 X122.524 Y51.976 E2.43212
G1 X122.738 Y52.198 E2.44392
G1 X124.718 Y54.141 E2.55009
G1 X126.722 Y56.001 E2.65472
G1 X128.788 Y57.811 E2.75984
G1 X130.915 Y59.571 E2.86549
G1 X133.062 Y61.247 E2.96972
G1 X135.289 Y62.887 E3.07557
G1 X137.535 Y64.445 E3.18017
G1 X139.857 Y65.96 E3.28628
G1 X142.171 Y67.378 E3.39014
G1 X144.563 Y68.753 E3.49573
G1 X147.002 Y70.064 E3.60169
G1 X147.34 Y70.236 E3.61621
G1 X148.184 Y70.681 E3.65272
G1 X148.7 Y70.971 E3.67537
G1 X157.46 Y76.028 E4.06247
G1 X158.063 Y76.387 E4.08932
G1 X158.453 Y76.665 E4.10765
G1 X158.791 Y77.005 E4.126
G1 X159.068 Y77.396 E4.14434
G1 X159.365 Y78.097 E4.17347
G1 X159.489 Y78.703 E4.19714
G1 X159.498 Y79.182 E4.21548
G1 X159.388 Y79.801 E4.23954
G1 X159.177 Y80.52 E4.26821
G1 X158.793 Y81.756 E4.31774
G1 X158.074 Y84.322 E4.41973
G1 X157.397 Y87.036 E4.52677
G1 X156.806 Y89.725 E4.63214
G1 X156.293 Y92.416 E4.73697
G1 X155.991 Y94.291 E4.80965
G1 X155.783 Y95.231 E4.8465
G1 X155.657 Y95.53 E4.85891
G1 X155.218 Y96.426 E4.8971
G1 X154.023 Y98.95 E5.00397
G1 X152.924 Y101.456 E5.10869
G1 X151.88 Y104.026 E5.21485
G1 X150.932 Y106.563 E5.31849
G1 X150.043 Y109.171 E5.42394
G1 X149.231 Y111.787 E5.52877
G1 X148.484 Y114.462 E5.63505
G1 X147.821 Y117.119 E5.73985
G1 X147.239 Y119.786 E5.84432
G1 X146.724 Y122.498 E5.94996
G1 X146.282 Y125.25 E6.05663
G1 X145.932 Y127.912 E6.15938
G1 X145.647 Y130.675 E6.26568
G1 X145.444 Y133.401 E6.37029
G1 X145.319 Y136.134 E6.47499
G1 X145.27 Y138.908 E6.58117
G1 X145.298 Y141.641 E6.68576
G1 X145.404 Y144.377 E6.79055
G1 X145.59 Y147.142 E6.8966
G1 X145.85 Y149.863 E7.00121
G1 X146.189 Y152.591 E7.10641
G1 X146.418 Y154.088 E7.16437
G1 X146.506 Y154.722 E7.18886
G1 X146.532 Y155.2 E7.20718
G1 X146.416 Y155.929 E7.23543
G1 X146.2 Y156.663 E7.26471
G1 X145.822 Y157.88 E7.31348
G1 X145.09 Y160.492 E7.41729
G1 X144.436 Y163.113 E7.52067
G1 X143.83 Y165.865 E7.62851
G1 X143.317 Y168.57 E7.73388
G1 X143.022 Y170.405 E7.805
G1 X142.819 Y171.339 E7.84158
G1 X142.578 Y171.86 E7.86355
G1 X142.27 Y172.406 E7.88754
G1 X138.056 Y179.705 E8.21008
G1 X137.675 Y180.343 E8.23852
G1 X137.396 Y180.733 E8.25687
G1 X137.056 Y181.07 E8.27519
G1 X136.654 Y181.354 E8.29402
G1 X136.227 Y181.57 E8.31234
G1 X135.769 Y181.712 E8.33069
G1 X135.206 Y181.778 E8.35238
G1 X134.128 Y181.799 E8.39364
G1 X87.907 Y181.799 E10.1625
G1 X87.243 Y181.79 E10.18791
G1 X86.579 Y181.703 E10.21354
G1 X86.018 Y181.52 E10.23612
G1 X85.775 Y181.399 E10.24651
G1 X85.26 Y181.112 E10.26907
G1 X82.857 Y179.818 E10.37352
G1 X80.39 Y178.579 E10.47917
G1 X77.89 Y177.411 E10.58477
G1 X75.385 Y176.325 E10.68926
G1 X72.811 Y175.294 E10.79537
G1 X70.258 Y174.356 E10.89946
G1 X67.646 Y173.478 E11.00492
G1 X65.033 Y172.682 E11.10945
G1 X62.362 Y171.95 E11.21544
G1 X59.685 Y171.296 E11.3209
G1 X57.003 Y170.724 E11.42585
G1 X54.32 Y170.228 E11.53026
G1 X53.377 Y170.081 E11.56679
G1 X52.521 Y169.934 E11.60002
G1 X52.058 Y169.813 E11.61834
G1 X51.62 Y169.618 E11.63669
G1 X51.011 Y169.168 E11.66567
G1 X50.489 Y168.608 E11.69496
G1 X50.237 Y168.2 E11.71331
G1 X50.057 Y167.756 E11.73165
G1 X49.953 Y167.289 E11.74996
G1 X49.928 Y166.81 E11.76832
G1 X49.983 Y166.334 E11.78665
G1 X50.117 Y165.874 E11.80499
G1 X50.246 Y165.584 E11.81714
G1 X50.57 Y164.955 E11.84421
G1 X51.787 Y162.51 E11.94873
G1 X52.951 Y159.991 E12.05493
G1 X54.03 Y157.474 E12.15973
G1 X55.055 Y154.887 E12.26622
G1 X55.977 Y152.343 E12.36977
G1 X56.842 Y149.733 E12.475
G1 X57.636 Y147.088 E12.58069
G1 X58.353 Y144.428 E12.68612
G1 X58.992 Y141.76 E12.79111
G1 X59.558 Y139.067 E12.89642
G1 X60.036 Y136.415 E12.99954
G1 X60.45 Y133.677 E13.10552
G1 X60.791 Y130.904 E13.21244
G1 X61.042 Y128.229 E13.31526
G1 X61.224 Y125.464 E13.4213
G1 X61.325 Y122.728 E13.52608
G1 X61.351 Y119.957 E13.63213
G1 X61.299 Y117.271 E13.73494
G1 X61.166 Y114.484 E13.84172
G1 X60.957 Y111.725 E13.94761
G1 X60.676 Y109.038 E14.051
G1 X60.308 Y106.284 E14.15733
G1 X59.872 Y103.591 E14.26173
G1 X59.346 Y100.842 E14.36884
G1 X58.763 Y98.204 E14.47223
G1 X58.105 Y95.575 E14.57595
G1 X57.34 Y92.852 E14.68419
G1 X56.564 Y90.356 E14.78422
G1 X56.46 Y89.888 E14.80257
G1 X56.436 Y89.41 E14.82088
G1 X56.491 Y88.934 E14.83922
G1 X56.625 Y88.474 E14.85756
G1 X56.798 Y88.103 E14.87322
G1 X57.223 Y87.341 E14.90661
G1 X66.568 Y71.175 E15.62121
G1 X66.913 Y70.595 E15.64703
G1 X67.192 Y70.205 E15.66538
G1 X67.531 Y69.867 E15.6837
G0 F1285.7 X67.8 Y70.099
G1 F900 X68.076 Y69.905 E15.69661
G1 X69.018 Y69.336 E15.73873
G1 X109.085 Y46.19 E17.50954
G1 X109.667 Y45.866 E17.53503
G1 X110.077 Y45.683 E17.55221
G1 X110.513 Y45.576 E17.56939
G1 X111.113 Y45.556 E17.59237
G1 X111.659 Y45.644 E17.61353
G1 X112.212 Y45.866 E17.63634
G1 X112.618 Y46.089 E17.65407
G1 X120.134 Y50.43 E17.98623
G1 X120.765 Y50.806 E18.01434
G1 X121.27 Y51.202 E18.0389
G1 X122.273 Y52.219 E18.09356
G1 X122.524 Y52.479 E18.10739
G1 X124.464 Y54.383 E18.21142
G1 X126.484 Y56.258 E18.31689
G1 X128.563 Y58.079 E18.42266
G1 X130.687 Y59.836 E18.52815
G1 X132.866 Y61.538 E18.63396
G1 X135.068 Y63.16 E18.73862
G1 X137.338 Y64.735 E18.84436
G1 X139.668 Y66.255 E18.95082
G1 X142.01 Y67.69 E19.05594
G1 X144.381 Y69.052 E19.16058
G1 X146.835 Y70.372 E19.26722
G1 X147.177 Y70.545 E19.28188
G1 X148.013 Y70.987 E19.31807
G1 X148.525 Y71.274 E19.34054
G1 X157.281 Y76.328 E19.72744
G1 X157.884 Y76.687 E19.75429
G1 X158.248 Y76.95 E19.77148
G1 X158.559 Y77.274 E19.78867
G1 X158.808 Y77.647 E19.80583
G1 X159.027 Y78.19 E19.82824
G1 X159.144 Y78.766 E19.85073
G1 X159.144 Y79.215 E19.86791
G1 X159.052 Y79.703 E19.88692
G1 X158.842 Y80.416 E19.91536
G1 X158.468 Y81.621 E19.96365
G1 X157.729 Y84.257 E20.06842
G1 X157.057 Y86.952 E20.17471
G1 X156.463 Y89.652 E20.28051
G1 X155.953 Y92.33 E20.38484
G1 X155.647 Y94.23 E20.45849
G1 X155.444 Y95.14 E20.49417
G1 X155.343 Y95.376 E20.50399
G1 X154.886 Y96.308 E20.54372
G1 X153.705 Y98.802 E20.64932
G1 X152.604 Y101.313 E20.75425
G1 X151.559 Y103.884 E20.86045
G1 X150.605 Y106.439 E20.96483
G1 X149.709 Y109.064 E21.07097
G1 X148.887 Y111.715 E21.17719
G1 X148.152 Y114.351 E21.28192
G1 X147.475 Y117.061 E21.38882
G1 X146.893 Y119.729 E21.49332
G1 X146.379 Y122.44 E21.59892
G1 X145.939 Y125.177 E21.70501
G1 X145.586 Y127.857 E21.80845
G1 X145.298 Y130.648 E21.91583
G1 X145.094 Y133.394 E22.02121
G1 X144.969 Y136.102 E22.12495
G1 X144.919 Y138.905 E22.23224
G1 X144.948 Y141.659 E22.33764
G1 X145.055 Y144.412 E22.44308
G1 X145.237 Y147.121 E22.54698
G1 X145.503 Y149.904 E22.65397
G1 X145.845 Y152.653 E22.75998
G1 X146.071 Y154.136 E22.81739
G1 X146.159 Y154.77 E22.84189
G1 X146.181 Y155.218 E22.85905
G1 X146.08 Y155.83 E22.88279
G1 X145.865 Y156.559 E22.91188
G1 X145.497 Y157.745 E22.9594
G1 X144.763 Y160.362 E23.06342
G1 X144.085 Y163.079 E23.17058
G1 X143.488 Y165.786 E23.27667
G1 X142.979 Y168.474 E23.38137
G1 X142.677 Y170.345 E23.45389
G1 X142.479 Y171.249 E23.48931
G1 X142.273 Y171.688 E23.50787
G1 X141.967 Y172.231 E23.53172
G1 X137.756 Y179.526 E23.85407
G1 X137.375 Y180.164 E23.88251
G1 X137.111 Y180.527 E23.89969
G1 X136.788 Y180.838 E23.91685
G1 X136.471 Y181.056 E23.93157
G1 X136.069 Y181.256 E23.94875
G1 X135.638 Y181.381 E23.96593
G1 X135.199 Y181.429 E23.98283
G1 X134.177 Y181.449 E24.02195
G1 X87.912 Y181.449 E25.79249
G1 X87.248 Y181.44 E25.8179
G1 X86.664 Y181.363 E25.84044
G1 X86.557 Y181.336 E25.84466
G1 X85.946 Y181.094 E25.86981
G1 X85.431 Y180.807 E25.89238
G1 X82.996 Y179.496 E25.99821
G1 X80.539 Y178.262 E26.10343
G1 X78.065 Y177.105 E26.20795
G1 X75.512 Y175.999 E26.31443
G1 X72.951 Y174.973 E26.42001
G1 X70.348 Y174.017 E26.52613
G1 X67.76 Y173.147 E26.63062
G1 X65.127 Y172.345 E26.73595
G1 X62.46 Y171.614 E26.84178
G1 X59.74 Y170.949 E26.94894
G1 X57.099 Y170.386 E27.05228
G1 X54.374 Y169.882 E27.15834
G1 X53.437 Y169.736 E27.19463
G1 X52.581 Y169.589 E27.22787
G1 X52.147 Y169.474 E27.24505
G1 X51.74 Y169.283 E27.26225
G1 X51.254 Y168.916 E27.28556
G1 X50.754 Y168.378 E27.31367
G1 X50.525 Y167.991 E27.33088
G1 X50.367 Y167.571 E27.34805
G1 X50.287 Y167.129 E27.36524
G1 X50.287 Y166.68 E27.38242
G1 X50.366 Y166.238 E27.39961
G1 X50.557 Y165.745 E27.41984
G1 X50.865 Y165.147 E27.44558
G1 X52.112 Y162.642 E27.55267
G1 X53.271 Y160.134 E27.6584
G1 X54.358 Y157.599 E27.76396
G1 X55.374 Y155.034 E27.86954
G1 X56.306 Y152.462 E27.97423
G1 X57.177 Y149.833 E28.08022
G1 X57.965 Y147.209 E28.18507
G1 X58.696 Y144.501 E28.29241
G1 X59.326 Y141.872 E28.39587
G1 X59.902 Y139.132 E28.50302
G1 X60.384 Y136.455 E28.60712
G1 X60.8 Y133.702 E28.71367
G1 X61.133 Y130.993 E28.81812
G1 X61.392 Y128.247 E28.92367
G1 X61.575 Y125.452 E29.03087
G1 X61.675 Y122.744 E29.13457
G1 X61.701 Y119.988 E29.24005
G1 X61.646 Y117.183 E29.34741
G1 X61.516 Y114.477 E29.45109
G1 X61.305 Y111.697 E29.55779
G1 X61.022 Y108.99 E29.66195
G1 X60.657 Y106.252 E29.76765
G1 X60.212 Y103.504 E29.87419
G1 X59.7 Y100.826 E29.97853
G1 X59.1 Y98.112 E30.0849
G1 X58.438 Y95.464 E30.18936
G1 X57.682 Y92.774 E30.29629
G1 X56.898 Y90.252 E30.39736
G1 X56.803 Y89.813 E30.41455
G1 X56.788 Y89.365 E30.43171
G1 X56.852 Y88.92 E30.44891
G1 X57.103 Y88.274 E30.47544
G1 X57.526 Y87.516 E30.50865
G1 X66.869 Y71.354 E31.22308
G1 X67.214 Y70.774 E31.2489
G1 X67.477 Y70.41 E31.26609
G1 X67.8 Y70.099 E31.28325
G0 F1285.7 X67.761 Y70.617
G1 F900 X68.258 Y70.204 E31.30798
G1 X69.193 Y69.639 E31.34979
G1 X109.255 Y46.496 E33.12037
G1 X109.837 Y46.172 E33.14586
G1 X110.219 Y46.005 E33.16182
G1 X110.625 Y45.914 E33.17774
G1 X111.083 Y45.905 E33.19527
G1 X111.596 Y45.99 E33.21517
G1 X112.4 Y46.368 E33.24917
G1 X119.929 Y50.715 E33.58188
G1 X120.585 Y51.107 E33.61113
G1 X121.021 Y51.448 E33.63231
G1 X122.021 Y52.462 E33.68681
G1 X122.272 Y52.722 E33.70064
G1 X124.206 Y54.62 E33.80434
G1 X126.262 Y56.529 E33.91171
G1 X128.336 Y58.346 E34.01723
G1 X130.462 Y60.105 E34.12283
G1 X132.653 Y61.816 E34.22922
G1 X134.871 Y63.449 E34.33462
G1 X137.15 Y65.03 E34.44077
G1 X139.463 Y66.539 E34.54646
G1 X141.823 Y67.985 E34.65238
G1 X144.226 Y69.366 E34.75845
G1 X146.667 Y70.679 E34.86452
G1 X147.014 Y70.855 E34.87941
G1 X147.842 Y71.292 E34.91524
G1 X148.35 Y71.577 E34.93753
G1 X157.102 Y76.629 E35.32426
G1 X157.705 Y76.988 E35.35112
G1 X158.041 Y77.235 E35.36708
G1 X158.323 Y77.541 E35.383
G1 X158.543 Y77.895 E35.39895
G1 X158.727 Y78.417 E35.42014
G1 X158.798 Y78.828 E35.4361
G1 X158.789 Y79.244 E35.45202
G1 X158.716 Y79.604 E35.46608
G1 X158.508 Y80.312 E35.49432
G1 X158.132 Y81.523 E35.54285
G1 X157.385 Y84.187 E35.64873
G1 X156.719 Y86.86 E35.75415
G1 X156.129 Y89.54 E35.85917
G1 X155.6 Y92.318 E35.96739
G1 X155.302 Y94.169 E36.03914
G1 X155.217 Y94.646 E36.05768
G1 X155.029 Y95.222 E36.08087
G1 X154.572 Y96.154 E36.12059
G1 X153.389 Y98.654 E36.22644
G1 X152.274 Y101.196 E36.33267
G1 X151.223 Y103.782 E36.43949
G1 X150.282 Y106.302 E36.54244
G1 X149.365 Y108.991 E36.65116
G1 X148.563 Y111.576 E36.75474
G1 X147.808 Y114.282 E36.86225
G1 X147.137 Y116.97 E36.96828
G1 X146.55 Y119.658 E37.07357
G1 X146.029 Y122.406 E37.18061
G1 X145.595 Y125.106 E37.28526
G1 X145.238 Y127.821 E37.39006
G1 X144.948 Y130.634 E37.49828
G1 X144.746 Y133.352 E37.60259
G1 X144.618 Y136.125 E37.70882
G1 X144.569 Y138.902 E37.81511
G1 X144.598 Y141.675 E37.92124
G1 X144.704 Y144.416 E38.02621
G1 X144.891 Y147.186 E38.13246
G1 X145.155 Y149.95 E38.23872
G1 X145.494 Y152.675 E38.34381
G1 X145.724 Y154.184 E38.40222
G1 X145.812 Y154.818 E38.42672
G1 X145.83 Y155.234 E38.44265
G1 X145.744 Y155.731 E38.46196
G1 X145.531 Y156.455 E38.49084
G1 X145.161 Y157.647 E38.5386
G1 X144.416 Y160.304 E38.64421
G1 X143.747 Y162.987 E38.75003
G1 X143.146 Y165.715 E38.85693
G1 X142.632 Y168.422 E38.96238
G1 X142.333 Y170.285 E39.03458
G1 X142.14 Y171.157 E39.06876
G1 X141.968 Y171.516 E39.084
G1 X141.664 Y172.056 E39.10771
G1 X137.455 Y179.346 E39.42986
G1 X137.074 Y179.984 E39.4583
G1 X136.827 Y180.32 E39.47426
G1 X136.345 Y180.722 E39.49828
G1 X135.914 Y180.94 E39.51676
G1 X135.511 Y181.049 E39.53274
G1 X135.193 Y181.079 E39.54496
G1 X134.171 Y181.099 E39.58408
G1 X87.917 Y181.099 E41.3542
G1 X87.253 Y181.09 E41.37961
G1 X86.75 Y181.024 E41.39902
G1 X86.643 Y180.997 E41.40325
G1 X86.116 Y180.788 E41.42494
G1 X85.601 Y180.501 E41.44751
G1 X83.176 Y179.195 E41.55291
G1 X80.673 Y177.938 E41.6601
G1 X78.215 Y176.789 E41.76394
G1 X75.638 Y175.673 E41.87141
G1 X73.059 Y174.64 E41.97773
G1 X70.511 Y173.703 E42.08162
G1 X67.863 Y172.813 E42.18853
G1 X65.211 Y172.005 E42.29463
G1 X62.535 Y171.271 E42.40082
G1 X59.827 Y170.61 E42.5075
G1 X57.16 Y170.041 E42.61186
G1 X54.423 Y169.535 E42.71838
G1 X53.496 Y169.391 E42.75428
G1 X52.64 Y169.244 E42.78752
G1 X52.238 Y169.134 E42.80347
G1 X51.864 Y168.95 E42.81942
G1 X51.291 Y168.465 E42.84815
G1 X51.02 Y168.148 E42.86411
G1 X50.815 Y167.786 E42.88003
G1 X50.683 Y167.391 E42.89597
G1 X50.628 Y166.978 E42.91191
G1 X50.654 Y166.562 E42.92786
G1 X50.758 Y166.158 E42.94383
G1 X50.868 Y165.905 E42.95439
G1 X51.192 Y165.276 E42.98146
G1 X52.423 Y162.802 E43.08722
G1 X53.591 Y160.277 E43.19368
G1 X54.677 Y157.741 E43.29926
G1 X55.703 Y155.152 E43.40584
G1 X56.635 Y152.58 E43.51053
G1 X57.512 Y149.933 E43.61724
G1 X58.306 Y147.291 E43.72282
G1 X59.026 Y144.622 E43.82861
G1 X59.678 Y141.903 E43.93562
G1 X60.239 Y139.232 E44.04006
G1 X60.731 Y136.5 E44.1463
G1 X61.146 Y133.758 E44.25243
G1 X61.486 Y130.99 E44.35915
G1 X61.742 Y128.268 E44.46378
G1 X61.921 Y125.536 E44.56856
G1 X62.026 Y122.709 E44.67682
G1 X62.051 Y119.984 E44.78111
G1 X61.997 Y117.21 E44.88729
G1 X61.864 Y114.435 E44.99361
G1 X61.653 Y111.653 E45.10038
G1 X61.368 Y108.933 E45.20504
G1 X61.002 Y106.189 E45.31099
G1 X60.559 Y103.451 E45.41713
G1 X60.042 Y100.753 E45.52226
G1 X59.442 Y98.036 E45.62874
G1 X58.777 Y95.377 E45.73364
G1 X58.021 Y92.686 E45.84061
G1 X57.232 Y90.148 E45.94232
G1 X57.147 Y89.741 E45.95823
G1 X57.141 Y89.324 E45.97419
G1 X57.215 Y88.914 E45.99014
G1 X57.409 Y88.444 E46.00959
G1 X57.829 Y87.691 E46.04259
G1 X67.17 Y71.533 E46.75684
G1 X67.515 Y70.953 E46.78267
G1 X67.761 Y70.617 E46.79861
G0 F1285.7 X69.52 Y72.165
;TYPE:SUPPORT
G1 F900 X110.938 Y48.238 E48.62913
G1 X119.323 Y53.079 E48.99967
G1 X117.22 Y56.721 E49.16061
G1 X117.348 Y57.197 E49.17947
G1 X130.034 Y64.531 E49.74025
G1 X124.394 Y74.296 E50.17181
G1 X111.707 Y66.971 E50.73245
G1 X111.231 Y67.099 E50.75131
G1 X109.124 Y70.746 E50.9125
G1 X100.758 Y65.916 E51.28219
G1 X100.316 Y65.916 E51.2991
G1 X91.819 Y70.82 E51.67455
G1 X96.912 Y62 E52.06432
G1 X95.772 Y60.86 E52.12602
G1 X74.863 Y72.933 E53.05001
G1 X74.667 Y73.129 E53.06061
G1 X68.594 Y83.646 E53.52538
G1 X68.965 Y84.017 E53.54546
G1 X59.516 Y89.471 E53.96298
G1 X69.52 Y72.165 E54.72797
G0 F1285.7 X69.592 Y72.323
G1 F900 X75.639 Y72.323 E54.95938
G0 F1285.7 X74.656 Y72.943
G1 F900 X74.656 Y69.36 E55.0965
G0 F1285.7 X73.567 Y69.99
