;FLAVOR:Marlin
;TIME:8274
;Filament used: 9.9687m
;Layer height: 0.3
;MINX:54.432
;MINY:11.414
;MINZ:0.26
;MAXX:165.477
;MAXY:175.963
;MAXZ:2.96
;Generated with Cura_SteamEngine 4.9.1
M82 ;absolute extrusion mode
;Begin Start Gcode for Dagoma DiscoEasy 200
;Sliced: 08-07-2021 11:08:59
;Initial extruder: 0

G90 ;Absolute positioning
M106 S255 ;Fan on full
G28 X Y ;Home stop X Y
G1 X100 ;Centre back during cooldown in case of oozing
M109 R90 ;Cooldown in case too hot
G28 ;Centre
G29 ;Auto-level
M104 S205 ;Pre-heat
M107 ;Fan off
G0 X100 Y5 Z0.5 ;Front centre for degunk
M109 S205 ;Wait for initial temp
M83 ;E Relative
G1 E10 F200 ;Degunk
G1 E-3 F5000 ;Retract
G0 Z3 ;Withdraw
M82 ;E absolute
G92 E0 ;E reset
G1 F6000 ;Set feedrate

;Finish Start Gcode for Dagoma DiscoEasy 200

G92 E0
G92 E0
G1 F3000 E-3.5
;LAYER_COUNT:10
;LAYER:0
M107
G0 F1285.7 X68.524 Y45.565 Z0.26
;TYPE:SKIRT
G1 F3000 E0
G1 F900 X69.381 Y44.304 E0.05835
G1 X70.007 Y43.415 E0.09996
G1 X70.938 Y42.135 E0.16053
G1 X71.531 Y41.345 E0.19833
G1 X72.563 Y40.016 E0.26273
G1 X73.165 Y39.265 E0.29956
G1 X74.226 Y37.982 E0.36327
G1 X74.878 Y37.221 E0.40162
G1 X75.945 Y36.011 E0.46336
G1 X76.637 Y35.251 E0.5027
G1 X77.717 Y34.101 E0.56307
G1 X78.424 Y33.371 E0.60196
G1 X79.611 Y32.185 E0.66618
G1 X80.335 Y31.486 E0.70469
G1 X81.49 Y30.401 E0.76534
G1 X82.248 Y29.711 E0.80456
G1 X83.462 Y28.643 E0.86644
G1 X84.26 Y27.962 E0.90659
G1 X85.463 Y26.967 E0.96634
G1 X86.281 Y26.312 E1.00644
G1 X87.569 Y25.314 E1.0688
G1 X88.374 Y24.71 E1.10731
G1 X89.661 Y23.775 E1.16819
G1 X90.518 Y23.174 E1.20825
G1 X91.834 Y22.279 E1.26915
G1 X92.708 Y21.705 E1.30917
G1 X94.087 Y20.832 E1.37163
G1 X94.909 Y20.329 E1.40851
G1 X96.349 Y19.478 E1.47252
G1 X97.213 Y18.985 E1.51059
G1 X98.63 Y18.207 E1.57245
G1 X99.53 Y17.731 E1.61142
G1 X100.962 Y17.002 E1.67291
G1 X101.889 Y16.548 E1.71241
G1 X103.349 Y15.861 E1.77416
G1 X104.285 Y15.439 E1.81346
G1 X105.75 Y14.806 E1.87453
G1 X106.669 Y14.425 E1.9126
G1 X108.235 Y13.806 E1.97704
G1 X109.157 Y13.459 E2.01475
G1 X110.657 Y12.919 E2.07576
G1 X111.67 Y12.572 E2.11673
G1 X113.153 Y12.092 E2.17639
G1 X114.242 Y11.757 E2.21999
G1 X114.887 Y11.569 E2.2457
G1 X115.431 Y11.452 E2.267
G1 X115.986 Y11.414 E2.28828
G1 X116.541 Y11.456 E2.30959
G1 X117.084 Y11.577 E2.33088
G1 X117.604 Y11.775 E2.35217
G1 X118.09 Y12.045 E2.37345
G1 X118.533 Y12.382 E2.39475
G1 X118.923 Y12.779 E2.41604
G1 X119.265 Y13.248 E2.43826
G1 X119.614 Y13.812 E2.46364
G1 X121.103 Y16.142 E2.56946
G1 X122.651 Y18.422 E2.67493
G1 X124.207 Y20.578 E2.77668
G1 X125.896 Y22.784 E2.883
G1 X127.587 Y24.869 E2.98574
G1 X127.912 Y25.25 E3.00491
G1 X128.421 Y25.865 E3.03546
G1 X128.744 Y26.318 E3.05675
G1 X128.999 Y26.813 E3.07806
G1 X129.141 Y27.202 E3.0939
G1 X129.326 Y27.807 E3.11812
G1 X136.384 Y52.101 E4.08628
G1 X136.569 Y52.776 E4.11306
G1 X136.677 Y53.322 E4.13436
G1 X136.706 Y53.877 E4.15563
G1 X136.662 Y54.453 E4.17774
G1 X136.431 Y57.153 E4.28144
G1 X136.274 Y59.909 E4.38709
G1 X136.197 Y62.587 E4.48961
G1 X136.197 Y65.34 E4.59497
G1 X136.272 Y68.017 E4.69746
G1 X136.426 Y70.76 E4.8026
G1 X136.677 Y73.694 E4.91529
G1 X136.733 Y74.33 E4.93972
G1 X137.041 Y77.031 E5.04376
G1 X137.424 Y79.714 E5.14748
G1 X137.881 Y82.372 E5.25069
G1 X138.42 Y85.055 E5.35542
G1 X139.026 Y87.689 E5.45885
G1 X139.719 Y90.343 E5.56383
G1 X140.478 Y92.946 E5.66759
G1 X141.315 Y95.544 E5.77205
G1 X142.22 Y98.103 E5.87592
G1 X143.194 Y100.627 E5.97946
G1 X144.25 Y103.145 E6.08395
G1 X145.378 Y105.641 E6.18877
G1 X146.564 Y108.076 E6.29242
G1 X148.061 Y110.948 E6.41637
G1 X149.392 Y113.343 E6.52123
G1 X150.775 Y115.676 E6.62502
G1 X152.242 Y117.994 E6.73
G1 X153.743 Y120.225 E6.8329
G1 X155.337 Y122.457 E6.93787
G1 X156.992 Y124.638 E7.04264
G1 X157.259 Y124.98 E7.05925
G1 X157.569 Y125.442 E7.08054
G1 X157.841 Y126.025 E7.10516
G1 X157.927 Y126.278 E7.11539
G1 X158.119 Y126.912 E7.14074
G1 X165.157 Y151.138 E8.10619
G1 X165.342 Y151.818 E8.13316
G1 X165.449 Y152.364 E8.15445
G1 X165.477 Y152.919 E8.17571
G1 X165.447 Y153.326 E8.19133
G1 X165.288 Y154.563 E8.23906
G1 X165.251 Y154.819 E8.24896
G1 X164.942 Y157.528 E8.3533
G1 X164.709 Y160.235 E8.45728
G1 X164.552 Y162.981 E8.56254
G1 X164.474 Y165.659 E8.66507
G1 X164.473 Y168.461 E8.7723
G1 X164.479 Y168.856 E8.78742
G1 X164.447 Y169.412 E8.80873
G1 X164.336 Y169.957 E8.83002
G1 X164.149 Y170.481 E8.85131
G1 X163.888 Y170.972 E8.87259
G1 X163.559 Y171.421 E8.89389
G1 X163.17 Y171.819 E8.91519
G1 X162.728 Y172.156 E8.93646
G1 X162.241 Y172.427 E8.95779
G1 X161.681 Y172.637 E8.98068
G1 X160.905 Y172.861 E9.01159
G1 X159.9 Y173.136 E9.05146
G1 X158.356 Y173.532 E9.11246
G1 X157.341 Y173.775 E9.15241
G1 X155.785 Y174.124 E9.21343
G1 X154.729 Y174.341 E9.25469
G1 X153.228 Y174.627 E9.31317
G1 X152.182 Y174.809 E9.3538
G1 X150.574 Y175.063 E9.4161
G1 X149.579 Y175.205 E9.45456
G1 X147.967 Y175.407 E9.51673
G1 X146.986 Y175.516 E9.55451
G1 X145.319 Y175.673 E9.61859
G1 X144.367 Y175.747 E9.65513
G1 X142.717 Y175.851 E9.7184
G1 X141.678 Y175.899 E9.7582
G1 X140.099 Y175.947 E9.81866
G1 X139.112 Y175.963 E9.85643
G1 X137.415 Y175.962 E9.92138
G1 X136.436 Y175.946 E9.95885
G1 X134.849 Y175.897 E10.01961
G1 X133.811 Y175.847 E10.05938
G1 X132.164 Y175.743 E10.12254
G1 X131.21 Y175.668 E10.15916
G1 X129.604 Y175.516 E10.22089
G1 X128.567 Y175.401 E10.26082
G1 X126.95 Y175.196 E10.3232
G1 X125.924 Y175.05 E10.36286
G1 X124.371 Y174.803 E10.42304
G1 X123.308 Y174.617 E10.46434
G1 X121.802 Y174.33 E10.52301
G1 X120.742 Y174.11 E10.56444
G1 X119.195 Y173.763 E10.62511
G1 X118.2 Y173.523 E10.66428
G1 X116.597 Y173.112 E10.72761
G1 X115.657 Y172.853 E10.76493
G1 X114.097 Y172.4 E10.82709
G1 X113.096 Y172.092 E10.86717
G1 X111.612 Y171.609 E10.9269
G1 X110.598 Y171.261 E10.96793
G1 X109.106 Y170.723 E11.02862
G1 X108.174 Y170.372 E11.06674
G1 X106.61 Y169.752 E11.13112
G1 X105.698 Y169.373 E11.16892
G1 X104.228 Y168.737 E11.23021
G1 X103.294 Y168.314 E11.26945
G1 X101.832 Y167.626 E11.33129
G1 X100.91 Y167.173 E11.3706
G1 X99.477 Y166.442 E11.43216
G1 X98.577 Y165.966 E11.47113
G1 X97.162 Y165.187 E11.53294
G1 X96.293 Y164.691 E11.57123
G1 X94.857 Y163.841 E11.63509
G1 X94.039 Y163.339 E11.67182
G1 X92.652 Y162.46 E11.73466
G1 X91.784 Y161.889 E11.77443
G1 X90.471 Y160.995 E11.83522
G1 X89.609 Y160.389 E11.87554
G1 X88.328 Y159.457 E11.93617
G1 X87.538 Y158.864 E11.97397
G1 X86.21 Y157.833 E12.03831
G1 X85.458 Y157.23 E12.0752
G1 X84.165 Y156.159 E12.13945
G1 X83.396 Y155.502 E12.17816
G1 X82.272 Y154.511 E12.2355
G1 X81.445 Y153.758 E12.27831
G1 X80.295 Y152.678 E12.33868
G1 X79.564 Y151.97 E12.37763
G1 X78.381 Y150.786 E12.44168
G1 X77.71 Y150.092 E12.47862
G1 X76.57 Y148.878 E12.54235
G1 X75.909 Y148.152 E12.57993
G1 X74.829 Y146.925 E12.64248
G1 X74.182 Y146.166 E12.68065
G1 X73.13 Y144.893 E12.74385
G1 X72.529 Y144.142 E12.78066
G1 X71.488 Y142.8 E12.84566
G1 X70.939 Y142.066 E12.88074
G1 X69.939 Y140.692 E12.94577
G1 X69.376 Y139.889 E12.9833
G1 X68.455 Y138.533 E13.04603
G1 X67.915 Y137.71 E13.0837
G1 X67.022 Y136.302 E13.14751
G1 X66.507 Y135.461 E13.18525
G1 X65.69 Y134.078 E13.24672
G1 X65.17 Y133.167 E13.28687
G1 X64.409 Y131.78 E13.34741
G1 X63.923 Y130.864 E13.38709
G1 X63.199 Y129.439 E13.44826
G1 X62.74 Y128.501 E13.48823
G1 X62.058 Y127.049 E13.54962
G1 X61.648 Y126.14 E13.58778
G1 X60.981 Y124.598 E13.65208
G1 X60.622 Y123.73 E13.68802
G1 X60.002 Y122.165 E13.75244
G1 X59.648 Y121.227 E13.79081
G1 X59.118 Y119.754 E13.85072
G1 X58.766 Y118.726 E13.8923
G1 X58.285 Y117.241 E13.95204
G1 X57.978 Y116.241 E13.99207
G1 X57.525 Y114.681 E14.05424
G1 X57.268 Y113.739 E14.09161
G1 X56.852 Y112.12 E14.15558
G1 X56.615 Y111.12 E14.19491
G1 X56.28 Y109.623 E14.25361
G1 X56.055 Y108.535 E14.29613
G1 X55.768 Y107.027 E14.35488
G1 X55.583 Y105.965 E14.39613
G1 X55.337 Y104.409 E14.45642
G1 X55.191 Y103.384 E14.49604
G1 X54.988 Y101.77 E14.5583
G1 X54.879 Y100.778 E14.59649
G1 X54.725 Y99.146 E14.65922
G1 X54.645 Y98.12 E14.6986
G1 X54.547 Y96.566 E14.75819
G1 X54.499 Y95.544 E14.79735
G1 X54.446 Y93.858 E14.8619
G1 X54.432 Y92.933 E14.89731
G1 X54.432 Y91.269 E14.96099
G1 X54.448 Y90.28 E14.99884
G1 X54.501 Y88.592 E15.06347
G1 X54.551 Y87.578 E15.10232
G1 X54.649 Y86.019 E15.1621
G1 X54.73 Y84.995 E15.20141
G1 X54.886 Y83.358 E15.26434
G1 X54.996 Y82.372 E15.30231
G1 X55.206 Y80.711 E15.36638
G1 X55.346 Y79.73 E15.40431
G1 X55.593 Y78.177 E15.46449
G1 X55.779 Y77.114 E15.50578
G1 X56.067 Y75.605 E15.56458
G1 X56.292 Y74.52 E15.60698
G1 X56.633 Y73 E15.6666
G1 X56.869 Y72.014 E15.7054
G1 X57.284 Y70.404 E15.76902
G1 X57.542 Y69.463 E15.80637
G1 X57.995 Y67.903 E15.86853
G1 X58.297 Y66.921 E15.90785
G1 X58.803 Y65.368 E15.97036
G1 X59.119 Y64.448 E16.00758
G1 X59.679 Y62.894 E16.0708
G1 X60.024 Y61.98 E16.10819
G1 X60.644 Y60.417 E16.17254
G1 X61.028 Y59.494 E16.21079
G1 X61.652 Y58.05 E16.27099
G1 X62.082 Y57.1 E16.3109
G1 X62.767 Y55.644 E16.37248
G1 X63.226 Y54.707 E16.41241
G1 X63.953 Y53.282 E16.47363
G1 X64.436 Y52.369 E16.51316
G1 X65.2 Y50.982 E16.57376
G1 X65.719 Y50.071 E16.61388
G1 X66.54 Y48.685 E16.67553
G1 X67.075 Y47.814 E16.71465
G1 X67.921 Y46.481 E16.77507
G1 X68.524 Y45.565 E16.81704
G0 F1285.7 X68.813 Y45.762
G1 F900 X69.668 Y44.505 E16.87522
G1 X70.29 Y43.621 E16.91658
G1 X71.219 Y42.345 E16.97698
G1 X71.808 Y41.559 E17.01457
G1 X72.836 Y40.235 E17.07872
G1 X73.435 Y39.488 E17.11536
G1 X74.492 Y38.21 E17.17883
G1 X75.14 Y37.453 E17.21697
G1 X76.204 Y36.246 E17.27854
G1 X76.892 Y35.49 E17.31766
G1 X77.969 Y34.345 E17.37782
G1 X78.672 Y33.618 E17.41652
G1 X79.855 Y32.437 E17.48049
G1 X80.574 Y31.741 E17.51879
G1 X81.725 Y30.66 E17.57922
G1 X82.48 Y29.974 E17.61826
G1 X83.689 Y28.909 E17.67992
G1 X84.483 Y28.232 E17.71985
G1 X85.682 Y27.24 E17.7794
G1 X86.496 Y26.589 E17.81929
G1 X87.779 Y25.594 E17.88143
G1 X88.58 Y24.993 E17.91975
G1 X89.862 Y24.061 E17.98041
G1 X90.715 Y23.463 E18.02027
G1 X92.026 Y22.572 E18.08093
G1 X92.895 Y22.001 E18.12073
G1 X94.27 Y21.131 E18.183
G1 X95.087 Y20.63 E18.21967
G1 X96.522 Y19.782 E18.28346
G1 X97.382 Y19.292 E18.32134
G1 X98.794 Y18.516 E18.383
G1 X99.689 Y18.043 E18.42174
G1 X101.116 Y17.317 E18.48301
G1 X102.038 Y16.864 E18.52233
G1 X103.493 Y16.18 E18.58385
G1 X104.424 Y15.761 E18.62292
G1 X105.885 Y15.129 E18.68384
G1 X106.798 Y14.751 E18.72166
G1 X108.359 Y14.133 E18.78591
G1 X109.276 Y13.788 E18.8234
G1 X110.77 Y13.25 E18.88417
G1 X111.778 Y12.905 E18.92495
G1 X113.256 Y12.426 E18.9844
G1 X114.34 Y12.093 E19.0278
G1 X114.985 Y11.905 E19.05351
G1 X115.504 Y11.795 E19.07382
G1 X116.034 Y11.765 E19.09413
G1 X116.562 Y11.814 E19.11442
G1 X117.077 Y11.942 E19.13473
G1 X117.567 Y12.146 E19.15504
G1 X118.021 Y12.421 E19.17536
G1 X118.428 Y12.761 E19.19565
G1 X118.779 Y13.159 E19.21596
G1 X118.967 Y13.432 E19.22865
G1 X119.339 Y14.032 E19.25566
G1 X120.815 Y16.342 E19.36057
G1 X122.33 Y18.573 E19.46378
G1 X123.954 Y20.825 E19.57003
G1 X125.596 Y22.968 E19.67335
G1 X127.335 Y25.112 E19.779
G1 X127.643 Y25.473 E19.79716
G1 X128.152 Y26.088 E19.82771
G1 X128.458 Y26.522 E19.84803
G1 X128.696 Y26.996 E19.86833
G1 X128.807 Y27.304 E19.88086
G1 X128.99 Y27.904 E19.90486
G1 X136.047 Y52.193 E20.87283
G1 X136.232 Y52.868 E20.89961
G1 X136.333 Y53.389 E20.91992
G1 X136.34 Y54.142 E20.94874
G1 X136.313 Y54.419 E20.95939
G1 X136.08 Y57.147 E21.06417
G1 X135.926 Y59.846 E21.16763
G1 X135.847 Y62.612 E21.27353
G1 X135.847 Y65.313 E21.37689
G1 X135.924 Y68.083 E21.48294
G1 X136.076 Y70.772 E21.58601
G1 X136.315 Y73.59 E21.69424
G1 X136.334 Y73.781 E21.70159
G1 X136.384 Y74.365 E21.72402
G1 X136.691 Y77.051 E21.82748
G1 X137.081 Y79.785 E21.93317
G1 X137.54 Y82.452 E22.03673
G1 X138.082 Y85.149 E22.14201
G1 X138.682 Y87.755 E22.24435
G1 X139.389 Y90.462 E22.35142
G1 X140.141 Y93.041 E22.45423
G1 X140.989 Y95.672 E22.56001
G1 X141.884 Y98.204 E22.66279
G1 X142.877 Y100.776 E22.7683
G1 X143.927 Y103.283 E22.87231
G1 X145.064 Y105.796 E22.97787
G1 X146.244 Y108.22 E23.08104
G1 X147.758 Y111.123 E23.20634
G1 X149.091 Y113.522 E23.31137
G1 X150.475 Y115.856 E23.41521
G1 X151.936 Y118.165 E23.51978
G1 X153.476 Y120.454 E23.62536
G1 X155.041 Y122.645 E23.7284
G1 X156.717 Y124.854 E23.83452
G1 X156.984 Y125.196 E23.85112
G1 X157.278 Y125.637 E23.87141
G1 X157.513 Y126.146 E23.89286
G1 X157.592 Y126.38 E23.90231
G1 X157.783 Y127.01 E23.92751
G1 X164.819 Y151.23 E24.89271
G1 X165.004 Y151.91 E24.91968
G1 X165.105 Y152.431 E24.93999
G1 X165.126 Y152.961 E24.96029
G1 X165.1 Y153.281 E24.97258
G1 X164.942 Y154.513 E25.02011
G1 X164.901 Y154.798 E25.03113
G1 X164.593 Y157.493 E25.13494
G1 X164.359 Y160.22 E25.23968
G1 X164.204 Y162.916 E25.34303
G1 X164.124 Y165.683 E25.44896
G1 X164.122 Y168.963 E25.57449
G1 X164.097 Y169.391 E25.5909
G1 X163.986 Y169.91 E25.61121
G1 X163.798 Y170.406 E25.63151
G1 X163.538 Y170.869 E25.65183
G1 X163.211 Y171.287 E25.67214
G1 X162.826 Y171.652 E25.69244
G1 X162.39 Y171.954 E25.71274
G1 X161.913 Y172.188 E25.73307
G1 X161.584 Y172.301 E25.74638
G1 X160.813 Y172.524 E25.7771
G1 X159.813 Y172.797 E25.81677
G1 X158.274 Y173.192 E25.87757
G1 X157.265 Y173.433 E25.91727
G1 X155.714 Y173.781 E25.97811
G1 X154.664 Y173.998 E26.01914
G1 X153.168 Y174.282 E26.07741
G1 X152.127 Y174.464 E26.11785
G1 X150.525 Y174.717 E26.17992
G1 X149.536 Y174.857 E26.21815
G1 X147.928 Y175.059 E26.28017
G1 X146.953 Y175.167 E26.31771
G1 X145.291 Y175.324 E26.3816
G1 X144.345 Y175.398 E26.41791
G1 X142.701 Y175.501 E26.48095
G1 X141.667 Y175.549 E26.52056
G1 X140.093 Y175.598 E26.58083
G1 X139.169 Y175.613 E26.61619
G1 X137.421 Y175.613 E26.68309
G1 X136.446 Y175.596 E26.72041
G1 X134.865 Y175.547 E26.78094
G1 X133.833 Y175.498 E26.82048
G1 X132.191 Y175.394 E26.88344
G1 X131.243 Y175.319 E26.91984
G1 X129.58 Y175.161 E26.98376
G1 X128.61 Y175.053 E27.02112
G1 X126.999 Y174.85 E27.08326
G1 X125.979 Y174.704 E27.12269
G1 X124.431 Y174.459 E27.18267
G1 X123.374 Y174.274 E27.22373
G1 X121.873 Y173.987 E27.28222
G1 X120.819 Y173.769 E27.32341
G1 X119.277 Y173.423 E27.38388
G1 X118.287 Y173.184 E27.42286
G1 X116.69 Y172.774 E27.48596
G1 X115.754 Y172.517 E27.5231
G1 X114.2 Y172.065 E27.58504
G1 X113.204 Y171.759 E27.62491
G1 X111.725 Y171.278 E27.68443
G1 X110.717 Y170.932 E27.72522
G1 X109.23 Y170.396 E27.78571
G1 X108.303 Y170.046 E27.82363
G1 X106.745 Y169.429 E27.88776
G1 X105.837 Y169.051 E27.9254
G1 X104.372 Y168.418 E27.98647
G1 X103.443 Y167.998 E28.02549
G1 X101.986 Y167.311 E28.08714
G1 X101.069 Y166.861 E28.12623
G1 X99.641 Y166.133 E28.18757
G1 X98.746 Y165.659 E28.22633
G1 X97.336 Y164.883 E28.28792
G1 X96.471 Y164.39 E28.32602
G1 X95.04 Y163.542 E28.38968
G1 X94.226 Y163.043 E28.42622
G1 X92.844 Y162.167 E28.48883
G1 X91.981 Y161.599 E28.52837
G1 X90.672 Y160.708 E28.58897
G1 X89.815 Y160.106 E28.62905
G1 X88.538 Y159.177 E28.68948
G1 X87.753 Y158.587 E28.72706
G1 X86.429 Y157.56 E28.79119
G1 X85.681 Y156.96 E28.82789
G1 X84.392 Y155.893 E28.89192
G1 X83.628 Y155.239 E28.93041
G1 X82.464 Y154.212 E28.98982
G1 X81.684 Y153.503 E29.03016
G1 X80.538 Y152.426 E29.09034
G1 X79.811 Y151.722 E29.12907
G1 X78.633 Y150.542 E29.19288
G1 X77.965 Y149.852 E29.22963
G1 X76.829 Y148.642 E29.29315
G1 X76.172 Y147.921 E29.33048
G1 X75.095 Y146.698 E29.39284
G1 X74.451 Y145.943 E29.43082
G1 X73.403 Y144.675 E29.49377
G1 X72.805 Y143.927 E29.53042
G1 X71.768 Y142.59 E29.59518
G1 X71.222 Y141.86 E29.63006
G1 X70.226 Y140.49 E29.69488
G1 X69.666 Y139.693 E29.73216
G1 X68.748 Y138.341 E29.7947
G1 X68.211 Y137.523 E29.83215
G1 X67.321 Y136.119 E29.89576
G1 X66.809 Y135.283 E29.93328
G1 X65.994 Y133.905 E29.99455
G1 X65.477 Y132.998 E30.0345
G1 X64.718 Y131.616 E30.09484
G1 X64.235 Y130.705 E30.1343
G1 X63.513 Y129.286 E30.19523
G1 X63.057 Y128.352 E30.23501
G1 X62.377 Y126.905 E30.29619
G1 X61.969 Y126.001 E30.33415
G1 X61.305 Y124.465 E30.39819
G1 X60.948 Y123.601 E30.43397
G1 X60.329 Y122.041 E30.49819
G1 X59.978 Y121.108 E30.53634
G1 X59.449 Y119.641 E30.59602
G1 X59.099 Y118.618 E30.6374
G1 X58.619 Y117.138 E30.69694
G1 X58.314 Y116.143 E30.73677
G1 X57.863 Y114.589 E30.7987
G1 X57.607 Y113.652 E30.83587
