;FLAVOR:Marlin
;TIME:33701
;Filament used: 43.1209m
;Layer height: 0.3
;MINX:-0.178
;MINY:2.125
;MINZ:0.26
;MAXX:201.022
;MAXY:203.61
;MAXZ:26.06
;Generated with Cura_SteamEngine 4.9.1
M82 ;absolute extrusion mode
;Begin Start Gcode for Dagoma DiscoEasy 200
;Sliced: 15-07-2021 03:33:29
;Initial extruder: 0

G90 ;Absolute positioning
M106 S255 ;Fan on full
G28 X Y ;Home stop X Y
G1 X100 ;Centre back during cooldown in case of oozing
M109 R90 ;Cooldown in case too hot
G28 ;Centre
G29 ;Auto-level
M104 S205 ;Pre-heat
M107 ;Fan off
G0 X100 Y5 Z0.5 ;Front centre for degunk
M109 S205 ;Wait for initial temp
M83 ;E Relative
G1 E10 F200 ;Degunk
G1 E-3 F5000 ;Retract
G0 Z3 ;Withdraw
M82 ;E absolute
G92 E0 ;E reset
G1 F6000 ;Set feedrate

;Finish Start Gcode for Dagoma DiscoEasy 200

G92 E0
G92 E0
G1 F3000 E-3.5
;LAYER_COUNT:87
;LAYER:0
M107
G0 F1285.7 X45.031 Y48.139 Z0.26
;TYPE:SKIRT
G1 F3000 E0
G1 F900 X45.404 Y47.839 E0.01832
G1 X46.015 Y47.526 E0.04459
G1 X46.703 Y47.283 E0.07251
G1 X47.342 Y47.08 E0.09817
G1 X48.169 Y46.841 E0.13112
G1 X50.568 Y46.19 E0.22625
G1 X51.359 Y46.015 E0.25725
G1 X51.869 Y45.949 E0.27693
G1 X54.642 Y45.552 E0.38413
G1 X57.309 Y45.092 E0.4877
G1 X60.037 Y44.544 E0.59419
G1 X62.678 Y43.936 E0.6979
G1 X65.358 Y43.236 E0.80391
G1 X99.329 Y33.868 E2.15249
G1 X101.993 Y33.093 E2.25866
G1 X104.604 Y32.253 E2.36363
G1 X107.192 Y31.337 E2.46869
G1 X109.759 Y30.348 E2.57397
G1 X112.299 Y29.284 E2.67936
G1 X114.803 Y28.153 E2.7845
G1 X117.256 Y26.959 E2.88891
G1 X119.704 Y25.681 E2.99459
G1 X122.099 Y24.343 E3.09958
G1 X124.47 Y22.929 E3.20523
G1 X126.761 Y21.473 E3.30911
G1 X129.052 Y19.924 E3.41495
G1 X131.289 Y18.319 E3.52031
G1 X133.465 Y16.662 E3.62498
G1 X135.62 Y14.922 E3.73098
G1 X137.677 Y13.162 E3.83458
G1 X139.733 Y11.302 E3.94068
G1 X141.711 Y9.406 E4.04554
G1 X143.645 Y7.446 E4.15092
G1 X145.52 Y5.432 E4.25622
G1 X146.62 Y4.168 E4.32035
G1 X146.739 Y4.052 E4.32671
G1 X147.574 Y3.102 E4.37511
G1 X147.92 Y2.77 E4.39346
G1 X148.315 Y2.499 E4.41179
G1 X148.75 Y2.299 E4.43012
G1 X149.212 Y2.173 E4.44844
G1 X149.689 Y2.125 E4.46679
G1 X150.167 Y2.158 E4.48512
G1 X150.633 Y2.269 E4.50346
G1 X151.074 Y2.457 E4.5218
G1 X151.478 Y2.715 E4.54015
G1 X151.72 Y2.921 E4.55231
G1 X152.245 Y3.423 E4.58011
G1 X199.719 Y50.213 E7.13102
G1 X200.204 Y50.707 E7.15751
G1 X200.51 Y51.076 E7.17586
G1 X200.75 Y51.49 E7.19417
G1 X200.918 Y51.939 E7.21252
G1 X201.01 Y52.409 E7.23085
G1 X201.022 Y52.888 E7.24918
G1 X200.955 Y53.362 E7.2675
G1 X200.756 Y53.939 E7.29086
G1 X200.428 Y54.639 E7.32045
G1 X199.052 Y57.48 E7.44125
G1 X198.726 Y58.143 E7.46952
G1 X197.102 Y61.379 E7.60808
G1 X196.839 Y61.896 E7.63028
G1 X195.106 Y65.24 E7.77442
G1 X194.883 Y65.663 E7.79272
G1 X193.152 Y68.898 E7.93313
G1 X192.817 Y69.513 E7.95993
G1 X191.092 Y72.636 E8.09647
G1 X190.749 Y73.248 E8.12332
G1 X188.988 Y76.336 E8.25936
G1 X188.611 Y76.986 E8.28811
G1 X186.803 Y80.062 E8.42466
G1 X186.46 Y80.635 E8.45022
G1 X184.562 Y83.769 E8.59043
G1 X184.276 Y84.233 E8.61129
G1 X182.364 Y87.297 E8.74951
G1 X181.931 Y87.978 E8.78039
G1 X180.111 Y90.81 E8.90922
G1 X179.602 Y91.59 E8.94487
G1 X177.672 Y94.503 E9.07859
G1 X177.316 Y95.034 E9.10306
G1 X175.283 Y98.018 E9.24124
G1 X174.878 Y98.603 E9.26847
G1 X172.86 Y101.482 E9.40302
G1 X172.432 Y102.086 E9.43135
G1 X170.337 Y104.989 E9.56835
G1 X169.888 Y105.604 E9.59749
G1 X167.81 Y108.403 E9.7309
G1 X167.368 Y108.994 E9.75914
G1 X165.174 Y111.87 E9.89758
G1 X164.853 Y112.286 E9.91769
G1 X162.575 Y115.191 E10.05896
G1 X162.151 Y115.726 E10.08509
G1 X159.909 Y118.509 E10.22185
G1 X159.435 Y119.089 E10.25052
G1 X157.162 Y121.836 E10.38697
G1 X156.753 Y122.325 E10.41137
G1 X154.361 Y125.135 E10.55259
G1 X153.992 Y125.563 E10.57421
G1 X151.512 Y128.398 E10.71836
G1 X151.24 Y128.706 E10.73409
G1 X148.677 Y131.562 E10.88094
G1 X148.334 Y131.939 E10.90045
G1 X145.858 Y134.623 E11.0402
G1 X145.368 Y135.148 E11.06768
G1 X142.894 Y137.76 E11.20536
G1 X142.469 Y138.204 E11.22888
G1 X139.933 Y140.81 E11.36804
G1 X139.45 Y141.3 E11.39437
G1 X136.947 Y143.806 E11.52992
G1 X136.423 Y144.324 E11.55811
G1 X133.867 Y146.815 E11.6947
G1 X133.374 Y147.288 E11.72085
G1 X130.806 Y149.726 E11.85636
G1 X130.19 Y150.302 E11.88863
G1 X127.662 Y152.638 E12.02036
G1 X127.136 Y153.118 E12.04761
G1 X124.473 Y155.514 E12.1847
G1 X123.971 Y155.959 E12.21037
G1 X121.235 Y158.356 E12.34958
G1 X120.719 Y158.799 E12.3756
G1 X118.016 Y161.105 E12.51158
G1 X117.422 Y161.605 E12.54129
G1 X114.782 Y163.795 E12.67256
G1 X114.144 Y164.317 E12.7041
G1 X111.412 Y166.522 E12.83846
G1 X110.795 Y167.013 E12.86864
G1 X108.032 Y169.184 E13.00311
G1 X107.491 Y169.604 E13.02932
G1 X104.746 Y171.7 E13.1615
G1 X103.982 Y172.275 E13.19809
G1 X101.274 Y174.288 E13.32722
G1 X100.635 Y174.757 E13.35755
G1 X97.744 Y176.847 E13.49407
G1 X97.223 Y177.218 E13.51855
G1 X94.265 Y179.296 E13.65689
G1 X93.641 Y179.729 E13.68596
G1 X90.71 Y181.731 E13.8218
G1 X90.207 Y182.07 E13.84501
G1 X87.159 Y184.092 E13.98499
G1 X86.604 Y184.454 E14.01035
G1 X83.502 Y186.453 E14.15157
G1 X83.103 Y186.707 E14.16967
G1 X79.965 Y188.671 E14.31135
G1 X79.364 Y189.042 E14.33838
G1 X76.27 Y190.92 E14.47689
G1 X75.748 Y191.231 E14.50014
G1 X72.696 Y193.03 E14.63572
G1 X72.004 Y193.432 E14.66635
G1 X68.881 Y195.217 E14.80401
G1 X68.351 Y195.515 E14.82728
G1 X65.149 Y197.288 E14.96735
G1 X64.64 Y197.565 E14.98952
G1 X61.415 Y199.296 E15.1296
G1 X60.836 Y199.602 E15.15466
G1 X57.545 Y201.31 E15.29656
G1 X57.128 Y201.524 E15.31449
G1 X54.166 Y203.013 E15.44136
G1 X53.523 Y203.325 E15.46871
G1 X53.076 Y203.497 E15.48704
G1 X52.607 Y203.593 E15.50536
G1 X52.128 Y203.61 E15.52371
G1 X51.653 Y203.546 E15.54205
G1 X51.195 Y203.405 E15.56039
G1 X50.767 Y203.19 E15.57872
G1 X50.278 Y202.813 E15.60235
G1 X49.761 Y202.317 E15.62977
G1 X15.83 Y168.876 E17.45294
G1 X13.848 Y166.978 E17.55796
G1 X11.812 Y165.135 E17.66306
G1 X9.714 Y163.34 E17.76873
G1 X7.59 Y161.626 E17.87318
G1 X6.883 Y161.083 E17.90729
G1 X6.379 Y160.682 E17.93194
G1 X6.199 Y160.531 E17.94093
G1 X4.035 Y158.664 E18.05031
G1 X3.572 Y158.278 E18.07338
G1 X3.437 Y158.158 E18.08029
G1 X2.531 Y157.3 E18.12804
G1 X1.123 Y155.908 E18.20381
G1 X0.642 Y155.419 E18.23006
G1 X0.336 Y155.051 E18.24838
G1 X0.095 Y154.636 E18.26675
G1 X-0.074 Y154.188 E18.28507
G1 X-.166 Y153.718 E18.3034
G1 X-.178 Y153.239 E18.32173
G1 X-.111 Y152.764 E18.34009
G1 X0.095 Y152.17 E18.36415
G1 X0.522 Y151.271 E18.40224
G1 X0.857 Y150.599 E18.43098
G1 X1.165 Y150.002 E18.45668
G1 X1.419 Y149.596 E18.47501
G1 X1.808 Y149.173 E18.497
G1 X2.694 Y148.384 E18.54241
G1 X4.747 Y146.504 E18.64894
G1 X6.716 Y144.595 E18.75389
G1 X8.629 Y142.633 E18.85876
G1 X10.485 Y140.62 E18.96354
G1 X12.287 Y138.548 E19.06863
G1 X14.041 Y136.415 E19.17432
G1 X15.721 Y134.247 E19.27928
G1 X17.34 Y132.032 E19.38428
G1 X18.914 Y129.747 E19.49046
G1 X20.389 Y127.472 E19.59422
G1 X21.817 Y125.122 E19.69946
G1 X23.193 Y122.709 E19.80576
G1 X24.476 Y120.302 E19.91014
G1 X25.7 Y117.843 E20.01526
G1 X26.845 Y115.368 E20.11962
G1 X27.935 Y112.825 E20.22551
G1 X28.949 Y110.262 E20.33099
G1 X29.376 Y109.072 E20.37937
G1 X30.281 Y106.634 E20.47889
G1 X30.404 Y106.316 E20.49194
G1 X31.318 Y103.743 E20.59644
G1 X32.16 Y101.14 E20.70114
G1 X32.93 Y98.512 E20.80594
G1 X33.346 Y96.967 E20.86717
G1 X36.307 Y85.583 E21.31732
G1 X36.979 Y82.837 E21.42551
G1 X37.542 Y80.22 E21.52796
G1 X38.058 Y77.448 E21.63586
G1 X38.477 Y74.773 E21.73948
G1 X38.598 Y73.813 E21.77651
G1 X38.792 Y72.397 E21.83121
G1 X38.918 Y71.786 E21.85508
G1 X39.188 Y70.724 E21.89702
G1 X39.54 Y69.389 E21.94985
G1 X40.085 Y67.274 E22.03344
G1 X40.268 Y66.62 E22.05943
G1 X40.568 Y65.643 E22.09854
G1 X40.844 Y64.786 E22.13299
G1 X41.602 Y62.183 E22.23675
G1 X42.303 Y59.495 E22.34306
G1 X42.914 Y56.852 E22.44687
G1 X43.46 Y54.134 E22.55296
G1 X44.125 Y50.108 E22.70912
G1 X44.275 Y49.346 E22.73885
G1 X44.458 Y48.904 E22.75715
G1 X44.713 Y48.498 E22.7755
G1 X45.031 Y48.139 E22.79385
G0 F1285.7 X45.356 Y48.317
G1 F900 X45.72 Y48.053 E22.81106
G1 X46.437 Y47.743 E22.84096
G1 X46.852 Y47.603 E22.85772
G1 X47.511 Y47.395 E22.88416
G1 X48.261 Y47.179 E22.91403
G1 X50.723 Y46.512 E23.01165
G1 X51.404 Y46.362 E23.03834
G1 X51.954 Y46.291 E23.05956
G1 X54.677 Y45.901 E23.16483
G1 X57.404 Y45.431 E23.27073
G1 X60.074 Y44.894 E23.37495
G1 X62.784 Y44.27 E23.48138
G1 X65.461 Y43.571 E23.58726
G1 X99.411 Y34.209 E24.93501
G1 X102.12 Y33.421 E25.04297
G1 X104.685 Y32.595 E25.1461
G1 X107.335 Y31.658 E25.25367
G1 X109.89 Y30.673 E25.35846
G1 X112.424 Y29.612 E25.46359
G1 X114.958 Y28.467 E25.57001
G1 X117.429 Y27.264 E25.67518
G1 X119.851 Y26 E25.77974
G1 X122.268 Y24.649 E25.8857
G1 X124.652 Y23.228 E25.99191
G1 X126.959 Y21.762 E26.09652
G1 X129.266 Y20.202 E26.2031
G1 X131.472 Y18.619 E26.30701
G1 X133.687 Y16.932 E26.41356
G1 X135.82 Y15.211 E26.51845
G1 X137.951 Y13.387 E26.62579
G1 X139.962 Y11.566 E26.72962
G1 X141.973 Y9.64 E26.83618
G1 X143.885 Y7.701 E26.94039
G1 X145.779 Y5.669 E27.0467
G1 X146.884 Y4.398 E27.11115
G1 X146.995 Y4.291 E27.11705
G1 X147.837 Y3.333 E27.16586
G1 X148.162 Y3.024 E27.18302
G1 X148.537 Y2.777 E27.20021
G1 X148.95 Y2.6 E27.2174
G1 X149.388 Y2.499 E27.23461
G1 X149.836 Y2.477 E27.25177
G1 X150.281 Y2.535 E27.26894
G1 X150.709 Y2.671 E27.28613
G1 X151.106 Y2.881 E27.30332
G1 X151.478 Y3.174 E27.32144
G1 X151.999 Y3.673 E27.34905
G1 X199.469 Y50.458 E29.89972
G1 X199.954 Y50.952 E29.92621
G1 X200.239 Y51.299 E29.94339
G1 X200.457 Y51.691 E29.96056
G1 X200.603 Y52.116 E29.97776
G1 X200.672 Y52.56 E29.99495
G1 X200.661 Y53.008 E30.0121
G1 X200.57 Y53.448 E30.0293
G1 X200.439 Y53.791 E30.04335
G1 X200.113 Y54.487 E30.07276
G1 X198.738 Y57.325 E30.19345
G1 X198.413 Y57.986 E30.22163
G1 X196.79 Y61.221 E30.36014
G1 X196.529 Y61.735 E30.38221
G1 X194.796 Y65.077 E30.52627
G1 X194.574 Y65.498 E30.54449
G1 X192.845 Y68.731 E30.6848
G1 X192.511 Y69.344 E30.71151
G1 X190.787 Y72.465 E30.84796
G1 X190.445 Y73.074 E30.87469
G1 X188.686 Y76.16 E31.01063
G1 X188.31 Y76.809 E31.03933
G1 X186.503 Y79.882 E31.17576
G1 X186.161 Y80.454 E31.20127
G1 X184.265 Y83.585 E31.34134
G1 X183.979 Y84.048 E31.36217
G1 X182.068 Y87.109 E31.50027
G1 X181.636 Y87.789 E31.5311
G1 X179.818 Y90.619 E31.65982
G1 X179.31 Y91.396 E31.69535
G1 X177.381 Y94.308 E31.82902
G1 X177.027 Y94.837 E31.85338
G1 X174.995 Y97.819 E31.99148
G1 X174.592 Y98.402 E32.0186
G1 X172.574 Y101.28 E32.15312
G1 X172.148 Y101.881 E32.18131
G1 X170.055 Y104.783 E32.31824
G1 X169.607 Y105.396 E32.3473
G1 X167.53 Y108.193 E32.48062
G1 X167.09 Y108.781 E32.50873
G1 X164.897 Y111.656 E32.64711
G1 X164.577 Y112.07 E32.66713
G1 X162.301 Y114.973 E32.8083
G1 X161.878 Y115.506 E32.83434
G1 X159.637 Y118.287 E32.97102
G1 X159.165 Y118.866 E32.99961
G1 X156.893 Y121.611 E33.13598
G1 X156.487 Y122.098 E33.16024
G1 X154.096 Y124.906 E33.30138
G1 X153.729 Y125.332 E33.3229
G1 X151.25 Y128.166 E33.46699
G1 X150.979 Y128.472 E33.48264
G1 X148.418 Y131.327 E33.62941
G1 X148.077 Y131.702 E33.64881
G1 X145.603 Y134.384 E33.78845
G1 X145.113 Y134.907 E33.81587
G1 X142.641 Y137.518 E33.95348
G1 X142.218 Y137.96 E33.97689
G1 X139.684 Y140.564 E34.11594
G1 X139.203 Y141.052 E34.14216
G1 X136.701 Y143.557 E34.27765
G1 X136.179 Y144.073 E34.30574
G1 X133.624 Y146.563 E34.44228
G1 X133.133 Y147.034 E34.46831
G1 X130.568 Y149.47 E34.60369
G1 X129.952 Y150.045 E34.63594
G1 X127.427 Y152.38 E34.76755
G1 X126.902 Y152.858 E34.79472
G1 X124.241 Y155.252 E34.93171
G1 X123.741 Y155.695 E34.95727
G1 X121.006 Y158.09 E35.0964
G1 X120.492 Y158.533 E35.12236
G1 X117.79 Y160.837 E35.25826
G1 X117.198 Y161.335 E35.28786
G1 X114.56 Y163.524 E35.41905
G1 X113.924 Y164.045 E35.45051
G1 X111.194 Y166.249 E35.58479
G1 X110.578 Y166.738 E35.61489
G1 X107.818 Y168.908 E35.74925
G1 X107.278 Y169.326 E35.77538
G1 X104.535 Y171.42 E35.90744
G1 X103.773 Y171.995 E35.94398
G1 X101.066 Y174.006 E36.07303
G1 X100.43 Y174.473 E36.10323
G1 X97.541 Y176.562 E36.23966
G1 X97.022 Y176.932 E36.26406
G1 X94.066 Y179.008 E36.40229
G1 X93.443 Y179.44 E36.4313
G1 X90.515 Y181.44 E36.567
G1 X90.013 Y181.778 E36.59016
G1 X86.968 Y183.799 E36.73002
G1 X86.415 Y184.159 E36.75528
G1 X83.314 Y186.157 E36.89645
G1 X82.917 Y186.41 E36.91447
G1 X79.781 Y188.373 E37.05605
G1 X79.182 Y188.742 E37.08298
G1 X76.091 Y190.619 E37.22137
G1 X75.57 Y190.929 E37.24457
G1 X72.52 Y192.728 E37.38008
G1 X71.83 Y193.128 E37.41061
G1 X68.71 Y194.912 E37.54815
G1 X68.181 Y195.209 E37.57137
G1 X64.982 Y196.981 E37.71132
G1 X64.474 Y197.257 E37.73344
G1 X61.252 Y198.986 E37.87338
G1 X60.675 Y199.291 E37.89835
G1 X57.385 Y200.999 E38.04022
G1 X56.971 Y201.211 E38.05802
G1 X54.013 Y202.698 E38.18472
G1 X53.37 Y203.01 E38.21207
G1 X52.951 Y203.169 E38.22922
G1 X52.509 Y203.251 E38.24642
G1 X52.06 Y203.254 E38.26361
G1 X51.618 Y203.178 E38.28077
G1 X51.196 Y203.024 E38.29796
G1 X50.808 Y202.798 E38.31514
G1 X50.52 Y202.56 E38.32944
G1 X50.007 Y202.067 E38.35667
G1 X16.101 Y168.651 E40.1785
G1 X14.077 Y166.713 E40.28574
G1 X12.043 Y164.871 E40.39075
G1 X9.951 Y163.083 E40.49607
G1 X7.795 Y161.341 E40.60214
G1 X7.101 Y160.809 E40.63561
G1 X6.604 Y160.414 E40.6599
G1 X6.428 Y160.266 E40.6687
G1 X4.264 Y158.399 E40.77808
G1 X3.796 Y158.009 E40.80139
G1 X3.677 Y157.904 E40.80747
G1 X2.777 Y157.051 E40.85492
G1 X1.373 Y155.663 E40.93048
G1 X0.892 Y155.174 E40.95673
G1 X0.607 Y154.827 E40.97391
G1 X0.388 Y154.435 E40.9911
G1 X0.241 Y154.011 E41.00827
G1 X0.172 Y153.567 E41.02546
G1 X0.183 Y153.118 E41.04265
G1 X0.273 Y152.678 E41.05984
G1 X0.411 Y152.32 E41.07452
G1 X0.835 Y151.427 E41.11235
G1 X1.168 Y150.759 E41.14092
G1 X1.476 Y150.162 E41.16663
G1 X1.717 Y149.783 E41.18382
G1 X2.041 Y149.434 E41.20204
G1 X2.946 Y148.628 E41.24842
G1 X4.962 Y146.783 E41.353
G1 X6.962 Y144.843 E41.45963
G1 X8.889 Y142.867 E41.56526
G1 X10.759 Y140.839 E41.67083
G1 X12.556 Y138.773 E41.77562
G1 X14.325 Y136.62 E41.88226
G1 X16.001 Y134.459 E41.98691
G1 X17.615 Y132.252 E42.09155
G1 X19.188 Y129.967 E42.19771
G1 X20.701 Y127.634 E42.30413
G1 X22.129 Y125.283 E42.4094
G1 X23.486 Y122.903 E42.51424
G1 X24.778 Y120.48 E42.61933
G1 X26.03 Y117.963 E42.72691
G1 X27.167 Y115.506 E42.83052
G1 X28.249 Y112.98 E42.93568
G1 X29.275 Y110.39 E43.04229
G1 X29.704 Y109.194 E43.09092
G1 X30.608 Y106.761 E43.19025
G1 X30.713 Y106.49 E43.20137
G1 X31.659 Y103.825 E43.30959
G1 X32.494 Y101.246 E43.41334
G1 X33.267 Y98.605 E43.51865
G1 X33.683 Y97.058 E43.57995
G1 X36.656 Y85.63 E44.03185
G1 X37.319 Y82.92 E44.13862
G1 X37.893 Y80.255 E44.24295
G1 X38.391 Y77.576 E44.34723
G1 X38.828 Y74.789 E44.45519
G1 X38.944 Y73.86 E44.49102
G1 X39.138 Y72.444 E44.54571
G1 X39.26 Y71.863 E44.56843
G1 X39.532 Y70.792 E44.61072
G1 X39.878 Y69.478 E44.66272
G1 X40.422 Y67.368 E44.74611
G1 X40.603 Y66.723 E44.77175
G1 X40.901 Y65.75 E44.81069
G1 X41.183 Y64.874 E44.84591
G1 X41.944 Y62.26 E44.9501
G1 X42.64 Y59.595 E45.05551
G1 X43.255 Y56.932 E45.1601
G1 X43.809 Y54.175 E45.26772
G1 X44.471 Y50.165 E45.42326
G1 X44.617 Y49.426 E45.45209
G1 X44.796 Y49.014 E45.46928
G1 X45.045 Y48.64 E45.48647
G1 X45.356 Y48.317 E45.50363
G0 F1285.7 X45.375 Y48.791
G1 F900 X45.678 Y48.505 E45.51958
G1 X46.258 Y48.182 E45.54498
G1 X46.925 Y47.947 E45.57205
G1 X47.608 Y47.731 E45.59946
G1 X48.352 Y47.517 E45.62909
G1 X50.806 Y46.852 E45.72639
G1 X51.449 Y46.709 E45.7516
G1 X51.978 Y46.641 E45.77201
G1 X54.751 Y46.244 E45.87921
G1 X57.457 Y45.777 E45.9843
G1 X60.154 Y45.235 E46.08958
G1 X62.875 Y44.608 E46.19644
G1 X65.521 Y43.917 E46.30109
G1 X99.538 Y34.538 E47.65148
G1 X102.183 Y33.768 E47.75691
G1 X104.809 Y32.922 E47.86249
G1 X107.436 Y31.994 E47.96911
G1 X110.039 Y30.99 E48.07588
G1 X112.561 Y29.935 E48.1805
G1 X115.084 Y28.794 E48.28647
G1 X117.607 Y27.566 E48.39385
G1 X120.014 Y26.31 E48.49775
G1 X122.46 Y24.943 E48.60499
G1 X124.808 Y23.543 E48.70961
G1 X127.173 Y22.04 E48.81684
G1 X129.456 Y20.496 E48.92232
G1 X131.701 Y18.885 E49.02807
G1 X133.887 Y17.22 E49.13323
G1 X136.057 Y15.469 E49.23993
G1 X138.146 Y13.681 E49.34516
G1 X140.23 Y11.795 E49.45273
G1 X142.198 Y9.908 E49.55707
G1 X144.161 Y7.92 E49.66399
