;FLAVOR:Marlin
;TIME:12882
;Filament used: 10.1005m
;Layer height: 0.2
;MINX:3.397
;MINY:15.107
;MINZ:0.26
;MAXX:161.541
;MAXY:196.294
;MAXZ:7.86
;Generated with Cura_SteamEngine 4.9.1
M82 ;absolute extrusion mode
;Begin Start Gcode for Dagoma DiscoEasy 200
;Sliced: 13-07-2021 17:01:37
;Initial extruder: 0

G90 ;Absolute positioning
M106 S255 ;Fan on full
G28 X Y ;Home stop X Y
G1 X100 ;Centre back during cooldown in case of oozing
M109 R90 ;Cooldown in case too hot
G28 ;Centre
G29 ;Auto-level
M104 S205 ;Pre-heat
M107 ;Fan off
G0 X100 Y5 Z0.5 ;Front centre for degunk
M109 S205 ;Wait for initial temp
M83 ;E Relative
G1 E10 F200 ;Degunk
G1 E-3 F5000 ;Retract
G0 Z3 ;Withdraw
M82 ;E absolute
G92 E0 ;E reset
G1 F6000 ;Set feedrate

;Finish Start Gcode for Dagoma DiscoEasy 200

G92 E0
G92 E0
G1 F3000 E-3.5
;LAYER_COUNT:39
;LAYER:0
M107
G0 F1285.7 X54.052 Y17.512 Z0.26
;TYPE:SKIRT
G1 F3000 E0
G1 F900 X54.363 Y16.992 E0.02319
G1 X54.683 Y16.536 E0.04451
G1 X55.064 Y16.131 E0.06579
G1 X55.499 Y15.784 E0.08708
G1 X55.979 Y15.504 E0.10835
G1 X56.495 Y15.295 E0.12965
G1 X57.035 Y15.162 E0.15094
G1 X57.589 Y15.107 E0.17224
G1 X58.145 Y15.133 E0.19354
G1 X58.691 Y15.238 E0.21482
G1 X59.217 Y15.42 E0.23612
G1 X59.711 Y15.676 E0.25741
G1 X60.164 Y15.999 E0.27871
G1 X60.565 Y16.385 E0.30001
G1 X61.016 Y16.994 E0.32901
G1 X61.374 Y17.594 E0.35575
G1 X160.736 Y189.696 E7.96088
G1 X161.055 Y190.266 E7.98588
G1 X161.292 Y190.769 E8.00716
G1 X161.453 Y191.302 E8.02847
G1 X161.537 Y191.852 E8.04976
G1 X161.541 Y192.408 E8.07104
G1 X161.465 Y192.96 E8.09236
G1 X161.311 Y193.494 E8.11363
G1 X161.082 Y194.001 E8.13492
G1 X160.783 Y194.471 E8.15624
G1 X160.42 Y194.892 E8.17751
G1 X160 Y195.257 E8.19881
G1 X159.532 Y195.558 E8.2201
G1 X159.026 Y195.789 E8.24139
G1 X158.492 Y195.946 E8.26269
G1 X157.745 Y196.032 E8.29147
G1 X157.025 Y196.045 E8.31902
G1 X57.884 Y196.294 E12.11312
G1 X57.217 Y196.287 E12.13864
G1 X56.663 Y196.241 E12.15992
G1 X56.121 Y196.116 E12.1812
G1 X55.602 Y195.915 E12.2025
G1 X55.117 Y195.642 E12.2238
G1 X54.677 Y195.302 E12.24508
G1 X54.289 Y194.902 E12.26641
G1 X53.963 Y194.452 E12.28767
G1 X53.934 Y194.397 E12.29005
G1 X53.485 Y193.647 E12.32351
G1 X4.22 Y108.316 E16.09425
G1 X3.883 Y107.714 E16.12065
G1 X3.647 Y107.21 E16.14195
G1 X3.485 Y106.678 E16.16323
G1 X3.401 Y106.128 E16.18453
G1 X3.397 Y105.571 E16.20584
G1 X3.473 Y105.02 E16.22713
G1 X3.627 Y104.485 E16.24843
G1 X3.883 Y103.928 E16.27189
G1 X4.283 Y103.214 E16.30321
G1 X54.052 Y17.512 E20.09591
G0 F1285.7 X54.353 Y17.692
G1 F900 X54.664 Y17.172 E20.1191
G1 X54.97 Y16.738 E20.13942
G1 X55.337 Y16.355 E20.15972
G1 X55.758 Y16.032 E20.18003
G1 X56.223 Y15.776 E20.20034
G1 X56.72 Y15.592 E20.22063
G1 X57.24 Y15.485 E20.24094
G1 X57.77 Y15.457 E20.26125
G1 X58.298 Y15.509 E20.28156
G1 X58.812 Y15.64 E20.30186
G1 X59.301 Y15.846 E20.32216
G1 X59.754 Y16.124 E20.3425
G1 X60.159 Y16.466 E20.36279
G1 X60.509 Y16.865 E20.3831
G1 X60.716 Y17.174 E20.39733
G1 X61.071 Y17.769 E20.42385
G1 X160.431 Y189.866 E28.02878
G1 X160.75 Y190.436 E28.05378
G1 X160.974 Y190.918 E28.07412
G1 X161.122 Y191.427 E28.09441
G1 X161.193 Y191.953 E28.11472
G1 X161.184 Y192.484 E28.13504
G1 X161.095 Y193.007 E28.15535
G1 X160.929 Y193.511 E28.17565
G1 X160.689 Y193.984 E28.19595
G1 X160.381 Y194.416 E28.21626
G1 X160.011 Y194.797 E28.23658
G1 X159.589 Y195.118 E28.25687
G1 X159.123 Y195.372 E28.27718
G1 X158.624 Y195.553 E28.2975
G1 X158.103 Y195.657 E28.31783
G1 X157.738 Y195.682 E28.33183
G1 X157.024 Y195.695 E28.35916
G1 X57.888 Y195.944 E32.15306
G1 X57.221 Y195.937 E32.17858
G1 X56.692 Y195.891 E32.19891
G1 X56.176 Y195.767 E32.21921
G1 X55.685 Y195.567 E32.2395
G1 X55.229 Y195.295 E32.25982
G1 X54.82 Y194.958 E32.2801
G1 X54.465 Y194.563 E32.30043
G1 X54.174 Y194.119 E32.32074
G1 X53.788 Y193.472 E32.34958
G1 X4.525 Y108.145 E36.12015
G1 X4.188 Y107.543 E36.14655
G1 X3.965 Y107.062 E36.16684
G1 X3.816 Y106.552 E36.18718
G1 X3.745 Y106.026 E36.20749
G1 X3.754 Y105.496 E36.22778
G1 X3.843 Y104.973 E36.24808
G1 X4.009 Y104.469 E36.26839
G1 X4.188 Y104.099 E36.28412
G1 X4.586 Y103.39 E36.31523
G1 X54.353 Y17.692 E40.10776
G0 F1285.7 X54.653 Y17.871
G1 F900 X54.964 Y17.351 E40.13095
G1 X55.256 Y16.941 E40.15021
G1 X55.609 Y16.582 E40.16948
G1 X56.015 Y16.283 E40.18877
G1 X56.462 Y16.053 E40.20801
G1 X56.941 Y15.895 E40.22731
G1 X57.438 Y15.816 E40.24657
G1 X57.942 Y15.816 E40.26586
G1 X58.439 Y15.896 E40.28513
G1 X58.917 Y16.053 E40.30438
G1 X59.365 Y16.284 E40.32367
G1 X59.77 Y16.583 E40.34293
G1 X60.123 Y16.942 E40.3622
G1 X60.415 Y17.353 E40.3815
G1 X60.768 Y17.944 E40.40784
G1 X160.126 Y190.037 E48.0126
G1 X160.445 Y190.607 E48.0376
G1 X160.655 Y191.065 E48.05688
G1 X160.79 Y191.55 E48.07615
G1 X160.847 Y192.05 E48.09541
G1 X160.824 Y192.553 E48.11468
G1 X160.722 Y193.047 E48.13398
G1 X160.543 Y193.517 E48.15323
G1 X160.292 Y193.954 E48.17251
G1 X159.975 Y194.345 E48.19178
G1 X159.601 Y194.682 E48.21104
G1 X159.177 Y194.955 E48.23034
G1 X158.716 Y195.157 E48.2496
G1 X158.229 Y195.284 E48.26887
G1 X157.732 Y195.332 E48.28797
G1 X157.023 Y195.345 E48.31511
G1 X57.892 Y195.594 E52.10882
G1 X57.225 Y195.587 E52.13435
G1 X56.723 Y195.542 E52.15363
G1 X56.235 Y195.418 E52.1729
G1 X55.773 Y195.218 E52.19217
G1 X55.348 Y194.948 E52.21144
G1 X54.971 Y194.614 E52.23071
G1 X54.651 Y194.225 E52.24999
G1 X54.534 Y194.037 E52.25847
G1 X54.091 Y193.297 E52.29147
G1 X4.831 Y107.974 E56.06186
G1 X4.494 Y107.372 E56.08826
G1 X4.283 Y106.914 E56.10756
G1 X4.148 Y106.429 E56.12682
G1 X4.091 Y105.929 E56.14608
G1 X4.114 Y105.426 E56.16535
G1 X4.216 Y104.933 E56.18462
G1 X4.494 Y104.27 E56.21213
G1 X4.888 Y103.566 E56.24301
G1 X54.653 Y17.871 E60.03539
G1 F3000 E56.53539
;MESH:support_half_hex_11.stl
G0 F1285.7 X56.672 Y19.441
G0 X57.688 Y20.03
G0 X57.671 Y33.781
G0 X57.671 Y33.881
;TYPE:WALL-INNER
G1 F3000 E60.03539
G1 F900 X20.561 Y97.785 E62.86342
G1 X20.866 Y98.31 E62.88666
G1 X94.761 Y98.125 E65.7146
G1 X57.671 Y33.881 E68.5535
G0 F1285.7 X57.671 Y33.781
G0 X107.671 Y120.384
G0 X107.671 Y120.484
G1 F900 X70.561 Y184.387 E71.3815
G1 X70.866 Y184.912 E71.40474
G1 X144.761 Y184.727 E74.23267
G1 X107.671 Y120.484 E77.07155
G0 F1285.7 X107.671 Y120.384
G0 X156.481 Y191.545
G0 X156.48 Y191.645
G1 F900 X57.554 Y191.896 E80.85741
G1 X7.858 Y105.82 E84.66109
G1 X57.537 Y20.271 E88.447
G1 X57.688 Y20.01 E88.45854
G1 X57.839 Y20.271 E88.46507
G1 X156.631 Y191.384 E96.02653
G1 X156.782 Y191.645 E96.03807
G1 X156.481 Y191.645 E96.0446
G1 X156.48 Y191.645 E96.04464
G0 F1285.7 X157.042 Y191.969
;TYPE:WALL-OUTER
G1 F900 X57.367 Y192.221 E99.85916
G1 X7.483 Y105.819 E103.67725
G1 X57.538 Y19.623 E107.49179
G1 X57.689 Y19.362 E107.50333
G1 X57.84 Y19.623 E107.50987
G1 X157.193 Y191.708 E115.11427
G1 X157.344 Y191.969 E115.12581
G1 X157.043 Y191.969 E115.13235
G1 X157.042 Y191.969 E115.13238
G0 F1285.7 X156.842 Y191.969
G0 X156.696 Y191.596
G0 X108.038 Y120.922
G0 X107.67 Y121.133
G1 F900 X70.988 Y184.298 E117.92773
G1 X70.937 Y184.387 E117.93166
G1 X71.053 Y184.587 E117.94051
G1 X71.156 Y184.587 E117.94445
G1 X144.199 Y184.403 E120.73978
G1 X107.67 Y121.133 E123.53567
G0 F1285.7 X107.57 Y121.305
G0 X107.203 Y121.091
G0 X94.795 Y98.144
G0 X58.038 Y34.319
G0 X57.67 Y34.53
G1 F900 X20.988 Y97.696 E126.33105
G1 X20.937 Y97.785 E126.33498
G1 X21.053 Y97.985 E126.34382
G1 X21.156 Y97.985 E126.34777
G1 X94.199 Y97.801 E129.14309
G1 X57.67 Y34.53 E131.93902
G0 F1285.7 X57.57 Y34.702
G0 X57.203 Y34.488
G0 X57.671 Y33.203
;TYPE:SKIN
G1 F900 X20.168 Y97.785 E134.79704
G1 X20.67 Y98.65 E134.83531
G1 X95.349 Y98.463 E137.69325
G1 X57.671 Y33.203 E140.57708
G0 F1285.7 X57.687 Y20.69
G1 F900 X156.193 Y191.307 E148.11663
G1 X57.751 Y191.556 E151.88397
G1 X8.251 Y105.82 E155.67263
G1 X57.687 Y20.69 E159.44
G0 F1285.7 X107.671 Y119.806
G1 F900 X70.168 Y184.387 E162.29799
G1 X70.67 Y185.252 E162.33626
G1 X145.349 Y185.065 E165.1942
G1 X107.671 Y119.806 E168.078
G0 F1285.7 X58.248 Y191.396
G1 F900 X57.286 Y190.434 E168.13006
G1 X57.224 Y190.372
G0 F1285.7 X56.609 Y189.262
G1 F900 X58.742 Y191.395 E168.2455
G0 F1285.7 X59.236 Y191.394
G1 F900 X55.933 Y188.091 E168.42427
G1 X55.871 Y188.029
G0 F1285.7 X55.257 Y186.92
G1 F900 X59.73 Y191.393 E168.66635
G0 F1285.7 X60.223 Y191.391
G1 F900 X54.58 Y185.749 E168.97173
G1 X54.518 Y185.687
G0 F1285.7 X53.904 Y184.578
G1 F900 X60.717 Y191.39 E169.34043
G0 F1285.7 X61.21 Y191.389
G1 F900 X53.228 Y183.407 E169.77243
G1 X53.166 Y183.345
G0 F1285.7 X52.552 Y182.236
G1 F900 X61.704 Y191.388 E170.26774
G0 F1285.7 X62.198 Y191.386
G1 F900 X51.876 Y181.064 E170.82638
G1 X51.814 Y181.002
G0 F1285.7 X51.2 Y179.893
G1 F900 X62.692 Y191.385 E171.44835
G0 F1285.7 X63.185 Y191.384
G1 F900 X50.524 Y178.722 E172.1336
G1 X50.462 Y178.66
G0 F1285.7 X49.847 Y177.55
G1 F900 X63.679 Y191.383 E172.88223
G0 F1285.7 X64.173 Y191.381
G1 F900 X49.171 Y176.38 E173.69413
G1 X49.109 Y176.318
G0 F1285.7 X48.495 Y175.209
G1 F900 X64.667 Y191.38 E174.56936
G0 F1285.7 X65.16 Y191.379
G1 F900 X47.818 Y174.037 E175.50793
G1 X47.756 Y173.975
G0 F1285.7 X47.142 Y172.866
G1 F900 X65.654 Y191.378 E176.50982
G0 F1285.7 X66.148 Y191.377
G1 F900 X46.466 Y171.695 E177.57504
G1 X46.404 Y171.633
G0 F1285.7 X45.79 Y170.524
G1 F900 X66.641 Y191.375 E178.70352
G0 F1285.7 X67.135 Y191.374
G1 F900 X45.114 Y169.352 E179.89535
G1 X45.052 Y169.29
G0 F1285.7 X44.438 Y168.181
G1 F900 X67.629 Y191.372 E181.15048
G0 F1285.7 X68.123 Y191.372
G1 F900 X43.762 Y167.01 E182.46895
G1 X43.7 Y166.948
G0 F1285.7 X43.085 Y165.839
G1 F900 X68.616 Y191.37 E183.85072
G0 F1285.7 X69.11 Y191.369
G1 F900 X42.409 Y164.668 E185.29581
G1 X42.347 Y164.606
G0 F1285.7 X41.733 Y163.497
G1 F900 X69.604 Y191.367 E186.8042
G0 F1285.7 X70.098 Y191.367
G1 F900 X41.056 Y162.325 E188.37599
G1 X40.994 Y162.263
G0 F1285.7 X40.38 Y161.154
G1 F900 X70.591 Y191.365 E190.01105
G0 F1285.7 X71.085 Y191.364
G1 F900 X39.704 Y159.983 E191.70943
G1 X39.642 Y159.921
G0 F1285.7 X39.028 Y158.812
G1 F900 X71.579 Y191.362 E193.4711
G0 F1285.7 X72.073 Y191.362
G1 F900 X38.352 Y157.64 E195.29615
G1 X38.29 Y157.578
G0 F1285.7 X37.676 Y156.47
G1 F900 X72.566 Y191.36 E197.18445
G0 F1285.7 X73.06 Y191.359
G1 F900 X37 Y155.299 E199.13606
G1 X36.938 Y155.237
G0 F1285.7 X36.323 Y154.127
G1 F900 X73.553 Y191.357 E201.15099
G0 F1285.7 X74.048 Y191.357
G1 F900 X35.647 Y152.956 E203.2293
G1 X35.585 Y152.894
G0 F1285.7 X34.971 Y151.785
G1 F900 X74.541 Y191.355 E205.37088
G0 F1285.7 X75.035 Y191.354
G1 F900 X34.295 Y150.614 E207.57578
G1 X34.233 Y150.552
G0 F1285.7 X33.618 Y149.442
G1 F900 X75.528 Y191.352 E209.84401
G0 F1285.7 X76.022 Y191.351
G1 F900 X32.942 Y148.271 E212.17555
G1 X32.88 Y148.209
G0 F1285.7 X32.266 Y147.1
G1 F900 X76.516 Y191.35 E214.57042
G0 F1285.7 X77.01 Y191.349
G1 F900 X71.068 Y185.407 E214.89201
G0 F1285.7 X71.562 Y185.406
G1 F900 X77.503 Y191.348 E215.21357
G0 F1285.7 X77.997 Y191.346
G1 F900 X72.055 Y185.404 E215.53516
G0 F1285.7 X72.549 Y185.404
G1 F900 X78.491 Y191.345 E215.85672
G0 F1285.7 X78.985 Y191.344
G1 F900 X73.043 Y185.402 E216.17831
G0 F1285.7 X73.536 Y185.401
G1 F900 X79.478 Y191.343 E216.4999
G0 F1285.7 X79.972 Y191.341
G1 F900 X74.03 Y185.399 E216.82148
G0 F1285.7 X74.524 Y185.399
G1 F900 X80.466 Y191.34 E217.14305
G0 F1285.7 X80.96 Y191.339
G1 F900 X75.018 Y185.397 E217.46463
G0 F1285.7 X75.511 Y185.396
G1 F900 X81.453 Y191.338 E217.78622
G0 F1285.7 X81.947 Y191.336
G1 F900 X76.005 Y185.394 E218.10781
G0 F1285.7 X76.499 Y185.394
G1 F900 X82.44 Y191.335 E218.42935
G0 F1285.7 X82.935 Y191.334
G1 F900 X76.993 Y185.392 E218.75093
G0 F1285.7 X77.486 Y185.391
G1 F900 X83.428 Y191.333 E219.07252
G0 F1285.7 X83.922 Y191.331
G1 F900 X77.98 Y185.389 E219.39411
G0 F1285.7 X78.474 Y185.389
G1 F900 X84.415 Y191.33 E219.71565
G0 F1285.7 X84.91 Y191.329
G1 F900 X78.968 Y185.387 E220.03723
G0 F1285.7 X79.461 Y185.386
G1 F900 X85.403 Y191.328 E220.35882
G0 F1285.7 X85.897 Y191.326
G1 F900 X79.955 Y185.385 E220.68039
G0 F1285.7 X80.449 Y185.384
G1 F900 X86.39 Y191.325 E221.00192
G0 F1285.7 X86.885 Y191.324
G1 F900 X80.943 Y185.382 E221.32351
G0 F1285.7 X81.436 Y185.381
G1 F900 X87.378 Y191.323 E221.6451
G0 F1285.7 X87.872 Y191.321
G1 F900 X81.93 Y185.38 E221.96666
G0 F1285.7 X82.424 Y185.379
G1 F900 X88.365 Y191.32 E222.28819
G0 F1285.7 X88.859 Y191.319
G1 F900 X82.918 Y185.377 E222.60975
G0 F1285.7 X83.411 Y185.376
G1 F900 X89.353 Y191.318 E222.93134
G0 F1285.7 X89.847 Y191.316
G1 F900 X83.905 Y185.375 E223.2529
G0 F1285.7 X84.399 Y185.374
G1 F900 X90.34 Y191.315 E223.57444
G0 F1285.7 X90.834 Y191.314
G1 F900 X84.893 Y185.372 E223.896
G0 F1285.7 X85.386 Y185.371
G1 F900 X91.328 Y191.313 E224.21759
G0 F1285.7 X91.822 Y191.311
G1 F900 X85.88 Y185.37 E224.53915
G0 F1285.7 X86.374 Y185.369
G1 F900 X92.315 Y191.31 E224.86069
G0 F1285.7 X92.809 Y191.309
G1 F900 X86.868 Y185.368 E225.18222
G0 F1285.7 X87.361 Y185.366
G1 F900 X93.303 Y191.308 E225.50381
G0 F1285.7 X93.797 Y191.307
G1 F900 X87.855 Y185.365 E225.8254
G0 F1285.7 X88.349 Y185.364
G1 F900 X94.29 Y191.305 E226.14693
G0 F1285.7 X94.784 Y191.304
G1 F900 X88.843 Y185.363 E226.46847
G0 F1285.7 X89.336 Y185.361
G1 F900 X95.278 Y191.303 E226.79005
G0 F1285.7 X95.771 Y191.302
G1 F900 X89.83 Y185.36 E227.11162
G0 F1285.7 X90.324 Y185.359
G1 F900 X96.265 Y191.3 E227.43315
G0 F1285.7 X96.759 Y191.299
G1 F900 X90.817 Y185.358 E227.75471
G0 F1285.7 X91.311 Y185.356
G1 F900 X97.252 Y191.297 E228.07625
G0 F1285.7 X97.746 Y191.297
G1 F900 X91.805 Y185.355 E228.39781
G0 F1285.7 X92.299 Y185.354
G1 F900 X98.24 Y191.295 E228.71934
G0 F1285.7 X98.734 Y191.294
G1 F900 X92.792 Y185.353 E229.0409
G0 F1285.7 X93.286 Y185.351
G1 F900 X99.227 Y191.292 E229.36244
G0 F1285.7 X99.721 Y191.292
G1 F900 X93.78 Y185.35 E229.684
G0 F1285.7 X94.274 Y185.349
G1 F900 X100.215 Y191.29 E230.00553
G0 F1285.7 X100.708 Y191.289
G1 F900 X94.767 Y185.348 E230.32707
G0 F1285.7 X95.261 Y185.346
G1 F900 X101.202 Y191.287 E230.6486
G0 F1285.7 X101.696 Y191.287
G1 F900 X95.754 Y185.345 E230.97019
G0 F1285.7 X96.249 Y185.344
G1 F900 X102.19 Y191.285 E231.29173
G0 F1285.7 X102.683 Y191.284
G1 F900 X96.742 Y185.343 E231.61326
G0 F1285.7 X97.236 Y185.341
G1 F900 X103.177 Y191.282 E231.9348
G0 F1285.7 X103.671 Y191.281
G1 F900 X97.729 Y185.34 E232.25636
G0 F1285.7 X98.224 Y185.339
G1 F900 X104.165 Y191.28 E232.57789
G0 F1285.7 X104.658 Y191.279
G1 F900 X98.717 Y185.338 E232.89943
G0 F1285.7 X99.211 Y185.336
G1 F900 X105.152 Y191.278 E233.22099
G0 F1285.7 X105.645 Y191.276
G1 F900 X99.704 Y185.335 E233.54252
G0 F1285.7 X100.199 Y185.334
G1 F900 X106.14 Y191.275 E233.86406
G0 F1285.7 X106.633 Y191.274
G1 F900 X100.692 Y185.333 E234.18559
G0 F1285.7 X101.186 Y185.331
G1 F900 X107.127 Y191.273 E234.50715
G0 F1285.7 X107.62 Y191.271
G1 F900 X101.679 Y185.33 E234.82869
G0 F1285.7 X102.174 Y185.329
G1 F900 X108.115 Y191.27 E235.15022
G0 F1285.7 X108.608 Y191.269
G1 F900 X102.667 Y185.328 E235.47176
G0 F1285.7 X103.161 Y185.327
G1 F900 X109.102 Y191.268 E235.79329
G0 F1285.7 X109.595 Y191.266
G1 F900 X103.654 Y185.325 E236.11483
G0 F1285.7 X104.149 Y185.324
G1 F900 X110.09 Y191.266 E236.43639
G0 F1285.7 X110.583 Y191.264
G1 F900 X104.642 Y185.323 E236.75792
G0 F1285.7 X105.136 Y185.322
G1 F900 X111.077 Y191.263 E237.07946
G0 F1285.7 X111.57 Y191.261
G1 F900 X105.629 Y185.32 E237.40099
G0 F1285.7 X106.123 Y185.319
G1 F900 X112.064 Y191.26 E237.72252
G0 F1285.7 X112.558 Y191.259
G1 F900 X106.617 Y185.318 E238.04406
G0 F1285.7 X107.111 Y185.317
G1 F900 X113.052 Y191.258 E238.36559
G0 F1285.7 X113.545 Y191.256
G1 F900 X107.604 Y185.315 E238.68713
G0 F1285.7 X108.098 Y185.315
G1 F900 X114.039 Y191.255 E239.00864
G0 F1285.7 X114.533 Y191.254
G1 F900 X108.592 Y185.313 E239.33017
G0 F1285.7 X109.086 Y185.312
G1 F900 X115.027 Y191.253 E239.6517
G0 F1285.7 X115.52 Y191.251
G1 F900 X109.579 Y185.31 E239.97324
G0 F1285.7 X110.073 Y185.31
G1 F900 X116.014 Y191.25 E240.29475
G0 F1285.7 X116.508 Y191.249
G1 F900 X110.567 Y185.308 E240.61628
G0 F1285.7 X111.061 Y185.307
G1 F900 X117.002 Y191.248 E240.93782
G0 F1285.7 X117.495 Y191.246
G1 F900 X111.554 Y185.305 E241.25935
