;FLAVOR:Marlin
;TIME:11906
;Filament used: 14.4346m
;Layer height: 0.3
;MINX:34.335
;MINY:10.548
;MINZ:0.26
;MAXX:192.691
;MAXY:193.739
;MAXZ:7.76
;Generated with Cura_SteamEngine 4.9.1
M82 ;absolute extrusion mode
;Begin Start Gcode for Dagoma DiscoEasy 200
;Sliced: 07-07-2021 20:08:05
;Initial extruder: 0

G90 ;Absolute positioning
M106 S255 ;Fan on full
G28 X Y ;Home stop X Y
G1 X100 ;Centre back during cooldown in case of oozing
M109 R90 ;Cooldown in case too hot
G28 ;Centre
G29 ;Auto-level
M104 S205 ;Pre-heat
M107 ;Fan off
G0 X100 Y5 Z0.5 ;Front centre for degunk
M109 S205 ;Wait for initial temp
M83 ;E Relative
G1 E10 F200 ;Degunk
G1 E-3 F5000 ;Retract
G0 Z3 ;Withdraw
M82 ;E absolute
G92 E0 ;E reset
G1 F6000 ;Set feedrate

;Finish Start Gcode for Dagoma DiscoEasy 200

G92 E0
G92 E0
G1 F3000 E-3.5
;LAYER_COUNT:26
;LAYER:0
M107
G0 F1285.7 X84.749 Y13.006 Z0.26
;TYPE:SKIRT
G1 F3000 E0
G1 F900 X85.088 Y12.439 E0.02528
G1 X85.407 Y11.983 E0.04658
G1 X85.788 Y11.577 E0.06789
G1 X86.223 Y11.231 E0.08916
G1 X86.704 Y10.95 E0.11048
G1 X87.22 Y10.741 E0.13178
G1 X87.76 Y10.608 E0.15306
G1 X88.377 Y10.552 E0.17677
G1 X88.888 Y10.548 E0.19633
G1 X188.248 Y12.042 E3.99922
G1 X188.932 Y12.062 E4.02541
G1 X189.486 Y12.118 E4.04672
G1 X190.026 Y12.253 E4.06802
G1 X190.541 Y12.463 E4.0893
G1 X191.02 Y12.746 E4.11059
G1 X191.454 Y13.094 E4.13188
G1 X191.834 Y13.501 E4.15319
G1 X192.151 Y13.958 E4.17448
G1 X192.4 Y14.455 E4.19575
G1 X192.575 Y14.983 E4.21704
G1 X192.673 Y15.531 E4.23834
G1 X192.691 Y16.087 E4.25963
G1 X192.629 Y16.64 E4.28093
G1 X192.489 Y17.179 E4.30224
G1 X192.232 Y17.77 E4.3269
G1 X192.025 Y18.151 E4.34349
G1 X92.076 Y191.268 E11.9935
G1 X91.728 Y191.851 E12.01949
G1 X91.41 Y192.307 E12.04076
G1 X91.029 Y192.713 E12.06207
G1 X90.594 Y193.06 E12.08337
G1 X90.114 Y193.341 E12.10465
G1 X89.598 Y193.55 E12.12596
G1 X89.058 Y193.684 E12.14725
G1 X88.504 Y193.739 E12.16855
G1 X87.948 Y193.713 E12.18986
G1 X87.402 Y193.609 E12.21113
G1 X86.876 Y193.427 E12.23243
G1 X86.381 Y193.172 E12.25374
G1 X85.929 Y192.849 E12.275
G1 X85.527 Y192.464 E12.2963
G1 X85.065 Y191.837 E12.3261
G1 X84.564 Y190.987 E12.36386
G1 X35.118 Y103.837 E16.19847
G1 X34.805 Y103.268 E16.22332
G1 X34.572 Y102.762 E16.24464
G1 X34.415 Y102.229 E16.2659
G1 X34.335 Y101.678 E16.28721
G1 X34.335 Y101.121 E16.30853
G1 X34.415 Y100.571 E16.3298
G1 X34.573 Y100.037 E16.35111
G1 X34.841 Y99.461 E16.37542
G1 X35.087 Y99.021 E16.39471
G1 X84.749 Y13.006 E20.19572
G0 F1285.7 X85.05 Y13.185
G1 F900 X85.389 Y12.618 E20.221
G1 X85.694 Y12.184 E20.2413
G1 X86.062 Y11.802 E20.2616
G1 X86.483 Y11.478 E20.28193
G1 X86.947 Y11.222 E20.30221
G1 X87.445 Y11.038 E20.32253
G1 X87.965 Y10.931 E20.34285
G1 X88.796 Y10.898 E20.37468
G1 X188.238 Y12.392 E24.1807
G1 X188.922 Y12.412 E24.20689
G1 X189.45 Y12.467 E24.22721
G1 X189.963 Y12.601 E24.2475
G1 X190.451 Y12.81 E24.26781
G1 X190.901 Y13.091 E24.28812
G1 X191.305 Y13.436 E24.30845
G1 X191.652 Y13.837 E24.32874
G1 X191.935 Y14.286 E24.34905
G1 X192.147 Y14.772 E24.36934
G1 X192.284 Y15.285 E24.38966
G1 X192.342 Y15.813 E24.40999
G1 X192.32 Y16.343 E24.43029
G1 X192.219 Y16.864 E24.4506
G1 X192.041 Y17.364 E24.47091
G1 X191.774 Y17.883 E24.49325
G1 X191.722 Y17.976 E24.49733
G1 X91.776 Y191.089 E32.14715
G1 X91.428 Y191.672 E32.17313
G1 X91.122 Y192.106 E32.19345
G1 X90.755 Y192.489 E32.21375
G1 X90.335 Y192.812 E32.23403
G1 X89.87 Y193.069 E32.25436
G1 X89.373 Y193.253 E32.27464
G1 X88.853 Y193.361 E32.29497
G1 X88.323 Y193.389 E32.31528
G1 X87.795 Y193.337 E32.33558
G1 X87.28 Y193.207 E32.35591
G1 X86.791 Y193.001 E32.37622
G1 X86.339 Y192.724 E32.3965
G1 X85.933 Y192.382 E32.41682
G1 X85.583 Y191.983 E32.43713
G1 X85.367 Y191.659 E32.45203
G1 X84.868 Y190.814 E32.48959
G1 X35.424 Y103.668 E36.32402
G1 X35.111 Y103.099 E36.34887
G1 X34.891 Y102.616 E36.36919
G1 X34.746 Y102.106 E36.38948
G1 X34.68 Y101.579 E36.4098
G1 X34.693 Y101.049 E36.43009
G1 X34.785 Y100.526 E36.45041
G1 X34.955 Y100.023 E36.47073
G1 X35.198 Y99.538 E36.49149
G1 X35.39 Y99.196 E36.5065
G1 X85.05 Y13.185 E40.30734
G0 F1285.7 X85.325 Y13.406
G1 F900 X85.689 Y12.798 E40.33446
G1 X85.981 Y12.387 E40.35376
G1 X86.334 Y12.028 E40.37302
G1 X86.739 Y11.73 E40.39227
G1 X87.187 Y11.499 E40.41156
G1 X87.665 Y11.342 E40.43081
G1 X88.383 Y11.252 E40.4585
G1 X88.878 Y11.248 E40.47745
G1 X188.228 Y12.741 E44.27995
G1 X188.912 Y12.761 E44.30614
G1 X189.412 Y12.816 E44.32539
G1 X189.898 Y12.949 E44.34467
G1 X190.357 Y13.157 E44.36396
G1 X190.777 Y13.435 E44.38323
G1 X191.147 Y13.776 E44.40249
G1 X191.459 Y14.171 E44.42175
G1 X191.705 Y14.611 E44.44105
G1 X191.878 Y15.084 E44.46032
G1 X191.974 Y15.578 E44.47958
G1 X191.991 Y16.082 E44.49888
G1 X191.928 Y16.581 E44.51813
G1 X191.786 Y17.065 E44.53743
G1 X191.465 Y17.717 E44.56524
G1 X191.419 Y17.801 E44.56891
G1 X91.475 Y190.909 E52.21852
G1 X91.127 Y191.492 E52.2445
G1 X90.836 Y191.903 E52.26378
G1 X90.483 Y192.262 E52.28304
G1 X90.078 Y192.561 E52.30231
G1 X89.63 Y192.792 E52.3216
G1 X89.152 Y192.95 E52.34087
G1 X88.655 Y193.03 E52.36013
G1 X88.151 Y193.03 E52.37942
G1 X87.654 Y192.951 E52.39868
G1 X87.175 Y192.794 E52.41797
G1 X86.728 Y192.563 E52.43722
G1 X86.322 Y192.265 E52.4565
G1 X85.969 Y191.906 E52.47577
G1 X85.668 Y191.481 E52.4957
G1 X85.173 Y190.642 E52.53298
G1 X35.731 Y103.499 E56.36727
G1 X35.418 Y102.93 E56.39212
G1 X35.211 Y102.471 E56.41139
G1 X35.079 Y101.985 E56.43067
G1 X35.026 Y101.484 E56.44995
G1 X35.053 Y100.981 E56.46922
G1 X35.158 Y100.489 E56.48848
G1 X35.39 Y99.922 E56.51192
G1 X35.675 Y99.403 E56.53458
G1 X85.325 Y13.406 E60.33477
G1 F3000 E56.83477
;MESH:support_half_hex_18.stl
G0 F1285.7 X87.52 Y14.675
G0 X88.379 Y15.17
G0 X88.554 Y188.57
;TYPE:WALL-INNER
G1 F3000 E60.33477
G1 F900 X88.402 Y188.834 E60.34642
G1 X88.252 Y188.569 E60.35301
G1 X38.793 Y101.4 E64.18849
G1 X88.708 Y14.947 E68.00886
G1 X187.639 Y16.434 E71.79533
G1 X187.935 Y16.438 E71.80666
G1 X187.787 Y16.695 E71.81311
G1 X88.554 Y188.57 E79.40825
G0 F1285.7 X88.551 Y189.224
;TYPE:WALL-OUTER
G1 F900 X88.399 Y189.488 E79.41991
G1 X88.249 Y189.223 E79.4265
G1 X38.419 Y101.399 E83.29079
G1 X88.522 Y14.619 E87.12559
G1 X188.196 Y16.117 E90.9405
G1 X188.492 Y16.121 E90.95183
G1 X188.344 Y16.378 E90.95828
G1 X88.551 Y189.224 E98.59632
G0 F1285.7 X88.451 Y189.397
G0 X88.366 Y189.347
G0 X88.404 Y188.148
;TYPE:SKIN
G1 F900 X39.185 Y101.403 E102.41316
G1 X88.904 Y15.29 E106.21851
G1 X187.35 Y16.77 E109.98641
G1 X88.404 Y188.148 E117.5596
G0 F1285.7 X88.562 Y187.557
G1 F900 X87.838 Y186.833 E117.59878
G1 X87.776 Y186.771
G0 F1285.7 X88.744 Y187.243
G1 F900 X87.189 Y185.689 E117.68291
G1 X87.127 Y185.627
G0 F1285.7 X86.54 Y184.545
G1 F900 X88.925 Y186.93 E117.81199
G0 F1285.7 X89.106 Y186.616
G1 F900 X85.891 Y183.401 E117.98599
G1 X85.829 Y183.339
G0 F1285.7 X85.242 Y182.257
G1 F900 X89.287 Y186.302 E118.20491
G0 F1285.7 X89.468 Y185.988
G1 F900 X84.592 Y181.112 E118.46881
G1 X84.53 Y181.05
G0 F1285.7 X83.943 Y179.968
G1 F900 X89.649 Y185.674 E118.77762
G0 F1285.7 X89.83 Y185.36
G1 F900 X83.294 Y178.824 E119.13136
G1 X83.232 Y178.762
G0 F1285.7 X82.645 Y177.68
G1 F900 X90.011 Y185.047 E119.53004
G0 F1285.7 X90.192 Y184.733
G1 F900 X81.996 Y176.536 E119.97365
G1 X81.934 Y176.474
G0 F1285.7 X81.346 Y175.392
G1 F900 X90.374 Y184.419 E120.46223
G0 F1285.7 X90.555 Y184.105
G1 F900 X80.697 Y174.247 E120.99576
G1 X80.635 Y174.185
G0 F1285.7 X80.048 Y173.103
G1 F900 X90.736 Y183.791 E121.5742
G0 F1285.7 X90.917 Y183.477
G1 F900 X79.398 Y171.959 E122.1976
G1 X79.336 Y171.897
G0 F1285.7 X78.749 Y170.815
G1 F900 X91.098 Y183.163 E122.86592
G0 F1285.7 X91.28 Y182.85
G1 F900 X78.1 Y169.67 E123.57923
G1 X78.038 Y169.608
G0 F1285.7 X77.451 Y168.526
G1 F900 X91.461 Y182.536 E124.33747
G0 F1285.7 X91.642 Y182.222
G1 F900 X76.802 Y167.382 E125.14063
G1 X76.74 Y167.32
G0 F1285.7 X76.152 Y166.237
G1 F900 X91.823 Y181.908 E125.98877
G0 F1285.7 X92.005 Y181.595
G1 F900 X75.503 Y165.093 E126.88188
G1 X75.441 Y165.031
G0 F1285.7 X74.854 Y163.949
G1 F900 X92.186 Y181.281 E127.81991
G0 F1285.7 X92.367 Y180.967
G1 F900 X74.205 Y162.805 E128.80286
G1 X74.143 Y162.743
G0 F1285.7 X73.556 Y161.661
G1 F900 X92.548 Y180.653 E129.83073
G0 F1285.7 X92.729 Y180.339
G1 F900 X72.906 Y160.517 E130.90355
G1 X72.844 Y160.455
G0 F1285.7 X72.257 Y159.373
G1 F900 X92.911 Y180.026 E132.02134
G0 F1285.7 X93.092 Y179.712
G1 F900 X71.607 Y158.228 E133.18411
G1 X71.545 Y158.166
G0 F1285.7 X70.958 Y157.084
G1 F900 X93.273 Y179.398 E134.3918
G0 F1285.7 X93.454 Y179.084
G1 F900 X70.309 Y155.94 E135.64441
G1 X70.247 Y155.878
G0 F1285.7 X69.66 Y154.796
G1 F900 X93.635 Y178.771 E136.94197
G0 F1285.7 X93.816 Y178.457
G1 F900 X69.011 Y153.652 E138.28444
G1 X68.949 Y153.59
G0 F1285.7 X68.362 Y152.508
G1 F900 X93.997 Y178.143 E139.67184
G0 F1285.7 X94.178 Y177.829
G1 F900 X67.713 Y151.363 E141.10419
G1 X67.651 Y151.301
G0 F1285.7 X67.063 Y150.219
G1 F900 X94.359 Y177.515 E142.58148
G0 F1285.7 X94.541 Y177.202
G1 F900 X66.414 Y149.075 E144.10375
G1 X66.352 Y149.013
G0 F1285.7 X65.765 Y147.93
G1 F900 X94.722 Y176.888 E145.67097
G0 F1285.7 X94.903 Y176.574
G1 F900 X65.116 Y146.786 E147.28311
G1 X65.054 Y146.724
G0 F1285.7 X64.466 Y145.642
G1 F900 X95.084 Y176.26 E148.94019
G0 F1285.7 X95.266 Y175.947
G1 F900 X63.817 Y144.498 E150.64225
G1 X63.755 Y144.436
G0 F1285.7 X63.167 Y143.353
G1 F900 X95.447 Y175.633 E152.38929
G0 F1285.7 X95.628 Y175.319
G1 F900 X62.518 Y142.209 E154.18124
G1 X62.456 Y142.147
G0 F1285.7 X61.869 Y141.065
G1 F900 X95.809 Y175.005 E156.01812
G0 F1285.7 X95.99 Y174.691
G1 F900 X61.22 Y139.921 E157.89992
G1 X61.158 Y139.859
G0 F1285.7 X60.571 Y138.777
G1 F900 X96.172 Y174.378 E159.82669
G0 F1285.7 X96.353 Y174.064
G1 F900 X59.922 Y137.633 E161.79838
G1 X59.86 Y137.571
G0 F1285.7 X59.273 Y136.489
G1 F900 X96.534 Y173.75 E163.81499
G0 F1285.7 X96.715 Y173.436
G1 F900 X58.623 Y135.344 E165.87658
G1 X58.561 Y135.282
G0 F1285.7 X57.974 Y134.2
G1 F900 X96.896 Y173.122 E167.98309
G0 F1285.7 X97.077 Y172.809
G1 F900 X57.325 Y133.056 E170.13454
G1 X57.263 Y132.994
G0 F1285.7 X56.676 Y131.912
G1 F900 X97.259 Y172.495 E172.33095
G0 F1285.7 X97.44 Y172.181
G1 F900 X56.026 Y130.768 E174.5723
G1 X55.964 Y130.706
G0 F1285.7 X55.377 Y129.623
G1 F900 X97.621 Y171.867 E176.8586
G0 F1285.7 X97.802 Y171.554
G1 F900 X54.728 Y128.479 E179.18984
G1 X54.666 Y128.417
G0 F1285.7 X54.078 Y127.335
G1 F900 X97.983 Y171.24 E181.56604
G0 F1285.7 X98.164 Y170.926
G1 F900 X53.429 Y126.19 E183.98718
G1 X53.367 Y126.128
G0 F1285.7 X52.78 Y125.046
G1 F900 X98.345 Y170.612 E186.45324
G0 F1285.7 X98.526 Y170.298
G1 F900 X52.131 Y123.902 E188.96423
G1 X52.069 Y123.84
G0 F1285.7 X51.482 Y122.758
G1 F900 X98.708 Y169.984 E191.52016
G0 F1285.7 X98.889 Y169.67
G1 F900 X50.833 Y121.614 E194.12101
G1 X50.771 Y121.552
G0 F1285.7 X50.183 Y120.469
G1 F900 X99.07 Y169.357 E196.76686
G0 F1285.7 X99.251 Y169.043
G1 F900 X49.534 Y119.325 E199.45764
G1 X49.472 Y119.263
G0 F1285.7 X48.885 Y118.181
G1 F900 X99.433 Y168.729 E202.19336
G0 F1285.7 X99.614 Y168.415
G1 F900 X48.235 Y117.037 E204.97403
G1 X48.173 Y116.975
G0 F1285.7 X47.586 Y115.893
G1 F900 X99.795 Y168.101 E207.79962
G0 F1285.7 X99.976 Y167.787
G1 F900 X46.937 Y114.749 E210.67013
G1 X46.875 Y114.687
G0 F1285.7 X46.288 Y113.605
G1 F900 X100.157 Y167.473 E213.58557
G0 F1285.7 X100.339 Y167.16
G1 F900 X45.638 Y112.46 E216.54603
G1 X45.576 Y112.398
G0 F1285.7 X44.989 Y111.316
G1 F900 X100.52 Y166.846 E219.55141
G0 F1285.7 X100.701 Y166.532
G1 F900 X44.34 Y110.172 E222.60171
G1 X44.278 Y110.11
G0 F1285.7 X43.691 Y109.028
G1 F900 X100.882 Y166.218 E225.69693
G0 F1285.7 X101.063 Y165.905
G1 F900 X43.042 Y107.883 E228.83713
G1 X42.98 Y107.821
G0 F1285.7 X42.393 Y106.739
G1 F900 X101.244 Y165.591 E232.02225
G0 F1285.7 X101.425 Y165.277
G1 F900 X41.744 Y105.595 E235.25229
G1 X41.682 Y105.533
G0 F1285.7 X41.094 Y104.45
G1 F900 X101.607 Y164.963 E238.52733
G0 F1285.7 X101.788 Y164.649
G1 F900 X40.445 Y103.306 E241.84729
G1 X40.383 Y103.244
G0 F1285.7 X39.795 Y102.162
G1 F900 X101.969 Y164.336 E245.21222
G0 F1285.7 X102.15 Y164.022
G1 F900 X39.426 Y101.298 E248.60693
G0 F1285.7 X39.607 Y100.984
G1 F900 X102.331 Y163.708 E252.00163
G0 F1285.7 X102.512 Y163.394
G1 F900 X39.788 Y100.67 E255.39633
G0 F1285.7 X39.97 Y100.357
G1 F900 X102.694 Y163.081 E258.79104
G0 F1285.7 X102.875 Y162.767
G1 F900 X40.151 Y100.043 E262.18574
G0 F1285.7 X40.332 Y99.729
G1 F900 X103.056 Y162.453 E265.58044
G0 F1285.7 X103.237 Y162.139
G1 F900 X40.513 Y99.415 E268.97514
G0 F1285.7 X40.694 Y99.101
G1 F900 X103.418 Y161.825 E272.36985
G0 F1285.7 X103.6 Y161.512
G1 F900 X40.876 Y98.788 E275.76455
G0 F1285.7 X41.057 Y98.474
G1 F900 X103.781 Y161.198 E279.15925
G0 F1285.7 X103.962 Y160.884
G1 F900 X41.238 Y98.16 E282.55396
G0 F1285.7 X41.419 Y97.846
G1 F900 X104.143 Y160.57 E285.94866
G0 F1285.7 X104.324 Y160.256
G1 F900 X41.601 Y97.533 E289.34331
G0 F1285.7 X41.782 Y97.219
G1 F900 X104.506 Y159.943 E292.73801
G0 F1285.7 X104.687 Y159.629
G1 F900 X41.963 Y96.905 E296.13271
G0 F1285.7 X42.144 Y96.591
G1 F900 X104.868 Y159.315 E299.52742
G0 F1285.7 X105.049 Y159.001
G1 F900 X42.325 Y96.277 E302.92212
G0 F1285.7 X42.507 Y95.964
G1 F900 X105.23 Y158.688 E306.31679
G0 F1285.7 X105.411 Y158.374
G1 F900 X42.688 Y95.65 E309.71147
G0 F1285.7 X42.869 Y95.336
G1 F900 X105.592 Y158.06 E313.10615
G0 F1285.7 X105.773 Y157.746
G1 F900 X43.05 Y95.022 E316.50082
G0 F1285.7 X43.231 Y94.709
G1 F900 X105.955 Y157.432 E319.8955
G0 F1285.7 X106.136 Y157.119
G1 F900 X43.412 Y94.395 E323.2902
G0 F1285.7 X43.593 Y94.081
G1 F900 X106.317 Y156.805 E326.6849
G0 F1285.7 X106.498 Y156.491
G1 F900 X43.774 Y93.767 E330.07961
G0 F1285.7 X43.955 Y93.453
G1 F900 X106.679 Y156.177 E333.47431
G0 F1285.7 X106.861 Y155.864
G1 F900 X44.137 Y93.14 E336.86901
G0 F1285.7 X44.318 Y92.826
G1 F900 X107.042 Y155.55 E340.26371
G0 F1285.7 X107.223 Y155.236
G1 F900 X44.499 Y92.512 E343.65842
G0 F1285.7 X44.68 Y92.198
G1 F900 X107.404 Y154.922 E347.05312
G0 F1285.7 X107.585 Y154.608
G1 F900 X44.862 Y91.884 E350.44779
G0 F1285.7 X45.043 Y91.571
G1 F900 X107.767 Y154.294 E353.84247
G0 F1285.7 X107.948 Y153.98
G1 F900 X45.224 Y91.257 E357.23715
G0 F1285.7 X45.405 Y90.943
G1 F900 X108.129 Y153.667 E360.63185
G0 F1285.7 X108.31 Y153.353
G1 F900 X45.587 Y90.629 E364.02652
G0 F1285.7 X45.768 Y90.315
G1 F900 X108.492 Y153.039 E367.42123
G0 F1285.7 X108.673 Y152.725
G1 F900 X45.949 Y90.001 E370.81593
G0 F1285.7 X46.13 Y89.688
G1 F900 X108.854 Y152.411 E374.21061
G0 F1285.7 X109.035 Y152.097
G1 F900 X46.311 Y89.374 E377.60528
G0 F1285.7 X46.492 Y89.06
G1 F900 X109.216 Y151.784 E380.99998
G0 F1285.7 X109.397 Y151.47
G1 F900 X46.673 Y88.746 E384.39469
G0 F1285.7 X46.855 Y88.432
G1 F900 X109.578 Y151.156 E387.78936
G0 F1285.7 X109.759 Y150.842
G1 F900 X47.036 Y88.118 E391.18404
G0 F1285.7 X47.217 Y87.805
G1 F900 X109.94 Y150.528 E394.57869
G0 F1285.7 X110.122 Y150.215
G1 F900 X47.398 Y87.491 E397.97339
G0 F1285.7 X47.579 Y87.177
G1 F900 X110.303 Y149.901 E401.36809
G0 F1285.7 X110.484 Y149.587
G1 F900 X47.76 Y86.863 E404.7628
G0 F1285.7 X47.941 Y86.549
G1 F900 X110.665 Y149.273 E408.1575
G0 F1285.7 X110.846 Y148.959
G1 F900 X48.123 Y86.236 E411.55215
G0 F1285.7 X48.304 Y85.922
G1 F900 X111.028 Y148.646 E414.94685
G0 F1285.7 X111.209 Y148.332
G1 F900 X48.485 Y85.608 E418.34155
G0 F1285.7 X48.666 Y85.294
G1 F900 X111.39 Y148.018 E421.73626
G0 F1285.7 X111.571 Y147.704
G1 F900 X48.848 Y84.981 E425.1309
G0 F1285.7 X49.029 Y84.667
G1 F900 X111.752 Y147.39 E428.52555
G0 F1285.7 X111.934 Y147.077
G1 F900 X49.21 Y84.353 E431.92026
G0 F1285.7 X49.391 Y84.039
G1 F900 X112.115 Y146.763 E435.31496
G0 F1285.7 X112.296 Y146.449
G1 F900 X49.572 Y83.725 E438.70966
G0 F1285.7 X49.754 Y83.412
G1 F900 X112.477 Y146.135 E442.10431
G0 F1285.7 X112.659 Y145.822
G1 F900 X49.935 Y83.098 E445.49901
G0 F1285.7 X50.116 Y82.784
G1 F900 X112.84 Y145.508 E448.89372
G0 F1285.7 X113.021 Y145.194
G1 F900 X50.297 Y82.47 E452.28842
G0 F1285.7 X50.478 Y82.157
G1 F900 X113.202 Y144.88 E455.68309
G0 F1285.7 X113.383 Y144.566
G1 F900 X50.659 Y81.843 E459.07777
