;FLAVOR:Marlin
;TIME:7575
;Filament used: 7.95428m
;Layer height: 0.3
;MINX:36.698
;MINY:77.566
;MINZ:0.26
;MAXX:145.181
;MAXY:172.12
;MAXZ:23.66
;Generated with Cura_SteamEngine 4.9.1
M82 ;absolute extrusion mode
;Begin Start Gcode for Dagoma DiscoEasy 200
;Sliced: 29-06-2021 05:32:32
;Initial extruder: 0

G90 ;Absolute positioning
M106 S255 ;Fan on full
G28 X Y ;Home stop X Y
G1 X100 ;Centre back during cooldown in case of oozing
M109 R90 ;Cooldown in case too hot
G28 ;Centre
G29 ;Auto-level
M104 S205 ;Pre-heat
M107 ;Fan off
G0 X100 Y5 Z0.5 ;Front centre for degunk
M109 S205 ;Wait for initial temp
M83 ;E Relative
G1 E10 F200 ;Degunk
G1 E-3 F5000 ;Retract
G0 Z3 ;Withdraw
M82 ;E absolute
G92 E0 ;E reset
G1 F6000 ;Set feedrate

;Finish Start Gcode for Dagoma DiscoEasy 200

G92 E0
G92 E0
G1 F3000 E-3.5
;LAYER_COUNT:79
;LAYER:0
M107
G0 F1285.7 X38.678 Y78.075 Z0.26
;TYPE:SKIRT
G1 F3000 E0
G1 F900 X39.183 Y77.84 E0.02132
G1 X39.715 Y77.679 E0.04259
G1 X40.495 Y77.585 E0.07265
G1 X41.53 Y77.566 E0.11227
G1 X140.673 Y77.566 E3.90642
G1 X141.363 Y77.576 E3.93283
G1 X141.917 Y77.624 E3.95411
G1 X142.459 Y77.751 E3.97542
G1 X142.977 Y77.954 E3.99671
G1 X143.461 Y78.23 E4.01803
G1 X143.9 Y78.571 E4.0393
G1 X144.286 Y78.972 E4.06061
G1 X144.61 Y79.425 E4.08192
G1 X144.866 Y79.919 E4.10321
G1 X145.049 Y80.444 E4.12449
G1 X145.155 Y80.99 E4.14577
G1 X145.181 Y81.546 E4.16708
G1 X145.127 Y82.1 E4.18838
G1 X144.995 Y82.64 E4.20965
G1 X144.791 Y83.148 E4.2306
G1 X144.676 Y83.371 E4.2402
G1 X144.39 Y83.884 E4.26268
G1 X135.317 Y99.763 E4.96257
G1 X133.978 Y102.186 E5.06851
G1 X132.722 Y104.617 E5.17323
G1 X131.561 Y107.028 E5.27563
G1 X130.432 Y109.556 E5.38159
G1 X129.396 Y112.059 E5.48526
G1 X128.431 Y114.601 E5.58931
G1 X127.546 Y117.144 E5.69236
G1 X126.713 Y119.771 E5.79782
G1 X125.974 Y122.354 E5.90064
G1 X125.32 Y124.9 E6.00124
G1 X125.096 Y125.827 E6.03774
G1 X124.927 Y126.357 E6.05902
G1 X124.74 Y126.756 E6.07589
G1 X124.287 Y127.594 E6.11234
G1 X123.129 Y129.65 E6.20265
G1 X122.773 Y130.263 E6.22978
G1 X122.596 Y130.54 E6.24236
G1 X122.278 Y130.994 E6.26357
G1 X121.903 Y131.488 E6.2873
G1 X121.662 Y131.75 E6.30093
G1 X120.95 Y132.455 E6.33927
G1 X120.237 Y133.144 E6.37722
G1 X118.314 Y135.111 E6.48249
G1 X116.469 Y137.108 E6.58654
G1 X114.698 Y139.137 E6.6896
G1 X112.967 Y141.235 E6.79369
G1 X111.28 Y143.405 E6.89888
G1 X109.683 Y145.581 E7.00218
G1 X108.15 Y147.801 E7.10542
G1 X106.655 Y150.102 E7.21044
G1 X105.23 Y152.438 E7.31515
G1 X104.518 Y153.662 E7.36934
G1 X95.395 Y169.626 E8.073
G1 X95.042 Y170.222 E8.09951
G1 X94.725 Y170.679 E8.1208
G1 X94.345 Y171.086 E8.14211
G1 X93.912 Y171.434 E8.16337
G1 X93.433 Y171.717 E8.18466
G1 X92.918 Y171.928 E8.20596
G1 X92.378 Y172.064 E8.22727
G1 X91.824 Y172.12 E8.24858
G1 X91.269 Y172.097 E8.26983
G1 X90.722 Y171.994 E8.29113
G1 X90.195 Y171.814 E8.31245
G1 X89.7 Y171.561 E8.33372
G1 X89.246 Y171.239 E8.35502
G1 X88.843 Y170.856 E8.3763
G1 X88.396 Y170.258 E8.40487
G1 X88.05 Y169.687 E8.43042
G1 X37.539 Y83.97 E12.23795
G1 X37.203 Y83.382 E12.26387
G1 X36.962 Y82.88 E12.28518
G1 X36.796 Y82.349 E12.30647
G1 X36.707 Y81.8 E12.32776
G1 X36.698 Y81.243 E12.34907
G1 X36.769 Y80.691 E12.37037
G1 X36.918 Y80.155 E12.39166
G1 X37.142 Y79.646 E12.41295
G1 X37.437 Y79.174 E12.43425
G1 X37.797 Y78.75 E12.45553
G1 X38.213 Y78.381 E12.47681
G1 X38.678 Y78.075 E12.49812
G0 F1285.7 X38.626 Y78.516
G1 F900 X39.09 Y78.258 E12.51843
G1 X39.587 Y78.073 E12.53873
G1 X40.106 Y77.964 E12.55902
G1 X40.501 Y77.935 E12.57418
G1 X41.53 Y77.916 E12.61357
G1 X140.668 Y77.916 E16.40753
G1 X141.358 Y77.926 E16.43394
G1 X141.887 Y77.974 E16.45427
G1 X142.402 Y78.1 E16.47456
G1 X142.893 Y78.303 E16.49489
G1 X143.347 Y78.576 E16.51516
G1 X143.756 Y78.915 E16.53549
G1 X144.108 Y79.312 E16.5558
G1 X144.398 Y79.756 E16.57609
G1 X144.617 Y80.24 E16.59642
G1 X144.762 Y80.75 E16.61672
G1 X144.828 Y81.277 E16.63704
G1 X144.814 Y81.807 E16.65733
G1 X144.721 Y82.33 E16.67766
G1 X144.476 Y82.995 E16.70478
G1 X144.37 Y83.201 E16.71365
G1 X144.087 Y83.711 E16.73597
G1 X134.987 Y99.637 E17.43793
G1 X133.674 Y102.011 E17.54175
G1 X132.409 Y104.461 E17.64727
G1 X131.233 Y106.904 E17.75103
G1 X130.122 Y109.391 E17.85527
G1 X129.07 Y111.931 E17.96048
G1 X128.102 Y114.484 E18.06497
G1 X127.206 Y117.055 E18.16917
G1 X126.388 Y119.637 E18.27282
G1 X125.631 Y122.282 E18.37811
G1 X124.981 Y124.813 E18.47811
G1 X124.756 Y125.744 E18.51476
G1 X124.593 Y126.249 E18.53507
G1 X124.432 Y126.59 E18.5495
G1 X123.982 Y127.422 E18.5857
G1 X122.826 Y129.474 E18.67584
G1 X122.47 Y130.087 E18.70296
G1 X122.309 Y130.339 E18.71441
G1 X121.933 Y130.873 E18.7394
G1 X121.625 Y131.275 E18.75878
G1 X121.415 Y131.502 E18.77062
G1 X120.707 Y132.204 E18.80877
G1 X119.955 Y132.931 E18.8488
G1 X118.072 Y134.857 E18.95188
G1 X116.229 Y136.851 E19.05579
G1 X114.413 Y138.932 E19.16149
G1 X112.701 Y141.008 E19.26447
G1 X111.001 Y143.193 E19.37042
G1 X109.393 Y145.385 E19.47445
G1 X107.866 Y147.597 E19.57732
G1 X106.354 Y149.923 E19.68349
G1 X104.941 Y152.239 E19.78731
G1 X104.216 Y153.486 E19.84251
G1 X95.121 Y169.4 E20.54398
G1 X94.741 Y170.043 E20.57256
G1 X94.437 Y170.478 E20.59287
G1 X94.071 Y170.863 E20.6132
G1 X93.652 Y171.188 E20.63349
G1 X93.188 Y171.446 E20.65381
G1 X92.691 Y171.632 E20.67412
G1 X92.172 Y171.741 E20.69442
G1 X91.642 Y171.771 E20.71473
G1 X91.114 Y171.722 E20.73502
G1 X90.599 Y171.593 E20.75534
G1 X90.109 Y171.389 E20.77565
G1 X89.656 Y171.113 E20.79595
G1 X89.249 Y170.772 E20.81627
G1 X88.897 Y170.375 E20.83658
G1 X88.695 Y170.077 E20.85036
G1 X88.351 Y169.51 E20.87574
G1 X37.842 Y83.796 E24.68313
G1 X37.506 Y83.208 E24.70905
G1 X37.279 Y82.729 E24.72933
G1 X37.125 Y82.221 E24.74965
G1 X37.05 Y81.695 E24.76998
G1 X37.054 Y81.165 E24.79026
G1 X37.138 Y80.641 E24.81057
G1 X37.3 Y80.135 E24.83091
G1 X37.536 Y79.66 E24.8512
G1 X37.84 Y79.225 E24.87151
G1 X38.206 Y78.841 E24.89182
G1 X38.626 Y78.516 E24.91214
G0 F1285.7 X39.039 Y78.676
G1 F900 X39.498 Y78.469 E24.93141
G1 X39.984 Y78.338 E24.95067
G1 X40.508 Y78.285 E24.97083
G1 X41.53 Y78.266 E25.00994
G1 X140.663 Y78.266 E28.80372
G1 X141.353 Y78.276 E28.83013
G1 X141.854 Y78.324 E28.84939
G1 X142.342 Y78.449 E28.86866
G1 X142.804 Y78.651 E28.88796
G1 X143.227 Y78.923 E28.90721
G1 X143.603 Y79.258 E28.92648
G1 X143.921 Y79.649 E28.94577
G1 X144.173 Y80.085 E28.96504
G1 X144.353 Y80.555 E28.9843
G1 X144.456 Y81.048 E29.00357
G1 X144.48 Y81.551 E29.02285
G1 X144.425 Y82.051 E29.0421
G1 X144.291 Y82.537 E29.06139
G1 X144.064 Y83.031 E29.08219
G1 X143.783 Y83.537 E29.10434
G1 X134.683 Y99.463 E29.8063
G1 X133.355 Y101.866 E29.91137
G1 X132.103 Y104.291 E30.01582
G1 X130.918 Y106.752 E30.12035
G1 X129.799 Y109.256 E30.22531
G1 X128.728 Y111.843 E30.33246
G1 X127.78 Y114.344 E30.43482
G1 X126.885 Y116.912 E30.53889
G1 X126.036 Y119.59 E30.6464
G1 X125.299 Y122.166 E30.74894
G1 X124.653 Y124.683 E30.84839
G1 X124.416 Y125.662 E30.88693
G1 X124.259 Y126.141 E30.90623
G1 X124.124 Y126.423 E30.91819
G1 X123.677 Y127.25 E30.95417
G1 X122.524 Y129.298 E31.04411
G1 X122.168 Y129.911 E31.07124
G1 X122.023 Y130.139 E31.08158
G1 X121.653 Y130.665 E31.10619
G1 X121.169 Y131.253 E31.13533
G1 X120.463 Y131.952 E31.17336
G1 X119.745 Y132.647 E31.2116
G1 X117.812 Y134.623 E31.31738
G1 X115.956 Y136.631 E31.42203
G1 X114.145 Y138.707 E31.52746
G1 X112.417 Y140.801 E31.63135
G1 X110.74 Y142.958 E31.73591
G1 X109.103 Y145.189 E31.84181
G1 X107.564 Y147.417 E31.94544
G1 X106.068 Y149.72 E32.05054
G1 X104.631 Y152.074 E32.15608
G1 X103.925 Y153.29 E32.20989
G1 X94.793 Y169.269 E32.91422
G1 X94.44 Y169.865 E32.94073
G1 X94.15 Y170.277 E32.96001
G1 X93.798 Y170.637 E32.97928
G1 X93.394 Y170.937 E32.99854
G1 X92.947 Y171.17 E33.01783
G1 X92.469 Y171.329 E33.03711
G1 X91.973 Y171.411 E33.05635
G1 X91.469 Y171.413 E33.07563
G1 X90.971 Y171.335 E33.09492
G1 X90.492 Y171.18 E33.11419
G1 X90.044 Y170.951 E33.13345
G1 X89.637 Y170.654 E33.15273
G1 X89.283 Y170.296 E33.172
G1 X88.994 Y169.895 E33.19091
G1 X88.653 Y169.332 E33.2161
G1 X38.146 Y83.622 E37.02332
G1 X37.81 Y83.034 E37.04924
G1 X37.596 Y82.579 E37.06848
G1 X37.456 Y82.095 E37.08777
G1 X37.395 Y81.595 E37.10704
G1 X37.413 Y81.092 E37.1263
G1 X37.511 Y80.598 E37.14558
G1 X37.686 Y80.125 E37.16488
G1 X37.933 Y79.687 E37.18412
G1 X38.246 Y79.292 E37.20341
G1 X38.618 Y78.953 E37.22267
G1 X39.039 Y78.676 E37.24196
G1 F3000 E33.74196
G0 F1285.7 X141.459 Y80.807
G0 X141.942 Y81.638
G0 X119.18 Y124.334
;TYPE:SUPPORT
G1 F3000 E37.24196
G1 F900 X119.349 Y124.117 E37.25248
G1 X119.668 Y123.559 E37.27708
G1 X120.443 Y123.713 E37.30732
G1 X121.133 Y124.941 E37.36122
G1 X119.294 Y128.207 E37.50466
G1 X119.043 Y128.451 E37.51806
G1 X118.845 Y128.82 E37.53409
G1 X117.696 Y128.792 E37.57807
G1 X116.937 Y128.338 E37.61192
G1 X117.25 Y127.788 E37.63614
G1 X117.375 Y127.498 E37.64822
G1 X119.18 Y124.334 E37.78762
G0 F1285.7 X118.983 Y124.962
G1 F900 X118.983 Y128.315 E37.91594
G0 F1285.7 X118.98 Y128.315
G1 F900 X117.171 Y128.315 E37.98517
G0 F1285.7 X118.4 Y125.982
G1 F900 X120.384 Y125.982 E38.0611
G1 F3000 E34.5611
;MESH:support_tri_0_005.stl
G0 F1285.7 X117.538 Y124.353
G0 X116.662 Y123.854
G0 X140.419 Y81.966
;TYPE:WALL-INNER
G1 F3000 E38.0611
G1 F900 X91.703 Y167.22 E41.81882
G1 X41.465 Y81.966 E45.60579
G1 X140.419 Y81.966 E49.39271
G0 F1285.7 X140.979 Y81.641
;TYPE:WALL-OUTER
G1 F900 X91.707 Y167.867 E53.19329
G1 X40.896 Y81.641 E57.02343
G1 X140.979 Y81.641 E60.85356
G0 F1285.7 X140.88 Y81.814
G0 X140.634 Y81.841
G0 X139.833 Y82.306
;TYPE:SKIN
G1 F900 X91.699 Y166.542 E64.56641
G1 X42.061 Y82.306 E68.30815
G1 X139.833 Y82.306 E72.04984
G0 F1285.7 X139.498 Y82.575
G1 F900 X139.384 Y82.462 E72.05598
G0 F1285.7 X139.317 Y82.89
G1 F900 X138.889 Y82.462 E72.07914
G0 F1285.7 X138.394 Y82.462
G1 F900 X139.138 Y83.205 E72.11938
G0 F1285.7 X138.957 Y83.52
G1 F900 X137.899 Y82.462 E72.17664
G0 F1285.7 X137.404 Y82.462
G1 F900 X138.777 Y83.835 E72.25095
G0 F1285.7 X138.597 Y84.15
G1 F900 X136.91 Y82.462 E72.34228
G0 F1285.7 X136.415 Y82.462
G1 F900 X138.417 Y84.465 E72.45066
G0 F1285.7 X138.237 Y84.78
G1 F900 X135.92 Y82.462 E72.57609
G0 F1285.7 X135.425 Y82.462
G1 F900 X138.057 Y85.095 E72.71856
G0 F1285.7 X137.878 Y85.41
G1 F900 X134.93 Y82.462 E72.87811
G0 F1285.7 X134.435 Y82.462
G1 F900 X137.697 Y85.725 E73.05468
G0 F1285.7 X137.518 Y86.04
G1 F900 X133.94 Y82.462 E73.24833
G0 F1285.7 X133.445 Y82.462
G1 F900 X137.337 Y86.355 E73.45899
G0 F1285.7 X137.158 Y86.67
G1 F900 X132.95 Y82.462 E73.68674
G0 F1285.7 X132.455 Y82.462
G1 F900 X136.977 Y86.985 E73.9315
G0 F1285.7 X136.797 Y87.3
G1 F900 X131.96 Y82.462 E74.19331
G0 F1285.7 X131.465 Y82.462
G1 F900 X136.617 Y87.615 E74.47217
G0 F1285.7 X136.437 Y87.93
G1 F900 X130.97 Y82.462 E74.76808
G0 F1285.7 X130.475 Y82.462
G1 F900 X136.258 Y88.245 E75.08106
G0 F1285.7 X136.077 Y88.56
G1 F900 X129.98 Y82.462 E75.41107
G0 F1285.7 X129.485 Y82.462
G1 F900 X135.898 Y88.875 E75.75815
G0 F1285.7 X135.717 Y89.19
G1 F900 X128.99 Y82.462 E76.12225
G0 F1285.7 X128.495 Y82.462
G1 F900 X135.538 Y89.505 E76.50342
G0 F1285.7 X135.357 Y89.82
G1 F900 X128 Y82.462 E76.90162
G0 F1285.7 X127.505 Y82.462
G1 F900 X135.178 Y90.135 E77.31689
G0 F1285.7 X134.997 Y90.45
G1 F900 X127.01 Y82.462 E77.74919
G0 F1285.7 X126.515 Y82.462
G1 F900 X134.818 Y90.765 E78.19856
G0 F1285.7 X134.638 Y91.08
G1 F900 X126.02 Y82.462 E78.66497
G0 F1285.7 X125.525 Y82.462
G1 F900 X134.457 Y91.394 E79.14838
G0 F1285.7 X134.278 Y91.71
G1 F900 X125.03 Y82.462 E79.6489
G0 F1285.7 X124.535 Y82.462
G1 F900 X134.097 Y92.024 E80.16641
G0 F1285.7 X133.918 Y92.34
G1 F900 X124.04 Y82.462 E80.70102
G0 F1285.7 X123.545 Y82.462
G1 F900 X133.737 Y92.655 E81.25265
G0 F1285.7 X133.558 Y92.97
G1 F900 X123.05 Y82.462 E81.82135
G0 F1285.7 X122.555 Y82.462
G1 F900 X133.378 Y93.285 E82.40711
G0 F1285.7 X133.198 Y93.6
G1 F900 X122.06 Y82.462 E83.00991
G0 F1285.7 X121.565 Y82.462
G1 F900 X133.018 Y93.915 E83.62976
G0 F1285.7 X132.838 Y94.23
G1 F900 X121.07 Y82.462 E84.26666
G0 F1285.7 X120.575 Y82.462
G1 F900 X132.658 Y94.545 E84.92061
G0 F1285.7 X132.478 Y94.86
G1 F900 X120.08 Y82.462 E85.5916
G0 F1285.7 X119.585 Y82.462
G1 F900 X132.298 Y95.175 E86.27965
G0 F1285.7 X132.117 Y95.489
G1 F900 X119.09 Y82.462 E86.98468
G0 F1285.7 X118.595 Y82.462
G1 F900 X131.938 Y95.805 E87.70682
G0 F1285.7 X131.758 Y96.119
G1 F900 X118.1 Y82.462 E88.44599
G0 F1285.7 X117.605 Y82.462
G1 F900 X131.578 Y96.435 E89.20222
G0 F1285.7 X131.398 Y96.749
G1 F900 X117.111 Y82.462 E89.97545
G0 F1285.7 X116.616 Y82.462
G1 F900 X131.218 Y97.065 E90.76576
G0 F1285.7 X131.038 Y97.379
G1 F900 X116.121 Y82.462 E91.57309
G0 F1285.7 X115.626 Y82.462
G1 F900 X130.858 Y97.695 E92.39749
G0 F1285.7 X130.678 Y98.009
G1 F900 X115.131 Y82.462 E93.23891
G0 F1285.7 X114.636 Y82.462
G1 F900 X130.498 Y98.325 E94.09741
G0 F1285.7 X130.318 Y98.639
G1 F900 X114.141 Y82.462 E94.97293
G0 F1285.7 X113.646 Y82.462
G1 F900 X130.138 Y98.954 E95.8655
G0 F1285.7 X129.958 Y99.27
G1 F900 X113.151 Y82.462 E96.77514
G0 F1285.7 X112.656 Y82.462
G1 F900 X129.778 Y99.584 E97.70181
G0 F1285.7 X129.598 Y99.9
G1 F900 X112.161 Y82.462 E98.64555
G0 F1285.7 X111.666 Y82.462
G1 F900 X129.418 Y100.214 E99.60631
G0 F1285.7 X129.238 Y100.53
G1 F900 X111.171 Y82.462 E100.58414
G0 F1285.7 X110.676 Y82.462
G1 F900 X129.058 Y100.844 E101.579
G0 F1285.7 X128.878 Y101.16
G1 F900 X110.181 Y82.462 E102.59093
G0 F1285.7 X109.686 Y82.462
G1 F900 X128.698 Y101.474 E103.61989
G0 F1285.7 X128.518 Y101.79
G1 F900 X109.191 Y82.462 E104.66592
G0 F1285.7 X108.696 Y82.462
G1 F900 X128.338 Y102.104 E105.72897
G0 F1285.7 X128.158 Y102.42
G1 F900 X108.201 Y82.462 E106.80909
G0 F1285.7 X107.706 Y82.462
G1 F900 X127.978 Y102.734 E107.90624
G0 F1285.7 X127.798 Y103.049
G1 F900 X107.211 Y82.462 E109.02043
G0 F1285.7 X106.716 Y82.462
G1 F900 X127.618 Y103.364 E110.15168
G0 F1285.7 X127.438 Y103.679
G1 F900 X106.221 Y82.462 E111.29997
G0 F1285.7 X105.726 Y82.462
G1 F900 X127.258 Y103.994 E112.46531
G0 F1285.7 X127.078 Y104.309
G1 F900 X105.231 Y82.462 E113.64769
G0 F1285.7 X104.736 Y82.462
G1 F900 X126.898 Y104.624 E114.84713
G0 F1285.7 X126.718 Y104.939
G1 F900 X104.241 Y82.462 E116.06361
G0 F1285.7 X103.746 Y82.462
G1 F900 X126.538 Y105.254 E117.29714
G0 F1285.7 X126.358 Y105.569
G1 F900 X103.251 Y82.462 E118.54772
G0 F1285.7 X102.756 Y82.462
G1 F900 X126.178 Y105.884 E119.81535
G0 F1285.7 X125.998 Y106.199
G1 F900 X102.261 Y82.462 E121.10003
G0 F1285.7 X101.766 Y82.462
G1 F900 X125.819 Y106.515 E122.40181
G0 F1285.7 X125.638 Y106.829
G1 F900 X101.271 Y82.462 E123.72058
G0 F1285.7 X100.776 Y82.462
G1 F900 X125.458 Y107.144 E125.0564
G0 F1285.7 X125.278 Y107.459
G1 F900 X100.281 Y82.462 E126.40927
G0 F1285.7 X99.786 Y82.462
G1 F900 X125.098 Y107.774 E127.77919
G0 F1285.7 X124.918 Y108.089
G1 F900 X99.291 Y82.462 E129.16616
G0 F1285.7 X98.796 Y82.462
G1 F900 X124.738 Y108.404 E130.57017
G0 F1285.7 X124.558 Y108.719
G1 F900 X98.301 Y82.462 E131.99123
G0 F1285.7 X97.807 Y82.462
G1 F900 X124.378 Y109.034 E133.42932
G0 F1285.7 X124.199 Y109.349
G1 F900 X97.312 Y82.462 E134.88447
G0 F1285.7 X96.817 Y82.462
G1 F900 X124.018 Y109.664 E136.35665
G0 F1285.7 X123.839 Y109.979
G1 F900 X96.322 Y82.462 E137.84591
G0 F1285.7 X95.827 Y82.462
G1 F900 X123.658 Y110.294 E139.35219
G0 F1285.7 X123.479 Y110.609
G1 F900 X95.332 Y82.462 E140.87554
G0 F1285.7 X94.837 Y82.462
G1 F900 X123.298 Y110.924 E142.41591
G0 F1285.7 X123.118 Y111.239
G1 F900 X94.342 Y82.462 E143.97333
G0 F1285.7 X93.847 Y82.462
G1 F900 X122.938 Y111.554 E145.5478
G0 F1285.7 X122.758 Y111.869
G1 F900 X93.352 Y82.462 E147.13932
G0 F1285.7 X92.857 Y82.462
G1 F900 X122.579 Y112.184 E148.74791
G0 F1285.7 X122.398 Y112.499
G1 F900 X92.362 Y82.462 E150.37352
G0 F1285.7 X91.867 Y82.462
G1 F900 X122.219 Y112.814 E152.01621
G0 F1285.7 X122.038 Y113.129
G1 F900 X91.372 Y82.462 E153.67592
G0 F1285.7 X90.877 Y82.462
G1 F900 X121.859 Y113.444 E155.35271
G0 F1285.7 X121.678 Y113.759
G1 F900 X90.382 Y82.462 E157.04651
G0 F1285.7 X89.887 Y82.462
G1 F900 X121.499 Y114.074 E158.7574
G0 F1285.7 X121.319 Y114.389
G1 F900 X89.392 Y82.462 E160.48533
