;FLAVOR:Marlin
;TIME:12873
;Filament used: 10.1406m
;Layer height: 0.2
;MINX:4.355
;MINY:25.306
;MINZ:0.26
;MAXX:181.55
;MAXY:200.658
;MAXZ:7.86
;Generated with Cura_SteamEngine 4.9.1
M82 ;absolute extrusion mode
;Begin Start Gcode for Dagoma DiscoEasy 200
;Sliced: 13-07-2021 17:07:31
;Initial extruder: 0

G90 ;Absolute positioning
M106 S255 ;Fan on full
G28 X Y ;Home stop X Y
G1 X100 ;Centre back during cooldown in case of oozing
M109 R90 ;Cooldown in case too hot
G28 ;Centre
G29 ;Auto-level
M104 S205 ;Pre-heat
M107 ;Fan off
G0 X100 Y5 Z0.5 ;Front centre for degunk
M109 S205 ;Wait for initial temp
M83 ;E Relative
G1 E10 F200 ;Degunk
G1 E-3 F5000 ;Retract
G0 Z3 ;Withdraw
M82 ;E absolute
G92 E0 ;E reset
G1 F6000 ;Set feedrate

;Finish Start Gcode for Dagoma DiscoEasy 200

G92 E0
G92 E0
G1 F3000 E-3.5
;LAYER_COUNT:39
;LAYER:0
M107
G0 F1285.7 X32.762 Y26.617 Z0.26
;TYPE:SKIRT
G1 F3000 E0
G1 F900 X33.159 Y26.228 E0.02127
G1 X33.608 Y25.899 E0.04257
G1 X34.099 Y25.638 E0.06385
G1 X34.623 Y25.45 E0.08516
G1 X35.168 Y25.338 E0.10645
G1 X35.724 Y25.306 E0.12776
G1 X36.278 Y25.354 E0.14904
G1 X36.82 Y25.481 E0.17035
G1 X37.338 Y25.684 E0.19164
G1 X37.822 Y25.96 E0.21296
G1 X38.329 Y26.364 E0.23777
G1 X38.642 Y26.662 E0.25431
G1 X179.998 Y168.019 E7.9047
G1 X180.456 Y168.489 E7.92982
G1 X180.815 Y168.914 E7.95111
G1 X181.109 Y169.386 E7.97239
G1 X181.332 Y169.896 E7.99369
G1 X181.481 Y170.432 E8.01498
G1 X181.55 Y170.984 E8.03627
G1 X181.54 Y171.541 E8.05759
G1 X181.451 Y172.09 E8.07888
G1 X181.284 Y172.62 E8.10014
G1 X181.042 Y173.122 E8.12147
G1 X180.731 Y173.583 E8.14275
G1 X180.357 Y173.995 E8.16404
G1 X179.928 Y174.35 E8.18535
G1 X179.453 Y174.639 E8.20663
G1 X178.726 Y174.924 E8.23652
G1 X177.799 Y175.183 E8.27335
G1 X80.884 Y200.373 E12.10548
G1 X80.165 Y200.55 E12.13381
G1 X79.617 Y200.644 E12.15509
G1 X79.061 Y200.658 E12.17637
G1 X78.508 Y200.592 E12.19769
G1 X77.971 Y200.449 E12.21896
G1 X77.459 Y200.229 E12.24028
G1 X76.985 Y199.939 E12.26155
G1 X76.483 Y199.517 E12.28664
G1 X76.111 Y199.155 E12.30651
G1 X5.962 Y129.008 E16.10301
G1 X5.447 Y128.479 E16.13126
G1 X5.089 Y128.054 E16.15253
G1 X4.795 Y127.581 E16.17384
G1 X4.572 Y127.071 E16.19514
G1 X4.424 Y126.535 E16.21642
G1 X4.355 Y125.983 E16.23771
G1 X4.365 Y125.427 E16.25899
G1 X4.465 Y124.833 E16.28205
G1 X4.573 Y124.414 E16.2986
G1 X31.778 Y28.662 E20.10802
G1 X31.957 Y28.066 E20.13183
G1 X32.155 Y27.546 E20.15313
G1 X32.425 Y27.06 E20.1744
G1 X32.762 Y26.617 E20.19571
G0 F1285.7 X33.074 Y26.794
G1 F900 X33.462 Y26.432 E20.21601
G1 X33.899 Y26.132 E20.2363
G1 X34.377 Y25.901 E20.25662
G1 X34.884 Y25.744 E20.27693
G1 X35.409 Y25.666 E20.29724
G1 X35.94 Y25.666 E20.31756
G1 X36.464 Y25.747 E20.33785
G1 X36.971 Y25.905 E20.35817
G1 X37.448 Y26.138 E20.37849
G1 X37.884 Y26.44 E20.39879
G1 X38.322 Y26.839 E20.42146
G1 X38.395 Y26.909 E20.42533
G1 X179.748 Y168.263 E28.07556
G1 X180.206 Y168.733 E28.10068
G1 X180.546 Y169.14 E28.12097
G1 X180.822 Y169.593 E28.14127
G1 X181.027 Y170.083 E28.1616
G1 X181.155 Y170.598 E28.18191
G1 X181.205 Y171.126 E28.20221
G1 X181.176 Y171.656 E28.22252
G1 X181.066 Y172.175 E28.24282
G1 X180.881 Y172.672 E28.26312
G1 X180.622 Y173.136 E28.28345
G1 X180.297 Y173.555 E28.30375
G1 X179.913 Y173.921 E28.32405
G1 X179.478 Y174.225 E28.34436
G1 X179.003 Y174.461 E28.36466
G1 X178.632 Y174.587 E28.37965
G1 X177.711 Y174.845 E28.41625
G1 X80.801 Y200.033 E32.24817
G1 X80.082 Y200.21 E32.27651
G1 X79.558 Y200.298 E32.29685
G1 X79.028 Y200.306 E32.31713
G1 X78.502 Y200.234 E32.33745
G1 X77.993 Y200.084 E32.35776
G1 X77.512 Y199.86 E32.37806
G1 X77.07 Y199.566 E32.39838
G1 X76.636 Y199.18 E32.4206
G1 X76.358 Y198.908 E32.43549
G1 X6.213 Y128.764 E36.2318
G1 X5.698 Y128.235 E36.26005
G1 X5.358 Y127.828 E36.28035
G1 X5.082 Y127.374 E36.30068
G1 X4.878 Y126.885 E36.32096
G1 X4.749 Y126.37 E36.34128
G1 X4.7 Y125.841 E36.36161
G1 X4.73 Y125.312 E36.38188
G1 X4.881 Y124.615 E36.40918
G1 X4.909 Y124.51 E36.41333
G1 X32.113 Y28.763 E40.22255
G1 X32.292 Y28.167 E40.24637
G1 X32.482 Y27.672 E40.26666
G1 X32.745 Y27.211 E40.28697
G1 X33.074 Y26.794 E40.3073
G0 F1285.7 X33.384 Y26.975
G1 F900 X33.762 Y26.642 E40.32658
G1 X34.187 Y26.372 E40.34585
G1 X34.65 Y26.174 E40.36512
G1 X35.138 Y26.05 E40.38439
G1 X35.64 Y26.006 E40.40367
G1 X36.142 Y26.042 E40.42293
G1 X36.633 Y26.156 E40.44222
G1 X37.099 Y26.347 E40.4615
G1 X37.529 Y26.609 E40.48077
G1 X38.082 Y27.094 E40.50892
G1 X179.497 Y168.507 E48.16242
G1 X179.955 Y168.977 E48.18754
G1 X180.277 Y169.365 E48.20683
G1 X180.533 Y169.798 E48.22608
G1 X180.718 Y170.266 E48.24534
G1 X180.826 Y170.758 E48.26462
G1 X180.855 Y171.261 E48.2839
G1 X180.805 Y171.762 E48.30317
G1 X180.675 Y172.249 E48.32246
G1 X180.471 Y172.709 E48.34171
G1 X180.196 Y173.131 E48.36099
G1 X179.858 Y173.504 E48.38025
G1 X179.465 Y173.819 E48.39953
G1 X179.027 Y174.068 E48.41881
G1 X178.537 Y174.25 E48.43881
G1 X177.623 Y174.506 E48.47514
G1 X80.717 Y199.693 E52.3069
G1 X79.998 Y199.87 E52.33524
G1 X79.501 Y199.951 E52.35451
G1 X78.997 Y199.953 E52.3738
G1 X78.5 Y199.875 E52.39305
G1 X78.021 Y199.719 E52.41233
G1 X77.573 Y199.49 E52.43158
G1 X77.091 Y199.125 E52.45472
G1 X76.628 Y198.682 E52.47924
G1 X6.464 Y128.52 E56.27656
G1 X5.949 Y127.991 E56.30481
G1 X5.627 Y127.603 E56.32411
G1 X5.371 Y127.17 E56.34336
G1 X5.187 Y126.701 E56.36264
G1 X5.079 Y126.209 E56.38191
G1 X5.05 Y125.706 E56.40119
G1 X5.144 Y125.004 E56.4283
G1 X5.246 Y124.605 E56.44406
G1 X32.448 Y28.864 E60.25304
G1 X32.627 Y28.268 E60.27685
G1 X32.81 Y27.798 E60.29616
G1 X33.064 Y27.364 E60.3154
G1 X33.384 Y26.975 E60.33468
G1 F3000 E56.83468
;MESH:support_half_hex_18.stl
G0 F1285.7 X34.879 Y29.579
G0 X35.842 Y29.851
G0 X39.375 Y43.448
;TYPE:WALL-INNER
G1 F3000 E60.33468
G1 F900 X19.139 Y114.669 E63.16815
G1 X19.564 Y115.105 E63.19145
G1 X91.57 Y96.389 E66.03865
G1 X91.728 Y95.802 E66.06192
G1 X39.375 Y43.448 E68.89535
G0 F1285.7 X110.396 Y114.469
G1 F900 X90.16 Y185.689 E71.72879
G1 X90.585 Y186.125 E71.7521
G1 X162.591 Y167.41 E74.59928
G1 X162.749 Y166.823 E74.62255
G1 X110.396 Y114.469 E77.45599
G0 F1285.7 X176.389 Y171.002
G1 F900 X79.392 Y196.214 E81.29136
G1 X8.802 Y125.625 E85.11175
G1 X35.843 Y30.451 E88.89818
G1 X35.924 Y30.166 E88.90951
G1 X36.134 Y30.376 E88.91598
G1 X176.469 Y170.711 E96.51108
G1 X176.684 Y170.926 E96.52272
G1 X176.389 Y171.002 E96.52932
G0 F1285.7 X177.021 Y171.174
;TYPE:WALL-OUTER
G1 F900 X79.294 Y196.576 E100.39356
G1 X8.437 Y125.72 E104.2284
G1 X35.681 Y29.829 E108.04334
G1 X35.762 Y29.544 E108.05468
G1 X35.972 Y29.754 E108.06114
G1 X177.101 Y170.883 E115.69922
G1 X177.316 Y171.098 E115.71086
G1 X177.021 Y171.174 E115.71745
G0 F1285.7 X176.828 Y171.224
G0 X176.992 Y171.131
G0 X110.473 Y114.765
G0 X110.557 Y115.09
G1 F900 X90.552 Y185.498 E118.51859
G1 X90.524 Y185.597 E118.52252
G1 X90.686 Y185.763 E118.5314
G1 X90.785 Y185.738 E118.53531
G1 X162.226 Y167.169 E121.36016
G1 X162.326 Y167.143 E121.36412
G1 X162.386 Y166.92 E121.37296
G1 X162.313 Y166.847 E121.37691
G1 X110.557 Y115.09 E124.17803
G0 F1285.7 X110.503 Y115.282
G0 X110.263 Y115.213
G0 X91.571 Y95.844
G0 X39.452 Y43.744
G0 X39.536 Y44.069
G1 F900 X19.531 Y114.478 E126.9792
G1 X19.503 Y114.577 E126.98314
G1 X19.665 Y114.743 E126.99202
G1 X19.764 Y114.718 E126.99592
G1 X91.205 Y96.148 E129.82079
G1 X91.305 Y96.122 E129.82475
G1 X91.365 Y95.899 E129.83358
G1 X91.292 Y95.826 E129.83753
G1 X39.536 Y44.069 E132.63866
G0 F1285.7 X39.482 Y44.261
G0 X39.242 Y44.192
G0 X39.206 Y42.799
;TYPE:SKIN
G1 F900 X18.758 Y114.766 E135.50182
G1 X19.459 Y115.484 E135.54022
G1 X91.847 Y96.669 E138.40252
G1 X92.107 Y95.701 E138.44088
G1 X39.206 Y42.799 E141.30397
G0 F1285.7 X36.093 Y30.817
G1 F900 X176.023 Y170.747 E148.87716
G1 X79.496 Y195.836 E152.69395
G1 X9.184 Y125.525 E156.49929
G1 X36.093 Y30.817 E160.26718
G0 F1285.7 X110.227 Y113.82
G1 F900 X89.779 Y185.786 E163.1303
G1 X90.48 Y186.504 E163.1687
G1 X162.868 Y167.69 E166.03099
G1 X163.128 Y166.722 E166.06935
G1 X110.227 Y113.82 E168.93245
G0 F1285.7 X79.776 Y195.6
G1 F900 X9.424 Y125.248 E172.73999
G0 F1285.7 X9.533 Y124.863
G1 F900 X80.169 Y195.498 E176.56287
G0 F1285.7 X80.562 Y195.396
G1 F900 X9.643 Y124.477 E180.4011
G0 F1285.7 X9.753 Y124.092
G1 F900 X80.955 Y195.294 E184.25464
G0 F1285.7 X81.347 Y195.191
G1 F900 X9.862 Y123.706 E188.1235
G0 F1285.7 X9.972 Y123.321
G1 F900 X81.74 Y195.09 E192.0077
G0 F1285.7 X82.133 Y194.988
G1 F900 X10.081 Y122.935 E195.90727
G0 F1285.7 X10.19 Y122.55
G1 F900 X82.526 Y194.885 E199.82216
G0 F1285.7 X82.919 Y194.783
G1 F900 X10.3 Y122.164 E203.7524
G0 F1285.7 X10.41 Y121.779
G1 F900 X83.312 Y194.681 E207.69795
G0 F1285.7 X83.705 Y194.579
G1 F900 X10.519 Y121.393 E211.65887
G0 F1285.7 X10.629 Y121.008
G1 F900 X84.098 Y194.477 E215.6351
G0 F1285.7 X84.49 Y194.375
G1 F900 X10.738 Y120.623 E219.62665
G0 F1285.7 X10.848 Y120.237
G1 F900 X84.883 Y194.273 E223.63355
G0 F1285.7 X85.276 Y194.17
G1 F900 X10.958 Y119.852 E227.65573
G0 F1285.7 X11.066 Y119.466
G1 F900 X85.669 Y194.068 E231.69332
G0 F1285.7 X86.062 Y193.967
G1 F900 X11.176 Y119.081 E235.74624
G0 F1285.7 X11.286 Y118.695
G1 F900 X86.455 Y193.864 E239.81448
G0 F1285.7 X86.848 Y193.762
G1 F900 X11.395 Y118.31 E243.89807
G0 F1285.7 X11.505 Y117.924
G1 F900 X87.24 Y193.66 E247.99697
G0 F1285.7 X87.633 Y193.558
G1 F900 X11.614 Y117.539 E252.11122
G0 F1285.7 X11.724 Y117.154
G1 F900 X88.027 Y193.456 E256.24081
G0 F1285.7 X88.419 Y193.354
G1 F900 X11.834 Y116.768 E260.38571
G0 F1285.7 X11.943 Y116.382
G1 F900 X88.812 Y193.252 E264.54599
G0 F1285.7 X89.205 Y193.149
G1 F900 X12.052 Y115.997 E268.72158
G0 F1285.7 X12.162 Y115.611
G1 F900 X89.598 Y193.047 E272.91251
G0 F1285.7 X89.991 Y192.946
G1 F900 X12.271 Y115.226 E277.11882
G0 F1285.7 X12.381 Y114.841
G1 F900 X90.383 Y192.843 E281.34039
G0 F1285.7 X90.776 Y192.741
G1 F900 X12.491 Y114.455 E285.5773
G0 F1285.7 X12.6 Y114.07
G1 F900 X91.169 Y192.639 E289.82955
G0 F1285.7 X91.562 Y192.537
G1 F900 X12.71 Y113.685 E294.09712
G0 F1285.7 X12.819 Y113.299
G1 F900 X91.955 Y192.435 E298.38006
G0 F1285.7 X92.348 Y192.333
G1 F900 X12.928 Y112.913 E302.67837
G0 F1285.7 X13.038 Y112.528
G1 F900 X92.741 Y192.231 E306.992
G0 F1285.7 X93.133 Y192.128
G1 F900 X13.147 Y112.142 E311.32095
G0 F1285.7 X13.257 Y111.757
G1 F900 X93.526 Y192.026 E315.66521
G0 F1285.7 X93.92 Y191.925
G1 F900 X13.367 Y111.372 E320.02484
G0 F1285.7 X13.476 Y110.986
G1 F900 X94.312 Y191.822 E324.39978
G0 F1285.7 X94.705 Y191.72
G1 F900 X13.586 Y110.601 E328.79005
G0 F1285.7 X13.695 Y110.216
G1 F900 X95.098 Y191.618 E333.19566
G0 F1285.7 X95.491 Y191.516
G1 F900 X90.607 Y186.633 E333.45996
G0 F1285.7 X91.001 Y186.531
G1 F900 X95.883 Y191.413 E333.72418
G0 F1285.7 X96.276 Y191.311
G1 F900 X91.393 Y186.428 E333.98845
G0 F1285.7 X91.786 Y186.326
G1 F900 X96.669 Y191.21 E334.25275
G0 F1285.7 X97.062 Y191.107
G1 F900 X92.179 Y186.225 E334.517
G0 F1285.7 X92.572 Y186.122
G1 F900 X97.455 Y191.005 E334.78127
G0 F1285.7 X97.848 Y190.903
G1 F900 X92.965 Y186.02 E335.04555
G0 F1285.7 X93.357 Y185.918
G1 F900 X98.241 Y190.801 E335.30985
G0 F1285.7 X98.634 Y190.699
G1 F900 X93.751 Y185.816 E335.57412
G0 F1285.7 X94.144 Y185.714
G1 F900 X99.026 Y190.597 E335.83837
G0 F1285.7 X99.419 Y190.495
G1 F900 X94.536 Y185.611 E336.10267
G0 F1285.7 X94.929 Y185.51
G1 F900 X99.812 Y190.392 E336.36692
G0 F1285.7 X100.205 Y190.29
G1 F900 X95.322 Y185.407 E336.63119
G0 F1285.7 X95.715 Y185.305
G1 F900 X100.598 Y190.189 E336.89549
G0 F1285.7 X100.991 Y190.086
G1 F900 X96.108 Y185.203 E337.15977
G0 F1285.7 X96.5 Y185.101
G1 F900 X101.384 Y189.984 E337.42407
G0 F1285.7 X101.776 Y189.882
G1 F900 X96.894 Y184.999 E337.68832
G0 F1285.7 X97.286 Y184.897
G1 F900 X102.169 Y189.78 E337.95259
G0 F1285.7 X102.563 Y189.678
G1 F900 X97.679 Y184.795 E338.21689
G0 F1285.7 X98.072 Y184.692
G1 F900 X102.955 Y189.576 E338.48119
G0 F1285.7 X103.348 Y189.474
G1 F900 X98.465 Y184.59 E338.74549
G0 F1285.7 X98.858 Y184.489
G1 F900 X103.741 Y189.371 E339.00974
G0 F1285.7 X104.134 Y189.269
G1 F900 X99.25 Y184.386 E339.27404
G0 F1285.7 X99.644 Y184.284
G1 F900 X104.527 Y189.168 E339.53834
G0 F1285.7 X104.919 Y189.065
G1 F900 X100.036 Y184.182 E339.80262
G0 F1285.7 X100.429 Y184.08
G1 F900 X105.312 Y188.963 E340.06689
G0 F1285.7 X105.705 Y188.861
G1 F900 X100.822 Y183.978 E340.33117
G0 F1285.7 X101.215 Y183.876
G1 F900 X106.098 Y188.759 E340.59544
G0 F1285.7 X106.491 Y188.657
G1 F900 X101.608 Y183.774 E340.85972
G0 F1285.7 X102 Y183.671
G1 F900 X106.884 Y188.554 E341.12402
G0 F1285.7 X107.277 Y188.453
G1 F900 X102.394 Y183.569 E341.38832
G0 F1285.7 X102.787 Y183.468
G1 F900 X107.669 Y188.35 E341.65254
G0 F1285.7 X108.062 Y188.248
G1 F900 X103.179 Y183.365 E341.91681
G0 F1285.7 X103.572 Y183.263
G1 F900 X108.456 Y188.146 E342.18111
G0 F1285.7 X108.848 Y188.044
G1 F900 X103.965 Y183.161 E342.44539
G0 F1285.7 X104.358 Y183.059
G1 F900 X109.241 Y187.942 E342.70966
G0 F1285.7 X109.634 Y187.84
G1 F900 X104.751 Y182.957 E342.97394
G0 F1285.7 X105.143 Y182.854
G1 F900 X110.027 Y187.738 E343.23826
G0 F1285.7 X110.419 Y187.635
G1 F900 X105.537 Y182.753 E343.50248
G0 F1285.7 X105.929 Y182.65
G1 F900 X110.812 Y187.533 E343.76676
G0 F1285.7 X111.205 Y187.432
G1 F900 X106.322 Y182.548 E344.03106
G0 F1285.7 X106.715 Y182.446
G1 F900 X111.598 Y187.329 E344.29533
G0 F1285.7 X111.991 Y187.227
G1 F900 X107.108 Y182.344 E344.55961
G0 F1285.7 X107.501 Y182.242
G1 F900 X112.384 Y187.125 E344.82388
G0 F1285.7 X112.777 Y187.023
G1 F900 X107.893 Y182.14 E345.08818
G0 F1285.7 X108.287 Y182.038
G1 F900 X113.17 Y186.921 E345.35246
G0 F1285.7 X113.562 Y186.819
G1 F900 X108.68 Y181.936 E345.6167
G0 F1285.7 X109.072 Y181.833
G1 F900 X113.955 Y186.717 E345.88101
G0 F1285.7 X114.348 Y186.614
G1 F900 X109.465 Y181.732 E346.14525
G0 F1285.7 X109.858 Y181.629
G1 F900 X114.741 Y186.512 E346.40953
G0 F1285.7 X115.134 Y186.411
G1 F900 X110.251 Y181.527 E346.67383
G0 F1285.7 X110.644 Y181.425
G1 F900 X115.527 Y186.308 E346.9381
G0 F1285.7 X115.92 Y186.206
G1 F900 X111.036 Y181.323 E347.2024
G0 F1285.7 X111.43 Y181.221
G1 F900 X116.312 Y186.104 E347.46665
G0 F1285.7 X116.705 Y186.002
G1 F900 X111.822 Y181.119 E347.73093
G0 F1285.7 X112.215 Y181.017
G1 F900 X117.099 Y185.9 E347.99523
G0 F1285.7 X117.491 Y185.797
G1 F900 X112.608 Y180.915 E348.25947
G0 F1285.7 X113.001 Y180.812
G1 F900 X117.884 Y185.696 E348.52377
G0 F1285.7 X118.277 Y185.593
G1 F900 X113.394 Y180.711 E348.78802
G0 F1285.7 X113.786 Y180.608
G1 F900 X118.67 Y185.491 E349.05232
G0 F1285.7 X119.063 Y185.389
G1 F900 X114.18 Y180.506 E349.3166
G0 F1285.7 X114.573 Y180.404
G1 F900 X119.455 Y185.287 E349.58084
G0 F1285.7 X119.848 Y185.185
G1 F900 X114.965 Y180.302 E349.84512
G0 F1285.7 X115.358 Y180.2
G1 F900 X120.241 Y185.083 E350.10939
G0 F1285.7 X120.634 Y184.981
G1 F900 X115.751 Y180.097 E350.37369
G0 F1285.7 X116.144 Y179.996
G1 F900 X121.027 Y184.879 E350.63797
G0 F1285.7 X121.42 Y184.776
G1 F900 X116.537 Y179.894 E350.90222
G0 F1285.7 X116.93 Y179.791
G1 F900 X121.813 Y184.675 E351.16652
G0 F1285.7 X122.205 Y184.572
G1 F900 X117.323 Y179.689 E351.43076
G0 F1285.7 X117.715 Y179.587
G1 F900 X122.598 Y184.47 E351.69504
G0 F1285.7 X122.992 Y184.368
G1 F900 X118.108 Y179.485 E351.95934
G0 F1285.7 X118.501 Y179.383
G1 F900 X123.384 Y184.266 E352.22361
G0 F1285.7 X123.777 Y184.164
G1 F900 X118.894 Y179.281 E352.48789
G0 F1285.7 X119.287 Y179.179
G1 F900 X124.17 Y184.062 E352.75216
G0 F1285.7 X124.563 Y183.96
G1 F900 X119.679 Y179.076 E353.01649
G0 F1285.7 X120.073 Y178.975
G1 F900 X124.955 Y183.857 E353.28071
G0 F1285.7 X125.348 Y183.755
G1 F900 X120.466 Y178.873 E353.54493
G0 F1285.7 X120.858 Y178.77
G1 F900 X125.741 Y183.654 E353.80923
G0 F1285.7 X126.134 Y183.551
G1 F900 X121.251 Y178.668 E354.07351
G0 F1285.7 X121.644 Y178.566
G1 F900 X126.527 Y183.449 E354.33778
G0 F1285.7 X126.92 Y183.347
G1 F900 X122.037 Y178.464 E354.60205
G0 F1285.7 X122.43 Y178.362
G1 F900 X127.313 Y183.245 E354.86633
G0 F1285.7 X127.706 Y183.143
G1 F900 X122.823 Y178.26 E355.1306
G0 F1285.7 X123.216 Y178.158
G1 F900 X128.098 Y183.04 E355.39482
G0 F1285.7 X128.491 Y182.939
