;FLAVOR:Marlin
;TIME:11968
;Filament used: 14.4749m
;Layer height: 0.3
;MINX:32.392
;MINY:11.221
;MINZ:0.26
;MAXX:192.062
;MAXY:194.404
;MAXZ:7.76
;Generated with Cura_SteamEngine 4.9.1
M82 ;absolute extrusion mode
;Begin Start Gcode for Dagoma DiscoEasy 200
;Sliced: 07-07-2021 20:16:19
;Initial extruder: 0

G90 ;Absolute positioning
M106 S255 ;Fan on full
G28 X Y ;Home stop X Y
G1 X100 ;Centre back during cooldown in case of oozing
M109 R90 ;Cooldown in case too hot
G28 ;Centre
G29 ;Auto-level
M104 S205 ;Pre-heat
M107 ;Fan off
G0 X100 Y5 Z0.5 ;Front centre for degunk
M109 S205 ;Wait for initial temp
M83 ;E Relative
G1 E10 F200 ;Degunk
G1 E-3 F5000 ;Retract
G0 Z3 ;Withdraw
M82 ;E absolute
G92 E0 ;E reset
G1 F6000 ;Set feedrate

;Finish Start Gcode for Dagoma DiscoEasy 200

G92 E0
G92 E0
G1 F3000 E-3.5
;LAYER_COUNT:26
;LAYER:0
M107
G0 F1285.7 X84.111 Y13.689 Z0.26
;TYPE:SKIRT
G1 F3000 E0
G1 F900 X84.466 Y13.104 E0.02619
G1 X84.788 Y12.65 E0.04749
G1 X85.172 Y12.247 E0.06879
G1 X85.61 Y11.903 E0.0901
G1 X86.092 Y11.626 E0.11138
G1 X86.609 Y11.42 E0.13268
G1 X87.15 Y11.29 E0.15397
G1 X87.788 Y11.235 E0.17848
G1 X88.284 Y11.228 E0.19746
G1 X187.56 Y11.221 E3.99671
G1 X188.245 Y11.231 E4.02292
G1 X188.799 Y11.279 E4.0442
G1 X189.341 Y11.406 E4.06551
G1 X189.859 Y11.61 E4.08681
G1 X190.342 Y11.885 E4.10808
G1 X190.781 Y12.227 E4.12938
G1 X191.167 Y12.628 E4.15068
G1 X191.491 Y13.08 E4.17196
G1 X191.747 Y13.574 E4.19326
G1 X191.93 Y14.099 E4.21453
G1 X192.036 Y14.646 E4.23586
G1 X192.062 Y15.202 E4.25716
G1 X192.008 Y15.755 E4.27842
G1 X191.876 Y16.296 E4.29973
G1 X191.566 Y17.004 E4.32931
G1 X191.116 Y17.803 E4.3644
G1 X88.856 Y191.916 E12.09186
G1 X88.48 Y192.537 E12.11964
G1 X88.158 Y192.991 E12.14094
G1 X87.775 Y193.394 E12.16222
G1 X87.338 Y193.739 E12.18352
G1 X86.856 Y194.017 E12.20482
G1 X86.339 Y194.223 E12.22612
G1 X85.798 Y194.353 E12.24741
G1 X85.244 Y194.404 E12.2687
G1 X84.688 Y194.376 E12.29001
G1 X84.142 Y194.268 E12.31131
G1 X83.618 Y194.083 E12.33257
G1 X83.125 Y193.824 E12.35388
G1 X82.674 Y193.498 E12.37518
G1 X82.275 Y193.111 E12.39645
G1 X81.815 Y192.478 E12.4264
G1 X81.307 Y191.602 E12.46515
G1 X33.184 Y105.294 E16.24685
G1 X32.849 Y104.673 E16.27385
G1 X32.62 Y104.165 E16.29518
G1 X32.467 Y103.63 E16.31647
G1 X32.392 Y103.079 E16.33775
G1 X32.396 Y102.523 E16.35903
G1 X32.481 Y101.973 E16.38033
G1 X32.643 Y101.44 E16.40165
G1 X32.914 Y100.869 E16.42584
G1 X33.144 Y100.468 E16.44353
G1 X84.111 Y13.689 E20.29494
G0 F1285.7 X84.41 Y13.87
G1 F900 X84.765 Y13.285 E20.32112
G1 X85.074 Y12.854 E20.34142
G1 X85.444 Y12.473 E20.36174
G1 X85.867 Y12.153 E20.38204
G1 X86.333 Y11.899 E20.40235
G1 X86.832 Y11.719 E20.42265
G1 X87.353 Y11.615 E20.44299
G1 X87.906 Y11.582 E20.46419
G1 X88.284 Y11.578 E20.47865
G1 X187.554 Y11.571 E24.27767
G1 X188.239 Y11.581 E24.30389
G1 X188.768 Y11.629 E24.32421
G1 X189.283 Y11.755 E24.3445
G1 X189.774 Y11.958 E24.36484
G1 X190.228 Y12.232 E24.38513
G1 X190.637 Y12.571 E24.40546
G1 X190.99 Y12.967 E24.42576
G1 X191.279 Y13.412 E24.44607
G1 X191.498 Y13.895 E24.46636
G1 X191.643 Y14.406 E24.48669
G1 X191.709 Y14.932 E24.50698
G1 X191.695 Y15.463 E24.52731
G1 X191.602 Y15.985 E24.5476
G1 X191.431 Y16.487 E24.56789
G1 X191.261 Y16.833 E24.58265
G1 X190.815 Y17.626 E24.61747
G1 X88.556 Y191.735 E32.34477
G1 X88.18 Y192.356 E32.37255
G1 X87.872 Y192.788 E32.39285
G1 X87.503 Y193.168 E32.41312
G1 X87.08 Y193.489 E32.43345
G1 X86.614 Y193.743 E32.45376
G1 X86.115 Y193.925 E32.47408
G1 X85.595 Y194.029 E32.49438
G1 X85.065 Y194.054 E32.51468
G1 X84.537 Y193.999 E32.535
G1 X84.023 Y193.865 E32.55533
G1 X83.536 Y193.656 E32.57561
G1 X83.085 Y193.376 E32.59592
G1 X82.681 Y193.031 E32.61625
G1 X82.334 Y192.63 E32.63655
G1 X82.118 Y192.302 E32.65158
G1 X81.612 Y191.432 E32.69009
G1 X33.492 Y105.128 E36.4716
G1 X33.157 Y104.507 E36.4986
G1 X32.941 Y104.022 E36.51892
G1 X32.8 Y103.51 E36.53925
G1 X32.737 Y102.983 E36.55956
G1 X32.755 Y102.453 E36.57985
G1 X32.851 Y101.931 E36.60016
G1 X33.025 Y101.43 E36.62046
G1 X33.287 Y100.918 E36.64247
G1 X33.445 Y100.645 E36.65454
G1 X84.41 Y13.87 E40.50578
G0 F1285.7 X84.686 Y14.091
G1 F900 X85.065 Y13.467 E40.53372
G1 X85.359 Y13.058 E40.553
G1 X85.715 Y12.702 E40.57227
G1 X86.122 Y12.406 E40.59152
G1 X86.571 Y12.178 E40.6108
G1 X87.051 Y12.024 E40.63009
G1 X87.648 Y11.942 E40.65315
G1 X88.246 Y11.928 E40.67604
G1 X187.549 Y11.921 E44.47632
G1 X188.234 Y11.931 E44.50254
G1 X188.736 Y11.979 E44.52184
G1 X189.223 Y12.105 E44.54109
G1 X189.685 Y12.306 E44.56037
G1 X190.109 Y12.578 E44.57965
G1 X190.484 Y12.913 E44.59889
G1 X190.802 Y13.304 E44.61818
G1 X191.054 Y13.74 E44.63745
G1 X191.234 Y14.21 E44.65671
G1 X191.337 Y14.703 E44.67598
G1 X191.361 Y15.206 E44.69525
G1 X191.306 Y15.707 E44.71454
G1 X191.171 Y16.192 E44.73381
G1 X190.956 Y16.661 E44.75355
G1 X190.513 Y17.449 E44.78815
G1 X88.257 Y191.553 E52.51523
G1 X87.881 Y192.174 E52.54301
G1 X87.587 Y192.583 E52.56229
G1 X87.232 Y192.94 E52.58155
G1 X86.825 Y193.237 E52.60084
G1 X86.376 Y193.465 E52.62011
G1 X85.896 Y193.62 E52.63941
G1 X85.399 Y193.696 E52.65865
G1 X84.895 Y193.694 E52.67794
G1 X84.398 Y193.611 E52.69722
G1 X83.921 Y193.451 E52.71648
G1 X83.475 Y193.218 E52.73573
G1 X83.071 Y192.917 E52.75501
G1 X82.72 Y192.555 E52.77431
G1 X82.42 Y192.126 E52.79434
G1 X81.918 Y191.261 E52.83262
G1 X33.8 Y104.961 E56.61396
G1 X33.465 Y104.34 E56.64096
G1 X33.261 Y103.88 E56.66022
G1 X33.134 Y103.393 E56.67948
G1 X33.085 Y102.891 E56.69878
G1 X33.115 Y102.389 E56.71802
G1 X33.225 Y101.897 E56.73732
G1 X33.454 Y101.346 E56.76015
G1 X33.737 Y100.84 E56.78234
G1 X84.686 Y14.091 E60.63241
G1 F3000 E57.13241
;MESH:support_half_hex_28.stl
G0 F1285.7 X86.872 Y15.377
G0 X87.725 Y15.877
G0 X85.025 Y189.236
;TYPE:WALL-INNER
G1 F3000 E60.63241
G1 F900 X85.024 Y189.235 E60.63247
G1 X36.852 Y102.839 E64.41802
G1 X88.074 Y15.628 E68.28863
G1 X186.991 Y15.621 E72.07413
G1 X186.993 Y15.621 E72.07421
G1 X187.296 Y15.621 E72.0858
G1 X187.142 Y15.883 E72.09239
G1 X85.326 Y189.239 E79.78625
G1 X85.172 Y189.501 E79.79789
G1 X85.025 Y189.236 E79.80444
G0 F1285.7 X85.018 Y189.89
;TYPE:WALL-OUTER
G1 F900 X85.017 Y189.889 E79.80449
G1 X36.478 Y102.835 E83.61888
G1 X87.888 Y15.303 E87.50372
G1 X187.559 Y15.296 E91.31809
G1 X187.561 Y15.296 E91.31816
G1 X187.864 Y15.296 E91.32976
G1 X187.71 Y15.558 E91.33634
G1 X85.319 Y189.893 E99.07366
G1 X85.165 Y190.155 E99.08529
G1 X85.018 Y189.89 E99.09184
G0 F1285.7 X85.017 Y189.889
G0 X84.921 Y189.716
G0 X85.18 Y188.816
;TYPE:SKIN
G1 F900 X37.244 Y102.844 E102.85882
G1 X88.268 Y15.968 E106.71454
G1 X186.702 Y15.961 E110.48156
G1 X85.18 Y188.816 E118.1532
G0 F1285.7 X85.317 Y188.272
G1 F900 X84.729 Y187.683 E118.18505
G1 X84.667 Y187.621
G0 F1285.7 X85.5 Y187.96
G1 F900 X84.105 Y186.565 E118.26055
G1 X84.043 Y186.503
G0 F1285.7 X83.481 Y185.445
G1 F900 X85.683 Y187.648 E118.37975
G0 F1285.7 X85.866 Y187.336
G1 F900 X82.857 Y184.327 E118.5426
G1 X82.795 Y184.265
G0 F1285.7 X82.233 Y183.208
G1 F900 X86.049 Y187.024 E118.74913
G0 F1285.7 X86.233 Y186.712
G1 F900 X81.61 Y182.089 E118.99933
G1 X81.548 Y182.027
G0 F1285.7 X80.985 Y180.97
G1 F900 X86.416 Y186.401 E119.29326
G0 F1285.7 X86.599 Y186.089
G1 F900 X80.361 Y179.851 E119.63087
G1 X80.299 Y179.789
G0 F1285.7 X79.738 Y178.733
G1 F900 X86.782 Y185.777 E120.0121
G0 F1285.7 X86.965 Y185.465
G1 F900 X79.114 Y177.614 E120.43701
G1 X79.052 Y177.552
G0 F1285.7 X78.49 Y176.495
G1 F900 X87.148 Y185.153 E120.90559
G0 F1285.7 X87.331 Y184.841
G1 F900 X77.866 Y175.376 E121.41785
G1 X77.804 Y175.314
G0 F1285.7 X77.242 Y174.257
G1 F900 X87.515 Y184.53 E121.97384
G0 F1285.7 X87.698 Y184.218
G1 F900 X76.619 Y173.139 E122.57345
G1 X76.557 Y173.077
G0 F1285.7 X75.995 Y172.02
G1 F900 X87.881 Y183.906 E123.21673
G0 F1285.7 X88.064 Y183.594
G1 F900 X75.371 Y170.901 E123.90369
G1 X75.309 Y170.839
G0 F1285.7 X74.747 Y169.782
G1 F900 X88.247 Y183.282 E124.63433
G0 F1285.7 X88.43 Y182.97
G1 F900 X74.123 Y168.664 E125.40862
G1 X74.061 Y168.602
G0 F1285.7 X73.5 Y167.545
G1 F900 X88.613 Y182.659 E126.22658
G0 F1285.7 X88.797 Y182.347
G1 F900 X72.875 Y166.426 E127.08827
G1 X72.813 Y166.364
G0 F1285.7 X72.252 Y165.307
G1 F900 X88.98 Y182.035 E127.99361
G0 F1285.7 X89.163 Y181.723
G1 F900 X71.628 Y164.188 E128.94263
G1 X71.566 Y164.126
G0 F1285.7 X71.004 Y163.07
G1 F900 X89.346 Y181.411 E129.93529
G0 F1285.7 X89.529 Y181.099
G1 F900 X70.381 Y161.951 E130.97161
G1 X70.319 Y161.889
G0 F1285.7 X69.756 Y160.832
G1 F900 X89.712 Y180.788 E132.05165
G0 F1285.7 X89.895 Y180.476
G1 F900 X69.133 Y159.713 E133.17534
G1 X69.071 Y159.651
G0 F1285.7 X68.509 Y158.594
G1 F900 X90.079 Y180.164 E134.34274
G0 F1285.7 X90.262 Y179.852
G1 F900 X67.885 Y157.476 E135.55378
G1 X67.823 Y157.414
G0 F1285.7 X67.261 Y156.356
G1 F900 X90.445 Y179.54 E136.80853
G0 F1285.7 X90.628 Y179.228
G1 F900 X66.637 Y155.238 E138.10693
G1 X66.575 Y155.176
G0 F1285.7 X66.014 Y154.119
G1 F900 X90.811 Y178.917 E139.449
G0 F1285.7 X90.994 Y178.605
G1 F900 X65.39 Y153 E140.83475
G1 X65.328 Y152.938
G0 F1285.7 X64.766 Y151.881
G1 F900 X91.177 Y178.293 E142.26417
G0 F1285.7 X91.361 Y177.981
G1 F900 X64.142 Y150.762 E143.7373
G1 X64.08 Y150.7
G0 F1285.7 X63.518 Y149.644
G1 F900 X91.544 Y177.669 E145.25408
G0 F1285.7 X91.727 Y177.357
G1 F900 X62.895 Y148.525 E146.8145
G1 X62.833 Y148.463
G0 F1285.7 X62.271 Y147.407
G1 F900 X91.91 Y177.046 E148.4186
G0 F1285.7 X92.093 Y176.734
G1 F900 X61.646 Y146.287 E150.06643
G1 X61.584 Y146.225
G0 F1285.7 X61.023 Y145.169
G1 F900 X92.276 Y176.422 E151.75788
G0 F1285.7 X92.459 Y176.11
G1 F900 X60.399 Y144.05 E153.49301
G1 X60.337 Y143.988
G0 F1285.7 X59.775 Y142.931
G1 F900 X92.643 Y175.798 E155.27184
G0 F1285.7 X92.826 Y175.486
G1 F900 X59.151 Y141.812 E157.09435
G1 X59.089 Y141.75
G0 F1285.7 X58.527 Y140.693
G1 F900 X93.009 Y175.175 E158.96056
G0 F1285.7 X93.192 Y174.863
G1 F900 X57.904 Y139.575 E160.87039
G1 X57.842 Y139.513
G0 F1285.7 X57.28 Y138.456
G1 F900 X93.375 Y174.551 E162.8239
G0 F1285.7 X93.558 Y174.239
G1 F900 X56.656 Y137.337 E164.82108
G1 X56.594 Y137.275
G0 F1285.7 X56.032 Y136.218
G1 F900 X93.741 Y173.927 E166.86194
G0 F1285.7 X93.924 Y173.615
G1 F900 X55.408 Y135.099 E168.94648
G1 X55.346 Y135.037
G0 F1285.7 X54.785 Y133.981
G1 F900 X94.108 Y173.304 E171.07469
G0 F1285.7 X94.291 Y172.992
G1 F900 X54.161 Y132.862 E173.24657
G1 X54.099 Y132.8
G0 F1285.7 X53.537 Y131.743
G1 F900 X94.474 Y172.68 E175.46214
G0 F1285.7 X94.657 Y172.368
G1 F900 X52.913 Y130.624 E177.72137
G1 X52.851 Y130.562
G0 F1285.7 X52.289 Y129.505
G1 F900 X94.84 Y172.056 E180.02429
G0 F1285.7 X95.023 Y171.744
G1 F900 X51.666 Y128.387 E182.37082
G1 X51.604 Y128.325
G0 F1285.7 X51.041 Y127.267
G1 F900 X95.206 Y171.433 E184.76112
G0 F1285.7 X95.39 Y171.121
G1 F900 X50.418 Y126.149 E187.19506
G1 X50.356 Y126.087
G0 F1285.7 X49.794 Y125.03
G1 F900 X95.573 Y170.809 E189.67268
G0 F1285.7 X95.756 Y170.497
G1 F900 X49.17 Y123.911 E192.19397
G1 X49.108 Y123.849
G0 F1285.7 X48.546 Y122.792
G1 F900 X95.939 Y170.185 E194.75894
G0 F1285.7 X96.122 Y169.873
G1 F900 X47.922 Y121.673 E197.36759
G1 X47.86 Y121.611
G0 F1285.7 X47.299 Y120.555
G1 F900 X96.305 Y169.562 E200.01988
G0 F1285.7 X96.488 Y169.25
G1 F900 X46.675 Y119.436 E202.71585
G1 X46.613 Y119.374
G0 F1285.7 X46.051 Y118.318
G1 F900 X96.672 Y168.938 E205.4555
G0 F1285.7 X96.855 Y168.626
G1 F900 X45.427 Y117.198 E208.23885
G1 X45.365 Y117.136
G0 F1285.7 X44.803 Y116.08
G1 F900 X97.038 Y168.314 E211.06584
G0 F1285.7 X97.221 Y168.002
G1 F900 X44.18 Y114.961 E213.93649
G1 X44.118 Y114.899
G0 F1285.7 X43.556 Y113.842
G1 F900 X97.404 Y167.691 E216.85084
G0 F1285.7 X97.587 Y167.379
G1 F900 X42.931 Y112.723 E219.80889
G1 X42.869 Y112.661
G0 F1285.7 X42.308 Y111.604
G1 F900 X97.77 Y167.067 E222.81059
G0 F1285.7 X97.954 Y166.755
G1 F900 X41.684 Y110.486 E225.85597
G1 X41.622 Y110.424
G0 F1285.7 X41.06 Y109.367
G1 F900 X98.137 Y166.443 E228.94502
G0 F1285.7 X98.32 Y166.131
G1 F900 X40.436 Y108.248 E232.07775
G1 X40.374 Y108.186
G0 F1285.7 X39.812 Y107.129
G1 F900 X98.503 Y165.82 E235.25418
G0 F1285.7 X98.686 Y165.508
G1 F900 X39.189 Y106.01 E238.47426
G1 X39.127 Y105.948
G0 F1285.7 X38.565 Y104.892
G1 F900 X98.869 Y165.196 E241.73799
G0 F1285.7 X99.052 Y164.884
G1 F900 X37.941 Y103.772 E245.04543
G1 X37.879 Y103.71
G0 F1285.7 X37.456 Y102.792
G1 F900 X99.236 Y164.572 E248.38904
G0 F1285.7 X99.419 Y164.26
G1 F900 X37.639 Y102.48 E251.73265
G0 F1285.7 X37.822 Y102.169
G1 F900 X99.602 Y163.949 E255.07626
G0 F1285.7 X99.785 Y163.637
G1 F900 X38.005 Y101.857 E258.41987
G0 F1285.7 X38.188 Y101.545
G1 F900 X99.968 Y163.325 E261.76349
G0 F1285.7 X100.151 Y163.013
G1 F900 X38.371 Y101.233 E265.1071
G0 F1285.7 X38.554 Y100.921
G1 F900 X100.334 Y162.701 E268.45071
G0 F1285.7 X100.518 Y162.389
G1 F900 X38.738 Y100.609 E271.79432
G0 F1285.7 X38.921 Y100.298
G1 F900 X100.701 Y162.078 E275.13794
G0 F1285.7 X100.884 Y161.766
G1 F900 X39.104 Y99.986 E278.48155
G0 F1285.7 X39.287 Y99.674
G1 F900 X101.067 Y161.454 E281.82516
G0 F1285.7 X101.25 Y161.142
G1 F900 X39.47 Y99.362 E285.16877
G0 F1285.7 X39.653 Y99.05
G1 F900 X101.433 Y160.83 E288.51239
G0 F1285.7 X101.616 Y160.518
G1 F900 X39.836 Y98.738 E291.856
G0 F1285.7 X40.02 Y98.427
G1 F900 X101.8 Y160.207 E295.19961
G0 F1285.7 X101.983 Y159.895
G1 F900 X40.203 Y98.115 E298.54322
G0 F1285.7 X40.386 Y97.803
G1 F900 X102.166 Y159.583 E301.88683
G0 F1285.7 X102.349 Y159.271
G1 F900 X40.569 Y97.491 E305.23045
G0 F1285.7 X40.752 Y97.179
G1 F900 X102.532 Y158.959 E308.57406
G0 F1285.7 X102.715 Y158.647
G1 F900 X40.935 Y96.867 E311.91767
G0 F1285.7 X41.118 Y96.556
G1 F900 X102.898 Y158.336 E315.26128
G0 F1285.7 X103.082 Y158.024
G1 F900 X41.302 Y96.244 E318.6049
G0 F1285.7 X41.485 Y95.932
G1 F900 X103.265 Y157.712 E321.94851
G0 F1285.7 X103.448 Y157.4
G1 F900 X41.668 Y95.62 E325.29212
G0 F1285.7 X41.851 Y95.308
G1 F900 X103.631 Y157.088 E328.63573
G0 F1285.7 X103.814 Y156.776
G1 F900 X42.034 Y94.996 E331.97935
G0 F1285.7 X42.217 Y94.685
G1 F900 X103.997 Y156.465 E335.32296
G0 F1285.7 X104.18 Y156.153
G1 F900 X42.4 Y94.373 E338.66657
G0 F1285.7 X42.584 Y94.061
G1 F900 X104.364 Y155.841 E342.01018
G0 F1285.7 X104.547 Y155.529
G1 F900 X42.767 Y93.749 E345.35379
G0 F1285.7 X42.95 Y93.437
G1 F900 X104.73 Y155.217 E348.69741
G0 F1285.7 X104.913 Y154.905
G1 F900 X43.133 Y93.125 E352.04102
G0 F1285.7 X43.316 Y92.814
G1 F900 X105.096 Y154.594 E355.38463
G0 F1285.7 X105.279 Y154.282
G1 F900 X43.499 Y92.502 E358.72824
G0 F1285.7 X43.682 Y92.19
G1 F900 X105.462 Y153.97 E362.07186
G0 F1285.7 X105.645 Y153.658
G1 F900 X43.866 Y91.878 E365.41544
G0 F1285.7 X44.049 Y91.566
G1 F900 X105.829 Y153.346 E368.75905
G0 F1285.7 X106.012 Y153.034
G1 F900 X44.232 Y91.254 E372.10267
G0 F1285.7 X44.415 Y90.943
G1 F900 X106.195 Y152.723 E375.44628
G0 F1285.7 X106.378 Y152.411
G1 F900 X44.598 Y90.631 E378.78989
G0 F1285.7 X44.781 Y90.319
G1 F900 X106.561 Y152.099 E382.1335
G0 F1285.7 X106.744 Y151.787
G1 F900 X44.964 Y90.007 E385.47712
G0 F1285.7 X45.148 Y89.695
G1 F900 X106.927 Y151.475 E388.8207
G0 F1285.7 X107.111 Y151.163
G1 F900 X45.331 Y89.383 E392.16431
G0 F1285.7 X45.514 Y89.072
G1 F900 X107.294 Y150.852 E395.50793
G0 F1285.7 X107.477 Y150.54
G1 F900 X45.697 Y88.76 E398.85154
G0 F1285.7 X45.88 Y88.448
G1 F900 X107.66 Y150.228 E402.19515
G0 F1285.7 X107.843 Y149.916
G1 F900 X46.063 Y88.136 E405.53876
G0 F1285.7 X46.246 Y87.824
G1 F900 X108.026 Y149.604 E408.88237
G0 F1285.7 X108.209 Y149.292
G1 F900 X46.43 Y87.512 E412.22596
G0 F1285.7 X46.613 Y87.201
G1 F900 X108.393 Y148.981 E415.56957
G0 F1285.7 X108.576 Y148.669
G1 F900 X46.796 Y86.889 E418.91318
G0 F1285.7 X46.979 Y86.577
G1 F900 X108.759 Y148.357 E422.2568
G0 F1285.7 X108.942 Y148.045
G1 F900 X47.162 Y86.265 E425.60041
G0 F1285.7 X47.345 Y85.953
G1 F900 X109.125 Y147.733 E428.94402
G0 F1285.7 X109.308 Y147.421
G1 F900 X47.528 Y85.641 E432.28763
G0 F1285.7 X47.712 Y85.33
G1 F900 X109.491 Y147.11 E435.63122
G0 F1285.7 X109.675 Y146.798
G1 F900 X47.895 Y85.018 E438.97483
G0 F1285.7 X48.078 Y84.706
G1 F900 X109.858 Y146.486 E442.31844
G0 F1285.7 X110.041 Y146.174
