;FLAVOR:Marlin
;TIME:12794
;Filament used: 10.1105m
;Layer height: 0.2
;MINX:5.869
;MINY:19.221
;MINZ:0.26
;MAXX:182.296
;MAXY:195.66
;MAXZ:7.66
;Generated with Cura_SteamEngine 4.9.1
M82 ;absolute extrusion mode
;Begin Start Gcode for Dagoma DiscoEasy 200
;Sliced: 13-07-2021 17:10:18
;Initial extruder: 0

G90 ;Absolute positioning
M106 S255 ;Fan on full
G28 X Y ;Home stop X Y
G1 X100 ;Centre back during cooldown in case of oozing
M109 R90 ;Cooldown in case too hot
G28 ;Centre
G29 ;Auto-level
M104 S205 ;Pre-heat
M107 ;Fan off
G0 X100 Y5 Z0.5 ;Front centre for degunk
M109 S205 ;Wait for initial temp
M83 ;E Relative
G1 E10 F200 ;Degunk
G1 E-3 F5000 ;Retract
G0 Z3 ;Withdraw
M82 ;E absolute
G92 E0 ;E reset
G1 F6000 ;Set feedrate

;Finish Start Gcode for Dagoma DiscoEasy 200

G92 E0
G92 E0
G1 F3000 E-3.5
;LAYER_COUNT:38
;LAYER:0
M107
G0 F1285.7 X33.767 Y21 Z0.26
;TYPE:SKIRT
G1 F3000 E0
G1 F900 X34.1 Y20.555 E0.02127
G1 X34.494 Y20.162 E0.04257
G1 X34.941 Y19.83 E0.06388
G1 X35.43 Y19.565 E0.08516
G1 X35.952 Y19.373 E0.10645
G1 X36.496 Y19.257 E0.12773
G1 X37.052 Y19.221 E0.14905
G1 X37.606 Y19.265 E0.17032
G1 X38.149 Y19.387 E0.19162
G1 X38.669 Y19.586 E0.21293
G1 X39.154 Y19.858 E0.23421
G1 X39.666 Y20.26 E0.25912
G1 X40.071 Y20.647 E0.28056
G1 X180.74 Y161.316 E7.89374
G1 X181.204 Y161.793 E7.91921
G1 X181.562 Y162.219 E7.94051
G1 X181.856 Y162.691 E7.96179
G1 X182.079 Y163.201 E7.98309
G1 X182.226 Y163.738 E8.0044
G1 X182.296 Y164.29 E8.02569
G1 X182.285 Y164.846 E8.04697
G1 X182.195 Y165.395 E8.06826
G1 X182.027 Y165.926 E8.08958
G1 X181.785 Y166.427 E8.11087
G1 X181.474 Y166.888 E8.13215
G1 X181.1 Y167.3 E8.15344
G1 X180.671 Y167.654 E8.17473
G1 X180.195 Y167.943 E8.19604
G1 X179.594 Y168.19 E8.22091
G1 X179.066 Y168.348 E8.242
G1 X82.078 Y195.363 E12.09498
G1 X81.436 Y195.533 E12.12039
G1 X80.889 Y195.636 E12.14169
G1 X80.333 Y195.66 E12.16299
G1 X79.78 Y195.605 E12.18426
G1 X79.24 Y195.47 E12.20556
G1 X78.725 Y195.26 E12.22685
G1 X78.245 Y194.978 E12.24815
G1 X77.756 Y194.578 E12.27233
G1 X77.032 Y193.88 E12.31081
G1 X7.424 Y124.272 E16.07809
G1 X6.961 Y123.796 E16.1035
G1 X6.603 Y123.37 E16.1248
G1 X6.309 Y122.898 E16.14608
G1 X6.086 Y122.388 E16.16738
G1 X5.939 Y121.851 E16.18869
G1 X5.869 Y121.299 E16.20998
G1 X5.88 Y120.743 E16.23126
G1 X5.987 Y120.127 E16.25519
G1 X6.246 Y119.123 E16.29487
G1 X33.116 Y22.661 E20.12697
G1 X33.306 Y22.01 E20.15292
G1 X33.5 Y21.489 E20.1742
G1 X33.767 Y21 E20.19552
G0 F1285.7 X34.088 Y21.148
G1 F900 X34.413 Y20.73 E20.21578
G1 X34.798 Y20.364 E20.23611
G1 X35.234 Y20.061 E20.25643
G1 X35.71 Y19.826 E20.27674
G1 X36.215 Y19.665 E20.29703
G1 X36.74 Y19.583 E20.31736
G1 X37.27 Y19.579 E20.33765
G1 X37.795 Y19.656 E20.35795
G1 X38.303 Y19.81 E20.37827
G1 X38.782 Y20.039 E20.39859
G1 X39.221 Y20.338 E20.41891
G1 X39.637 Y20.712 E20.44032
G1 X39.853 Y20.923 E20.45188
G1 X180.489 Y161.56 E28.0633
G1 X180.953 Y162.037 E28.08877
G1 X181.293 Y162.444 E28.10907
G1 X181.568 Y162.898 E28.12938
G1 X181.773 Y163.388 E28.14971
G1 X181.901 Y163.903 E28.17001
G1 X181.95 Y164.431 E28.19031
G1 X181.92 Y164.961 E28.21062
G1 X181.811 Y165.48 E28.23092
G1 X181.624 Y165.977 E28.25124
G1 X181.366 Y166.44 E28.27152
G1 X181.04 Y166.859 E28.29184
G1 X180.656 Y167.225 E28.31214
G1 X180.221 Y167.529 E28.33245
G1 X179.745 Y167.764 E28.35277
G1 X179.229 Y167.937 E28.37359
G1 X178.938 Y168.021 E28.38518
G1 X81.988 Y195.025 E32.23665
G1 X81.346 Y195.195 E32.26207
G1 X80.825 Y195.291 E32.28234
G1 X80.294 Y195.309 E32.30267
G1 X79.767 Y195.246 E32.32298
G1 X79.256 Y195.106 E32.34326
G1 X78.771 Y194.89 E32.36358
G1 X78.324 Y194.603 E32.38391
G1 X77.999 Y194.326 E32.40025
G1 X77.279 Y193.633 E32.43849
G1 X7.675 Y124.028 E36.20558
G1 X7.212 Y123.552 E36.23099
G1 X6.872 Y123.145 E36.25129
G1 X6.597 Y122.691 E36.2716
G1 X6.392 Y122.201 E36.29193
G1 X6.264 Y121.686 E36.31223
G1 X6.215 Y121.158 E36.33253
G1 X6.245 Y120.628 E36.35284
G1 X6.326 Y120.214 E36.36899
G1 X6.583 Y119.217 E36.40839
G1 X33.452 Y22.759 E40.24033
G1 X33.642 Y22.108 E40.26628
G1 X33.829 Y21.612 E40.28657
G1 X34.088 Y21.148 E40.3069
G0 F1285.7 X34.408 Y21.299
G1 F900 X34.725 Y20.908 E40.32617
G1 X35.1 Y20.572 E40.34544
G1 X35.524 Y20.299 E40.36474
G1 X35.985 Y20.097 E40.384
G1 X36.472 Y19.97 E40.40326
G1 X36.973 Y19.921 E40.42252
G1 X37.476 Y19.953 E40.44181
G1 X37.967 Y20.064 E40.46108
G1 X38.435 Y20.251 E40.48036
G1 X38.867 Y20.509 E40.49962
G1 X39.335 Y20.907 E40.52313
G1 X39.581 Y21.147 E40.53628
G1 X180.238 Y161.804 E48.14882
G1 X180.702 Y162.281 E48.17428
G1 X181.023 Y162.669 E48.19356
G1 X181.279 Y163.102 E48.21281
G1 X181.464 Y163.571 E48.2321
G1 X181.571 Y164.063 E48.25137
G1 X181.6 Y164.566 E48.27065
G1 X181.549 Y165.067 E48.28992
G1 X181.419 Y165.553 E48.30918
G1 X181.214 Y166.013 E48.32845
G1 X180.939 Y166.435 E48.34773
G1 X180.601 Y166.808 E48.36699
G1 X180.208 Y167.123 E48.38626
G1 X179.77 Y167.372 E48.40554
G1 X179.209 Y167.577 E48.4284
G1 X178.844 Y167.684 E48.44296
G1 X81.899 Y194.686 E52.29422
G1 X81.257 Y194.856 E52.31963
G1 X80.761 Y194.946 E52.33893
G1 X80.258 Y194.957 E52.35818
G1 X79.759 Y194.887 E52.37746
G1 X79.277 Y194.74 E52.39675
G1 X78.825 Y194.518 E52.41602
G1 X78.242 Y194.074 E52.44406
G1 X77.527 Y193.385 E52.48206
G1 X7.926 Y123.784 E56.24896
G1 X7.463 Y123.308 E56.27437
G1 X7.142 Y122.92 E56.29364
G1 X6.886 Y122.486 E56.31293
G1 X6.701 Y122.018 E56.33219
G1 X6.594 Y121.526 E56.35145
G1 X6.565 Y121.023 E56.37074
G1 X6.665 Y120.301 E56.39863
G1 X6.92 Y119.311 E56.43775
G1 X33.788 Y22.857 E60.26954
G1 X33.978 Y22.206 E60.29549
G1 X34.157 Y21.736 E60.31474
G1 X34.408 Y21.299 E60.33402
G1 F3000 E56.83402
;MESH:support_half_hex_22.stl
G0 F1285.7 X36.159 Y23.79
G0 X37.292 Y24.104
G0 X40.761 Y37.319
G0 X40.786 Y37.415
;TYPE:WALL-INNER
G1 F3000 E60.33402
G1 F900 X20.643 Y109.734 E63.20698
G1 X21.076 Y110.167 E63.23042
G1 X93.105 Y90.104 E66.09187
G1 X93.393 Y90.024 E66.10331
G1 X93.182 Y89.813 E66.10979
G1 X91.053 Y87.68 E66.22513
G1 X40.786 Y37.415 E68.94559
G0 F1285.7 X40.761 Y37.319
G0 X111.472 Y108.03
G0 X111.497 Y108.126
G1 F900 X91.354 Y180.445 E71.81855
G1 X91.787 Y180.878 E71.84198
G1 X163.816 Y160.815 E74.70343
G1 X164.104 Y160.735 E74.71487
G1 X163.893 Y160.524 E74.72136
G1 X161.764 Y158.391 E74.83669
G1 X111.497 Y108.126 E77.55715
G0 F1285.7 X111.472 Y108.03
G0 X177.123 Y164.218
G0 X177.148 Y164.314
G1 F900 X80.586 Y191.212 E81.39322
G1 X10.309 Y120.935 E85.1967
G1 X37.207 Y24.373 E89.03278
G1 X37.287 Y24.085 E89.04422
G1 X37.498 Y24.296 E89.0507
G1 X177.225 Y164.023 E96.6129
G1 X177.436 Y164.234 E96.62432
G1 X177.148 Y164.314 E96.63082
G0 F1285.7 X177.772 Y164.478
;TYPE:WALL-OUTER
G1 F900 X80.49 Y191.576 E100.49549
G1 X9.945 Y121.031 E104.31348
G1 X37.043 Y23.749 E108.17815
G1 X37.123 Y23.461 E108.18959
G1 X37.334 Y23.672 E108.19607
G1 X177.849 Y164.187 E115.80092
G1 X178.06 Y164.398 E115.81234
G1 X177.772 Y164.478 E115.81884
G0 F1285.7 X177.58 Y164.531
G0 X177.34 Y164.209
G0 X111.487 Y108.088
G0 X111.661 Y108.75
G1 F900 X91.745 Y180.25 E118.65928
G1 X91.718 Y180.349 E118.6632
G1 X91.883 Y180.514 E118.67213
G1 X91.982 Y180.487 E118.67606
G1 X163.193 Y160.651 E121.50502
G1 X163.481 Y160.571 E121.51646
G1 X163.27 Y160.36 E121.52295
G1 X161.534 Y158.621 E121.61698
G1 X111.661 Y108.75 E124.31612
G0 F1285.7 X111.608 Y108.942
G0 X111.199 Y108.828
G0 X93.431 Y90.034
G0 X40.776 Y37.377
G0 X40.95 Y38.039
G1 F900 X21.034 Y109.539 E127.15656
G1 X21.007 Y109.638 E127.16048
G1 X21.172 Y109.803 E127.16941
G1 X21.271 Y109.776 E127.17334
G1 X92.482 Y89.94 E130.0023
G1 X92.77 Y89.86 E130.01374
G1 X92.559 Y89.649 E130.02023
G1 X90.823 Y87.91 E130.11426
G1 X40.95 Y38.039 E132.8134
G0 F1285.7 X40.897 Y38.231
G0 X40.488 Y38.117
G0 X40.615 Y36.762
;TYPE:SKIN
G1 F900 X20.262 Y109.834 E135.71628
G1 X20.976 Y110.548 E135.75492
G1 X94.044 Y90.195 E138.65765
G1 X91.294 Y87.439 E138.80665
G1 X40.615 Y36.762 E141.54941
G0 F1285.7 X37.458 Y24.738
G1 F900 X176.783 Y164.063 E149.08985
G1 X80.687 Y190.831 E152.90741
G1 X10.69 Y120.834 E156.69574
G1 X37.458 Y24.738 E160.5133
G0 F1285.7 X111.326 Y107.473
G1 F900 X90.973 Y180.545 E163.41618
G1 X91.687 Y181.259 E163.45482
G1 X164.755 Y160.906 E166.35755
G1 X162.005 Y158.15 E166.50655
G1 X111.326 Y107.473 E169.24931
G0 F1285.7 X10.873 Y120.757
G1 F900 X80.762 Y190.646 E173.03179
G0 F1285.7 X81.148 Y190.538
G1 F900 X10.981 Y120.37 E176.82934
G0 F1285.7 X11.088 Y119.983
G1 F900 X81.536 Y190.43 E180.64205
G0 F1285.7 X81.923 Y190.322
G1 F900 X11.197 Y119.596 E184.46983
G0 F1285.7 X11.304 Y119.209
G1 F900 X82.31 Y190.215 E188.31277
G0 F1285.7 X82.697 Y190.107
G1 F900 X11.412 Y118.822 E192.1708
G0 F1285.7 X11.52 Y118.434
G1 F900 X83.085 Y189.999 E196.04399
G0 F1285.7 X83.471 Y189.891
G1 F900 X11.628 Y118.047 E199.93225
G0 F1285.7 X11.735 Y117.66
G1 F900 X83.859 Y189.783 E203.83567
G0 F1285.7 X84.246 Y189.675
G1 F900 X11.844 Y117.273 E207.75416
G0 F1285.7 X11.951 Y116.886
G1 F900 X84.633 Y189.568 E211.6878
G0 F1285.7 X85.02 Y189.46
G1 F900 X12.059 Y116.499 E215.63654
G0 F1285.7 X12.167 Y116.111
G1 F900 X85.407 Y189.352 E219.60041
G0 F1285.7 X85.794 Y189.244
G1 F900 X12.275 Y115.725 E223.57935
G0 F1285.7 X12.382 Y115.337
G1 F900 X86.182 Y189.136 E227.57348
G0 F1285.7 X86.568 Y189.028
G1 F900 X12.491 Y114.95 E231.58264
G0 F1285.7 X12.598 Y114.563
G1 F900 X86.955 Y188.92 E235.60694
G0 F1285.7 X87.343 Y188.813
G1 F900 X12.706 Y114.176 E239.64639
G0 F1285.7 X12.814 Y113.789
G1 F900 X87.73 Y188.704 E243.70091
G0 F1285.7 X88.117 Y188.597
G1 F900 X12.922 Y113.402 E247.77056
G0 F1285.7 X13.029 Y113.014
G1 F900 X88.504 Y188.489 E251.85536
G0 F1285.7 X88.891 Y188.381
G1 F900 X13.138 Y112.627 E255.95524
G0 F1285.7 X13.245 Y112.24
G1 F900 X89.278 Y188.273 E260.07024
G0 F1285.7 X89.666 Y188.166
G1 F900 X13.353 Y111.853 E264.2004
G0 F1285.7 X13.461 Y111.466
G1 F900 X90.052 Y188.057 E268.3456
G0 F1285.7 X90.44 Y187.95
G1 F900 X13.569 Y111.079 E272.50596
G0 F1285.7 X13.676 Y110.691
G1 F900 X90.827 Y187.842 E276.68147
G0 F1285.7 X91.214 Y187.734
G1 F900 X13.785 Y110.305 E280.87202
G0 F1285.7 X13.892 Y109.917
G1 F900 X91.601 Y187.626 E285.07773
G0 F1285.7 X91.988 Y187.519
G1 F900 X14 Y109.53 E289.29857
G0 F1285.7 X14.108 Y109.143
G1 F900 X92.375 Y187.41 E293.53448
G0 F1285.7 X92.763 Y187.303
G1 F900 X14.216 Y108.756 E297.78555
G0 F1285.7 X14.323 Y108.369
G1 F900 X93.15 Y187.195 E302.05174
G0 F1285.7 X93.537 Y187.087
G1 F900 X14.432 Y107.982 E306.333
G0 F1285.7 X14.539 Y107.594
G1 F900 X93.924 Y186.979 E310.62942
G0 F1285.7 X94.311 Y186.872
G1 F900 X14.647 Y107.207 E314.94096
G0 F1285.7 X14.755 Y106.82
G1 F900 X94.698 Y186.763 E319.26758
G0 F1285.7 X95.086 Y186.656
G1 F900 X14.863 Y106.433 E323.60935
G0 F1285.7 X14.971 Y106.046
G1 F900 X95.472 Y186.548 E327.96619
G0 F1285.7 X95.86 Y186.44
G1 F900 X15.079 Y105.659 E332.33816
G0 F1285.7 X15.187 Y105.272
G1 F900 X96.247 Y186.332 E336.72523
G0 F1285.7 X96.634 Y186.225
G1 F900 X91.8 Y181.39 E336.98688
G0 F1285.7 X92.187 Y181.283
G1 F900 X97.021 Y186.116 E337.24848
G0 F1285.7 X97.408 Y186.009
G1 F900 X92.574 Y181.174 E337.51013
G0 F1285.7 X92.961 Y181.067
G1 F900 X97.795 Y185.901 E337.77175
G0 F1285.7 X98.183 Y185.793
G1 F900 X93.348 Y180.959 E338.0334
G0 F1285.7 X93.736 Y180.851
G1 F900 X98.569 Y185.685 E338.29499
G0 F1285.7 X98.957 Y185.578
G1 F900 X94.122 Y180.743 E338.55667
G0 F1285.7 X94.51 Y180.636
G1 F900 X99.344 Y185.469 E338.81827
G0 F1285.7 X99.731 Y185.362
G1 F900 X94.897 Y180.527 E339.07992
G0 F1285.7 X95.284 Y180.42
G1 F900 X100.118 Y185.254 E339.34154
G0 F1285.7 X100.506 Y185.146
G1 F900 X95.671 Y180.312 E339.60319
G0 F1285.7 X96.059 Y180.204
G1 F900 X100.892 Y185.038 E339.86478
G0 F1285.7 X101.28 Y184.931
G1 F900 X96.445 Y180.096 E340.12646
G0 F1285.7 X96.833 Y179.989
G1 F900 X101.667 Y184.822 E340.38805
G0 F1285.7 X102.054 Y184.715
G1 F900 X97.22 Y179.88 E340.6497
G0 F1285.7 X97.607 Y179.773
G1 F900 X102.441 Y184.607 E340.91132
G0 F1285.7 X102.828 Y184.499
G1 F900 X97.994 Y179.665 E341.17295
G0 F1285.7 X98.381 Y179.557
G1 F900 X103.215 Y184.391 E341.43457
G0 F1285.7 X103.603 Y184.284
G1 F900 X98.768 Y179.449 E341.69625
G0 F1285.7 X99.156 Y179.342
G1 F900 X103.989 Y184.175 E341.95781
G0 F1285.7 X104.377 Y184.068
G1 F900 X99.542 Y179.233 E342.21949
G0 F1285.7 X99.93 Y179.126
G1 F900 X104.764 Y183.96 E342.48111
G0 F1285.7 X105.151 Y183.852
G1 F900 X100.317 Y179.018 E342.74273
G0 F1285.7 X100.704 Y178.91
G1 F900 X105.538 Y183.744 E343.00436
G0 F1285.7 X105.926 Y183.637
G1 F900 X101.091 Y178.802 E343.26603
G0 F1285.7 X101.479 Y178.695
G1 F900 X106.312 Y183.528 E343.5276
G0 F1285.7 X106.7 Y183.421
G1 F900 X101.865 Y178.586 E343.78928
G0 F1285.7 X102.253 Y178.479
G1 F900 X107.087 Y183.313 E344.0509
G0 F1285.7 X107.474 Y183.205
G1 F900 X102.64 Y178.371 E344.31252
G0 F1285.7 X103.027 Y178.263
G1 F900 X107.861 Y183.097 E344.57414
G0 F1285.7 X108.248 Y182.99
G1 F900 X103.414 Y178.155 E344.83579
G0 F1285.7 X103.801 Y178.048
G1 F900 X108.635 Y182.881 E345.09739
G0 F1285.7 X109.023 Y182.774
G1 F900 X104.188 Y177.939 E345.35907
G0 F1285.7 X104.576 Y177.832
G1 F900 X109.409 Y182.666 E345.62066
G0 F1285.7 X109.797 Y182.558
G1 F900 X104.962 Y177.724 E345.88231
G0 F1285.7 X105.35 Y177.616
G1 F900 X110.184 Y182.45 E346.14393
G0 F1285.7 X110.571 Y182.343
G1 F900 X105.737 Y177.508 E346.40558
G0 F1285.7 X106.124 Y177.401
G1 F900 X110.958 Y182.234 E346.66718
G0 F1285.7 X111.345 Y182.127
G1 F900 X106.511 Y177.292 E346.92883
G0 F1285.7 X106.898 Y177.185
G1 F900 X111.732 Y182.019 E347.19045
G0 F1285.7 X112.12 Y181.911
G1 F900 X107.285 Y177.077 E347.4521
G0 F1285.7 X107.673 Y176.969
G1 F900 X112.507 Y181.803 E347.71372
G0 F1285.7 X112.894 Y181.696
G1 F900 X108.06 Y176.861 E347.97537
G0 F1285.7 X108.447 Y176.754
G1 F900 X113.281 Y181.587 E348.23696
G0 F1285.7 X113.668 Y181.48
G1 F900 X108.834 Y176.645 E348.49861
G0 F1285.7 X109.221 Y176.538
G1 F900 X114.055 Y181.372 E348.76024
G0 F1285.7 X114.443 Y181.264
G1 F900 X109.608 Y176.43 E349.02188
G0 F1285.7 X109.996 Y176.322
G1 F900 X114.829 Y181.156 E349.28348
G0 F1285.7 X115.216 Y181.048
G1 F900 X110.382 Y176.214 E349.5451
G0 F1285.7 X110.77 Y176.107
G1 F900 X115.604 Y180.94 E349.8067
G0 F1285.7 X115.99 Y180.832
G1 F900 X111.157 Y175.998 E350.06829
G0 F1285.7 X111.544 Y175.891
G1 F900 X116.378 Y180.725 E350.32991
G0 F1285.7 X116.765 Y180.616
G1 F900 X111.931 Y175.783 E350.59151
G0 F1285.7 X112.318 Y175.675
G1 F900 X117.152 Y180.509 E350.85313
G0 F1285.7 X117.539 Y180.401
G1 F900 X112.705 Y175.567 E351.11475
G0 F1285.7 X113.093 Y175.46
G1 F900 X117.927 Y180.293 E351.37635
G0 F1285.7 X118.313 Y180.185
G1 F900 X113.48 Y175.351 E351.63794
G0 F1285.7 X113.866 Y175.243
G1 F900 X118.701 Y180.078 E351.89962
G0 F1285.7 X119.088 Y179.969
G1 F900 X114.254 Y175.136 E352.16122
G0 F1285.7 X114.641 Y175.028
G1 F900 X119.475 Y179.862 E352.42284
G0 F1285.7 X119.862 Y179.754
G1 F900 X115.028 Y174.92 E352.68446
G0 F1285.7 X115.415 Y174.812
G1 F900 X120.249 Y179.646 E352.94608
G0 F1285.7 X120.636 Y179.538
G1 F900 X115.802 Y174.704 E353.20771
G0 F1285.7 X116.189 Y174.596
G1 F900 X121.024 Y179.431 E353.46938
G0 F1285.7 X121.41 Y179.322
G1 F900 X116.577 Y174.489 E353.73095
G0 F1285.7 X116.963 Y174.381
G1 F900 X121.798 Y179.215 E353.9926
G0 F1285.7 X122.185 Y179.107
G1 F900 X117.351 Y174.273 E354.25422
G0 F1285.7 X117.738 Y174.165
G1 F900 X122.572 Y178.999 E354.51584
G0 F1285.7 X122.959 Y178.891
G1 F900 X118.125 Y174.057 E354.77747
G0 F1285.7 X118.512 Y173.949
G1 F900 X123.346 Y178.784 E355.03912
G0 F1285.7 X123.733 Y178.675
G1 F900 X118.9 Y173.842 E355.30068
G0 F1285.7 X119.286 Y173.734
G1 F900 X124.121 Y178.568 E355.56233
G0 F1285.7 X124.508 Y178.46
G1 F900 X119.674 Y173.626 E355.82395
G0 F1285.7 X120.061 Y173.518
G1 F900 X124.895 Y178.352 E356.08558
G0 F1285.7 X125.282 Y178.244
G1 F900 X120.448 Y173.41 E356.3472
G0 F1285.7 X120.835 Y173.302
G1 F900 X125.669 Y178.137 E356.60885
G0 F1285.7 X126.056 Y178.028
G1 F900 X121.222 Y173.195 E356.87044
G0 F1285.7 X121.609 Y173.087
G1 F900 X126.444 Y177.921 E357.13209
G0 F1285.7 X126.83 Y177.813
G1 F900 X121.997 Y172.979 E357.39369
G0 F1285.7 X122.383 Y172.871
G1 F900 X127.218 Y177.705 E357.65534
