;FLAVOR:Marlin
;TIME:24213
;Filament used: 25.9949m
;Layer height: 0.3
;MINX:9.608
;MINY:8.3
;MINZ:0.26
;MAXX:188.227
;MAXY:187.113
;MAXZ:29.06
;Generated with Cura_SteamEngine 4.9.1
M82 ;absolute extrusion mode
;Begin Start Gcode for Dagoma DiscoEasy 200
;Sliced: 26-07-2021 02:07:07
;Initial extruder: 0

G90 ;Absolute positioning
M106 S255 ;Fan on full
G28 X Y ;Home stop X Y
G1 X100 ;Centre back during cooldown in case of oozing
M109 R90 ;Cooldown in case too hot
G28 ;Centre
G29 ;Auto-level
M104 S205 ;Pre-heat
M107 ;Fan off
G0 X100 Y5 Z0.5 ;Front centre for degunk
M109 S205 ;Wait for initial temp
M83 ;E Relative
G1 E10 F200 ;Degunk
G1 E-3 F5000 ;Retract
G0 Z3 ;Withdraw
M82 ;E absolute
G92 E0 ;E reset
G1 F6000 ;Set feedrate

;Finish Start Gcode for Dagoma DiscoEasy 200

G92 E0
G92 E0
G1 F3000 E-3.5
;LAYER_COUNT:97
;LAYER:0
M107
G0 F1285.7 X33.198 Y23.847 Z0.26
;TYPE:SKIRT
G1 F3000 E0
G1 F900 X34.745 Y21.582 E0.10497
G1 X36.217 Y19.288 E0.20928
G1 X37.654 Y16.906 E0.31574
G1 X38.995 Y14.533 E0.42005
G1 X40.3 Y12.062 E0.52699
G1 X40.997 Y10.666 E0.58671
G1 X41.371 Y9.904 E0.61919
G1 X41.617 Y9.493 E0.63752
G1 X41.928 Y9.129 E0.65584
G1 X42.296 Y8.821 E0.67421
G1 X42.709 Y8.579 E0.69253
G1 X43.157 Y8.408 E0.71088
G1 X43.627 Y8.314 E0.72922
G1 X44.106 Y8.3 E0.74756
G1 X44.58 Y8.366 E0.76587
G1 X45.038 Y8.509 E0.78424
G1 X45.465 Y8.726 E0.80257
G1 X45.902 Y9.058 E0.82357
G1 X46.153 Y9.293 E0.83673
G1 X113.817 Y76.955 E4.49874
G1 X115.811 Y78.893 E4.60515
G1 X117.847 Y80.763 E4.71094
G1 X119.925 Y82.565 E4.8162
G1 X122.034 Y84.295 E4.92059
G1 X124.207 Y85.974 E5.02569
G1 X126.424 Y87.589 E5.13065
G1 X128.713 Y89.16 E5.2369
G1 X131.001 Y90.638 E5.34114
G1 X133.367 Y92.072 E5.44702
G1 X135.197 Y93.122 E5.52776
G1 X135.758 Y93.517 E5.55402
G1 X136.31 Y93.986 E5.58174
G1 X136.438 Y94.116 E5.58872
G1 X136.911 Y94.582 E5.61413
G1 X137.834 Y95.517 E5.66441
G1 X138.003 Y95.704 E5.67406
G1 X138.444 Y96.237 E5.70053
G1 X138.702 Y96.586 E5.71714
G1 X139.186 Y97.337 E5.75133
G1 X139.754 Y98.249 E5.79245
G1 X141.274 Y100.543 E5.89776
G1 X142.844 Y102.772 E6.0021
G1 X144.488 Y104.972 E6.10721
G1 X146.193 Y107.125 E6.21231
G1 X147.986 Y109.26 E6.319
G1 X149.789 Y111.288 E6.42285
G1 X151.652 Y113.269 E6.52692
G1 X153.62 Y115.246 E6.63368
G1 X155.589 Y117.115 E6.73757
G1 X157.65 Y118.963 E6.84351
G1 X159.74 Y120.733 E6.94832
G1 X161.904 Y122.463 E7.05435
G1 X164.073 Y124.099 E7.15832
G1 X166.325 Y125.7 E7.26406
G1 X168.588 Y127.215 E7.36828
G1 X169.425 Y127.74 E7.40609
G1 X169.5 Y127.796 E7.40967
G1 X170.628 Y128.514 E7.46084
G1 X171.128 Y128.884 E7.48465
G1 X171.619 Y129.307 E7.50945
G1 X172.381 Y130.058 E7.55039
G1 X173.257 Y130.941 E7.59799
G1 X173.644 Y131.393 E7.62076
G1 X174.255 Y132.197 E7.65941
G1 X174.629 Y132.721 E7.68405
G1 X174.971 Y133.278 E7.70906
G1 X175.916 Y134.93 E7.78189
G1 X177.351 Y137.278 E7.8872
G1 X178.837 Y139.563 E7.99152
G1 X180.412 Y141.841 E8.0975
G1 X182.028 Y144.042 E8.202
G1 X183.716 Y146.212 E8.30721
G1 X185.473 Y148.341 E8.41285
G1 X186.603 Y149.623 E8.47825
G1 X187.527 Y150.688 E8.53221
G1 X187.809 Y151.075 E8.55053
G1 X188.024 Y151.503 E8.56886
G1 X188.164 Y151.961 E8.58719
G1 X188.227 Y152.436 E8.60553
G1 X188.209 Y152.915 E8.62387
G1 X188.113 Y153.385 E8.64223
G1 X187.94 Y153.831 E8.66054
G1 X187.694 Y154.243 E8.6789
G1 X187.384 Y154.608 E8.69723
G1 X187.018 Y154.917 E8.71556
G1 X186.633 Y155.147 E8.73272
G1 X184.134 Y156.387 E8.83948
G1 X181.701 Y157.682 E8.94496
G1 X179.307 Y159.046 E9.0504
G1 X176.939 Y160.484 E9.15643
G1 X174.66 Y161.957 E9.26027
G1 X172.384 Y163.523 E9.366
G1 X170.185 Y165.128 E9.47019
G1 X167.982 Y166.834 E9.57682
G1 X165.864 Y168.573 E9.68169
G1 X164.102 Y170.062 E9.76998
G1 X163.911 Y170.215 E9.77934
G1 X163.49 Y170.492 E9.79863
G1 X162.96 Y170.776 E9.82164
G1 X162.435 Y171.036 E9.84406
G1 X161.952 Y171.245 E9.8642
G1 X158.733 Y172.708 E9.99952
G1 X158.028 Y173.044 E10.02941
G1 X157.58 Y173.214 E10.04774
G1 X157.259 Y173.286 E10.06033
G1 X156.482 Y173.413 E10.09046
G1 X155.875 Y173.485 E10.11385
G1 X154.654 Y173.548 E10.16064
G1 X154.22 Y173.564 E10.17726
G1 X151.454 Y173.746 E10.28335
G1 X148.765 Y174.001 E10.38672
G1 X145.981 Y174.343 E10.49406
G1 X143.3 Y174.75 E10.59783
G1 X140.612 Y175.236 E10.70237
G1 X137.903 Y175.805 E10.80831
G1 X135.255 Y176.441 E10.91252
G1 X132.566 Y177.167 E11.01912
G1 X129.972 Y177.948 E11.12279
G1 X127.324 Y178.827 E11.22956
G1 X124.755 Y179.76 E11.33416
G1 X122.204 Y180.77 E11.43916
G1 X119.679 Y181.853 E11.5443
G1 X117.209 Y182.998 E11.64849
G1 X115.677 Y183.762 E11.71401
G1 X115.564 Y183.807 E11.71866
G1 X114.391 Y184.393 E11.76884
G1 X114.169 Y184.492 E11.77814
G1 X113.242 Y184.861 E11.81633
G1 X112.988 Y184.958 E11.82673
G1 X110.447 Y186.003 E11.93188
G1 X108.796 Y186.725 E12.00084
G1 X108.416 Y186.861 E12.01628
G1 X107.912 Y187.003 E12.03632
G1 X107.469 Y187.091 E12.05361
G1 X106.99 Y187.113 E12.07196
G1 X106.264 Y186.99 E12.10014
G1 X106.023 Y186.917 E12.10977
G1 X103.852 Y186.227 E12.19695
G1 X101.191 Y185.463 E12.3029
G1 X98.535 Y184.781 E12.40784
G1 X95.867 Y184.176 E12.51254
G1 X93.137 Y183.637 E12.61903
G1 X90.471 Y183.19 E12.72248
G1 X88.348 Y182.908 E12.80444
G1 X86.961 Y182.712 E12.85805
G1 X86.494 Y182.605 E12.87638
G1 X86.05 Y182.423 E12.89475
G1 X85.661 Y182.182 E12.91226
G1 X83.352 Y180.486 E13.0219
G1 X81.064 Y178.906 E13.12831
G1 X78.798 Y177.43 E13.2318
G1 X76.421 Y175.979 E13.33838
G1 X74.04 Y174.615 E13.44339
G1 X71.637 Y173.328 E13.54771
G1 X68.547 Y171.795 E13.67972
G1 X67.445 Y171.273 E13.72638
G1 X67.03 Y171.033 E13.74473
G1 X66.553 Y170.625 E13.76875
G1 X66.274 Y170.351 E13.78372
G1 X61.642 Y165.717 E14.03446
G1 X61.145 Y165.204 E14.06179
G1 X60.816 Y164.797 E14.08182
G1 X59.231 Y162.415 E14.19132
G1 X57.639 Y160.165 E14.2968
G1 X56.008 Y157.993 E14.40075
G1 X54.283 Y155.825 E14.50677
G1 X52.532 Y153.749 E14.61071
G1 X50.692 Y151.687 E14.71647
G1 X48.774 Y149.656 E14.82337
G1 X46.872 Y147.755 E14.92628
G1 X44.88 Y145.872 E15.03119
G1 X42.8 Y144.014 E15.13792
G1 X40.72 Y142.26 E15.24205
G1 X38.561 Y140.541 E15.34766
G1 X36.384 Y138.907 E15.45183
G1 X34.126 Y137.309 E15.55769
G1 X32.941 Y136.528 E15.61201
G1 X32.859 Y136.464 E15.61599
G1 X31.781 Y135.742 E15.66564
G1 X31.388 Y135.426 E15.68494
G1 X30.574 Y134.642 E15.72819
G1 X26.287 Y130.358 E15.96012
G1 X25.785 Y129.841 E15.9877
G1 X25.481 Y129.47 E16.00606
G1 X25.227 Y129.019 E16.02587
G1 X24.03 Y126.51 E16.13225
G1 X22.756 Y124.03 E16.23895
G1 X21.443 Y121.638 E16.34338
G1 X20.056 Y119.277 E16.44817
G1 X18.604 Y116.954 E16.55301
G1 X17.051 Y114.621 E16.66026
G1 X15.49 Y112.415 E16.76368
G1 X14.871 Y111.589 E16.80318
G1 X14.336 Y110.855 E16.83794
G1 X14.087 Y110.446 E16.85627
G1 X13.909 Y110.001 E16.87461
G1 X13.805 Y109.508 E16.89389
G1 X13.687 Y108.536 E16.93136
G1 X13.585 Y107.576 E16.96831
G1 X13.216 Y104.861 E17.07317
G1 X12.768 Y102.133 E17.17896
G1 X12.257 Y99.494 E17.28183
G1 X11.646 Y96.758 E17.38912
G1 X10.978 Y94.116 E17.49341
G1 X10.231 Y91.485 E17.59807
G1 X10.179 Y91.317 E17.6048
G1 X9.845 Y90.191 E17.64975
G1 X9.747 Y89.723 E17.66805
G1 X9.626 Y88.736 E17.7061
G1 X9.608 Y88.257 E17.72445
G1 X9.669 Y87.782 E17.74278
G1 X9.879 Y87.161 E17.76786
G1 X10.389 Y86.078 E17.81368
G1 X11.805 Y82.928 E17.94584
G1 X12.299 Y81.775 E17.99385
G1 X12.368 Y81.624 E18.0002
G1 X12.604 Y81.153 E18.02036
G1 X13.79 Y78.684 E18.12519
G1 X14.915 Y76.164 E18.2308
G1 X15.958 Y73.638 E18.33538
G1 X16.938 Y71.062 E18.44086
G1 X17.836 Y68.482 E18.5454
G1 X18.675 Y65.834 E18.65171
G1 X19.416 Y63.238 E18.75502
G1 X20.114 Y60.508 E18.86286
G1 X20.71 Y57.868 E18.96643
G1 X21.24 Y55.156 E19.07218
G1 X21.69 Y52.456 E19.17694
G1 X22.064 Y49.745 E19.28167
G1 X22.361 Y47.021 E19.38653
G1 X22.584 Y44.259 E19.49258
G1 X22.727 Y41.533 E19.59704
G1 X22.756 Y40.571 E19.63387
G1 X22.831 Y39.88 E19.66047
G1 X23.061 Y39.226 E19.687
G1 X24.301 Y36.72 E19.79401
G1 X25.336 Y34.433 E19.89007
G1 X25.784 Y33.468 E19.93079
G1 X26.044 Y33.008 E19.95101
G1 X26.376 Y32.51 E19.97392
G1 X26.57 Y32.254 E19.98621
G1 X27.497 Y31.161 E20.04106
G1 X28.175 Y30.376 E20.08075
G1 X29.913 Y28.246 E20.18596
G1 X31.578 Y26.08 E20.29051
G1 X33.198 Y23.847 E20.39609
G0 F1285.7 X33.49 Y24.04
G1 F900 X35.031 Y21.782 E20.5007
G1 X36.531 Y19.447 E20.60691
G1 X37.953 Y17.089 E20.71229
G1 X39.297 Y14.711 E20.81683
G1 X40.609 Y12.226 E20.92437
G1 X41.311 Y10.82 E20.98451
G1 X41.685 Y10.058 E21.01699
G1 X41.918 Y9.675 E21.03415
G1 X42.215 Y9.338 E21.05134
G1 X42.567 Y9.059 E21.06853
G1 X42.963 Y8.848 E21.0857
G1 X43.391 Y8.709 E21.10292
G1 X43.835 Y8.649 E21.12007
G1 X44.284 Y8.668 E21.13727
G1 X44.722 Y8.766 E21.15444
G1 X45.136 Y8.941 E21.17164
G1 X45.664 Y9.315 E21.19641
G1 X45.905 Y9.541 E21.20905
G1 X113.573 Y77.206 E24.87125
G1 X115.578 Y79.154 E24.97823
G1 X117.609 Y81.02 E25.08378
G1 X119.705 Y82.837 E25.18993
G1 X121.808 Y84.562 E25.29403
G1 X123.997 Y86.254 E25.39991
G1 X126.23 Y87.881 E25.50564
G1 X128.511 Y89.446 E25.6115
G1 X130.824 Y90.94 E25.71688
G1 X133.186 Y92.371 E25.82257
G1 X135.024 Y93.426 E25.90367
G1 X135.546 Y93.795 E25.92814
G1 X136.061 Y94.232 E25.95398
G1 X136.192 Y94.365 E25.96113
G1 X136.662 Y94.828 E25.98638
G1 X137.585 Y95.763 E26.03666
G1 X137.733 Y95.927 E26.04511
G1 X138.174 Y96.46 E26.07158
G1 X138.408 Y96.775 E26.0866
G1 X138.889 Y97.522 E26.1206
G1 X139.472 Y98.458 E26.1628
G1 X140.976 Y100.729 E26.26704
G1 X142.558 Y102.974 E26.37215
G1 X144.217 Y105.195 E26.47824
G1 X145.913 Y107.337 E26.5828
G1 X147.702 Y109.466 E26.68922
G1 X149.538 Y111.531 E26.79496
G1 X151.431 Y113.544 E26.90071
G1 X153.36 Y115.482 E27.00536
G1 X155.362 Y117.382 E27.11098
G1 X157.4 Y119.21 E27.21575
G1 X159.526 Y121.011 E27.32238
G1 X161.68 Y122.732 E27.4279
G1 X163.869 Y124.383 E27.53282
G1 X166.138 Y125.996 E27.63936
G1 X168.382 Y127.498 E27.7427
G1 X169.239 Y128.036 E27.78142
G1 X169.318 Y128.096 E27.78522
G1 X170.44 Y128.81 E27.83612
G1 X170.903 Y129.152 E27.85815
G1 X171.373 Y129.556 E27.88186
G1 X172.133 Y130.305 E27.9227
G1 X173.009 Y131.188 E27.9703
G1 X173.365 Y131.605 E27.99128
G1 X173.976 Y132.409 E28.02993
G1 X174.343 Y132.924 E28.05413
G1 X174.67 Y133.457 E28.07806
G1 X175.597 Y135.077 E28.14949
G1 X177.056 Y137.465 E28.25658
G1 X178.564 Y139.783 E28.36241
G1 X180.122 Y142.037 E28.46727
G1 X181.75 Y144.254 E28.57253
G1 X183.45 Y146.439 E28.67848
G1 X185.204 Y148.565 E28.78396
G1 X186.338 Y149.852 E28.8496
G1 X187.262 Y150.917 E28.90356
G1 X187.525 Y151.281 E28.92075
G1 X187.719 Y151.686 E28.93793
G1 X187.839 Y152.119 E28.95513
G1 X187.88 Y152.566 E28.97231
G1 X187.841 Y153.013 E28.98948
G1 X187.724 Y153.447 E29.00668
G1 X187.531 Y153.852 E29.02385
G1 X187.27 Y154.218 E29.04105
G1 X186.948 Y154.531 E29.05824
G1 X186.477 Y154.834 E29.07967
G1 X183.956 Y156.085 E29.18737
G1 X181.532 Y157.375 E29.29246
G1 X179.137 Y158.74 E29.39795
G1 X176.753 Y160.187 E29.50468
G1 X174.458 Y161.671 E29.60927
G1 X172.19 Y163.231 E29.71461
G1 X169.957 Y164.861 E29.82041
G1 X167.795 Y166.536 E29.92508
G1 X165.638 Y168.306 E30.03186
G1 X163.876 Y169.795 E30.12014
G1 X163.324 Y170.184 E30.14599
G1 X162.802 Y170.464 E30.16866
G1 X162.296 Y170.714 E30.19026
G1 X161.855 Y170.905 E30.20865
G1 X158.57 Y172.398 E30.34674
G1 X157.878 Y172.728 E30.37608
G1 X157.202 Y172.94 E30.40319
G1 X156.435 Y173.066 E30.43294
G1 X155.857 Y173.136 E30.45522
G1 X154.64 Y173.198 E30.50185
G1 X154.22 Y173.214 E30.51794
G1 X151.433 Y173.397 E30.62482
G1 X148.689 Y173.657 E30.73031
G1 X145.96 Y173.992 E30.83553
G1 X143.255 Y174.403 E30.94023
G1 X140.513 Y174.899 E31.04687
G1 X137.85 Y175.458 E31.151
G1 X135.158 Y176.105 E31.25696
G1 X132.475 Y176.829 E31.36331
G1 X129.839 Y177.622 E31.46865
G1 X127.226 Y178.49 E31.57403
G1 X124.661 Y179.422 E31.67847
G1 X122.068 Y180.448 E31.78518
G1 X119.536 Y181.534 E31.89062
G1 X117.048 Y182.687 E31.99556
G1 X115.521 Y183.449 E32.06087
G1 X115.416 Y183.49 E32.06518
G1 X114.235 Y184.08 E32.11571
G1 X114.039 Y184.167 E32.12391
G1 X113.117 Y184.533 E32.16188
G1 X112.872 Y184.626 E32.17191
G1 X110.329 Y185.672 E32.27714
G1 X108.655 Y186.404 E32.34706
G1 X108.321 Y186.524 E32.36064
G1 X107.817 Y186.666 E32.38068
G1 X107.424 Y186.744 E32.39601
G1 X106.975 Y186.762 E32.41321
G1 X106.366 Y186.656 E32.43686
G1 X106.129 Y186.583 E32.44635
G1 X103.945 Y185.888 E32.53406
G1 X101.307 Y185.132 E32.63908
G1 X98.598 Y184.436 E32.74612
G1 X95.936 Y183.832 E32.85059
G1 X93.228 Y183.297 E32.95622
G1 X90.517 Y182.843 E33.06142
G1 X88.397 Y182.561 E33.14326
G1 X87.01 Y182.365 E33.19687
G1 X86.572 Y182.263 E33.21408
G1 X86.16 Y182.085 E33.23126
G1 X85.868 Y181.9 E33.24448
G1 X83.549 Y180.196 E33.35461
G1 X81.269 Y178.622 E33.46064
G1 X78.961 Y177.119 E33.56604
G1 X76.608 Y175.682 E33.67156
G1 X74.222 Y174.315 E33.77679
G1 X71.789 Y173.012 E33.88241
G1 X68.72 Y171.49 E34.01351
G1 X67.595 Y170.957 E34.06115
G1 X67.208 Y170.729 E34.07834
G1 X66.792 Y170.37 E34.09937
G1 X66.521 Y170.104 E34.1139
G1 X61.893 Y165.474 E34.36443
G1 X61.396 Y164.961 E34.39177
G1 X61.108 Y164.603 E34.40935
G1 X59.528 Y162.229 E34.51848
G1 X57.925 Y159.963 E34.62471
G1 X56.282 Y157.775 E34.72942
G1 X54.558 Y155.609 E34.83536
G1 X52.806 Y153.53 E34.93941
G1 X50.923 Y151.421 E35.04761
G1 X49.063 Y149.451 E35.15129
G1 X47.112 Y147.501 E35.25686
G1 X45.106 Y145.604 E35.36252
G1 X43.027 Y143.748 E35.46917
G1 X40.936 Y141.985 E35.57384
G1 X38.779 Y140.267 E35.67937
G1 X36.586 Y138.621 E35.78431
G1 X34.326 Y137.022 E35.89025
G1 X33.134 Y136.236 E35.94489
G1 X33.055 Y136.173 E35.94876
G1 X31.976 Y135.451 E35.99845
G1 X31.63 Y135.173 E36.01543
G1 X30.821 Y134.395 E36.05839
G1 X26.538 Y130.114 E36.29013
G1 X26.036 Y129.597 E36.31771
G1 X25.754 Y129.248 E36.33488
G1 X25.514 Y128.805 E36.35416
G1 X24.337 Y126.341 E36.45867
G1 X23.077 Y123.887 E36.56423
G1 X21.746 Y121.462 E36.6701
G1 X20.348 Y119.083 E36.7757
G1 X18.896 Y116.76 E36.88053
G1 X17.37 Y114.468 E36.98591
G1 X15.759 Y112.19 E37.09269
G1 X15.154 Y111.383 E37.13129
G1 X14.619 Y110.649 E37.16604
G1 X14.387 Y110.264 E37.18325
G1 X14.228 Y109.845 E37.2004
G1 X14.152 Y109.466 E37.21519
G1 X14.035 Y108.499 E37.25247
G1 X13.931 Y107.527 E37.28988
G1 X13.568 Y104.845 E37.39345
G1 X13.112 Y102.072 E37.501
G1 X12.588 Y99.368 E37.6064
G1 X11.999 Y96.73 E37.70985
G1 X11.312 Y94.012 E37.81713
G1 X10.562 Y91.366 E37.92238
G1 X10.514 Y91.217 E37.92837
G1 X10.18 Y90.091 E37.97332
G1 X10.095 Y89.68 E37.98938
G1 X9.974 Y88.693 E38.02744
G1 X9.959 Y88.244 E38.04463
G1 X10.024 Y87.8 E38.0618
G1 X10.196 Y87.31 E38.08168
G1 X10.701 Y86.237 E38.12706
G1 X12.106 Y83.112 E38.25818
G1 X12.62 Y81.913 E38.30811
G1 X12.9 Y81.343 E38.33241
G1 X14.111 Y78.823 E38.43941
G1 X15.233 Y76.311 E38.54469
G1 X16.293 Y73.742 E38.65105
G1 X17.259 Y71.202 E38.75505
G1 X18.184 Y68.546 E38.86268
G1 X19 Y65.968 E38.96616
G1 X19.772 Y63.266 E39.0737
G1 X20.44 Y60.65 E39.17703
G1 X21.061 Y57.904 E39.28477
G1 X21.579 Y55.253 E39.38814
G1 X22.041 Y52.479 E39.49576
G1 X22.411 Y49.792 E39.59956
G1 X22.71 Y47.052 E39.70505
G1 X22.931 Y44.305 E39.81051
G1 X23.078 Y41.505 E39.91781
G1 X23.105 Y40.589 E39.95288
G1 X23.179 Y39.928 E39.97834
G1 X23.375 Y39.381 E40.00057
G1 X24.615 Y36.874 E40.10761
G1 X25.654 Y34.581 E40.20395
G1 X26.102 Y33.616 E40.24467
G1 X26.4 Y33.102 E40.2674
G1 X26.836 Y32.481 E40.29644
G1 X27.762 Y31.39 E40.35121
G1 X28.43 Y30.616 E40.39033
G1 X30.182 Y28.47 E40.49635
G1 X31.859 Y26.289 E40.60164
G1 X33.49 Y24.04 E40.70796
G0 F1285.7 X33.785 Y24.229
G1 F900 X35.324 Y21.975 E40.81241
G1 X36.829 Y19.631 E40.91901
G1 X38.236 Y17.298 E41.02327
G1 X39.627 Y14.836 E41.13149
G1 X40.919 Y12.389 E41.23739
G1 X41.625 Y10.975 E41.29787
G1 X41.999 Y10.213 E41.33035
G1 X42.218 Y9.858 E41.34632
G1 X42.5 Y9.551 E41.36227
G1 X42.836 Y9.304 E41.37823
G1 X43.212 Y9.126 E41.39415
G1 X43.616 Y9.022 E41.41011
G1 X44.032 Y8.997 E41.42606
G1 X44.445 Y9.053 E41.44201
G1 X44.84 Y9.185 E41.45795
G1 X45.202 Y9.391 E41.47389
G1 X45.595 Y9.727 E41.49368
G1 X113.329 Y77.457 E45.15942
G1 X115.344 Y79.416 E45.26697
G1 X117.373 Y81.279 E45.37239
G1 X119.46 Y83.089 E45.47811
G1 X121.603 Y84.846 E45.58416
G1 X123.787 Y86.534 E45.68979
