;FLAVOR:Marlin
;TIME:23064
;Filament used: 23.855m
;Layer height: 0.3
;MINX:2.54
;MINY:39.755
;MINZ:0.26
;MAXX:201.528
;MAXY:190.962
;MAXZ:23.66
;Generated with Cura_SteamEngine 4.9.1
M82 ;absolute extrusion mode
;Begin Start Gcode for Dagoma DiscoEasy 200
;Sliced: 30-06-2021 10:24:14
;Initial extruder: 0

G90 ;Absolute positioning
M106 S255 ;Fan on full
G28 X Y ;Home stop X Y
G1 X100 ;Centre back during cooldown in case of oozing
M109 R90 ;Cooldown in case too hot
G28 ;Centre
G29 ;Auto-level
M104 S205 ;Pre-heat
M107 ;Fan off
G0 X100 Y5 Z0.5 ;Front centre for degunk
M109 S205 ;Wait for initial temp
M83 ;E Relative
G1 E10 F200 ;Degunk
G1 E-3 F5000 ;Retract
G0 Z3 ;Withdraw
M82 ;E absolute
G92 E0 ;E reset
G1 F6000 ;Set feedrate

;Finish Start Gcode for Dagoma DiscoEasy 200

G92 E0
G92 E0
G1 F3000 E-3.5
;LAYER_COUNT:79
;LAYER:0
M107
G0 F1285.7 X38.433 Y40.935 Z0.26
;TYPE:SKIRT
G1 F3000 E0
G1 F900 X38.849 Y40.565 E0.02131
G1 X39.314 Y40.259 E0.04261
G1 X39.818 Y40.023 E0.06391
G1 X40.35 Y39.861 E0.08519
G1 X41.035 Y39.769 E0.11164
G1 X41.227 Y39.762 E0.11899
G1 X41.788 Y39.755 E0.14046
G1 X140.542 Y39.755 E3.91973
G1 X141.242 Y39.765 E3.94652
G1 X141.797 Y39.813 E3.96784
G1 X142.338 Y39.94 E3.98911
G1 X142.857 Y40.143 E4.01043
G1 X143.34 Y40.418 E4.0317
G1 X143.779 Y40.76 E4.053
G1 X144.165 Y41.161 E4.0743
G1 X144.49 Y41.613 E4.09561
G1 X144.746 Y42.107 E4.1169
G1 X144.876 Y42.452 E4.13101
G1 X145.295 Y43.753 E4.18332
G1 X145.467 Y44.283 E4.20464
G1 X146.345 Y46.834 E4.30789
G1 X147.297 Y49.368 E4.41148
G1 X148.331 Y51.899 E4.51611
G1 X149.423 Y54.37 E4.6195
G1 X150.6 Y56.842 E4.72428
G1 X151.839 Y59.263 E4.82835
G1 X153.543 Y62.347 E4.9632
G1 X200.742 Y144.098 E8.57576
G1 X201.048 Y144.648 E8.59985
G1 X201.283 Y145.152 E8.62113
G1 X201.443 Y145.685 E8.64242
G1 X201.526 Y146.236 E8.66375
G1 X201.528 Y146.792 E8.68503
G1 X201.451 Y147.343 E8.70632
G1 X201.296 Y147.877 E8.7276
G1 X201.066 Y148.384 E8.7489
G1 X200.765 Y148.852 E8.7702
G1 X200.401 Y149.273 E8.7915
G1 X199.98 Y149.637 E8.81279
G1 X199.512 Y149.937 E8.83407
G1 X199.005 Y150.167 E8.85537
G1 X198.471 Y150.322 E8.87665
G1 X197.866 Y150.402 E8.90001
G1 X197.671 Y150.409 E8.90748
G1 X197.034 Y150.42 E8.93186
G1 X182.781 Y150.482 E9.47732
G1 X180.079 Y150.533 E9.58074
G1 X177.338 Y150.661 E9.68575
G1 X174.623 Y150.866 E9.78995
G1 X171.955 Y151.143 E9.8926
G1 X169.204 Y151.507 E9.9988
G1 X166.552 Y151.935 E10.1016
G1 X163.905 Y152.44 E10.20473
G1 X161.251 Y153.023 E10.30872
G1 X158.565 Y153.694 E10.41467
G1 X155.96 Y154.424 E10.5182
G1 X153.381 Y155.226 E10.62156
G1 X150.817 Y156.104 E10.72528
G1 X148.228 Y157.072 E10.83106
G1 X145.727 Y158.089 E10.93438
G1 X143.254 Y159.178 E11.03779
G1 X140.809 Y160.337 E11.14134
G1 X138.356 Y161.587 E11.2467
G1 X135.988 Y162.878 E11.34991
G1 X133.618 Y164.261 E11.45493
G1 X131.322 Y165.687 E11.55836
G1 X129.056 Y167.186 E11.66234
G1 X126.84 Y168.743 E11.76598
G1 X124.648 Y170.378 E11.87063
G1 X122.528 Y172.056 E11.9741
G1 X120.424 Y173.818 E12.07913
G1 X118.422 Y175.594 E12.18155
G1 X116.406 Y177.487 E12.28738
G1 X114.513 Y179.367 E12.38948
G1 X112.622 Y181.356 E12.49451
G1 X110.048 Y184.254 E12.64284
G1 X109.34 Y185.084 E12.68459
G1 X108.95 Y185.481 E12.70589
G1 X108.507 Y185.817 E12.72717
G1 X108.02 Y186.087 E12.74848
G1 X107.499 Y186.283 E12.76978
G1 X106.956 Y186.404 E12.79107
G1 X106.388 Y186.447 E12.81287
G1 X105.749 Y186.458 E12.83733
G1 X103.13 Y186.468 E12.93756
G1 X87.428 Y186.538 E13.53847
G1 X84.726 Y186.589 E13.64189
G1 X81.984 Y186.717 E13.74694
G1 X79.271 Y186.922 E13.85106
G1 X76.602 Y187.199 E13.95375
G1 X73.852 Y187.563 E14.05991
G1 X71.225 Y187.987 E14.16175
G1 X68.498 Y188.506 E14.26798
G1 X65.901 Y189.078 E14.36975
G1 X63.22 Y189.747 E14.4755
G1 X60.833 Y190.413 E14.57034
G1 X59.89 Y190.689 E14.60794
G1 X59.347 Y190.807 E14.6292
G1 X59.055 Y190.837 E14.64044
G1 X58.106 Y190.899 E14.67683
G1 X57.796 Y190.911 E14.6887
G1 X57.09 Y190.92 E14.71572
G1 X56.263 Y190.937 E14.74738
G1 X54.839 Y190.962 E14.80188
G1 X54.15 Y190.913 E14.82832
G1 X53.931 Y190.877 E14.83681
G1 X53.396 Y190.78 E14.85762
G1 X52.96 Y190.679 E14.87475
G1 X51.728 Y190.336 E14.92369
G1 X49.115 Y189.648 E15.0271
G1 X46.417 Y189.02 E15.13311
G1 X43.786 Y188.485 E15.23585
G1 X41.132 Y188.022 E15.33896
G1 X38.404 Y187.625 E15.44445
G1 X35.716 Y187.312 E15.54802
G1 X33.005 Y187.073 E15.65217
G1 X30.297 Y186.912 E15.75599
G1 X27.579 Y186.828 E15.86005
G1 X25.494 Y186.815 E15.93985
G1 X7.025 Y186.897 E16.64665
G1 X6.372 Y186.89 E16.67164
G1 X5.818 Y186.844 E16.69292
G1 X5.276 Y186.719 E16.7142
G1 X4.757 Y186.518 E16.7355
G1 X4.272 Y186.244 E16.75682
G1 X3.832 Y185.904 E16.7781
G1 X3.445 Y185.505 E16.79937
G1 X3.119 Y185.054 E16.82067
G1 X2.861 Y184.561 E16.84196
G1 X2.676 Y184.036 E16.86327
G1 X2.568 Y183.49 E16.88457
G1 X2.54 Y182.934 E16.90587
G1 X2.591 Y182.38 E16.92716
G1 X2.722 Y181.839 E16.94847
G1 X2.957 Y181.264 E16.97224
G1 X3.296 Y180.638 E16.99948
G1 X32.441 Y129.101 E19.26531
G1 X33.741 Y126.723 E19.36903
G1 X34.979 Y124.301 E19.47312
G1 X36.162 Y121.812 E19.57859
G1 X37.243 Y119.366 E19.68093
G1 X38.29 Y116.802 E19.78692
G1 X39.224 Y114.308 E19.88884
G1 X40.114 Y111.716 E19.99371
G1 X40.928 Y109.109 E20.09823
G1 X41.662 Y106.499 E20.20199
G1 X42.318 Y103.883 E20.3052
G1 X42.916 Y101.188 E20.41085
G1 X43.418 Y98.562 E20.51316
G1 X43.858 Y95.856 E20.61808
G1 X44.217 Y93.168 E20.72186
G1 X44.5 Y90.469 E20.82572
G1 X44.707 Y87.757 E20.92981
G1 X44.84 Y85.009 E21.0351
G1 X44.892 Y82.334 E21.13749
G1 X44.868 Y79.581 E21.24285
G1 X44.77 Y76.902 E21.34544
G1 X44.591 Y74.161 E21.45056
G1 X44.337 Y71.451 E21.55472
G1 X44.009 Y68.765 E21.65828
G1 X43.606 Y66.102 E21.76135
G1 X43.119 Y63.401 E21.86638
G1 X42.558 Y60.723 E21.9711
G1 X41.934 Y58.109 E22.07394
G1 X41.225 Y55.48 E22.17815
G1 X40.436 Y52.846 E22.28337
G1 X39.599 Y50.319 E22.38525
G1 X38.657 Y47.724 E22.4909
G1 X37.605 Y45.067 E22.60026
G1 X37.438 Y44.536 E22.62156
G1 X37.349 Y43.987 E22.64285
G1 X37.339 Y43.43 E22.66417
G1 X37.409 Y42.878 E22.68546
G1 X37.557 Y42.342 E22.70674
G1 X37.78 Y41.832 E22.72804
G1 X38.075 Y41.36 E22.74934
G1 X38.433 Y40.935 E22.77061
G0 F1285.7 X38.825 Y41.042
G1 F900 X39.242 Y40.714 E22.79091
G1 X39.703 Y40.452 E22.81121
G1 X40.199 Y40.262 E22.83153
G1 X40.718 Y40.149 E22.85186
G1 X41.231 Y40.112 E22.87154
G1 X41.792 Y40.105 E22.89301
G1 X140.537 Y40.105 E26.67194
G1 X141.237 Y40.115 E26.69873
G1 X141.766 Y40.163 E26.71906
G1 X142.281 Y40.289 E26.73935
G1 X142.772 Y40.491 E26.75966
G1 X143.227 Y40.765 E26.77999
G1 X143.635 Y41.104 E26.80029
G1 X143.988 Y41.5 E26.82059
G1 X144.278 Y41.945 E26.84092
G1 X144.542 Y42.56 E26.86653
G1 X144.924 Y43.746 E26.91422
G1 X145.134 Y44.391 E26.94018
G1 X146.007 Y46.929 E27.04289
G1 X146.983 Y49.525 E27.14903
G1 X148.007 Y52.031 E27.25263
G1 X149.107 Y54.521 E27.3568
G1 X150.292 Y57.01 E27.4623
G1 X151.521 Y59.412 E27.56556
G1 X153.24 Y62.522 E27.70155
G1 X200.436 Y144.268 E31.31389
G1 X200.742 Y144.818 E31.33797
G1 X200.965 Y145.3 E31.3583
G1 X201.112 Y145.81 E31.37861
G1 X201.182 Y146.336 E31.39892
G1 X201.171 Y146.866 E31.4192
G1 X201.081 Y147.389 E31.43951
G1 X200.914 Y147.893 E31.45983
G1 X200.673 Y148.366 E31.48015
G1 X200.363 Y148.797 E31.50047
G1 X199.993 Y149.177 E31.52076
G1 X199.569 Y149.497 E31.54109
G1 X199.103 Y149.749 E31.56137
G1 X198.603 Y149.929 E31.5817
G1 X197.847 Y150.052 E31.61102
G1 X197.665 Y150.059 E31.61799
G1 X197.032 Y150.07 E31.64221
G1 X182.776 Y150.132 E32.18779
G1 X180.057 Y150.183 E32.29186
G1 X177.328 Y150.31 E32.39641
G1 X174.598 Y150.517 E32.50119
G1 X171.908 Y150.796 E32.60469
G1 X169.172 Y151.158 E32.7103
G1 X166.499 Y151.59 E32.81393
G1 X163.806 Y152.103 E32.91884
G1 X161.16 Y152.685 E33.02252
G1 X158.487 Y153.352 E33.12795
G1 X155.872 Y154.085 E33.23188
G1 X153.274 Y154.893 E33.33601
G1 X150.692 Y155.777 E33.44045
G1 X148.104 Y156.745 E33.54619
G1 X145.596 Y157.765 E33.6498
G1 X143.105 Y158.861 E33.75395
G1 X140.643 Y160.029 E33.85824
G1 X138.2 Y161.274 E33.96317
G1 X135.828 Y162.566 E34.06654
G1 X133.426 Y163.968 E34.17297
G1 X131.13 Y165.395 E34.27643
G1 X128.872 Y166.888 E34.38002
G1 X126.623 Y168.469 E34.48523
G1 X124.427 Y170.107 E34.59007
G1 X122.314 Y171.778 E34.69317
G1 X120.198 Y173.551 E34.79881
G1 X118.161 Y175.359 E34.90305
G1 X116.185 Y177.213 E35.00674
G1 X114.243 Y179.142 E35.11149
G1 X112.368 Y181.114 E35.21563
G1 X109.81 Y183.994 E35.36304
G1 X109.074 Y184.857 E35.40645
G1 X108.7 Y185.234 E35.42677
G1 X108.274 Y185.55 E35.44707
G1 X107.806 Y185.799 E35.46736
G1 X107.305 Y185.975 E35.48768
G1 X106.543 Y186.092 E35.51718
G1 X106.382 Y186.097 E35.52335
G1 X105.747 Y186.108 E35.54765
G1 X103.129 Y186.118 E35.64784
G1 X87.424 Y186.188 E36.24887
G1 X84.704 Y186.239 E36.35298
G1 X81.977 Y186.366 E36.45746
G1 X79.243 Y186.573 E36.56239
G1 X76.555 Y186.852 E36.66581
G1 X73.819 Y187.214 E36.77142
G1 X71.138 Y187.647 E36.87535
G1 X68.466 Y188.156 E36.97945
G1 X65.776 Y188.748 E37.08486
G1 X63.151 Y189.403 E37.1884
G1 X60.735 Y190.077 E37.28438
G1 X59.792 Y190.353 E37.32199
G1 X59.032 Y190.488 E37.35153
G1 X58.083 Y190.55 E37.38792
G1 X57.792 Y190.561 E37.39907
G1 X57.086 Y190.57 E37.42609
G1 X54.832 Y190.612 E37.51236
G1 X54.206 Y190.568 E37.53638
G1 X53.993 Y190.532 E37.54464
G1 X53.458 Y190.435 E37.56545
G1 X53.054 Y190.342 E37.58132
G1 X51.846 Y190.006 E37.6293
G1 X49.181 Y189.304 E37.73477
G1 X46.497 Y188.679 E37.84023
G1 X43.875 Y188.146 E37.94263
G1 X41.134 Y187.668 E38.04911
G1 X38.461 Y187.279 E38.15248
G1 X35.752 Y186.964 E38.25685
G1 X33.057 Y186.726 E38.36039
G1 X30.293 Y186.562 E38.46635
G1 X27.592 Y186.478 E38.56977
G1 X25.495 Y186.465 E38.65002
G1 X7.029 Y186.547 E39.35671
G1 X6.376 Y186.54 E39.3817
G1 X5.848 Y186.494 E39.40199
G1 X5.332 Y186.37 E39.4223
G1 X4.84 Y186.169 E39.44263
G1 X4.385 Y185.897 E39.46292
G1 X3.975 Y185.56 E39.48323
G1 X3.621 Y185.165 E39.50353
G1 X3.329 Y184.721 E39.52387
G1 X3.108 Y184.239 E39.54416
G1 X2.962 Y183.729 E39.56446
G1 X2.894 Y183.203 E39.58476
G1 X2.906 Y182.672 E39.60509
G1 X2.997 Y182.149 E39.6254
G1 X3.27 Y181.422 E39.65512
G1 X3.603 Y180.807 E39.68188
G1 X32.721 Y129.317 E41.94564
G1 X34.062 Y126.865 E42.05259
G1 X35.294 Y124.454 E42.15621
G1 X36.472 Y121.975 E42.26125
G1 X37.572 Y119.485 E42.36542
G1 X38.613 Y116.938 E42.47072
G1 X39.555 Y114.422 E42.57354
G1 X40.444 Y111.834 E42.67826
G1 X41.267 Y109.198 E42.78394
G1 X41.994 Y106.611 E42.88678
G1 X42.664 Y103.941 E42.99212
G1 X43.26 Y101.254 E43.09745
G1 X43.765 Y98.615 E43.20028
G1 X44.203 Y95.919 E43.30481
G1 X44.563 Y93.22 E43.40901
G1 X44.849 Y90.494 E43.51391
G1 X45.058 Y87.766 E43.61861
G1 X45.189 Y85.034 E43.72328
G1 X45.242 Y82.337 E43.82652
G1 X45.219 Y79.6 E43.93126
G1 X45.118 Y76.866 E44.03596
G1 X44.94 Y74.14 E44.14051
G1 X44.684 Y71.41 E44.24544
G1 X44.354 Y68.705 E44.34973
G1 X43.949 Y66.027 E44.45338
G1 X43.463 Y63.336 E44.55803
G1 X42.907 Y60.68 E44.66188
G1 X42.268 Y58.006 E44.76709
G1 X41.566 Y55.399 E44.87041
G1 X40.768 Y52.736 E44.9768
G1 X39.924 Y50.19 E45.07945
G1 X38.98 Y47.587 E45.18542
G1 X37.931 Y44.938 E45.29445
G1 X37.773 Y44.431 E45.31477
G1 X37.693 Y43.906 E45.3351
G1 X37.693 Y43.376 E45.35538
G1 X37.772 Y42.851 E45.3757
G1 X37.93 Y42.344 E45.39602
G1 X38.161 Y41.867 E45.4163
G1 X38.462 Y41.43 E45.43661
G1 X38.825 Y41.042 E45.45694
G0 F1285.7 X38.851 Y41.512
G1 F900 X39.218 Y41.166 E45.47625
G1 X39.634 Y40.883 E45.4955
G1 X40.089 Y40.669 E45.51474
G1 X40.573 Y40.529 E45.53403
G1 X41.133 Y40.465 E45.5556
G1 X41.235 Y40.462 E45.5595
G1 X41.796 Y40.455 E45.58097
G1 X140.532 Y40.455 E49.35955
G1 X141.232 Y40.465 E49.38634
G1 X141.734 Y40.512 E49.40564
G1 X142.221 Y40.638 E49.42489
G1 X142.683 Y40.84 E49.44419
G1 X143.107 Y41.111 E49.46344
G1 X143.483 Y41.447 E49.48274
G1 X143.801 Y41.837 E49.502
G1 X144.053 Y42.273 E49.52127
G1 X144.209 Y42.667 E49.53749
G1 X144.623 Y43.954 E49.58923
G1 X144.801 Y44.498 E49.61113
G1 X145.684 Y47.066 E49.71505
G1 X146.651 Y49.638 E49.82021
G1 X147.682 Y52.163 E49.92459
G1 X148.791 Y54.67 E50.0295
G1 X149.971 Y57.149 E50.13456
G1 X151.216 Y59.584 E50.23922
G1 X152.937 Y62.697 E50.37535
G1 X200.13 Y144.438 E53.98747
G1 X200.436 Y144.988 E54.01156
G1 X200.646 Y145.446 E54.03084
G1 X200.78 Y145.932 E54.05013
G1 X200.835 Y146.432 E54.06938
G1 X200.811 Y146.935 E54.08865
G1 X200.708 Y147.428 E54.10793
G1 X200.528 Y147.899 E54.12722
G1 X200.276 Y148.334 E54.14646
G1 X199.958 Y148.725 E54.16575
G1 X199.582 Y149.06 E54.18502
G1 X199.158 Y149.332 E54.2043
G1 X198.697 Y149.534 E54.22356
G1 X198.209 Y149.66 E54.24285
G1 X197.659 Y149.71 E54.26398
G1 X197.031 Y149.72 E54.28802
G1 X182.775 Y149.782 E54.8336
G1 X180.069 Y149.833 E54.93717
G1 X177.287 Y149.963 E55.04375
G1 X174.571 Y150.168 E55.14799
G1 X171.861 Y150.449 E55.25226
G1 X169.105 Y150.814 E55.35865
G1 X166.453 Y151.242 E55.46145
G1 X163.734 Y151.761 E55.56739
G1 X161.068 Y152.347 E55.67185
G1 X158.417 Y153.008 E55.77641
G1 X155.785 Y153.746 E55.88102
G1 X153.158 Y154.563 E55.9863
G1 X150.556 Y155.454 E56.09155
G1 X147.992 Y156.413 E56.19632
G1 X145.465 Y157.44 E56.3007
G1 X142.957 Y158.545 E56.40559
G1 X140.476 Y159.721 E56.51066
G1 X138.059 Y160.952 E56.61446
G1 X135.614 Y162.285 E56.72103
G1 X133.293 Y163.64 E56.82389
G1 X130.922 Y165.113 E56.93071
G1 X128.688 Y166.59 E57.0332
G1 X126.399 Y168.199 E57.14027
G1 X124.232 Y169.815 E57.24372
G1 X122.082 Y171.516 E57.34864
G1 X119.971 Y173.284 E57.45402
G1 X117.935 Y175.091 E57.5582
G1 X115.929 Y176.974 E57.66349
G1 X113.99 Y178.9 E57.76808
G1 X112.13 Y180.857 E57.8714
G1 X109.525 Y183.789 E58.0215
G1 X108.808 Y184.63 E58.06379
G1 X108.452 Y184.986 E58.08306
G1 X108.044 Y185.282 E58.10235
G1 X107.594 Y185.509 E58.12164
G1 X107.114 Y185.662 E58.14092
G1 X106.528 Y185.742 E58.16355
G1 X106.376 Y185.748 E58.16937
G1 X105.746 Y185.758 E58.19349
G1 X103.127 Y185.768 E58.29371
G1 X87.422 Y185.838 E58.89474
G1 X84.716 Y185.889 E58.99832
G1 X81.933 Y186.019 E59.10494
G1 X79.219 Y186.224 E59.2091
G1 X76.508 Y186.505 E59.3134
G1 X73.752 Y186.87 E59.41979
G1 X71.092 Y187.299 E59.52291
G1 X68.395 Y187.813 E59.62798
G1 X65.684 Y188.41 E59.73421
G1 X63.083 Y189.059 E59.8368
G1 X60.637 Y189.741 E59.93398
G1 X59.694 Y190.017 E59.97158
G1 X59.009 Y190.138 E59.9982
G1 X57.973 Y190.205 E60.03793
G1 X57.787 Y190.211 E60.04506
G1 X57.081 Y190.22 E60.07208
G1 X56.238 Y190.238 E60.10434
G1 X54.826 Y190.263 E60.15839
G1 X54.262 Y190.222 E60.18003
G1 X54.056 Y190.188 E60.18802
G1 X53.521 Y190.091 E60.20883
G1 X53.147 Y190.005 E60.22351
G1 X51.915 Y189.661 E60.27247
G1 X49.274 Y188.966 E60.37698
G1 X46.578 Y188.338 E60.48291
G1 X43.93 Y187.8 E60.58632
G1 X41.215 Y187.326 E60.6918
G1 X38.516 Y186.934 E60.79617
G1 X35.785 Y186.616 E60.90139
G1 X33.041 Y186.374 E61.00681
G1 X30.323 Y186.213 E61.11101
G1 X27.605 Y186.128 E61.21507
G1 X25.495 Y186.115 E61.29582
G1 X7.033 Y186.197 E62.00236
G1 X6.38 Y186.19 E62.02735
G1 X5.878 Y186.145 E62.04664
G1 X5.39 Y186.02 E62.06592
G1 X4.928 Y185.821 E62.08517
G1 X4.503 Y185.551 E62.10444
G1 X4.126 Y185.217 E62.12372
G1 X3.807 Y184.827 E62.143
G1 X3.553 Y184.392 E62.16228
G1 X3.371 Y183.922 E62.18156
G1 X3.266 Y183.43 E62.20082
G1 X3.24 Y182.927 E62.22009
G1 X3.294 Y182.426 E62.23938
G1 X3.426 Y181.94 E62.25865
G1 X3.671 Y181.408 E62.28106
G1 X3.926 Y180.945 E62.30129
G1 X33.03 Y129.482 E64.56389
G1 X34.375 Y127.022 E64.67118
G1 X35.602 Y124.621 E64.77437
G1 X36.795 Y122.112 E64.88069
G1 X37.891 Y119.63 E64.98452
G1 X38.932 Y117.081 E65.08989
G1 X39.889 Y114.526 E65.19431
G1 X40.78 Y111.931 E65.29931
G1 X41.603 Y109.297 E65.40491
G1 X42.327 Y106.723 E65.50724
G1 X43.003 Y104.026 E65.61365
G1 X43.601 Y101.333 E65.71922
G1 X44.112 Y98.655 E65.82355
G1 X44.551 Y95.958 E65.92812
G1 X44.91 Y93.264 E66.03213
G1 X45.197 Y90.526 E66.13749
G1 X45.408 Y87.774 E66.24312
G1 X45.539 Y85.056 E66.34725
G1 X45.592 Y82.34 E66.45121
G1 X45.568 Y79.584 E66.55669
G1 X45.467 Y76.833 E66.66204
G1 X45.29 Y74.117 E66.7662
G1 X45.036 Y71.409 E66.87029
G1 X44.699 Y68.645 E66.97685
G1 X44.296 Y65.982 E67.07992
G1 X43.798 Y63.221 E67.18729
G1 X43.247 Y60.595 E67.28997
G1 X42.614 Y57.942 E67.39435
