;FLAVOR:Marlin
;TIME:11935
;Filament used: 14.4456m
;Layer height: 0.3
;MINX:33.631
;MINY:10.97
;MINZ:0.26
;MAXX:193.298
;MAXY:192.657
;MAXZ:7.76
;Generated with Cura_SteamEngine 4.9.1
M82 ;absolute extrusion mode
;Begin Start Gcode for Dagoma DiscoEasy 200
;Sliced: 07-07-2021 20:13:35
;Initial extruder: 0

G90 ;Absolute positioning
M106 S255 ;Fan on full
G28 X Y ;Home stop X Y
G1 X100 ;Centre back during cooldown in case of oozing
M109 R90 ;Cooldown in case too hot
G28 ;Centre
G29 ;Auto-level
M104 S205 ;Pre-heat
M107 ;Fan off
G0 X100 Y5 Z0.5 ;Front centre for degunk
M109 S205 ;Wait for initial temp
M83 ;E Relative
G1 E10 F200 ;Degunk
G1 E-3 F5000 ;Retract
G0 Z3 ;Withdraw
M82 ;E absolute
G92 E0 ;E reset
G1 F6000 ;Set feedrate

;Finish Start Gcode for Dagoma DiscoEasy 200

G92 E0
G92 E0
G1 F3000 E-3.5
;LAYER_COUNT:26
;LAYER:0
M107
G0 F1285.7 X84.045 Y14.198 Z0.26
;TYPE:SKIRT
G1 F3000 E0
G1 F900 X84.385 Y13.628 E0.0254
G1 X84.704 Y13.172 E0.0467
G1 X85.084 Y12.766 E0.06798
G1 X85.519 Y12.419 E0.08927
G1 X85.999 Y12.138 E0.11056
G1 X86.515 Y11.928 E0.13188
G1 X87.055 Y11.794 E0.15317
G1 X87.74 Y11.733 E0.17949
G1 X88.185 Y11.724 E0.19652
G1 X188.728 Y10.97 E4.04436
G1 X189.445 Y10.974 E4.0718
G1 X189.999 Y11.017 E4.09307
G1 X190.542 Y11.139 E4.11437
G1 X191.062 Y11.338 E4.13567
G1 X191.548 Y11.609 E4.15697
G1 X191.99 Y11.946 E4.17824
G1 X192.379 Y12.344 E4.19954
G1 X192.708 Y12.793 E4.22084
G1 X192.968 Y13.285 E4.24214
G1 X193.156 Y13.809 E4.26344
G1 X193.266 Y14.354 E4.28472
G1 X193.298 Y14.91 E4.30603
G1 X193.249 Y15.464 E4.32732
G1 X193.121 Y16.006 E4.34863
G1 X192.814 Y16.725 E4.37855
G1 X192.348 Y17.566 E4.41534
G1 X92.732 Y190.104 E12.03979
G1 X92.336 Y190.768 E12.06938
G1 X92.018 Y191.224 E12.09065
G1 X91.637 Y191.63 E12.11196
G1 X91.202 Y191.977 E12.13325
G1 X90.722 Y192.258 E12.15454
G1 X90.207 Y192.468 E12.17582
G1 X89.666 Y192.602 E12.19715
G1 X89.113 Y192.657 E12.21842
G1 X88.557 Y192.632 E12.23972
G1 X88.01 Y192.527 E12.26104
G1 X87.484 Y192.346 E12.28232
G1 X86.99 Y192.091 E12.3036
G1 X86.537 Y191.768 E12.32489
G1 X86.135 Y191.383 E12.34619
G1 X85.738 Y190.862 E12.37126
G1 X85.497 Y190.48 E12.38855
G1 X34.51 Y105.154 E16.19251
G1 X34.144 Y104.519 E16.22055
G1 X33.901 Y104.018 E16.24186
G1 X33.733 Y103.488 E16.26314
G1 X33.642 Y102.939 E16.28444
G1 X33.631 Y102.383 E16.30572
G1 X33.7 Y101.83 E16.32705
G1 X33.847 Y101.294 E16.34832
G1 X34.093 Y100.739 E16.37155
G1 X34.315 Y100.333 E16.38926
G1 X84.045 Y14.198 E20.19555
G0 F1285.7 X84.32 Y14.421
G1 F900 X84.686 Y13.807 E20.2229
G1 X84.991 Y13.373 E20.2432
G1 X85.358 Y12.99 E20.2635
G1 X85.779 Y12.666 E20.28383
G1 X86.243 Y12.409 E20.30413
G1 X86.74 Y12.225 E20.32441
G1 X87.26 Y12.117 E20.34474
G1 X87.835 Y12.081 E20.36679
G1 X88.188 Y12.074 E20.3803
G1 X188.726 Y11.32 E24.22795
G1 X189.443 Y11.324 E24.25539
G1 X189.972 Y11.367 E24.2757
G1 X190.488 Y11.489 E24.29599
G1 X190.98 Y11.687 E24.31629
G1 X191.437 Y11.956 E24.33658
G1 X191.849 Y12.292 E24.35693
G1 X192.205 Y12.685 E24.37722
G1 X192.499 Y13.127 E24.39753
G1 X192.722 Y13.608 E24.41782
G1 X192.871 Y14.117 E24.43812
G1 X192.942 Y14.643 E24.45843
G1 X192.933 Y15.174 E24.47876
G1 X192.844 Y15.697 E24.49906
G1 X192.678 Y16.201 E24.51937
G1 X192.507 Y16.556 E24.53445
G1 X192.045 Y17.391 E24.57097
G1 X92.431 Y189.925 E32.19524
G1 X92.035 Y190.589 E32.22483
G1 X91.73 Y191.023 E32.24513
G1 X91.363 Y191.406 E32.26543
G1 X90.943 Y191.73 E32.28573
G1 X90.478 Y191.987 E32.30606
G1 X89.981 Y192.171 E32.32634
G1 X89.461 Y192.279 E32.34667
G1 X88.931 Y192.307 E32.36698
G1 X88.403 Y192.256 E32.38728
G1 X87.889 Y192.126 E32.40757
G1 X87.4 Y191.92 E32.42788
G1 X86.947 Y191.643 E32.4482
G1 X86.541 Y191.301 E32.46851
G1 X86.191 Y190.902 E32.48883
G1 X85.848 Y190.383 E32.51263
G1 X34.841 Y105.027 E36.31797
G1 X34.447 Y104.344 E36.34815
G1 X34.217 Y103.866 E36.36845
G1 X34.062 Y103.358 E36.38877
G1 X33.985 Y102.833 E36.40908
G1 X33.987 Y102.303 E36.42936
G1 X34.069 Y101.778 E36.4497
G1 X34.229 Y101.272 E36.47001
G1 X34.571 Y100.592 E36.49913
G1 X84.32 Y14.421 E40.30698
G0 F1285.7 X84.646 Y14.557
G1 F900 X84.986 Y13.987 E40.33238
G1 X85.278 Y13.576 E40.35168
G1 X85.63 Y13.216 E40.37094
G1 X86.036 Y12.917 E40.39024
G1 X86.483 Y12.686 E40.4095
G1 X86.961 Y12.528 E40.42876
G1 X87.579 Y12.441 E40.45265
G1 X88.153 Y12.425 E40.47462
G1 X188.724 Y11.67 E44.32353
G1 X189.441 Y11.674 E44.35097
G1 X189.942 Y11.717 E44.37022
G1 X190.431 Y11.838 E44.38949
G1 X190.895 Y12.036 E44.4088
G1 X191.321 Y12.304 E44.42806
G1 X191.699 Y12.636 E44.44731
G1 X192.021 Y13.023 E44.46658
G1 X192.277 Y13.457 E44.48586
G1 X192.461 Y13.926 E44.50514
G1 X192.569 Y14.418 E44.52442
G1 X192.597 Y14.921 E44.5437
G1 X192.546 Y15.422 E44.56297
G1 X192.416 Y15.908 E44.58223
G1 X192.201 Y16.386 E44.60228
G1 X191.742 Y17.216 E44.63858
G1 X92.131 Y189.745 E52.26264
G1 X91.735 Y190.409 E52.29222
G1 X91.443 Y190.82 E52.31152
G1 X91.091 Y191.179 E52.33076
G1 X90.686 Y191.479 E52.35005
G1 X90.238 Y191.71 E52.36934
G1 X89.76 Y191.868 E52.3886
G1 X89.263 Y191.948 E52.40787
G1 X88.759 Y191.948 E52.42715
G1 X88.262 Y191.869 E52.44641
G1 X87.783 Y191.712 E52.4657
G1 X87.336 Y191.482 E52.48494
G1 X86.93 Y191.184 E52.50422
G1 X86.577 Y190.825 E52.52348
G1 X86.144 Y190.195 E52.55274
G1 X86.098 Y190.121 E52.55607
G1 X35.116 Y104.804 E56.35964
G1 X34.75 Y104.169 E56.38769
G1 X34.534 Y103.715 E56.40693
G1 X34.393 Y103.231 E56.42622
G1 X34.329 Y102.732 E56.44547
G1 X34.346 Y102.228 E56.46477
G1 X34.442 Y101.734 E56.48403
G1 X34.709 Y101.072 E56.51135
G1 X34.921 Y100.683 E56.5283
G1 X84.646 Y14.557 E60.3342
G1 F3000 E56.8342
;MESH:support_half_hex_24.stl
G0 F1285.7 X86.84 Y15.828
G0 X87.715 Y16.331
G0 X89.149 Y187.509
;TYPE:WALL-INNER
G1 F3000 E60.3342
G1 F900 X89.001 Y187.766 E60.34555
G1 X88.849 Y187.512 E60.35199
G1 X38.098 Y102.58 E64.13837
G1 X88.012 Y16.126 E67.95875
G1 X188.231 Y15.373 E71.7942
G1 X188.535 Y15.371 E71.80583
G1 X188.383 Y15.635 E71.81243
G1 X89.149 Y187.509 E79.40757
G0 F1285.7 X89.154 Y188.151
;TYPE:WALL-OUTER
G1 F900 X89.006 Y188.408 E79.41892
G1 X88.854 Y188.154 E79.42536
G1 X37.721 Y102.584 E83.2402
G1 X87.824 Y15.802 E87.07507
G1 X188.796 Y15.044 E90.93933
G1 X189.1 Y15.042 E90.95096
G1 X188.948 Y15.306 E90.95757
G1 X89.154 Y188.151 E98.59559
G0 F1285.7 X89.054 Y188.324
G0 X89.003 Y188.011
G0 X88.996 Y187.093
;TYPE:SKIN
G1 F900 X38.493 Y102.577 E102.36344
G1 X88.209 Y16.464 E106.16874
G1 X187.943 Y15.715 E109.98562
G1 X88.996 Y187.093 E117.55882
G0 F1285.7 X89.096 Y186.606
G1 F900 X88.579 Y186.089 E117.5868
G1 X88.517 Y186.027
G0 F1285.7 X89.277 Y186.292
G1 F900 X87.844 Y184.859 E117.66435
G1 X87.782 Y184.797
G0 F1285.7 X87.109 Y183.629
G1 F900 X89.458 Y185.978 E117.79148
G0 F1285.7 X89.639 Y185.664
G1 F900 X86.374 Y182.399 E117.96819
G1 X86.312 Y182.337
G0 F1285.7 X85.639 Y181.169
G1 F900 X89.82 Y185.351 E118.1945
G0 F1285.7 X90.001 Y185.037
G1 F900 X84.905 Y179.94 E118.47033
G1 X84.843 Y179.878
G0 F1285.7 X84.169 Y178.709
G1 F900 X90.182 Y184.723 E118.79579
G0 F1285.7 X90.364 Y184.409
G1 F900 X83.435 Y177.48 E119.17079
G1 X83.373 Y177.418
G0 F1285.7 X82.7 Y176.25
G1 F900 X90.545 Y184.095 E119.59537
G0 F1285.7 X90.726 Y183.782
G1 F900 X81.964 Y175.02 E120.06958
G1 X81.902 Y174.958
G0 F1285.7 X81.23 Y173.79
G1 F900 X90.907 Y183.468 E120.59334
G0 F1285.7 X91.088 Y183.154
G1 F900 X80.494 Y172.56 E121.1667
G1 X80.432 Y172.498
G0 F1285.7 X79.76 Y171.33
G1 F900 X91.269 Y182.84 E121.78961
G0 F1285.7 X91.451 Y182.526
G1 F900 X79.025 Y170.1 E122.46212
G1 X78.963 Y170.038
G0 F1285.7 X78.29 Y168.87
G1 F900 X91.632 Y182.212 E123.18421
G0 F1285.7 X91.813 Y181.898
G1 F900 X77.555 Y167.64 E123.95587
G1 X77.493 Y167.578
G0 F1285.7 X76.82 Y166.411
G1 F900 X91.994 Y181.585 E124.77711
G0 F1285.7 X92.175 Y181.271
G1 F900 X76.085 Y165.18 E125.64795
G1 X76.023 Y165.118
G0 F1285.7 X75.35 Y163.951
G1 F900 X92.357 Y180.957 E126.56836
G0 F1285.7 X92.538 Y180.643
G1 F900 X74.616 Y162.721 E127.53832
G1 X74.554 Y162.659
G0 F1285.7 X73.88 Y161.491
G1 F900 X92.719 Y180.329 E128.55788
G0 F1285.7 X92.9 Y180.015
G1 F900 X73.145 Y160.261 E129.62702
G1 X73.083 Y160.199
G0 F1285.7 X72.41 Y159.031
G1 F900 X93.082 Y179.702 E130.74579
G0 F1285.7 X93.263 Y179.388
G1 F900 X71.675 Y157.801 E131.91413
G1 X71.613 Y157.739
G0 F1285.7 X70.941 Y156.571
G1 F900 X93.444 Y179.074 E133.13202
G0 F1285.7 X93.625 Y178.76
G1 F900 X70.205 Y155.341 E134.39952
G1 X70.143 Y155.279
G0 F1285.7 X69.471 Y154.111
G1 F900 X93.806 Y178.446 E135.71656
G0 F1285.7 X93.987 Y178.133
G1 F900 X68.736 Y152.882 E137.08318
G1 X68.674 Y152.82
G0 F1285.7 X68.001 Y151.651
G1 F900 X94.168 Y177.819 E138.49939
G0 F1285.7 X94.349 Y177.505
G1 F900 X67.266 Y150.422 E139.96516
G1 X67.204 Y150.36
G0 F1285.7 X66.53 Y149.191
G1 F900 X94.53 Y177.191 E141.48056
G0 F1285.7 X94.712 Y176.878
G1 F900 X65.796 Y147.962 E143.04553
G1 X65.734 Y147.9
G0 F1285.7 X65.061 Y146.732
G1 F900 X94.893 Y176.564 E144.66007
G0 F1285.7 X95.074 Y176.25
G1 F900 X64.326 Y145.502 E146.32419
G1 X64.264 Y145.44
G0 F1285.7 X63.591 Y144.272
G1 F900 X95.255 Y175.936 E148.03789
G0 F1285.7 X95.436 Y175.622
G1 F900 X62.856 Y143.042 E149.80116
G1 X62.794 Y142.98
G0 F1285.7 X62.121 Y141.812
G1 F900 X95.618 Y175.309 E151.61406
G0 F1285.7 X95.799 Y174.995
G1 F900 X61.386 Y140.582 E153.47654
G1 X61.324 Y140.52
G0 F1285.7 X60.652 Y139.353
G1 F900 X95.98 Y174.681 E155.38853
G0 F1285.7 X96.161 Y174.367
G1 F900 X59.916 Y138.122 E157.35016
G1 X59.854 Y138.06
G0 F1285.7 X59.182 Y136.893
G1 F900 X96.343 Y174.054 E159.36136
G0 F1285.7 X96.524 Y173.74
G1 F900 X58.446 Y135.662 E161.42219
G1 X58.384 Y135.6
G0 F1285.7 X57.711 Y134.433
G1 F900 X96.705 Y173.426 E163.53257
G0 F1285.7 X96.886 Y173.112
G1 F900 X56.977 Y133.203 E165.69249
G1 X56.915 Y133.141
G0 F1285.7 X56.241 Y131.972
G1 F900 X97.067 Y172.798 E167.90205
G0 F1285.7 X97.249 Y172.485
G1 F900 X55.507 Y130.743 E170.16118
G1 X55.445 Y130.681
G0 F1285.7 X54.772 Y129.513
G1 F900 X97.43 Y172.171 E172.46988
G0 F1285.7 X97.611 Y171.857
G1 F900 X54.037 Y128.283 E174.82816
G1 X53.975 Y128.221
G0 F1285.7 X53.302 Y127.053
G1 F900 X97.792 Y171.543 E177.23602
G0 F1285.7 X97.973 Y171.229
G1 F900 X52.567 Y125.823 E179.69345
G1 X52.505 Y125.761
G0 F1285.7 X51.832 Y124.593
G1 F900 X98.154 Y170.916 E182.20048
G0 F1285.7 X98.335 Y170.602
G1 F900 X51.097 Y123.363 E184.75709
G1 X51.035 Y123.301
G0 F1285.7 X50.362 Y122.133
G1 F900 X98.516 Y170.288 E187.36327
G0 F1285.7 X98.697 Y169.974
G1 F900 X49.627 Y120.903 E190.01903
G1 X49.565 Y120.841
G0 F1285.7 X48.892 Y119.674
G1 F900 X98.879 Y169.661 E192.72439
G0 F1285.7 X99.06 Y169.347
G1 F900 X48.157 Y118.443 E195.47935
G1 X48.095 Y118.381
G0 F1285.7 X47.422 Y117.214
G1 F900 X99.241 Y169.033 E198.28386
G0 F1285.7 X99.422 Y168.719
G1 F900 X46.688 Y115.984 E201.13792
G1 X46.626 Y115.922
G0 F1285.7 X45.952 Y114.754
G1 F900 X99.603 Y168.405 E204.04158
G0 F1285.7 X99.785 Y168.092
G1 F900 X45.218 Y113.524 E206.99485
G1 X45.156 Y113.462
G0 F1285.7 X44.482 Y112.294
G1 F900 X99.966 Y167.778 E209.99771
G0 F1285.7 X100.147 Y167.464
G1 F900 X43.747 Y111.064 E213.05015
G1 X43.685 Y111.002
G0 F1285.7 X43.013 Y109.834
G1 F900 X100.328 Y167.15 E216.15214
G0 F1285.7 X100.51 Y166.836
G1 F900 X42.277 Y108.604 E219.30375
G1 X42.215 Y108.542
G0 F1285.7 X41.543 Y107.374
G1 F900 X100.691 Y166.522 E222.50492
G0 F1285.7 X100.872 Y166.208
G1 F900 X40.808 Y106.145 E225.75563
G1 X40.746 Y106.083
G0 F1285.7 X40.073 Y104.914
G1 F900 X101.053 Y165.895 E229.05598
G0 F1285.7 X101.234 Y165.581
G1 F900 X39.338 Y103.685 E232.40587
G1 X39.276 Y103.623
G0 F1285.7 X38.692 Y102.543
G1 F900 X101.416 Y165.267 E235.80057
G0 F1285.7 X101.597 Y164.953
G1 F900 X38.873 Y102.23 E239.19524
G0 F1285.7 X39.054 Y101.916
G1 F900 X101.778 Y164.639 E242.58992
G0 F1285.7 X101.959 Y164.325
G1 F900 X39.235 Y101.602 E245.9846
G0 F1285.7 X39.416 Y101.288
G1 F900 X102.14 Y164.012 E249.3793
G0 F1285.7 X102.321 Y163.698
G1 F900 X39.597 Y100.974 E252.774
G0 F1285.7 X39.779 Y100.661
G1 F900 X102.502 Y163.384 E256.16865
G0 F1285.7 X102.683 Y163.07
G1 F900 X39.96 Y100.347 E259.5633
G0 F1285.7 X40.141 Y100.033
G1 F900 X102.864 Y162.756 E262.95795
G0 F1285.7 X103.046 Y162.443
G1 F900 X40.322 Y99.719 E266.35265
G0 F1285.7 X40.504 Y99.406
G1 F900 X103.227 Y162.129 E269.7473
G0 F1285.7 X103.408 Y161.815
G1 F900 X40.685 Y99.092 E273.14195
G0 F1285.7 X40.866 Y98.778
G1 F900 X103.589 Y161.501 E276.5366
G0 F1285.7 X103.771 Y161.188
G1 F900 X41.047 Y98.464 E279.9313
G0 F1285.7 X41.228 Y98.15
G1 F900 X103.952 Y160.874 E283.326
G0 F1285.7 X104.133 Y160.56
G1 F900 X41.41 Y97.837 E286.72065
G0 F1285.7 X41.591 Y97.523
G1 F900 X104.314 Y160.246 E290.1153
G0 F1285.7 X104.495 Y159.932
G1 F900 X41.772 Y97.209 E293.50995
G0 F1285.7 X41.953 Y96.895
G1 F900 X104.677 Y159.619 E296.90465
G0 F1285.7 X104.858 Y159.305
G1 F900 X42.134 Y96.581 E300.29935
G0 F1285.7 X42.316 Y96.268
G1 F900 X105.039 Y158.991 E303.694
G0 F1285.7 X105.22 Y158.677
G1 F900 X42.497 Y95.954 E307.08865
G0 F1285.7 X42.678 Y95.64
G1 F900 X105.402 Y158.364 E310.48335
G0 F1285.7 X105.583 Y158.05
G1 F900 X42.859 Y95.326 E313.87806
G0 F1285.7 X43.04 Y95.013
G1 F900 X105.764 Y157.736 E317.27273
G0 F1285.7 X105.945 Y157.422
G1 F900 X43.221 Y94.699 E320.66741
G0 F1285.7 X43.402 Y94.385
G1 F900 X106.126 Y157.108 E324.06208
G0 F1285.7 X106.307 Y156.795
G1 F900 X43.583 Y94.071 E327.45679
G0 F1285.7 X43.764 Y93.757
G1 F900 X106.488 Y156.481 E330.85149
G0 F1285.7 X106.669 Y156.167
G1 F900 X43.946 Y93.444 E334.24614
G0 F1285.7 X44.127 Y93.13
G1 F900 X106.85 Y155.853 E337.64079
G0 F1285.7 X107.031 Y155.539
G1 F900 X44.308 Y92.816 E341.03544
G0 F1285.7 X44.489 Y92.502
G1 F900 X107.213 Y155.226 E344.43014
G0 F1285.7 X107.394 Y154.912
G1 F900 X44.67 Y92.188 E347.82484
G0 F1285.7 X44.852 Y91.875
G1 F900 X107.575 Y154.598 E351.21949
G0 F1285.7 X107.756 Y154.284
G1 F900 X45.033 Y91.561 E354.61414
G0 F1285.7 X45.214 Y91.247
G1 F900 X107.938 Y153.971 E358.00884
G0 F1285.7 X108.119 Y153.657
G1 F900 X45.395 Y90.933 E361.40354
G0 F1285.7 X45.577 Y90.619
G1 F900 X108.3 Y153.343 E364.79822
G0 F1285.7 X108.481 Y153.029
G1 F900 X45.758 Y90.306 E368.19287
G0 F1285.7 X45.939 Y89.992
G1 F900 X108.662 Y152.715 E371.58752
G0 F1285.7 X108.844 Y152.402
G1 F900 X46.12 Y89.678 E374.98222
G0 F1285.7 X46.301 Y89.364
G1 F900 X109.025 Y152.088 E378.37692
G0 F1285.7 X109.206 Y151.774
G1 F900 X46.483 Y89.05 E381.7716
G0 F1285.7 X46.664 Y88.736
G1 F900 X109.387 Y151.46 E385.16627
G0 F1285.7 X109.569 Y151.146
G1 F900 X46.845 Y88.422 E388.56098
G0 F1285.7 X47.026 Y88.109
G1 F900 X109.75 Y150.832 E391.95565
G0 F1285.7 X109.931 Y150.518
G1 F900 X47.207 Y87.795 E395.35033
G0 F1285.7 X47.388 Y87.481
G1 F900 X110.112 Y150.205 E398.74503
G0 F1285.7 X110.293 Y149.891
G1 F900 X47.569 Y87.167 E402.13973
G0 F1285.7 X47.75 Y86.853
G1 F900 X110.474 Y149.577 E405.53444
G0 F1285.7 X110.655 Y149.263
G1 F900 X47.931 Y86.539 E408.92914
G0 F1285.7 X48.113 Y86.226
G1 F900 X110.836 Y148.949 E412.32379
G0 F1285.7 X111.017 Y148.635
G1 F900 X48.294 Y85.912 E415.71844
G0 F1285.7 X48.475 Y85.598
G1 F900 X111.199 Y148.322 E419.11314
G0 F1285.7 X111.38 Y148.008
G1 F900 X48.656 Y85.284 E422.50784
G0 F1285.7 X48.837 Y84.97
G1 F900 X111.561 Y147.694 E425.90255
G0 F1285.7 X111.742 Y147.38
G1 F900 X49.019 Y84.657 E429.29719
G0 F1285.7 X49.2 Y84.343
G1 F900 X111.923 Y147.066 E432.69184
G0 F1285.7 X112.105 Y146.753
G1 F900 X49.381 Y84.029 E436.08655
G0 F1285.7 X49.562 Y83.715
G1 F900 X112.286 Y146.439 E439.48125
G0 F1285.7 X112.467 Y146.125
G1 F900 X49.744 Y83.402 E442.8759
G0 F1285.7 X49.925 Y83.088
G1 F900 X112.648 Y145.811 E446.27055
G0 F1285.7 X112.83 Y145.498
G1 F900 X50.106 Y82.774 E449.66525
G0 F1285.7 X50.287 Y82.46
G1 F900 X113.011 Y145.184 E453.05995
G0 F1285.7 X113.192 Y144.87
G1 F900 X50.468 Y82.146 E456.45465
G0 F1285.7 X50.65 Y81.833
G1 F900 X113.373 Y144.556 E459.8493
G0 F1285.7 X113.554 Y144.242
G1 F900 X50.831 Y81.519 E463.24395
G0 F1285.7 X51.012 Y81.205
G1 F900 X113.736 Y143.929 E466.63865
G0 F1285.7 X113.917 Y143.615
G1 F900 X51.193 Y80.891 E470.03336
G0 F1285.7 X51.374 Y80.577
G1 F900 X114.098 Y143.301 E473.42806
G0 F1285.7 X114.279 Y142.987
