;FLAVOR:Marlin
;TIME:12787
;Filament used: 10.1045m
;Layer height: 0.2
;MINX:5.144
;MINY:21.945
;MINZ:0.26
;MAXX:181.571
;MAXY:198.383
;MAXZ:7.66
;Generated with Cura_SteamEngine 4.9.1
M82 ;absolute extrusion mode
;Begin Start Gcode for Dagoma DiscoEasy 200
;Sliced: 13-07-2021 17:18:24
;Initial extruder: 0

G90 ;Absolute positioning
M106 S255 ;Fan on full
G28 X Y ;Home stop X Y
G1 X100 ;Centre back during cooldown in case of oozing
M109 R90 ;Cooldown in case too hot
G28 ;Centre
G29 ;Auto-level
M104 S205 ;Pre-heat
M107 ;Fan off
G0 X100 Y5 Z0.5 ;Front centre for degunk
M109 S205 ;Wait for initial temp
M83 ;E Relative
G1 E10 F200 ;Degunk
G1 E-3 F5000 ;Retract
G0 Z3 ;Withdraw
M82 ;E absolute
G92 E0 ;E reset
G1 F6000 ;Set feedrate

;Finish Start Gcode for Dagoma DiscoEasy 200

G92 E0
G92 E0
G1 F3000 E-3.5
;LAYER_COUNT:38
;LAYER:0
M107
G0 F1285.7 X33.042 Y23.724 Z0.26
;TYPE:SKIRT
G1 F3000 E0
G1 F900 X33.375 Y23.279 E0.02127
G1 X33.769 Y22.886 E0.04257
G1 X34.216 Y22.554 E0.06388
G1 X34.705 Y22.289 E0.08516
G1 X35.227 Y22.097 E0.10645
G1 X35.771 Y21.981 E0.12773
G1 X36.327 Y21.945 E0.14905
G1 X36.881 Y21.989 E0.17032
G1 X37.424 Y22.111 E0.19162
G1 X37.944 Y22.31 E0.21293
G1 X38.429 Y22.582 E0.23421
G1 X38.941 Y22.984 E0.25912
G1 X39.346 Y23.371 E0.28056
G1 X180.015 Y164.04 E7.89374
G1 X180.479 Y164.517 E7.91921
G1 X180.837 Y164.943 E7.94051
G1 X181.131 Y165.415 E7.96179
G1 X181.354 Y165.925 E7.98309
G1 X181.501 Y166.462 E8.0044
G1 X181.571 Y167.014 E8.02569
G1 X181.56 Y167.57 E8.04697
G1 X181.47 Y168.119 E8.06826
G1 X181.302 Y168.65 E8.08958
G1 X181.06 Y169.151 E8.11087
G1 X180.749 Y169.612 E8.13215
G1 X180.375 Y170.024 E8.15344
G1 X179.946 Y170.378 E8.17473
G1 X179.47 Y170.667 E8.19604
G1 X178.869 Y170.914 E8.22091
G1 X178.333 Y171.074 E8.24231
G1 X81.347 Y198.088 E12.09521
G1 X80.705 Y198.257 E12.12062
G1 X80.159 Y198.36 E12.14188
G1 X79.603 Y198.383 E12.16317
G1 X79.049 Y198.327 E12.18448
G1 X78.509 Y198.191 E12.2058
G1 X77.995 Y197.98 E12.22706
G1 X77.515 Y197.697 E12.24838
G1 X77.033 Y197.303 E12.27221
G1 X76.274 Y196.572 E12.31253
G1 X6.744 Y127.04 E16.07564
G1 X6.237 Y126.519 E16.10346
G1 X5.878 Y126.094 E16.12475
G1 X5.585 Y125.621 E16.14605
G1 X5.362 Y125.112 E16.16731
G1 X5.214 Y124.575 E16.18863
G1 X5.144 Y124.023 E16.20992
G1 X5.155 Y123.467 E16.23121
G1 X5.262 Y122.849 E16.25521
G1 X5.521 Y121.847 E16.29481
G1 X32.391 Y25.385 E20.12691
G1 X32.581 Y24.734 E20.15287
G1 X32.775 Y24.213 E20.17414
G1 X33.042 Y23.724 E20.19546
G0 F1285.7 X33.363 Y23.872
G1 F900 X33.688 Y23.454 E20.21573
G1 X34.073 Y23.088 E20.23605
G1 X34.509 Y22.785 E20.25637
G1 X34.985 Y22.55 E20.27669
G1 X35.49 Y22.389 E20.29697
G1 X36.015 Y22.307 E20.31731
G1 X36.545 Y22.303 E20.33759
G1 X37.07 Y22.38 E20.3579
G1 X37.578 Y22.534 E20.37821
G1 X38.057 Y22.763 E20.39853
G1 X38.496 Y23.062 E20.41886
G1 X38.912 Y23.436 E20.44027
G1 X39.128 Y23.647 E20.45182
G1 X179.764 Y164.284 E28.06325
G1 X180.228 Y164.761 E28.08872
G1 X180.568 Y165.168 E28.10901
G1 X180.843 Y165.622 E28.12932
G1 X181.048 Y166.112 E28.14965
G1 X181.176 Y166.627 E28.16996
G1 X181.225 Y167.155 E28.19025
G1 X181.195 Y167.685 E28.21057
G1 X181.086 Y168.204 E28.23086
G1 X180.899 Y168.701 E28.25118
G1 X180.641 Y169.164 E28.27147
G1 X180.315 Y169.583 E28.29179
G1 X179.931 Y169.949 E28.31209
G1 X179.496 Y170.253 E28.3324
G1 X179.02 Y170.488 E28.35271
G1 X178.495 Y170.663 E28.37389
G1 X178.214 Y170.744 E28.38508
G1 X81.258 Y197.75 E32.23679
G1 X80.616 Y197.919 E32.26219
G1 X80.094 Y198.015 E32.28251
G1 X79.564 Y198.032 E32.3028
G1 X79.037 Y197.968 E32.32312
G1 X78.526 Y197.827 E32.3434
G1 X78.041 Y197.61 E32.36374
G1 X77.595 Y197.323 E32.38403
G1 X77.276 Y197.051 E32.40008
G1 X76.521 Y196.325 E32.44016
G1 X6.995 Y126.796 E36.20308
G1 X6.488 Y126.275 E36.2309
G1 X6.147 Y125.868 E36.25122
G1 X5.872 Y125.415 E36.2715
G1 X5.668 Y124.925 E36.29181
G1 X5.539 Y124.41 E36.31213
G1 X5.49 Y123.882 E36.33242
G1 X5.52 Y123.352 E36.35274
G1 X5.601 Y122.936 E36.36896
G1 X5.858 Y121.941 E36.40828
G1 X32.727 Y25.483 E40.24023
G1 X32.917 Y24.832 E40.26618
G1 X33.104 Y24.336 E40.28646
G1 X33.363 Y23.872 E40.3068
G0 F1285.7 X33.683 Y24.023
G1 F900 X34 Y23.632 E40.32606
G1 X34.375 Y23.296 E40.34533
G1 X34.799 Y23.023 E40.36463
G1 X35.26 Y22.821 E40.38389
G1 X35.747 Y22.694 E40.40315
G1 X36.248 Y22.645 E40.42242
G1 X36.751 Y22.677 E40.44171
G1 X37.242 Y22.788 E40.46097
G1 X37.71 Y22.975 E40.48026
G1 X38.142 Y23.233 E40.49951
G1 X38.61 Y23.631 E40.52303
G1 X38.856 Y23.871 E40.53618
G1 X179.513 Y164.528 E48.14871
G1 X179.977 Y165.005 E48.17418
G1 X180.298 Y165.393 E48.19345
G1 X180.554 Y165.826 E48.2127
G1 X180.739 Y166.295 E48.232
G1 X180.846 Y166.787 E48.25126
G1 X180.875 Y167.29 E48.27055
G1 X180.824 Y167.791 E48.28982
G1 X180.694 Y168.277 E48.30907
G1 X180.489 Y168.737 E48.32834
G1 X180.214 Y169.159 E48.34762
G1 X179.876 Y169.532 E48.36688
G1 X179.483 Y169.847 E48.38616
G1 X179.045 Y170.096 E48.40544
G1 X178.484 Y170.301 E48.4283
G1 X178.12 Y170.407 E48.44281
G1 X81.169 Y197.411 E52.29431
G1 X80.527 Y197.58 E52.31971
G1 X80.032 Y197.67 E52.33897
G1 X79.528 Y197.679 E52.35826
G1 X79.029 Y197.609 E52.37754
G1 X78.548 Y197.461 E52.3968
G1 X78.096 Y197.239 E52.41607
G1 X77.518 Y196.798 E52.4439
G1 X76.769 Y196.077 E52.48368
G1 X7.246 Y126.552 E56.24641
G1 X6.739 Y126.031 E56.27423
G1 X6.417 Y125.644 E56.2935
G1 X6.161 Y125.21 E56.31278
G1 X5.977 Y124.741 E56.33206
G1 X5.869 Y124.25 E56.3513
G1 X5.84 Y123.747 E56.37058
G1 X5.94 Y123.024 E56.39851
G1 X6.195 Y122.035 E56.4376
G1 X33.063 Y25.581 E60.26938
G1 X33.253 Y24.93 E60.29534
G1 X33.432 Y24.46 E60.31458
G1 X33.683 Y24.023 E60.33387
G1 F3000 E56.83387
;MESH:support_half_hex_33.stl
G0 F1285.7 X35.434 Y26.514
G0 X36.567 Y26.828
G0 X40.036 Y40.043
G0 X40.061 Y40.139
;TYPE:WALL-INNER
G1 F3000 E60.33387
G1 F900 X19.918 Y112.458 E63.20683
G1 X20.351 Y112.891 E63.23027
G1 X92.38 Y92.828 E66.09172
G1 X92.668 Y92.748 E66.10316
G1 X92.457 Y92.537 E66.10964
G1 X90.328 Y90.404 E66.22497
G1 X40.061 Y40.139 E68.94543
G0 F1285.7 X40.036 Y40.043
G0 X110.747 Y110.754
G0 X110.772 Y110.85
G1 F900 X90.628 Y183.169 E71.81841
G1 X91.061 Y183.602 E71.84184
G1 X163.091 Y163.539 E74.70333
G1 X163.379 Y163.459 E74.71477
G1 X163.168 Y163.248 E74.72125
G1 X161.039 Y161.115 E74.83659
G1 X110.772 Y110.85 E77.55705
G0 F1285.7 X110.747 Y110.754
G0 X176.398 Y166.942
G0 X176.423 Y167.038
G1 F900 X79.86 Y193.936 E81.39316
G1 X9.584 Y123.659 E85.19661
G1 X36.482 Y27.097 E89.03268
G1 X36.562 Y26.809 E89.04412
G1 X36.773 Y27.02 E89.05061
G1 X176.5 Y166.747 E96.61281
G1 X176.711 Y166.958 E96.62423
G1 X176.423 Y167.038 E96.63073
G0 F1285.7 X177.047 Y167.202
;TYPE:WALL-OUTER
G1 F900 X79.764 Y194.3 E100.49543
G1 X9.22 Y123.755 E104.31339
G1 X36.318 Y26.473 E108.17806
G1 X36.398 Y26.185 E108.1895
G1 X36.609 Y26.396 E108.19599
G1 X177.124 Y166.911 E115.80084
G1 X177.335 Y167.122 E115.81226
G1 X177.047 Y167.202 E115.81875
G0 F1285.7 X176.855 Y167.255
G0 X176.615 Y166.933
G0 X110.762 Y110.812
G0 X110.936 Y111.474
G1 F900 X91.019 Y182.974 E118.6592
G1 X90.992 Y183.073 E118.66313
G1 X91.157 Y183.238 E118.67206
G1 X91.256 Y183.211 E118.67599
G1 X162.468 Y163.375 E121.50498
G1 X162.756 Y163.295 E121.51642
G1 X162.545 Y163.084 E121.52291
G1 X160.809 Y161.345 E121.61695
G1 X110.936 Y111.474 E124.31608
G0 F1285.7 X110.883 Y111.666
G0 X110.474 Y111.552
G0 X92.706 Y92.758
G0 X40.051 Y40.101
G0 X40.225 Y40.763
G1 F900 X20.309 Y112.263 E127.15652
G1 X20.282 Y112.362 E127.16045
G1 X20.447 Y112.527 E127.16938
G1 X20.546 Y112.5 E127.1733
G1 X91.757 Y92.664 E130.00227
G1 X92.045 Y92.584 E130.01371
G1 X91.834 Y92.373 E130.02019
G1 X90.098 Y90.634 E130.11423
G1 X40.225 Y40.763 E132.81336
G0 F1285.7 X40.172 Y40.955
G0 X39.763 Y40.841
G0 X39.89 Y39.486
;TYPE:SKIN
G1 F900 X19.537 Y112.558 E135.71624
G1 X20.251 Y113.272 E135.75488
G1 X93.319 Y92.919 E138.65762
G1 X90.569 Y90.163 E138.80661
G1 X39.89 Y39.486 E141.54937
G0 F1285.7 X36.733 Y27.462
G1 F900 X176.058 Y166.787 E149.08982
G1 X79.961 Y193.555 E152.90741
G1 X9.965 Y123.558 E156.69571
G1 X36.733 Y27.462 E160.51327
G0 F1285.7 X110.601 Y110.197
G1 F900 X90.247 Y183.269 E163.41616
G1 X90.961 Y183.983 E163.4548
G1 X164.03 Y163.63 E166.35757
G1 X161.28 Y160.874 E166.50657
G1 X110.601 Y110.197 E169.24932
G0 F1285.7 X80.023 Y193.373
G1 F900 X10.145 Y123.494 E173.03124
G0 F1285.7 X10.253 Y123.107
G1 F900 X80.41 Y193.265 E176.82825
G0 F1285.7 X80.798 Y193.157
G1 F900 X10.361 Y122.72 E180.64039
G0 F1285.7 X10.468 Y122.333
G1 F900 X81.185 Y193.049 E184.46766
G0 F1285.7 X81.572 Y192.941
G1 F900 X10.576 Y121.946 E188.31002
G0 F1285.7 X10.684 Y121.558
G1 F900 X81.959 Y192.833 E192.16752
G0 F1285.7 X82.346 Y192.726
G1 F900 X10.792 Y121.171 E196.04014
G0 F1285.7 X10.9 Y120.784
G1 F900 X82.733 Y192.618 E199.92786
G0 F1285.7 X83.121 Y192.51
G1 F900 X11.008 Y120.397 E203.83071
G0 F1285.7 X11.115 Y120.01
G1 F900 X83.507 Y192.402 E207.74865
G0 F1285.7 X83.895 Y192.294
G1 F900 X11.223 Y119.623 E211.68173
G0 F1285.7 X11.331 Y119.235
G1 F900 X84.282 Y192.186 E215.62993
G0 F1285.7 X84.669 Y192.079
G1 F900 X11.439 Y118.849 E219.59323
G0 F1285.7 X11.547 Y118.461
G1 F900 X85.056 Y191.971 E223.57166
G0 F1285.7 X85.443 Y191.863
G1 F900 X11.655 Y118.074 E227.56519
G0 F1285.7 X11.762 Y117.687
G1 F900 X85.83 Y191.755 E231.57384
G0 F1285.7 X86.218 Y191.647
G1 F900 X11.87 Y117.3 E235.59762
G0 F1285.7 X11.978 Y116.913
G1 F900 X86.605 Y191.539 E239.6365
G0 F1285.7 X86.992 Y191.432
G1 F900 X12.086 Y116.526 E243.69051
G0 F1285.7 X12.194 Y116.138
G1 F900 X87.379 Y191.324 E247.75965
G0 F1285.7 X87.766 Y191.216
G1 F900 X12.302 Y115.751 E251.84388
G0 F1285.7 X12.409 Y115.364
G1 F900 X88.153 Y191.108 E255.94324
G0 F1285.7 X88.541 Y191
G1 F900 X12.517 Y114.977 E260.05773
G0 F1285.7 X12.625 Y114.59
G1 F900 X88.927 Y190.892 E264.18729
G0 F1285.7 X89.315 Y190.785
G1 F900 X12.733 Y114.203 E268.33201
G0 F1285.7 X12.841 Y113.815
G1 F900 X89.702 Y190.677 E272.49185
G0 F1285.7 X90.089 Y190.569
G1 F900 X12.949 Y113.429 E276.66677
G0 F1285.7 X13.056 Y113.041
G1 F900 X90.476 Y190.461 E280.85684
G0 F1285.7 X90.863 Y190.353
G1 F900 X13.164 Y112.654 E285.062
G0 F1285.7 X13.272 Y112.267
G1 F900 X91.25 Y190.245 E289.28227
G0 F1285.7 X91.638 Y190.138
G1 F900 X13.38 Y111.88 E293.5177
G0 F1285.7 X13.488 Y111.493
G1 F900 X92.024 Y190.029 E297.76816
G0 F1285.7 X92.412 Y189.922
G1 F900 X13.596 Y111.106 E302.03379
G0 F1285.7 X13.703 Y110.718
G1 F900 X92.799 Y189.814 E306.31456
G0 F1285.7 X93.186 Y189.706
G1 F900 X13.811 Y110.331 E310.61044
G0 F1285.7 X13.919 Y109.944
G1 F900 X93.573 Y189.598 E314.92141
G0 F1285.7 X93.961 Y189.491
G1 F900 X14.027 Y109.557 E319.24754
G0 F1285.7 X14.135 Y109.17
G1 F900 X94.347 Y189.382 E323.58872
G0 F1285.7 X94.735 Y189.275
G1 F900 X14.243 Y108.783 E327.94505
G0 F1285.7 X14.35 Y108.395
G1 F900 X95.122 Y189.167 E332.31653
G0 F1285.7 X95.509 Y189.059
G1 F900 X14.458 Y108.009 E336.70309
G0 F1285.7 X14.566 Y107.621
G1 F900 X19.401 Y112.456 E336.96477
G0 F1285.7 X19.509 Y112.07
G1 F900 X14.674 Y107.234 E337.22647
G0 F1285.7 X14.782 Y106.847
G1 F900 X19.617 Y111.682 E337.48815
G0 F1285.7 X19.725 Y111.295
G1 F900 X14.89 Y106.46 E337.74982
G0 F1285.7 X14.997 Y106.073
G1 F900 X19.832 Y110.908 E338.0115
G0 F1285.7 X19.941 Y110.521
G1 F900 X15.105 Y105.686 E338.2732
G0 F1285.7 X15.213 Y105.298
G1 F900 X20.048 Y110.134 E338.53491
G0 F1285.7 X20.156 Y109.747
G1 F900 X15.321 Y104.912 E338.79658
G0 F1285.7 X15.429 Y104.524
G1 F900 X20.264 Y109.359 E339.05826
G0 F1285.7 X20.372 Y108.972
G1 F900 X15.537 Y104.137 E339.31993
G0 F1285.7 X15.644 Y103.75
G1 F900 X20.479 Y108.585 E339.58161
G0 F1285.7 X20.588 Y108.198
G1 F900 X15.752 Y103.363 E339.84331
G0 F1285.7 X15.86 Y102.975
G1 F900 X20.695 Y107.811 E340.10502
G0 F1285.7 X20.803 Y107.424
G1 F900 X15.968 Y102.589 E340.36669
G0 F1285.7 X16.076 Y102.201
G1 F900 X20.911 Y107.036 E340.62837
G0 F1285.7 X21.019 Y106.65
G1 F900 X16.184 Y101.814 E340.89007
G0 F1285.7 X16.291 Y101.427
G1 F900 X21.126 Y106.262 E341.15175
G0 F1285.7 X21.235 Y105.875
G1 F900 X16.399 Y101.04 E341.41345
G0 F1285.7 X16.507 Y100.653
G1 F900 X21.342 Y105.488 E341.67513
G0 F1285.7 X21.45 Y105.101
G1 F900 X16.615 Y100.266 E341.93681
G0 F1285.7 X16.723 Y99.878
G1 F900 X21.558 Y104.714 E342.19851
G0 F1285.7 X21.666 Y104.327
G1 F900 X16.831 Y99.492 E342.46019
G0 F1285.7 X16.938 Y99.104
G1 F900 X21.773 Y103.939 E342.72186
G0 F1285.7 X21.882 Y103.552
G1 F900 X17.046 Y98.717 E342.98357
G0 F1285.7 X17.154 Y98.33
G1 F900 X21.989 Y103.165 E343.24524
G0 F1285.7 X22.097 Y102.778
G1 F900 X17.262 Y97.943 E343.50692
G0 F1285.7 X17.37 Y97.555
G1 F900 X22.205 Y102.391 E343.76862
G0 F1285.7 X22.312 Y102.003
G1 F900 X17.478 Y97.169 E344.03024
G0 F1285.7 X17.585 Y96.781
G1 F900 X22.42 Y101.616 E344.29192
G0 F1285.7 X22.528 Y101.229
G1 F900 X17.693 Y96.394 E344.5536
G0 F1285.7 X17.801 Y96.007
G1 F900 X22.636 Y100.842 E344.81527
G0 F1285.7 X22.744 Y100.455
G1 F900 X17.909 Y95.62 E345.07695
G0 F1285.7 X18.017 Y95.233
G1 F900 X22.852 Y100.068 E345.33863
G0 F1285.7 X22.959 Y99.68
G1 F900 X18.125 Y94.846 E345.60025
G0 F1285.7 X18.232 Y94.458
G1 F900 X23.067 Y99.294 E345.86195
G0 F1285.7 X23.175 Y98.906
G1 F900 X18.34 Y94.072 E346.1236
G0 F1285.7 X18.448 Y93.684
G1 F900 X23.283 Y98.519 E346.38528
G0 F1285.7 X23.391 Y98.132
G1 F900 X18.556 Y93.297 E346.64695
G0 F1285.7 X18.664 Y92.91
G1 F900 X23.499 Y97.745 E346.90863
G0 F1285.7 X23.606 Y97.357
G1 F900 X18.772 Y92.523 E347.17025
G0 F1285.7 X18.879 Y92.136
G1 F900 X23.714 Y96.971 E347.43193
G0 F1285.7 X23.822 Y96.583
G1 F900 X18.987 Y91.749 E347.69358
G0 F1285.7 X19.095 Y91.361
G1 F900 X23.93 Y96.196 E347.95525
G0 F1285.7 X24.038 Y95.809
G1 F900 X19.203 Y90.974 E348.21693
G0 F1285.7 X19.311 Y90.587
G1 F900 X24.146 Y95.422 E348.47861
G0 F1285.7 X24.253 Y95.035
G1 F900 X19.419 Y90.2 E348.74026
G0 F1285.7 X19.526 Y89.813
G1 F900 X24.361 Y94.648 E349.00193
G0 F1285.7 X24.469 Y94.26
G1 F900 X19.634 Y89.426 E349.26358
G0 F1285.7 X19.742 Y89.038
G1 F900 X24.577 Y93.874 E349.52529
G0 F1285.7 X24.685 Y93.486
G1 F900 X19.85 Y88.652 E349.78694
G0 F1285.7 X19.958 Y88.264
G1 F900 X24.793 Y93.099 E350.04861
G0 F1285.7 X24.9 Y92.712
G1 F900 X20.066 Y87.877 E350.31026
G0 F1285.7 X20.173 Y87.49
G1 F900 X25.008 Y92.325 E350.57194
G0 F1285.7 X25.116 Y91.938
G1 F900 X20.281 Y87.103 E350.83361
G0 F1285.7 X20.389 Y86.716
G1 F900 X25.224 Y91.551 E351.09529
G0 F1285.7 X25.332 Y91.163
G1 F900 X20.497 Y86.329 E351.35694
G0 F1285.7 X20.605 Y85.941
G1 F900 X25.44 Y90.776 E351.61862
G0 F1285.7 X25.547 Y90.389
G1 F900 X20.713 Y85.554 E351.88026
G0 F1285.7 X20.82 Y85.167
G1 F900 X25.655 Y90.002 E352.14194
G0 F1285.7 X25.763 Y89.615
G1 F900 X20.928 Y84.78 E352.40362
G0 F1285.7 X21.036 Y84.393
G1 F900 X25.871 Y89.228 E352.66529
G0 F1285.7 X25.979 Y88.84
G1 F900 X21.144 Y84.006 E352.92694
G0 F1285.7 X21.252 Y83.618
G1 F900 X26.087 Y88.454 E353.18865
G0 F1285.7 X26.194 Y88.066
G1 F900 X21.36 Y83.232 E353.45027
G0 F1285.7 X21.467 Y82.844
G1 F900 X26.302 Y87.679 E353.71195
G0 F1285.7 X26.41 Y87.292
G1 F900 X21.575 Y82.457 E353.97362
G0 F1285.7 X21.683 Y82.07
G1 F900 X26.518 Y86.905 E354.2353
G0 F1285.7 X26.626 Y86.518
G1 F900 X21.791 Y81.683 E354.49697
G0 F1285.7 X21.899 Y81.296
G1 F900 X26.734 Y86.131 E354.75865
G0 F1285.7 X26.841 Y85.743
G1 F900 X22.007 Y80.909 E355.02027
G0 F1285.7 X22.114 Y80.521
G1 F900 X26.949 Y85.356 E355.28195
G0 F1285.7 X27.057 Y84.969
G1 F900 X22.222 Y80.134 E355.54363
G0 F1285.7 X22.33 Y79.747
G1 F900 X27.165 Y84.582 E355.8053
G0 F1285.7 X27.273 Y84.195
G1 F900 X22.438 Y79.36 E356.06698
G0 F1285.7 X22.546 Y78.973
G1 F900 X27.381 Y83.808 E356.32865
G0 F1285.7 X27.488 Y83.42
G1 F900 X22.654 Y78.586 E356.59028
G0 F1285.7 X22.761 Y78.198
G1 F900 X27.596 Y83.034 E356.85198
G0 F1285.7 X27.704 Y82.646
G1 F900 X22.869 Y77.812 E357.11363
G0 F1285.7 X22.977 Y77.424
G1 F900 X27.812 Y82.259 E357.37531
G0 F1285.7 X27.92 Y81.872
G1 F900 X23.085 Y77.037 E357.63698
G0 F1285.7 X23.193 Y76.65
G1 F900 X28.028 Y81.485 E357.89866
G0 F1285.7 X28.135 Y81.098
G1 F900 X23.301 Y76.263 E358.16031
G0 F1285.7 X23.408 Y75.876
G1 F900 X28.243 Y80.711 E358.42198
G0 F1285.7 X28.351 Y80.323
