;FLAVOR:Marlin
;TIME:11912
;Filament used: 14.4803m
;Layer height: 0.3
;MINX:34.937
;MINY:10.344
;MINZ:0.26
;MAXX:194.382
;MAXY:192.273
;MAXZ:7.76
;Generated with Cura_SteamEngine 4.9.1
M82 ;absolute extrusion mode
;Begin Start Gcode for Dagoma DiscoEasy 200
;Sliced: 07-07-2021 20:10:46
;Initial extruder: 0

G90 ;Absolute positioning
M106 S255 ;Fan on full
G28 X Y ;Home stop X Y
G1 X100 ;Centre back during cooldown in case of oozing
M109 R90 ;Cooldown in case too hot
G28 ;Centre
G29 ;Auto-level
M104 S205 ;Pre-heat
M107 ;Fan off
G0 X100 Y5 Z0.5 ;Front centre for degunk
M109 S205 ;Wait for initial temp
M83 ;E Relative
G1 E10 F200 ;Degunk
G1 E-3 F5000 ;Retract
G0 Z3 ;Withdraw
M82 ;E absolute
G92 E0 ;E reset
G1 F6000 ;Set feedrate

;Finish Start Gcode for Dagoma DiscoEasy 200

G92 E0
G92 E0
G1 F3000 E-3.5
;LAYER_COUNT:26
;LAYER:0
M107
G0 F1285.7 X85.085 Y12.875 Z0.26
;TYPE:SKIRT
G1 F3000 E0
G1 F900 X85.461 Y12.244 E0.02811
G1 X85.78 Y11.788 E0.04941
G1 X86.16 Y11.382 E0.07069
G1 X86.595 Y11.035 E0.09198
G1 X87.075 Y10.753 E0.11329
G1 X87.59 Y10.543 E0.13457
G1 X88.13 Y10.41 E0.15586
G1 X88.753 Y10.353 E0.1798
G1 X89.78 Y10.344 E0.2191
G1 X189.901 Y11.332 E4.05087
G1 X190.598 Y11.348 E4.07755
G1 X191.152 Y11.401 E4.09885
G1 X191.693 Y11.532 E4.12015
G1 X192.209 Y11.74 E4.14144
G1 X192.69 Y12.019 E4.16272
G1 X193.126 Y12.364 E4.184
G1 X193.509 Y12.769 E4.20533
G1 X193.829 Y13.224 E4.22662
G1 X194.081 Y13.72 E4.24791
G1 X194.259 Y14.247 E4.2692
G1 X194.36 Y14.794 E4.29049
G1 X194.382 Y15.35 E4.31178
G1 X194.324 Y15.903 E4.33306
G1 X194.187 Y16.443 E4.35438
G1 X193.931 Y17.04 E4.37924
G1 X193.676 Y17.506 E4.39957
G1 X94.217 Y189.775 E12.0121
G1 X93.859 Y190.378 E12.03893
G1 X93.541 Y190.835 E12.06024
G1 X93.162 Y191.242 E12.08152
G1 X92.727 Y191.59 E12.10284
G1 X92.248 Y191.872 E12.12411
G1 X91.733 Y192.083 E12.14541
G1 X91.193 Y192.217 E12.16671
G1 X90.639 Y192.273 E12.18801
G1 X90.084 Y192.25 E12.20927
G1 X89.537 Y192.146 E12.23058
G1 X89.01 Y191.966 E12.25189
G1 X88.515 Y191.712 E12.27318
G1 X88.062 Y191.39 E12.29445
G1 X87.659 Y191.006 E12.31576
G1 X87.256 Y190.477 E12.34121
G1 X86.953 Y189.988 E12.36322
G1 X35.777 Y103.331 E16.21467
G1 X35.442 Y102.745 E16.2405
G1 X35.201 Y102.244 E16.26178
G1 X35.035 Y101.713 E16.28307
G1 X34.946 Y101.163 E16.30439
G1 X34.937 Y100.607 E16.32567
G1 X35.008 Y100.055 E16.34697
G1 X35.157 Y99.519 E16.36826
G1 X35.413 Y98.951 E16.3921
G1 X35.933 Y98.009 E16.43328
G1 X85.085 Y12.875 E20.19533
G0 F1285.7 X85.386 Y13.055
G1 F900 X85.762 Y12.424 E20.22344
G1 X86.067 Y11.989 E20.24378
G1 X86.434 Y11.606 E20.26408
G1 X86.854 Y11.282 E20.28438
G1 X87.318 Y11.025 E20.30467
G1 X87.816 Y10.84 E20.32501
G1 X88.335 Y10.732 E20.34529
G1 X88.757 Y10.703 E20.36148
G1 X89.777 Y10.694 E20.40052
G1 X189.893 Y11.682 E24.2321
G1 X190.59 Y11.698 E24.25878
G1 X191.118 Y11.75 E24.27908
G1 X191.632 Y11.881 E24.29938
G1 X192.121 Y12.087 E24.31969
G1 X192.573 Y12.365 E24.33999
G1 X192.979 Y12.707 E24.36031
G1 X193.328 Y13.106 E24.3806
G1 X193.614 Y13.554 E24.40094
G1 X193.829 Y14.039 E24.42124
G1 X193.969 Y14.55 E24.44151
G1 X194.031 Y15.078 E24.46186
G1 X194.013 Y15.608 E24.48215
G1 X193.915 Y16.129 E24.50244
G1 X193.74 Y16.63 E24.52275
G1 X193.511 Y17.084 E24.54221
G1 X193.373 Y17.331 E24.55304
G1 X93.916 Y189.597 E32.16543
G1 X93.558 Y190.2 E32.19227
G1 X93.254 Y190.634 E32.21254
G1 X92.887 Y191.018 E32.23287
G1 X92.468 Y191.343 E32.25317
G1 X92.004 Y191.601 E32.27348
G1 X91.507 Y191.786 E32.29378
G1 X90.987 Y191.895 E32.31411
G1 X90.457 Y191.924 E32.33442
G1 X89.929 Y191.874 E32.35472
G1 X89.414 Y191.745 E32.37504
G1 X88.925 Y191.54 E32.39533
G1 X88.472 Y191.264 E32.41563
G1 X88.065 Y190.923 E32.43595
G1 X87.714 Y190.525 E32.45626
G1 X87.417 Y190.079 E32.47677
G1 X87.241 Y189.787 E32.48981
G1 X36.081 Y103.157 E36.34006
G1 X35.746 Y102.571 E36.36589
G1 X35.518 Y102.092 E36.38619
G1 X35.364 Y101.584 E36.40651
G1 X35.289 Y101.059 E36.4268
G1 X35.293 Y100.528 E36.44712
G1 X35.377 Y100.004 E36.46743
G1 X35.539 Y99.499 E36.48773
G1 X35.719 Y99.12 E36.50379
G1 X36.236 Y98.184 E36.54471
G1 X85.386 Y13.055 E40.30656
G0 F1285.7 X85.687 Y13.234
G1 F900 X86.063 Y12.603 E40.33467
G1 X86.354 Y12.192 E40.35394
G1 X86.706 Y11.832 E40.37321
G1 X87.111 Y11.533 E40.39247
G1 X87.559 Y11.302 E40.41176
G1 X88.037 Y11.144 E40.43103
G1 X88.76 Y11.053 E40.45892
G1 X89.773 Y11.044 E40.49769
G1 X189.885 Y12.032 E44.32911
G1 X190.582 Y12.048 E44.35579
G1 X191.083 Y12.099 E44.37506
G1 X191.569 Y12.229 E44.39432
G1 X192.029 Y12.435 E44.4136
G1 X192.451 Y12.71 E44.43288
G1 X192.824 Y13.049 E44.45217
G1 X193.138 Y13.442 E44.47142
G1 X193.386 Y13.88 E44.49068
G1 X193.562 Y14.352 E44.50996
G1 X193.662 Y14.846 E44.52925
G1 X193.681 Y15.349 E44.54851
G1 X193.622 Y15.849 E44.56778
G1 X193.483 Y16.333 E44.58705
G1 X193.202 Y16.92 E44.61196
G1 X193.07 Y17.156 E44.62231
G1 X93.615 Y189.418 E52.23453
G1 X93.257 Y190.021 E52.26136
G1 X92.966 Y190.432 E52.28063
G1 X92.614 Y190.792 E52.2999
G1 X92.21 Y191.092 E52.31916
G1 X91.763 Y191.324 E52.33843
G1 X91.285 Y191.483 E52.35771
G1 X90.788 Y191.564 E52.37698
G1 X90.285 Y191.566 E52.39623
G1 X89.787 Y191.488 E52.41552
G1 X89.308 Y191.332 E52.4348
G1 X88.86 Y191.102 E52.45407
G1 X88.454 Y190.805 E52.47333
G1 X88.1 Y190.447 E52.49259
G1 X87.713 Y189.891 E52.51852
G1 X87.542 Y189.609 E52.53114
G1 X36.385 Y102.984 E56.38116
G1 X36.05 Y102.398 E56.40699
G1 X35.835 Y101.942 E56.42629
G1 X35.695 Y101.458 E56.44557
G1 X35.634 Y100.958 E56.46484
G1 X35.652 Y100.455 E56.48411
G1 X35.75 Y99.961 E56.50338
G1 X36.026 Y99.289 E56.53118
G1 X36.539 Y98.359 E56.57183
G1 X85.687 Y13.234 E60.33351
G1 F3000 E56.83351
;MESH:support_half_hex_21.stl
G0 F1285.7 X88.077 Y14.165
G0 X89.099 Y14.755
G0 X189.325 Y15.826
G0 X189.325 Y15.729
;TYPE:WALL-INNER
G1 F3000 E60.33351
G1 F900 X189.622 Y15.73 E60.34487
G1 X189.473 Y15.988 E60.35134
G1 X90.67 Y187.12 E67.91363
G1 X90.521 Y187.378 E67.92504
G1 X90.37 Y187.122 E67.93149
G1 X90.369 Y187.121 E67.93154
G1 X39.396 Y100.809 E71.76767
G1 X89.09 Y14.738 E75.57115
G1 X189.324 Y15.728 E79.40725
G1 X189.325 Y15.729 E79.4073
G0 F1285.7 X189.885 Y15.409
;TYPE:WALL-OUTER
G1 F900 X190.182 Y15.41 E79.41867
G1 X190.033 Y15.668 E79.42513
G1 X90.673 Y187.764 E87.03003
G1 X90.524 Y188.022 E87.04144
G1 X90.373 Y187.766 E87.04789
G1 X90.372 Y187.765 E87.04794
G1 X39.02 Y100.811 E90.9126
G1 X88.904 Y14.411 E94.73062
G1 X189.884 Y15.408 E98.59527
G1 X189.885 Y15.409 E98.59532
G0 F1285.7 X190.085 Y15.409
G0 X189.536 Y15.779
G0 X189.036 Y16.064
;TYPE:SKIN
G1 F900 X90.517 Y186.704 E106.13587
G1 X39.79 Y100.807 E109.95354
G1 X89.286 Y15.08 E113.74183
G1 X189.036 Y16.064 E117.5594
G0 F1285.7 X188.656 Y16.405
G1 F900 X188.465 Y16.214 E117.56974
G0 F1285.7 X187.965 Y16.209
G1 F900 X188.475 Y16.718 E117.59731
G0 F1285.7 X188.294 Y17.032
G1 F900 X187.466 Y16.204 E117.64212
G0 F1285.7 X186.966 Y16.199
G1 F900 X188.113 Y17.346 E117.7042
G0 F1285.7 X187.932 Y17.66
G1 F900 X186.466 Y16.194 E117.78354
G0 F1285.7 X185.966 Y16.189
G1 F900 X187.75 Y17.973 E117.88009
G0 F1285.7 X187.569 Y18.287
G1 F900 X185.467 Y16.185 E117.99386
G0 F1285.7 X184.967 Y16.18
G1 F900 X187.388 Y18.601 E118.12488
G0 F1285.7 X187.207 Y18.915
G1 F900 X184.467 Y16.175 E118.27318
G0 F1285.7 X183.967 Y16.17
G1 F900 X187.026 Y19.229 E118.43873
G0 F1285.7 X186.844 Y19.543
G1 F900 X183.467 Y16.165 E118.62153
G0 F1285.7 X182.967 Y16.16
G1 F900 X186.663 Y19.856 E118.82156
G0 F1285.7 X186.482 Y20.17
G1 F900 X182.467 Y16.155 E119.03886
G0 F1285.7 X181.967 Y16.151
G1 F900 X186.301 Y20.484 E119.27339
G0 F1285.7 X186.119 Y20.798
G1 F900 X181.467 Y16.146 E119.52516
G0 F1285.7 X180.967 Y16.141
G1 F900 X185.938 Y21.112 E119.7942
G0 F1285.7 X185.757 Y21.426
G1 F900 X180.467 Y16.136 E120.0805
G0 F1285.7 X179.967 Y16.131
G1 F900 X185.576 Y21.739 E120.38404
G0 F1285.7 X185.395 Y22.053
G1 F900 X179.467 Y16.126 E120.70485
G0 F1285.7 X178.968 Y16.121
G1 F900 X185.213 Y22.367 E121.04286
G0 F1285.7 X185.032 Y22.681
G1 F900 X178.468 Y16.116 E121.39814
G0 F1285.7 X177.968 Y16.111
G1 F900 X184.851 Y22.995 E121.77068
G0 F1285.7 X184.67 Y23.309
G1 F900 X177.468 Y16.106 E122.16049
G0 F1285.7 X176.968 Y16.101
G1 F900 X184.489 Y23.623 E122.56756
G0 F1285.7 X184.308 Y23.936
G1 F900 X176.468 Y16.096 E122.99188
G0 F1285.7 X175.968 Y16.091
G1 F900 X184.127 Y24.25 E123.43345
G0 F1285.7 X183.946 Y24.564
G1 F900 X175.468 Y16.086 E123.89229
G0 F1285.7 X174.968 Y16.081
G1 F900 X183.765 Y24.878 E124.3684
G0 F1285.7 X183.583 Y25.191
G1 F900 X174.468 Y16.076 E124.86171
G0 F1285.7 X173.968 Y16.071
G1 F900 X183.402 Y25.505 E125.37229
G0 F1285.7 X183.221 Y25.819
G1 F900 X173.468 Y16.066 E125.90014
G0 F1285.7 X172.968 Y16.061
G1 F900 X183.04 Y26.133 E126.44525
G0 F1285.7 X182.859 Y26.447
G1 F900 X172.469 Y16.056 E127.00759
G0 F1285.7 X171.969 Y16.052
G1 F900 X182.677 Y26.76 E127.58712
G0 F1285.7 X182.496 Y27.074
G1 F900 X171.469 Y16.047 E128.18392
G0 F1285.7 X170.969 Y16.042
G1 F900 X182.315 Y27.388 E128.79798
G0 F1285.7 X182.134 Y27.702
G1 F900 X170.469 Y16.037 E129.4293
G0 F1285.7 X169.969 Y16.032
G1 F900 X181.953 Y28.016 E130.07789
G0 F1285.7 X181.771 Y28.329
G1 F900 X169.469 Y16.027 E130.74369
G0 F1285.7 X168.969 Y16.022
G1 F900 X181.59 Y28.643 E131.42676
G0 F1285.7 X181.409 Y28.957
G1 F900 X168.469 Y16.017 E132.12709
G0 F1285.7 X167.97 Y16.013
G1 F900 X181.228 Y29.271 E132.84463
G0 F1285.7 X181.046 Y29.584
G1 F900 X167.47 Y16.008 E133.57938
G0 F1285.7 X166.97 Y16.003
G1 F900 X180.865 Y29.898 E134.33139
G0 F1285.7 X180.684 Y30.212
G1 F900 X166.47 Y15.998 E135.10067
G0 F1285.7 X165.97 Y15.993
G1 F900 X180.503 Y30.526 E135.88722
G0 F1285.7 X180.322 Y30.84
G1 F900 X165.47 Y15.988 E136.69103
G0 F1285.7 X164.97 Y15.983
G1 F900 X180.141 Y31.153 E137.51207
G0 F1285.7 X179.96 Y31.467
G1 F900 X164.47 Y15.978 E138.35038
G0 F1285.7 X163.97 Y15.973
G1 F900 X179.779 Y31.781 E139.20596
G0 F1285.7 X179.598 Y32.095
G1 F900 X163.471 Y15.968 E140.07877
G0 F1285.7 X162.971 Y15.963
G1 F900 X179.417 Y32.409 E140.96885
G0 F1285.7 X179.235 Y32.722
G1 F900 X162.471 Y15.958 E141.87614
G0 F1285.7 X161.971 Y15.953
G1 F900 X179.054 Y33.036 E142.80069
G0 F1285.7 X178.873 Y33.35
G1 F900 X161.471 Y15.948 E143.74251
G0 F1285.7 X160.971 Y15.943
G1 F900 X178.692 Y33.664 E144.7016
G0 F1285.7 X178.51 Y33.977
G1 F900 X160.471 Y15.938 E145.67789
G0 F1285.7 X159.971 Y15.933
G1 F900 X178.329 Y34.291 E146.67145
G0 F1285.7 X178.148 Y34.605
G1 F900 X159.471 Y15.928 E147.68227
G0 F1285.7 X158.971 Y15.924
G1 F900 X177.967 Y34.919 E148.71033
G0 F1285.7 X177.786 Y35.233
G1 F900 X158.471 Y15.919 E149.75566
G0 F1285.7 X157.971 Y15.914
G1 F900 X177.604 Y35.546 E150.81819
G0 F1285.7 X177.423 Y35.86
G1 F900 X157.471 Y15.909 E151.89799
G0 F1285.7 X156.972 Y15.904
G1 F900 X177.242 Y36.174 E152.99503
G0 F1285.7 X177.061 Y36.488
G1 F900 X156.472 Y15.899 E154.10933
G0 F1285.7 X155.972 Y15.894
G1 F900 X176.879 Y36.802 E155.24088
G0 F1285.7 X176.698 Y37.116
G1 F900 X155.472 Y15.889 E156.38968
G0 F1285.7 X154.972 Y15.884
G1 F900 X176.517 Y37.429 E157.55572
G0 F1285.7 X176.336 Y37.743
G1 F900 X154.472 Y15.879 E158.73903
G0 F1285.7 X153.972 Y15.874
G1 F900 X176.155 Y38.057 E159.9396
G0 F1285.7 X175.974 Y38.371
G1 F900 X153.472 Y15.869 E161.15744
G0 F1285.7 X152.972 Y15.864
G1 F900 X175.793 Y38.685 E162.39254
G0 F1285.7 X175.612 Y38.999
G1 F900 X152.472 Y15.859 E163.64491
G0 F1285.7 X151.972 Y15.854
G1 F900 X175.431 Y39.313 E164.91454
G0 F1285.7 X175.25 Y39.626
G1 F900 X151.472 Y15.849 E166.20141
G0 F1285.7 X150.972 Y15.844
G1 F900 X175.068 Y39.94 E167.50551
G0 F1285.7 X174.887 Y40.254
G1 F900 X150.473 Y15.84 E168.82683
G0 F1285.7 X149.973 Y15.835
G1 F900 X174.706 Y40.568 E170.16541
G0 F1285.7 X174.525 Y40.882
G1 F900 X149.473 Y15.83 E171.52126
G0 F1285.7 X148.973 Y15.825
G1 F900 X174.343 Y41.195 E172.89432
G0 F1285.7 X174.162 Y41.509
G1 F900 X148.474 Y15.82 E174.28461
G0 F1285.7 X147.974 Y15.815
G1 F900 X173.981 Y41.823 E175.69217
G0 F1285.7 X173.8 Y42.137
G1 F900 X147.474 Y15.81 E177.11699
G0 F1285.7 X146.974 Y15.805
G1 F900 X173.619 Y42.451 E178.55908
G0 F1285.7 X173.437 Y42.764
G1 F900 X146.474 Y15.801 E180.01835
G0 F1285.7 X145.974 Y15.796
G1 F900 X173.256 Y43.078 E181.49489
G0 F1285.7 X173.075 Y43.392
G1 F900 X145.474 Y15.791 E182.98869
G0 F1285.7 X144.974 Y15.786
G1 F900 X172.894 Y43.706 E184.49976
G0 F1285.7 X172.713 Y44.02
G1 F900 X144.474 Y15.781 E186.02809
G0 F1285.7 X143.974 Y15.776
G1 F900 X172.531 Y44.333 E187.57363
G0 F1285.7 X172.35 Y44.647
G1 F900 X143.474 Y15.771 E189.13643
G0 F1285.7 X142.974 Y15.766
G1 F900 X172.169 Y44.961 E190.7165
G0 F1285.7 X171.988 Y45.275
G1 F900 X142.474 Y15.761 E192.31384
G0 F1285.7 X141.975 Y15.756
G1 F900 X171.807 Y45.588 E193.92839
G0 F1285.7 X171.626 Y45.902
G1 F900 X141.475 Y15.751 E195.5602
G0 F1285.7 X140.975 Y15.746
G1 F900 X171.445 Y46.216 E197.20927
G0 F1285.7 X171.264 Y46.53
G1 F900 X140.475 Y15.741 E198.87561
G0 F1285.7 X139.975 Y15.736
G1 F900 X171.083 Y46.844 E200.55922
G0 F1285.7 X170.901 Y47.157
G1 F900 X139.475 Y15.731 E202.26003
G0 F1285.7 X138.975 Y15.726
G1 F900 X170.72 Y47.471 E203.97811
G0 F1285.7 X170.539 Y47.785
G1 F900 X138.475 Y15.721 E205.71346
G0 F1285.7 X137.975 Y15.716
G1 F900 X170.358 Y48.099 E207.46606
G0 F1285.7 X170.177 Y48.413
G1 F900 X137.475 Y15.711 E209.23594
G0 F1285.7 X136.975 Y15.706
G1 F900 X169.995 Y48.726 E211.02302
G0 F1285.7 X169.814 Y49.04
G1 F900 X136.475 Y15.702 E212.82735
G0 F1285.7 X135.975 Y15.697
G1 F900 X169.633 Y49.354 E214.64893
G0 F1285.7 X169.452 Y49.668
G1 F900 X135.476 Y15.692 E216.48776
G0 F1285.7 X134.976 Y15.687
G1 F900 X169.27 Y49.981 E218.34379
G0 F1285.7 X169.089 Y50.295
G1 F900 X134.476 Y15.682 E220.21709
G0 F1285.7 X133.976 Y15.677
G1 F900 X168.908 Y50.609 E222.10766
G0 F1285.7 X168.727 Y50.923
G1 F900 X133.476 Y15.672 E224.01548
G0 F1285.7 X132.977 Y15.668
G1 F900 X168.546 Y51.237 E225.94052
G0 F1285.7 X168.364 Y51.55
G1 F900 X132.477 Y15.663 E227.88277
G0 F1285.7 X131.977 Y15.658
G1 F900 X168.183 Y51.864 E229.84229
G0 F1285.7 X168.002 Y52.178
G1 F900 X131.477 Y15.653 E231.81907
G0 F1285.7 X130.977 Y15.648
G1 F900 X167.821 Y52.492 E233.81311
G0 F1285.7 X167.64 Y52.806
G1 F900 X130.477 Y15.643 E235.82442
G0 F1285.7 X129.977 Y15.638
G1 F900 X167.459 Y53.119 E237.85297
G0 F1285.7 X167.278 Y53.433
G1 F900 X129.477 Y15.633 E239.89878
G0 F1285.7 X128.977 Y15.628
G1 F900 X167.097 Y53.747 E241.96186
G0 F1285.7 X166.916 Y54.061
G1 F900 X128.477 Y15.623 E244.0422
G0 F1285.7 X127.977 Y15.618
G1 F900 X166.734 Y54.375 E246.13977
G0 F1285.7 X166.553 Y54.689
G1 F900 X127.477 Y15.613 E248.25462
G0 F1285.7 X126.977 Y15.608
G1 F900 X166.372 Y55.003 E250.38672
G0 F1285.7 X166.191 Y55.316
G1 F900 X126.478 Y15.603 E252.53604
G0 F1285.7 X125.978 Y15.598
G1 F900 X166.01 Y55.63 E254.70263
G0 F1285.7 X165.828 Y55.944
G1 F900 X125.478 Y15.593 E256.88645
G0 F1285.7 X124.978 Y15.588
G1 F900 X165.647 Y56.258 E259.08753
G0 F1285.7 X165.466 Y56.572
G1 F900 X124.478 Y15.583 E261.30588
G0 F1285.7 X123.978 Y15.578
G1 F900 X165.285 Y56.886 E263.5415
G0 F1285.7 X165.103 Y57.199
G1 F900 X123.478 Y15.574 E265.79429
G0 F1285.7 X122.978 Y15.569
G1 F900 X164.922 Y57.513 E268.06436
G0 F1285.7 X164.741 Y57.827
G1 F900 X122.478 Y15.564 E270.35168
G0 F1285.7 X121.978 Y15.559
G1 F900 X164.56 Y58.141 E272.65628
G0 F1285.7 X164.379 Y58.455
G1 F900 X121.478 Y15.554 E274.97813
G0 F1285.7 X120.978 Y15.549
G1 F900 X164.197 Y58.768 E277.3172
G0 F1285.7 X164.016 Y59.082
G1 F900 X120.478 Y15.544 E279.67353
G0 F1285.7 X119.979 Y15.539
G1 F900 X163.835 Y59.396 E282.0471
G0 F1285.7 X163.654 Y59.71
G1 F900 X119.479 Y15.534 E284.43794
G0 F1285.7 X118.979 Y15.529
G1 F900 X163.473 Y60.024 E286.84604
G0 F1285.7 X163.292 Y60.337
G1 F900 X118.479 Y15.524 E289.27137
G0 F1285.7 X117.979 Y15.519
G1 F900 X163.111 Y60.651 E291.71397
G0 F1285.7 X162.93 Y60.965
G1 F900 X117.479 Y15.514 E294.17384
G0 F1285.7 X116.979 Y15.509
G1 F900 X162.749 Y61.279 E296.65097
G0 F1285.7 X162.567 Y61.592
G1 F900 X116.479 Y15.504 E299.14531
G0 F1285.7 X115.979 Y15.499
G1 F900 X162.386 Y61.906 E301.65692
G0 F1285.7 X162.205 Y62.22
G1 F900 X115.48 Y15.495 E304.18573
G0 F1285.7 X114.98 Y15.49
