;FLAVOR:Marlin
;TIME:12755
;Filament used: 10.0568m
;Layer height: 0.2
;MINX:5.095
;MINY:25.784
;MINZ:0.26
;MAXX:181.522
;MAXY:202.222
;MAXZ:7.66
;Generated with Cura_SteamEngine 4.9.1
M82 ;absolute extrusion mode
;Begin Start Gcode for Dagoma DiscoEasy 200
;Sliced: 13-07-2021 17:09:32
;Initial extruder: 0

G90 ;Absolute positioning
M106 S255 ;Fan on full
G28 X Y ;Home stop X Y
G1 X100 ;Centre back during cooldown in case of oozing
M109 R90 ;Cooldown in case too hot
G28 ;Centre
G29 ;Auto-level
M104 S205 ;Pre-heat
M107 ;Fan off
G0 X100 Y5 Z0.5 ;Front centre for degunk
M109 S205 ;Wait for initial temp
M83 ;E Relative
G1 E10 F200 ;Degunk
G1 E-3 F5000 ;Retract
G0 Z3 ;Withdraw
M82 ;E absolute
G92 E0 ;E reset
G1 F6000 ;Set feedrate

;Finish Start Gcode for Dagoma DiscoEasy 200

G92 E0
G92 E0
G1 F3000 E-3.5
;LAYER_COUNT:38
;LAYER:0
M107
G0 F1285.7 X33.326 Y27.118 Z0.26
;TYPE:SKIRT
G1 F3000 E0
G1 F900 X33.72 Y26.725 E0.0213
G1 X34.167 Y26.393 E0.04261
G1 X34.656 Y26.128 E0.06389
G1 X35.178 Y25.936 E0.08518
G1 X35.722 Y25.82 E0.10646
G1 X36.278 Y25.784 E0.12778
G1 X36.832 Y25.828 E0.14905
G1 X37.375 Y25.95 E0.17035
G1 X37.895 Y26.149 E0.19166
G1 X38.38 Y26.421 E0.21294
G1 X38.892 Y26.823 E0.23785
G1 X39.297 Y27.21 E0.25929
G1 X179.966 Y167.879 E7.87247
G1 X180.43 Y168.356 E7.89794
G1 X180.788 Y168.782 E7.91924
G1 X181.082 Y169.254 E7.94052
G1 X181.305 Y169.764 E7.96182
G1 X181.452 Y170.301 E7.98313
G1 X181.522 Y170.853 E8.00442
G1 X181.511 Y171.409 E8.0257
G1 X181.421 Y171.958 E8.04699
G1 X181.253 Y172.489 E8.06831
G1 X181.011 Y172.99 E8.0896
G1 X180.7 Y173.451 E8.11088
G1 X180.326 Y173.863 E8.13217
G1 X179.897 Y174.217 E8.15346
G1 X179.421 Y174.506 E8.17477
G1 X178.82 Y174.753 E8.19964
G1 X178.284 Y174.913 E8.22104
G1 X81.298 Y201.927 E12.07394
G1 X80.656 Y202.096 E12.09934
G1 X80.11 Y202.199 E12.12061
G1 X79.554 Y202.222 E12.1419
G1 X79 Y202.166 E12.16321
G1 X78.46 Y202.03 E12.18452
G1 X77.946 Y201.819 E12.20579
G1 X77.466 Y201.536 E12.22711
G1 X76.984 Y201.142 E12.25094
G1 X76.225 Y200.411 E12.29126
G1 X6.695 Y130.879 E16.05437
G1 X6.188 Y130.358 E16.08219
G1 X5.829 Y129.933 E16.10348
G1 X5.536 Y129.46 E16.12478
G1 X5.313 Y128.951 E16.14604
G1 X5.165 Y128.414 E16.16736
G1 X5.095 Y127.862 E16.18865
G1 X5.106 Y127.306 E16.20994
G1 X5.213 Y126.688 E16.23394
G1 X5.472 Y125.686 E16.27354
G1 X32.342 Y29.224 E20.10564
G1 X32.532 Y28.573 E20.1316
G1 X32.726 Y28.052 E20.15287
G1 X32.993 Y27.563 E20.17419
G1 X33.326 Y27.118 E20.19546
G0 F1285.7 X33.639 Y27.293
G1 F900 X34.024 Y26.927 E20.21579
G1 X34.46 Y26.624 E20.23611
G1 X34.936 Y26.389 E20.25643
G1 X35.441 Y26.228 E20.27671
G1 X35.966 Y26.146 E20.29705
G1 X36.496 Y26.142 E20.31733
G1 X37.021 Y26.219 E20.33764
G1 X37.529 Y26.373 E20.35795
G1 X38.008 Y26.602 E20.37827
G1 X38.447 Y26.901 E20.3986
G1 X38.863 Y27.275 E20.42
G1 X39.079 Y27.486 E20.43156
G1 X179.715 Y168.123 E28.04299
G1 X180.179 Y168.6 E28.06845
G1 X180.519 Y169.007 E28.08875
G1 X180.794 Y169.461 E28.10906
G1 X180.999 Y169.951 E28.12939
G1 X181.127 Y170.466 E28.1497
G1 X181.176 Y170.994 E28.16999
G1 X181.146 Y171.524 E28.1903
G1 X181.037 Y172.043 E28.2106
G1 X180.85 Y172.54 E28.23092
G1 X180.592 Y173.003 E28.25121
G1 X180.266 Y173.422 E28.27152
G1 X179.882 Y173.788 E28.29182
G1 X179.447 Y174.092 E28.31213
G1 X178.971 Y174.327 E28.33245
G1 X178.446 Y174.502 E28.35363
G1 X178.165 Y174.583 E28.36482
G1 X81.209 Y201.589 E32.21653
G1 X80.567 Y201.758 E32.24193
G1 X80.045 Y201.854 E32.26224
G1 X79.515 Y201.871 E32.28254
G1 X78.988 Y201.807 E32.30285
G1 X78.477 Y201.666 E32.32314
G1 X77.992 Y201.449 E32.34347
G1 X77.546 Y201.162 E32.36377
G1 X77.227 Y200.89 E32.37981
G1 X76.472 Y200.164 E32.4199
G1 X6.946 Y130.635 E36.18281
G1 X6.439 Y130.114 E36.21064
G1 X6.098 Y129.707 E36.23096
G1 X5.823 Y129.254 E36.25124
G1 X5.619 Y128.764 E36.27155
G1 X5.49 Y128.249 E36.29187
G1 X5.441 Y127.721 E36.31216
G1 X5.471 Y127.191 E36.33247
G1 X5.552 Y126.775 E36.34869
G1 X5.809 Y125.78 E36.38802
G1 X32.678 Y29.322 E40.21996
G1 X32.868 Y28.671 E40.24592
G1 X33.055 Y28.175 E40.2662
G1 X33.314 Y27.711 E40.28654
G1 X33.639 Y27.293 E40.3068
G0 F1285.7 X33.951 Y27.471
G1 F900 X34.326 Y27.135 E40.32607
G1 X34.75 Y26.862 E40.34537
G1 X35.211 Y26.66 E40.36463
G1 X35.698 Y26.533 E40.38389
G1 X36.199 Y26.484 E40.40315
G1 X36.702 Y26.516 E40.42244
G1 X37.193 Y26.627 E40.44171
G1 X37.661 Y26.814 E40.46099
G1 X38.093 Y27.072 E40.48025
G1 X38.561 Y27.47 E40.50376
G1 X38.807 Y27.71 E40.51691
G1 X179.464 Y168.367 E48.12945
G1 X179.928 Y168.844 E48.15492
G1 X180.249 Y169.232 E48.17419
G1 X180.505 Y169.665 E48.19344
G1 X180.69 Y170.134 E48.21273
G1 X180.797 Y170.626 E48.232
G1 X180.826 Y171.129 E48.25128
G1 X180.775 Y171.63 E48.27056
G1 X180.645 Y172.116 E48.28981
G1 X180.44 Y172.576 E48.30908
G1 X180.165 Y172.998 E48.32836
G1 X179.827 Y173.371 E48.34762
G1 X179.434 Y173.686 E48.3669
G1 X178.996 Y173.935 E48.38618
G1 X178.435 Y174.14 E48.40903
G1 X178.071 Y174.246 E48.42354
G1 X81.12 Y201.25 E52.27505
G1 X80.478 Y201.419 E52.30045
G1 X79.983 Y201.509 E52.31971
G1 X79.479 Y201.518 E52.339
G1 X78.98 Y201.448 E52.35828
G1 X78.499 Y201.3 E52.37754
G1 X78.047 Y201.078 E52.39681
G1 X77.469 Y200.637 E52.42463
G1 X76.72 Y199.916 E52.46442
G1 X7.197 Y130.391 E56.22715
G1 X6.69 Y129.87 E56.25497
G1 X6.368 Y129.483 E56.27423
G1 X6.112 Y129.049 E56.29352
G1 X5.928 Y128.58 E56.3128
G1 X5.82 Y128.089 E56.33204
G1 X5.791 Y127.586 E56.35132
G1 X5.891 Y126.863 E56.37925
G1 X6.146 Y125.874 E56.41834
G1 X33.014 Y29.42 E60.25012
G1 X33.204 Y28.769 E60.27607
G1 X33.383 Y28.299 E60.29532
G1 X33.634 Y27.862 E60.31461
G1 X33.951 Y27.471 E60.33387
G1 F3000 E56.83387
;MESH:support_half_hex_21.stl
G0 F1285.7 X35.385 Y30.353
G0 X36.518 Y30.667
G0 X39.989 Y43.882
G0 X40.014 Y43.978
;TYPE:WALL-INNER
G1 F3000 E60.33387
G1 F900 X19.871 Y116.295 E63.20676
G1 X20.304 Y116.728 E63.23019
G1 X92.622 Y96.585 E66.10312
G1 X40.014 Y43.978 E68.9503
G0 F1285.7 X39.989 Y43.882
G0 X110.7 Y114.592
G0 X110.725 Y114.688
G1 F900 X90.581 Y187.006 E71.82324
G1 X91.014 Y187.439 E71.84667
G1 X163.333 Y167.295 E74.71965
G1 X110.725 Y114.688 E77.56683
G0 F1285.7 X110.7 Y114.592
G0 X176.349 Y170.781
G0 X176.374 Y170.877
G1 F900 X79.811 Y197.775 E81.40294
G1 X9.535 Y127.498 E85.2064
G1 X36.433 Y30.936 E89.04247
G1 X36.513 Y30.648 E89.05391
G1 X36.724 Y30.859 E89.06039
G1 X176.451 Y170.586 E96.6226
G1 X176.662 Y170.797 E96.63402
G1 X176.374 Y170.877 E96.64051
G0 F1285.7 X176.998 Y171.041
;TYPE:WALL-OUTER
G1 F900 X79.715 Y198.139 E100.50522
G1 X9.171 Y127.594 E104.32318
G1 X36.269 Y30.312 E108.18785
G1 X36.349 Y30.024 E108.19929
G1 X36.56 Y30.235 E108.20577
G1 X177.075 Y170.75 E115.81062
G1 X177.286 Y170.961 E115.82204
G1 X176.998 Y171.041 E115.82854
G0 F1285.7 X176.806 Y171.094
G0 X176.566 Y170.772
G0 X111.189 Y115.012
G0 X110.889 Y115.311
G1 F900 X90.972 Y186.811 E118.66899
G1 X90.945 Y186.91 E118.67292
G1 X91.11 Y187.075 E118.68185
G1 X91.209 Y187.048 E118.68577
G1 X162.71 Y167.131 E121.52626
G1 X110.889 Y115.311 E124.33085
G0 F1285.7 X110.836 Y115.503
G0 X110.427 Y115.389
G0 X92.66 Y96.595
G0 X40.478 Y44.302
G0 X40.178 Y44.601
G1 F900 X20.262 Y116.1 E127.17125
G1 X20.235 Y116.199 E127.17518
G1 X20.4 Y116.364 E127.18411
G1 X20.499 Y116.337 E127.18803
G1 X91.999 Y96.421 E130.02847
G1 X40.178 Y44.601 E132.83306
G0 F1285.7 X40.125 Y44.793
G0 X39.716 Y44.679
G0 X39.843 Y43.326
;TYPE:SKIN
G1 F900 X19.49 Y116.395 E135.73583
G1 X20.204 Y117.109 E135.77448
G1 X93.274 Y96.756 E138.67728
G1 X39.843 Y43.326 E141.56901
G0 F1285.7 X36.684 Y31.301
G1 F900 X176.009 Y170.626 E149.10945
G1 X79.912 Y197.394 E152.92705
G1 X9.916 Y127.397 E156.71535
G1 X36.684 Y31.301 E160.53291
G0 F1285.7 X110.554 Y114.036
G1 F900 X90.2 Y187.106 E163.43572
G1 X90.914 Y187.82 E163.47437
G1 X163.985 Y167.466 E166.37722
G1 X110.554 Y114.036 E169.26894
G0 F1285.7 X80.306 Y197.12
G1 F900 X10.188 Y127.002 E173.06382
G0 F1285.7 X10.296 Y126.615
G1 F900 X80.692 Y197.011 E176.87374
G0 F1285.7 X81.08 Y196.904
G1 F900 X10.404 Y126.228 E180.69882
G0 F1285.7 X10.511 Y125.84
G1 F900 X81.467 Y196.796 E184.53905
G0 F1285.7 X81.854 Y196.688
G1 F900 X10.62 Y125.454 E188.39432
G0 F1285.7 X10.727 Y125.066
G1 F900 X82.241 Y196.58 E192.26475
G0 F1285.7 X82.628 Y196.473
G1 F900 X10.835 Y124.679 E196.1503
G0 F1285.7 X10.943 Y124.292
G1 F900 X83.015 Y196.364 E200.05093
G0 F1285.7 X83.403 Y196.257
G1 F900 X11.051 Y123.905 E203.96672
G0 F1285.7 X11.158 Y123.518
G1 F900 X83.79 Y196.149 E207.89762
G0 F1285.7 X84.177 Y196.041
G1 F900 X11.267 Y123.131 E211.84361
G0 F1285.7 X11.374 Y122.743
G1 F900 X84.564 Y195.933 E215.80474
G0 F1285.7 X84.951 Y195.826
G1 F900 X11.482 Y122.357 E219.78098
G0 F1285.7 X11.59 Y121.969
G1 F900 X85.338 Y195.717 E223.77231
G0 F1285.7 X85.726 Y195.61
G1 F900 X11.698 Y121.582 E227.7788
G0 F1285.7 X11.805 Y121.195
G1 F900 X86.112 Y195.502 E231.80039
G0 F1285.7 X86.5 Y195.394
G1 F900 X11.914 Y120.808 E235.83708
G0 F1285.7 X12.021 Y120.42
G1 F900 X86.887 Y195.286 E239.88893
G0 F1285.7 X87.274 Y195.179
G1 F900 X12.129 Y120.034 E243.95587
G0 F1285.7 X12.237 Y119.646
G1 F900 X87.661 Y195.07 E248.03791
G0 F1285.7 X88.048 Y194.963
G1 F900 X12.345 Y119.259 E252.13508
G0 F1285.7 X12.452 Y118.872
G1 F900 X88.435 Y194.855 E256.24738
G0 F1285.7 X88.823 Y194.747
G1 F900 X12.561 Y118.485 E260.37478
G0 F1285.7 X12.668 Y118.098
G1 F900 X89.21 Y194.639 E264.5173
G0 F1285.7 X89.597 Y194.532
G1 F900 X12.776 Y117.711 E268.67495
G0 F1285.7 X12.884 Y117.323
G1 F900 X89.984 Y194.423 E272.8477
G0 F1285.7 X90.371 Y194.316
G1 F900 X12.992 Y116.937 E277.03555
G0 F1285.7 X13.099 Y116.549
G1 F900 X90.758 Y194.208 E281.23855
G0 F1285.7 X91.146 Y194.1
G1 F900 X13.208 Y116.162 E285.45666
G0 F1285.7 X13.315 Y115.775
G1 F900 X91.532 Y193.992 E289.68986
G0 F1285.7 X91.92 Y193.885
G1 F900 X13.423 Y115.388 E293.93822
G0 F1285.7 X13.531 Y115.001
G1 F900 X92.307 Y193.776 E298.20165
G0 F1285.7 X92.694 Y193.669
G1 F900 X13.639 Y114.614 E302.48021
G0 F1285.7 X13.746 Y114.226
G1 F900 X93.081 Y193.561 E306.77392
G0 F1285.7 X93.468 Y193.453
G1 F900 X13.855 Y113.839 E311.0827
G0 F1285.7 X13.962 Y113.452
G1 F900 X93.855 Y193.345 E315.40661
G0 F1285.7 X94.243 Y193.238
G1 F900 X14.07 Y113.065 E319.74568
G0 F1285.7 X14.178 Y112.678
G1 F900 X94.629 Y193.129 E324.09979
G0 F1285.7 X95.017 Y193.022
G1 F900 X14.286 Y112.291 E328.46905
G0 F1285.7 X14.393 Y111.903
G1 F900 X95.404 Y192.914 E332.85347
G0 F1285.7 X95.791 Y192.806
G1 F900 X90.956 Y187.971 E333.11515
G0 F1285.7 X91.344 Y187.864
G1 F900 X96.178 Y192.698 E333.37677
G0 F1285.7 X96.566 Y192.591
G1 F900 X91.73 Y187.755 E333.6385
G0 F1285.7 X92.118 Y187.648
G1 F900 X96.952 Y192.482 E333.90012
G0 F1285.7 X97.34 Y192.375
G1 F900 X92.505 Y187.54 E334.1618
G0 F1285.7 X92.892 Y187.432
G1 F900 X97.727 Y192.267 E334.42348
G0 F1285.7 X98.114 Y192.159
G1 F900 X93.279 Y187.324 E334.68515
G0 F1285.7 X93.666 Y187.216
G1 F900 X98.501 Y192.051 E334.94683
G0 F1285.7 X98.888 Y191.944
G1 F900 X94.053 Y187.108 E335.20853
G0 F1285.7 X94.44 Y187
G1 F900 X99.275 Y191.835 E335.47021
G0 F1285.7 X99.663 Y191.728
G1 F900 X94.827 Y186.893 E335.73191
G0 F1285.7 X95.214 Y186.785
G1 F900 X100.049 Y191.62 E335.99359
G0 F1285.7 X100.437 Y191.512
G1 F900 X95.602 Y186.677 E336.25526
G0 F1285.7 X95.989 Y186.569
G1 F900 X100.824 Y191.404 E336.51694
G0 F1285.7 X101.211 Y191.297
G1 F900 X96.376 Y186.461 E336.77864
G0 F1285.7 X96.763 Y186.353
G1 F900 X101.598 Y191.188 E337.04032
G0 F1285.7 X101.986 Y191.081
G1 F900 X97.15 Y186.246 E337.30202
G0 F1285.7 X97.537 Y186.138
G1 F900 X102.372 Y190.973 E337.5637
G0 F1285.7 X102.76 Y190.865
G1 F900 X97.925 Y186.03 E337.82538
G0 F1285.7 X98.311 Y185.922
G1 F900 X103.147 Y190.757 E338.08708
G0 F1285.7 X103.534 Y190.65
G1 F900 X98.699 Y185.814 E338.34878
G0 F1285.7 X99.086 Y185.706
G1 F900 X103.921 Y190.541 E338.61046
G0 F1285.7 X104.308 Y190.434
G1 F900 X99.473 Y185.599 E338.87214
G0 F1285.7 X99.86 Y185.491
G1 F900 X104.695 Y190.326 E339.13381
G0 F1285.7 X105.083 Y190.218
G1 F900 X100.247 Y185.383 E339.39552
G0 F1285.7 X100.634 Y185.275
G1 F900 X105.469 Y190.11 E339.65719
G0 F1285.7 X105.857 Y190.003
G1 F900 X101.022 Y185.167 E339.9189
G0 F1285.7 X101.409 Y185.059
G1 F900 X106.244 Y189.894 E340.18057
G0 F1285.7 X106.631 Y189.787
G1 F900 X101.796 Y184.952 E340.44225
G0 F1285.7 X102.183 Y184.844
G1 F900 X107.018 Y189.679 E340.70393
G0 F1285.7 X107.405 Y189.571
G1 F900 X102.57 Y184.736 E340.9656
G0 F1285.7 X102.957 Y184.628
G1 F900 X107.792 Y189.463 E341.22728
G0 F1285.7 X108.18 Y189.356
G1 F900 X103.345 Y184.52 E341.48898
G0 F1285.7 X103.731 Y184.412
G1 F900 X108.567 Y189.247 E341.75068
G0 F1285.7 X108.954 Y189.14
G1 F900 X104.119 Y184.305 E342.01236
G0 F1285.7 X104.506 Y184.197
G1 F900 X109.341 Y189.032 E342.27404
G0 F1285.7 X109.728 Y188.924
G1 F900 X104.893 Y184.089 E342.53571
G0 F1285.7 X105.28 Y183.981
G1 F900 X110.115 Y188.816 E342.79739
G0 F1285.7 X110.503 Y188.709
G1 F900 X105.667 Y183.873 E343.05912
G0 F1285.7 X106.054 Y183.765
G1 F900 X110.889 Y188.6 E343.3208
G0 F1285.7 X111.277 Y188.493
G1 F900 X106.442 Y183.658 E343.58247
G0 F1285.7 X106.828 Y183.55
G1 F900 X111.664 Y188.385 E343.84418
G0 F1285.7 X112.051 Y188.277
G1 F900 X107.216 Y183.442 E344.10585
G0 F1285.7 X107.603 Y183.334
G1 F900 X112.438 Y188.169 E344.36753
G0 F1285.7 X112.825 Y188.062
G1 F900 X107.99 Y183.226 E344.62923
G0 F1285.7 X108.377 Y183.118
G1 F900 X113.212 Y187.953 E344.89091
G0 F1285.7 X113.6 Y187.846
G1 F900 X108.764 Y183.01 E345.15264
G0 F1285.7 X109.151 Y182.903
G1 F900 X113.987 Y187.738 E345.41434
G0 F1285.7 X114.374 Y187.63
G1 F900 X109.538 Y182.794 E345.67607
G0 F1285.7 X109.926 Y182.687
G1 F900 X114.761 Y187.522 E345.93775
G0 F1285.7 X115.148 Y187.415
G1 F900 X110.312 Y182.579 E346.19948
G0 F1285.7 X110.7 Y182.471
G1 F900 X115.535 Y187.306 E346.46116
G0 F1285.7 X115.923 Y187.199
G1 F900 X111.087 Y182.363 E346.72289
G0 F1285.7 X111.474 Y182.256
G1 F900 X116.309 Y187.091 E346.98456
G0 F1285.7 X116.697 Y186.983
G1 F900 X111.861 Y182.147 E347.24629
G0 F1285.7 X112.248 Y182.04
G1 F900 X117.084 Y186.875 E347.508
G0 F1285.7 X117.471 Y186.768
G1 F900 X112.635 Y181.932 E347.76973
G0 F1285.7 X113.023 Y181.824
G1 F900 X117.858 Y186.659 E348.0314
G0 F1285.7 X118.245 Y186.552
G1 F900 X113.41 Y181.716 E348.29311
G0 F1285.7 X113.797 Y181.609
G1 F900 X118.632 Y186.444 E348.55478
G0 F1285.7 X119.02 Y186.336
G1 F900 X114.184 Y181.5 E348.81651
G0 F1285.7 X114.571 Y181.393
G1 F900 X119.407 Y186.228 E349.07822
G0 F1285.7 X119.794 Y186.121
G1 F900 X114.958 Y181.285 E349.33995
G0 F1285.7 X115.346 Y181.177
G1 F900 X120.181 Y186.012 E349.60163
G0 F1285.7 X120.568 Y185.905
G1 F900 X115.732 Y181.069 E349.86336
G0 F1285.7 X116.12 Y180.962
G1 F900 X120.955 Y185.797 E350.12503
G0 F1285.7 X121.343 Y185.689
G1 F900 X116.507 Y180.853 E350.38676
G0 F1285.7 X116.894 Y180.746
G1 F900 X121.729 Y185.581 E350.64844
G0 F1285.7 X122.117 Y185.474
G1 F900 X117.281 Y180.638 E350.91017
G0 F1285.7 X117.668 Y180.53
G1 F900 X122.504 Y185.365 E351.17187
G0 F1285.7 X122.891 Y185.258
G1 F900 X118.055 Y180.422 E351.4336
G0 F1285.7 X118.443 Y180.315
G1 F900 X123.278 Y185.15 E351.69528
G0 F1285.7 X123.665 Y185.042
G1 F900 X118.83 Y180.206 E351.95698
G0 F1285.7 X119.217 Y180.099
G1 F900 X124.052 Y184.934 E352.21866
G0 F1285.7 X124.44 Y184.827
G1 F900 X119.604 Y179.991 E352.48039
G0 F1285.7 X119.991 Y179.883
G1 F900 X124.826 Y184.718 E352.74207
G0 F1285.7 X125.214 Y184.611
G1 F900 X120.378 Y179.775 E353.0038
G0 F1285.7 X120.766 Y179.668
G1 F900 X125.601 Y184.503 E353.26547
G0 F1285.7 X125.988 Y184.395
G1 F900 X121.152 Y179.559 E353.5272
G0 F1285.7 X121.54 Y179.452
G1 F900 X126.375 Y184.287 E353.78888
G0 F1285.7 X126.763 Y184.18
G1 F900 X121.927 Y179.344 E354.05061
G0 F1285.7 X122.314 Y179.236
G1 F900 X127.149 Y184.071 E354.31229
G0 F1285.7 X127.537 Y183.964
G1 F900 X122.701 Y179.128 E354.57402
G0 F1285.7 X123.088 Y179.02
G1 F900 X127.924 Y183.856 E354.83575
G0 F1285.7 X128.311 Y183.748
G1 F900 X123.475 Y178.912 E355.09748
G0 F1285.7 X123.862 Y178.804
G1 F900 X128.698 Y183.64 E355.35921
G0 F1285.7 X129.085 Y183.533
G1 F900 X124.249 Y178.697 E355.62094
G0 F1285.7 X124.636 Y178.589
