;FLAVOR:Marlin
;TIME:12937
;Filament used: 10.221m
;Layer height: 0.2
;MINX:2.631
;MINY:17.497
;MINZ:0.26
;MAXX:174.526
;MAXY:197.453
;MAXZ:7.86
;Generated with Cura_SteamEngine 4.9.1
M82 ;absolute extrusion mode
;Begin Start Gcode for Dagoma DiscoEasy 200
;Sliced: 13-07-2021 17:12:04
;Initial extruder: 0

G90 ;Absolute positioning
M106 S255 ;Fan on full
G28 X Y ;Home stop X Y
G1 X100 ;Centre back during cooldown in case of oozing
M109 R90 ;Cooldown in case too hot
G28 ;Centre
G29 ;Auto-level
M104 S205 ;Pre-heat
M107 ;Fan off
G0 X100 Y5 Z0.5 ;Front centre for degunk
M109 S205 ;Wait for initial temp
M83 ;E Relative
G1 E10 F200 ;Degunk
G1 E-3 F5000 ;Retract
G0 Z3 ;Withdraw
M82 ;E absolute
G92 E0 ;E reset
G1 F6000 ;Set feedrate

;Finish Start Gcode for Dagoma DiscoEasy 200

G92 E0
G92 E0
G1 F3000 E-3.5
;LAYER_COUNT:39
;LAYER:0
M107
G0 F1285.7 X35.482 Y19.57 Z0.26
;TYPE:SKIRT
G1 F3000 E0
G1 F900 X35.775 Y19.096 E0.02133
G1 X36.132 Y18.67 E0.0426
G1 X36.547 Y18.299 E0.0639
G1 X37.01 Y17.991 E0.08518
G1 X37.513 Y17.753 E0.10648
G1 X38.045 Y17.589 E0.12778
G1 X38.595 Y17.503 E0.14908
G1 X39.151 Y17.497 E0.17036
G1 X39.703 Y17.571 E0.19168
G1 X40.238 Y17.722 E0.21295
G1 X40.746 Y17.949 E0.23425
G1 X41.216 Y18.247 E0.25554
G1 X41.796 Y18.772 E0.28548
G1 X42.456 Y19.506 E0.32326
G1 X173.132 Y169.896 E7.94777
G1 X173.61 Y170.461 E7.97609
G1 X173.938 Y170.911 E7.9974
G1 X174.198 Y171.403 E8.0187
G1 X174.386 Y171.927 E8.04
G1 X174.496 Y172.472 E8.06128
G1 X174.526 Y173.028 E8.08259
G1 X174.477 Y173.582 E8.10387
G1 X174.35 Y174.123 E8.12514
G1 X174.145 Y174.641 E8.14646
G1 X173.869 Y175.124 E8.16775
G1 X173.527 Y175.562 E8.18901
G1 X173.125 Y175.947 E8.21032
G1 X172.672 Y176.271 E8.23163
G1 X172.178 Y176.526 E8.25291
G1 X171.551 Y176.733 E8.27817
G1 X171.146 Y176.828 E8.29409
G1 X73.845 Y197.242 E12.09883
G1 X73.127 Y197.384 E12.12684
G1 X72.575 Y197.453 E12.14813
G1 X72.018 Y197.442 E12.16945
G1 X71.469 Y197.351 E12.19074
G1 X70.939 Y197.182 E12.21203
G1 X70.438 Y196.939 E12.23334
G1 X69.978 Y196.627 E12.25461
G1 X69.532 Y196.216 E12.27782
G1 X69.237 Y195.895 E12.29451
G1 X4.016 Y120.834 E16.09995
G1 X3.544 Y120.275 E16.12795
G1 X3.217 Y119.825 E16.14924
G1 X2.957 Y119.333 E16.17054
G1 X2.77 Y118.809 E16.19183
G1 X2.661 Y118.263 E16.21314
G1 X2.631 Y117.708 E16.23441
G1 X2.68 Y117.154 E16.25569
G1 X2.834 Y116.523 E16.28055
G1 X2.979 Y116.072 E16.29868
G1 X35.054 Y20.666 E20.15064
G1 X35.26 Y20.08 E20.17441
G1 X35.482 Y19.57 E20.19569
G0 F1285.7 X35.804 Y19.71
G1 F900 X36.087 Y19.262 E20.21597
G1 X36.435 Y18.861 E20.23629
G1 X36.839 Y18.517 E20.2566
G1 X37.29 Y18.237 E20.27691
G1 X37.778 Y18.029 E20.29721
G1 X38.292 Y17.896 E20.31753
G1 X38.82 Y17.841 E20.33785
G1 X39.35 Y17.867 E20.35815
G1 X39.87 Y17.972 E20.37846
G1 X40.369 Y18.153 E20.39877
G1 X40.834 Y18.408 E20.41907
G1 X41.257 Y18.729 E20.43939
G1 X41.536 Y19.006 E20.45443
G1 X42.192 Y19.736 E20.49199
G1 X172.865 Y170.122 E28.11631
G1 X173.343 Y170.687 E28.14464
G1 X173.654 Y171.117 E28.16494
G1 X173.898 Y171.589 E28.18528
G1 X174.067 Y172.091 E28.20555
G1 X174.16 Y172.614 E28.22588
G1 X174.172 Y173.145 E28.2462
G1 X174.105 Y173.671 E28.2665
G1 X173.96 Y174.181 E28.28679
G1 X173.74 Y174.664 E28.3071
G1 X173.45 Y175.108 E28.32739
G1 X173.096 Y175.504 E28.34772
G1 X172.687 Y175.842 E28.36803
G1 X172.232 Y176.115 E28.38833
G1 X171.741 Y176.317 E28.40865
G1 X171.167 Y176.465 E28.43134
G1 X171.074 Y176.486 E28.43499
G1 X73.777 Y196.899 E32.23956
G1 X73.059 Y197.041 E32.26757
G1 X72.532 Y197.104 E32.28788
G1 X72.002 Y197.088 E32.30817
G1 X71.48 Y196.992 E32.32849
G1 X70.978 Y196.819 E32.34881
G1 X70.508 Y196.573 E32.36911
G1 X70.08 Y196.259 E32.38942
G1 X69.576 Y195.748 E32.41689
G1 X69.501 Y195.665 E32.42117
G1 X4.284 Y120.608 E36.2264
G1 X3.812 Y120.049 E36.2544
G1 X3.501 Y119.619 E36.27471
G1 X3.258 Y119.147 E36.29503
G1 X3.089 Y118.644 E36.31533
G1 X2.997 Y118.122 E36.33562
G1 X2.985 Y117.591 E36.35594
G1 X3.052 Y117.065 E36.37624
G1 X3.197 Y116.533 E36.39734
G1 X3.311 Y116.184 E36.41139
G1 X35.384 Y20.782 E40.26318
G1 X35.59 Y20.196 E40.28695
G1 X35.804 Y19.71 E40.30727
G0 F1285.7 X36.125 Y19.852
G1 F900 X36.399 Y19.429 E40.32656
G1 X36.737 Y19.056 E40.34582
G1 X37.129 Y18.74 E40.36509
G1 X37.567 Y18.491 E40.38437
G1 X38.038 Y18.314 E40.40363
G1 X38.532 Y18.213 E40.42292
G1 X39.035 Y18.192 E40.44219
G1 X39.535 Y18.251 E40.46146
G1 X40.02 Y18.388 E40.48074
G1 X40.476 Y18.6 E40.49999
G1 X40.894 Y18.881 E40.51926
G1 X41.275 Y19.24 E40.5393
G1 X41.928 Y19.966 E40.57667
G1 X172.598 Y170.348 E48.2008
G1 X173.076 Y170.913 E48.22912
G1 X173.37 Y171.322 E48.24839
G1 X173.595 Y171.773 E48.26768
G1 X173.746 Y172.253 E48.28694
G1 X173.82 Y172.751 E48.30621
G1 X173.814 Y173.255 E48.3255
G1 X173.728 Y173.751 E48.34476
G1 X173.565 Y174.227 E48.36402
G1 X173.328 Y174.672 E48.38331
G1 X173.025 Y175.074 E48.40258
G1 X172.661 Y175.422 E48.42185
G1 X172.247 Y175.709 E48.44113
G1 X171.793 Y175.927 E48.4604
G1 X171.086 Y176.124 E48.48849
G1 X73.709 Y196.556 E52.29621
G1 X72.991 Y196.698 E52.32422
G1 X72.491 Y196.756 E52.34348
G1 X71.988 Y196.734 E52.36275
G1 X71.494 Y196.633 E52.38204
G1 X71.023 Y196.456 E52.4013
G1 X70.586 Y196.206 E52.42057
G1 X70.045 Y195.74 E52.44789
G1 X69.765 Y195.435 E52.46374
G1 X4.551 Y120.382 E56.26878
G1 X4.079 Y119.823 E56.29678
G1 X3.786 Y119.414 E56.31603
G1 X3.561 Y118.963 E56.33532
G1 X3.41 Y118.483 E56.35458
G1 X3.337 Y117.985 E56.37384
G1 X3.344 Y117.481 E56.39313
G1 X3.46 Y116.877 E56.41667
G1 X3.631 Y116.329 E56.43863
G1 X35.715 Y20.898 E60.29161
G1 X35.921 Y20.312 E60.31538
G1 X36.125 Y19.852 E60.33464
G1 F3000 E56.83464
;MESH:support_half_hex_24.stl
G0 F1285.7 X38.131 Y21.664
G0 X39.224 Y22.03
G0 X90.802 Y92.452
;TYPE:WALL-INNER
G1 F3000 E60.33464
G1 F900 X42.24 Y36.564 E63.16806
G1 X41.642 Y36.682 E63.19139
G1 X17.935 Y107.2 E66.0385
G1 X18.341 Y107.656 E66.06187
G1 X90.802 Y92.452 E68.8953
G0 F1285.7 X156.679 Y168.268
G1 F900 X108.117 Y112.38 E71.72873
G1 X107.519 Y112.498 E71.75205
G1 X83.812 Y183.016 E74.59917
G1 X84.218 Y183.472 E74.62253
G1 X156.679 Y168.268 E77.45596
G0 F1285.7 X169.398 Y172.699
G1 F900 X72.565 Y193.016 E81.24241
G1 X7.087 Y117.662 E85.06277
G1 X39.024 Y22.664 E88.89824
G1 X39.121 Y22.375 E88.90991
G1 X39.321 Y22.605 E88.9165
G1 X169.494 Y172.415 E96.51163
G1 X169.688 Y172.639 E96.52297
G1 X169.398 Y172.699 E96.52941
G0 F1285.7 X170.006 Y172.904
;TYPE:WALL-OUTER
G1 F900 X72.445 Y193.373 E100.34432
G1 X6.72 Y117.734 E104.17911
G1 X38.897 Y22.023 E108.04338
G1 X38.994 Y21.734 E108.05504
G1 X39.194 Y21.964 E108.06163
G1 X170.102 Y172.62 E115.69965
G1 X170.296 Y172.844 E115.71099
G1 X170.006 Y172.904 E115.71743
G0 F1285.7 X169.811 Y172.945
G0 X169.761 Y172.701
G0 X156.121 Y168.307
G0 X156.071 Y168.064
G1 F900 X108.062 Y112.812 E118.51861
G1 X107.995 Y112.735 E118.52251
G1 X107.767 Y112.78 E118.53141
G1 X107.735 Y112.877 E118.53532
G1 X84.212 Y182.845 E121.36023
G1 X84.18 Y182.941 E121.36411
G1 X84.335 Y183.115 E121.37302
G1 X84.434 Y183.095 E121.37689
G1 X156.071 Y168.064 E124.1781
G0 F1285.7 X155.94 Y167.914
G0 X156.129 Y167.751
G0 X108.062 Y112.533
G0 X90.244 Y92.491
G0 X90.194 Y92.248
G1 F900 X42.185 Y36.996 E126.97927
G1 X42.118 Y36.919 E126.98318
G1 X41.89 Y36.964 E126.99207
G1 X41.858 Y37.061 E126.99598
G1 X18.335 Y107.029 E129.8209
G1 X18.303 Y107.125 E129.82477
G1 X18.458 Y107.299 E129.83369
G1 X18.557 Y107.279 E129.83755
G1 X90.194 Y92.248 E132.63877
G0 F1285.7 X90.063 Y92.098
G0 X90.252 Y91.935
G0 X91.438 Y92.666
;TYPE:SKIN
G1 F900 X42.368 Y36.193 E135.50184
G1 X41.382 Y36.387 E135.5403
G1 X17.55 Y107.279 E138.4025
G1 X18.218 Y108.029 E138.44094
G1 X91.438 Y92.666 E141.30405
G0 F1285.7 X107.259 Y112.203
G1 F900 X83.427 Y183.095 E144.16625
G1 X84.095 Y183.845 E144.20469
G1 X157.315 Y168.482 E147.0678
G1 X108.245 Y112.009 E149.93087
G1 X107.259 Y112.203 E149.96933
G0 F1285.7 X39.254 Y23.047
G1 F900 X169.052 Y172.426 E157.5426
G1 X72.692 Y192.643 E161.31054
G1 X7.471 Y117.586 E165.11587
G1 X39.254 Y23.047 E168.93282
G0 F1285.7 X39.284 Y23.445
G1 F900 X40.107 Y24.268 E168.97736
G1 X40.169 Y24.33
G0 F1285.7 X39.16 Y23.816
G1 F900 X43.389 Y28.045 E169.20624
G1 X43.451 Y28.107
G0 F1285.7 X46.67 Y31.821
G1 F900 X39.035 Y24.186 E169.61945
G0 F1285.7 X38.91 Y24.556
G1 F900 X49.952 Y35.597 E170.21704
G1 X50.014 Y35.659
G0 F1285.7 X53.233 Y39.374
G1 F900 X38.786 Y24.926 E170.99895
G0 F1285.7 X38.661 Y25.297
G1 F900 X56.514 Y43.15 E171.96518
G1 X56.576 Y43.212
G0 F1285.7 X59.796 Y46.927
G1 F900 X38.537 Y25.667 E173.11577
G0 F1285.7 X38.412 Y26.038
G1 F900 X63.078 Y50.703 E174.4507
G1 X63.14 Y50.765
G0 F1285.7 X66.359 Y54.48
G1 F900 X38.288 Y26.409 E175.96994
G0 F1285.7 X38.163 Y26.779
G1 F900 X69.64 Y58.256 E177.67351
G1 X69.702 Y58.318
G0 F1285.7 X72.922 Y62.033
G1 F900 X38.039 Y27.15 E179.56142
G0 F1285.7 X37.914 Y27.519
G1 F900 X76.204 Y65.809 E181.63373
G1 X76.266 Y65.871
G0 F1285.7 X79.485 Y69.585
G1 F900 X37.789 Y27.89 E183.89034
G0 F1285.7 X37.665 Y28.26
G1 F900 X82.766 Y73.362 E186.33129
G1 X82.828 Y73.424
G0 F1285.7 X86.048 Y77.138
G1 F900 X37.541 Y28.631 E188.95655
G0 F1285.7 X37.416 Y29.001
G1 F900 X89.329 Y80.914 E191.76615
G1 X89.391 Y80.976
G0 F1285.7 X92.611 Y84.691
G1 F900 X37.292 Y29.372 E194.76009
G0 F1285.7 X37.167 Y29.743
G1 F900 X95.892 Y88.468 E197.93836
G1 X95.954 Y88.53
G0 F1285.7 X99.173 Y92.244
G1 F900 X37.043 Y30.113 E201.30094
G0 F1285.7 X36.918 Y30.484
G1 F900 X102.455 Y96.02 E204.84786
G1 X102.517 Y96.082
G0 F1285.7 X105.737 Y99.797
G1 F900 X45.51 Y39.57 E208.10742
G1 X45.448 Y39.508
G0 F1285.7 X42.037 Y36.097
G1 F900 X36.793 Y30.853 E208.39123
G0 F1285.7 X36.669 Y31.224
G1 F900 X41.623 Y36.179 E208.65938
G0 F1285.7 X41.246 Y36.297
G1 F900 X36.544 Y31.594 E208.91388
G0 F1285.7 X36.42 Y31.965
G1 F900 X41.122 Y36.667 E209.16836
G0 F1285.7 X40.998 Y37.038
G1 F900 X36.295 Y32.335 E209.42289
G0 F1285.7 X36.171 Y32.706
G1 F900 X40.873 Y37.408 E209.67737
G0 F1285.7 X40.749 Y37.779
G1 F900 X36.046 Y33.077 E209.93188
G0 F1285.7 X35.922 Y33.447
G1 F900 X40.624 Y38.149 E210.18635
G0 F1285.7 X40.5 Y38.52
G1 F900 X35.797 Y33.817 E210.44089
G0 F1285.7 X35.672 Y34.187
G1 F900 X40.375 Y38.89 E210.69542
G0 F1285.7 X40.25 Y39.26
G1 F900 X35.548 Y34.558 E210.9499
G0 F1285.7 X35.423 Y34.928
G1 F900 X40.126 Y39.631 E211.20443
G0 F1285.7 X40.001 Y40.001
G1 F900 X35.299 Y35.299 E211.45891
G0 F1285.7 X35.175 Y35.67
G1 F900 X39.877 Y40.372 E211.71339
G0 F1285.7 X39.752 Y40.742
G1 F900 X35.05 Y36.04 E211.96786
G0 F1285.7 X34.926 Y36.411
G1 F900 X39.628 Y41.113 E212.22234
G0 F1285.7 X39.503 Y41.483
G1 F900 X34.801 Y36.781 E212.47682
G0 F1285.7 X34.676 Y37.151
G1 F900 X39.379 Y41.854 E212.73135
G0 F1285.7 X39.254 Y42.224
G1 F900 X34.552 Y37.521 E212.98586
G0 F1285.7 X34.427 Y37.892
G1 F900 X39.129 Y42.594 E213.24034
G0 F1285.7 X39.005 Y42.965
G1 F900 X34.303 Y38.262 E213.49484
G0 F1285.7 X34.178 Y38.633
G1 F900 X38.88 Y43.335 E213.74932
G0 F1285.7 X38.756 Y43.706
G1 F900 X34.054 Y39.004 E214.0038
G0 F1285.7 X33.929 Y39.374
G1 F900 X38.632 Y44.076 E214.2583
G0 F1285.7 X38.507 Y44.447
G1 F900 X33.805 Y39.745 E214.51278
G0 F1285.7 X33.68 Y40.114
G1 F900 X38.383 Y44.817 E214.76731
G0 F1285.7 X38.258 Y45.187
G1 F900 X33.555 Y40.485 E215.02182
G0 F1285.7 X33.431 Y40.855
G1 F900 X38.133 Y45.558 E215.27632
G0 F1285.7 X38.009 Y45.928
G1 F900 X33.306 Y41.226 E215.53083
G0 F1285.7 X33.182 Y41.596
G1 F900 X37.884 Y46.299 E215.78533
G0 F1285.7 X37.76 Y46.669
G1 F900 X33.057 Y41.967 E216.03984
G0 F1285.7 X32.933 Y42.338
G1 F900 X37.635 Y47.04 E216.29432
G0 F1285.7 X37.511 Y47.41
G1 F900 X32.809 Y42.708 E216.5488
G0 F1285.7 X32.683 Y43.078
G1 F900 X37.386 Y47.781 E216.80333
G0 F1285.7 X37.261 Y48.151
G1 F900 X32.559 Y43.448 E217.05783
G0 F1285.7 X32.434 Y43.819
G1 F900 X37.137 Y48.521 E217.31234
G0 F1285.7 X37.012 Y48.892
G1 F900 X32.31 Y44.189 E217.56684
G0 F1285.7 X32.186 Y44.56
G1 F900 X36.888 Y49.262 E217.82132
G0 F1285.7 X36.763 Y49.633
G1 F900 X32.061 Y44.93 E218.07583
G0 F1285.7 X31.937 Y45.301
G1 F900 X36.639 Y50.003 E218.33031
G0 F1285.7 X36.514 Y50.374
G1 F900 X31.812 Y45.672 E218.58478
G0 F1285.7 X31.688 Y46.042
G1 F900 X36.39 Y50.744 E218.83926
G0 F1285.7 X36.266 Y51.115
G1 F900 X31.563 Y46.412 E219.0938
G0 F1285.7 X31.438 Y46.782
G1 F900 X36.14 Y51.485 E219.3483
G0 F1285.7 X36.016 Y51.855
G1 F900 X31.314 Y47.153 E219.60278
G0 F1285.7 X31.189 Y47.523
G1 F900 X35.892 Y52.226 E219.85731
G0 F1285.7 X35.767 Y52.596
G1 F900 X31.065 Y47.894 E220.11179
G0 F1285.7 X30.94 Y48.264
G1 F900 X35.643 Y52.967 E220.36632
G0 F1285.7 X35.518 Y53.337
G1 F900 X30.816 Y48.635 E220.6208
G0 F1285.7 X30.691 Y49.006
G1 F900 X35.394 Y53.708 E220.87531
G0 F1285.7 X35.269 Y54.078
G1 F900 X30.566 Y49.375 E221.12984
G0 F1285.7 X30.442 Y49.746
G1 F900 X35.144 Y54.448 E221.38432
G0 F1285.7 X35.02 Y54.819
G1 F900 X30.317 Y50.116 E221.63885
G0 F1285.7 X30.193 Y50.487
G1 F900 X34.895 Y55.189 E221.89333
G0 F1285.7 X34.771 Y55.56
G1 F900 X30.069 Y50.857 E222.14783
G0 F1285.7 X29.944 Y51.228
G1 F900 X34.646 Y55.93 E222.40231
G0 F1285.7 X34.522 Y56.301
G1 F900 X29.82 Y51.598 E222.65682
G0 F1285.7 X29.695 Y51.969
G1 F900 X34.397 Y56.671 E222.91129
G0 F1285.7 X34.273 Y57.042
G1 F900 X29.571 Y52.34 E223.16577
G0 F1285.7 X29.446 Y52.709
G1 F900 X34.148 Y57.412 E223.42028
G0 F1285.7 X34.023 Y57.782
G1 F900 X29.321 Y53.08 E223.67476
G0 F1285.7 X29.197 Y53.45
G1 F900 X33.899 Y58.153 E223.92926
G0 F1285.7 X33.774 Y58.523
G1 F900 X29.072 Y53.821 E224.18374
G0 F1285.7 X28.948 Y54.191
G1 F900 X33.65 Y58.894 E224.43824
G0 F1285.7 X33.526 Y59.264
G1 F900 X28.823 Y54.562 E224.69275
G0 F1285.7 X28.699 Y54.933
G1 F900 X33.401 Y59.635 E224.94723
G0 F1285.7 X33.277 Y60.005
G1 F900 X28.574 Y55.303 E225.20173
G0 F1285.7 X28.449 Y55.673
G1 F900 X33.152 Y60.376 E225.45627
G0 F1285.7 X33.027 Y60.746
G1 F900 X28.325 Y56.043 E225.71077
G0 F1285.7 X28.2 Y56.414
G1 F900 X32.903 Y61.116 E225.96528
G0 F1285.7 X32.778 Y61.487
G1 F900 X28.076 Y56.784 E226.21978
G0 F1285.7 X27.951 Y57.155
G1 F900 X32.654 Y61.857 E226.47429
G0 F1285.7 X32.529 Y62.228
G1 F900 X27.827 Y57.525 E226.72879
G0 F1285.7 X27.703 Y57.896
G1 F900 X32.405 Y62.598 E226.98327
G0 F1285.7 X32.28 Y62.969
G1 F900 X27.578 Y58.267 E227.23775
G0 F1285.7 X27.453 Y58.636
G1 F900 X32.156 Y63.339 E227.49228
G0 F1285.7 X32.031 Y63.709
G1 F900 X27.328 Y59.007 E227.74679
G0 F1285.7 X27.204 Y59.377
G1 F900 X31.906 Y64.08 E228.00129
G0 F1285.7 X31.782 Y64.45
G1 F900 X27.08 Y59.748 E228.25577
G0 F1285.7 X26.955 Y60.118
G1 F900 X31.657 Y64.821 E228.51027
G0 F1285.7 X31.533 Y65.191
G1 F900 X26.831 Y60.489 E228.76475
G0 F1285.7 X26.706 Y60.859
G1 F900 X31.408 Y65.562 E229.01926
G0 F1285.7 X31.284 Y65.932
G1 F900 X26.582 Y61.23 E229.27374
G0 F1285.7 X26.457 Y61.601
G1 F900 X31.16 Y66.303 E229.52824
G0 F1285.7 X31.034 Y66.673
G1 F900 X26.332 Y61.97 E229.78275
G0 F1285.7 X26.208 Y62.341
G1 F900 X30.91 Y67.043 E230.03723
G0 F1285.7 X30.786 Y67.414
G1 F900 X26.083 Y62.711 E230.29176
G0 F1285.7 X25.959 Y63.082
G1 F900 X30.661 Y67.784 E230.54624
G0 F1285.7 X30.537 Y68.155
G1 F900 X25.834 Y63.452 E230.80077
G0 F1285.7 X25.71 Y63.823
G1 F900 X30.412 Y68.525 E231.05525
G0 F1285.7 X30.288 Y68.896
G1 F900 X25.585 Y64.193 E231.30978
G0 F1285.7 X25.461 Y64.564
G1 F900 X30.163 Y69.266 E231.56426
G0 F1285.7 X30.038 Y69.636
G1 F900 X25.336 Y64.934 E231.81874
G0 F1285.7 X25.211 Y65.304
G1 F900 X29.914 Y70.007 E232.07327
G0 F1285.7 X29.789 Y70.377
G1 F900 X25.087 Y65.675 E232.32775
G0 F1285.7 X24.962 Y66.045
G1 F900 X29.665 Y70.748 E232.58228
G0 F1285.7 X29.54 Y71.118
G1 F900 X24.838 Y66.416 E232.83676
G0 F1285.7 X24.714 Y66.786
G1 F900 X29.416 Y71.489 E233.09126
G0 F1285.7 X29.291 Y71.859
G1 F900 X24.589 Y67.157 E233.34574
G0 F1285.7 X24.465 Y67.527
G1 F900 X29.167 Y72.23 E233.60025
G0 F1285.7 X29.042 Y72.6
G1 F900 X24.34 Y67.897 E233.85475
G0 F1285.7 X24.215 Y68.268
G1 F900 X28.917 Y72.97 E234.10923
G0 F1285.7 X28.793 Y73.341
G1 F900 X24.091 Y68.638 E234.36373
G0 F1285.7 X23.966 Y69.009
G1 F900 X28.668 Y73.711 E234.61821
G0 F1285.7 X28.544 Y74.082
G1 F900 X23.842 Y69.379 E234.87272
G0 F1285.7 X23.717 Y69.75
G1 F900 X28.42 Y74.452 E235.12722
