;FLAVOR:Marlin
;TIME:12975
;Filament used: 22.6937m
;Layer height: 0.3
;MINX:12.867
;MINY:27.239
;MINZ:0.26
;MAXX:189.7
;MAXY:200.578
;MAXZ:24.56
;Generated with Cura_SteamEngine 4.9.1
M82 ;absolute extrusion mode
;Begin Start Gcode for Dagoma DiscoEasy 200
;Sliced: 01-08-2021 01:36:34
;Initial extruder: 0

G90 ;Absolute positioning
M106 S255 ;Fan on full
G28 X Y ;Home stop X Y
G1 X100 ;Centre back during cooldown in case of oozing
M109 R90 ;Cooldown in case too hot
G28 ;Centre
G29 ;Auto-level
M104 S205 ;Pre-heat
M107 ;Fan off
G0 X100 Y5 Z0.5 ;Front centre for degunk
M109 S205 ;Wait for initial temp
M83 ;E Relative
G1 E10 F200 ;Degunk
G1 E-3 F5000 ;Retract
G0 Z3 ;Withdraw
M82 ;E absolute
G92 E0 ;E reset
G1 F6000 ;Set feedrate

;Finish Start Gcode for Dagoma DiscoEasy 200

G92 E0
G92 E0
G1 F3000 E-3.5
;LAYER_COUNT:82
;LAYER:0
M107
G0 F1285.7 X14.965 Y52.931 Z0.26
;TYPE:SKIRT
G1 F3000 E0
G1 F900 X15.888 Y52.672 E0.03669
G1 X21.704 Y51.161 E0.26665
G1 X24.354 Y50.432 E0.37183
G1 X26.956 Y49.637 E0.47595
G1 X29.589 Y48.75 E0.58228
G1 X32.184 Y47.793 E0.68813
G1 X34.687 Y46.789 E0.79134
G1 X37.245 Y45.678 E0.89806
G1 X39.497 Y44.628 E0.99316
G1 X39.961 Y44.452 E1.01215
G1 X41.044 Y44.15 E1.05517
G1 X44.304 Y43.31 E1.18401
G1 X44.927 Y43.158 E1.20855
G1 X45.441 Y43.078 E1.22846
G1 X46.389 Y43.013 E1.26482
G1 X49.166 Y42.783 E1.37146
G1 X51.886 Y42.48 E1.4762
G1 X54.586 Y42.102 E1.58053
G1 X57.333 Y41.637 E1.68715
G1 X60.012 Y41.106 E1.79167
G1 X62.66 Y40.502 E1.89561
G1 X64.21 Y40.114 E1.95676
G1 X72.613 Y37.93 E2.28902
G1 X75.309 Y37.187 E2.39604
G1 X77.906 Y36.394 E2.49996
G1 X80.504 Y35.518 E2.60488
G1 X83.092 Y34.563 E2.71045
G1 X85.612 Y33.553 E2.81435
G1 X88.728 Y32.188 E2.94454
G1 X89.883 Y31.659 E2.99316
G1 X90.518 Y31.441 E3.01885
G1 X91.762 Y31.111 E3.0681
G1 X92.842 Y30.834 E3.11077
G1 X94.742 Y30.334 E3.18596
G1 X95.449 Y30.158 E3.21384
G1 X95.934 Y30.081 E3.23263
G1 X96.764 Y30.02 E3.26448
G1 X99.525 Y29.778 E3.37055
G1 X102.292 Y29.455 E3.47716
G1 X104.997 Y29.063 E3.58176
G1 X107.691 Y28.594 E3.68641
G1 X110.37 Y28.049 E3.79104
G1 X112.767 Y27.494 E3.88519
G1 X113.505 Y27.313 E3.91427
G1 X113.978 Y27.239 E3.9326
G1 X114.457 Y27.244 E3.95093
G1 X114.929 Y27.328 E3.96927
G1 X115.48 Y27.538 E3.99184
G1 X115.679 Y27.638 E4.00036
G1 X117.889 Y28.792 E4.09578
G1 X120.355 Y29.991 E4.20071
G1 X122.835 Y31.111 E4.30485
G1 X125.43 Y32.198 E4.41252
G1 X127.948 Y33.165 E4.51574
G1 X130.543 Y34.08 E4.62105
G1 X133.145 Y34.917 E4.72565
G1 X135.815 Y35.694 E4.83207
G1 X137.687 Y36.172 E4.90601
G1 X138.772 Y36.46 E4.94897
G1 X139.223 Y36.621 E4.96729
G1 X139.81 Y36.978 E4.99359
G1 X140.048 Y37.185 E5.00566
G1 X140.522 Y37.644 E5.03091
G1 X141.643 Y38.761 E5.09147
G1 X142.144 Y39.277 E5.11899
G1 X142.536 Y39.784 E5.14352
G1 X142.907 Y40.393 E5.17081
G1 X143.627 Y41.616 E5.22512
G1 X145.098 Y43.961 E5.33106
G1 X146.601 Y46.211 E5.43461
G1 X148.213 Y48.482 E5.54119
G1 X149.85 Y50.656 E5.64533
G1 X151.573 Y52.816 E5.75107
G1 X153.344 Y54.909 E5.856
G1 X155.169 Y56.946 E5.96067
G1 X157.092 Y58.976 E6.06767
G1 X158.997 Y60.875 E6.17061
G1 X161.011 Y62.773 E6.27652
G1 X163.059 Y64.597 E6.38148
G1 X165.171 Y66.373 E6.48708
G1 X167.325 Y68.082 E6.59231
G1 X169.492 Y69.705 E6.69592
G1 X171.78 Y71.318 E6.80305
G1 X174.035 Y72.814 E6.90661
G1 X176.437 Y74.312 E7.01495
G1 X177.326 Y74.85 E7.05471
G1 X177.841 Y75.247 E7.0796
G1 X178.374 Y75.764 E7.10801
G1 X179.264 Y76.654 E7.15618
G1 X179.756 Y77.159 E7.18316
G1 X180.061 Y77.529 E7.20151
G1 X180.3 Y77.944 E7.21984
G1 X180.494 Y78.498 E7.2423
G1 X180.667 Y79.227 E7.27098
G1 X180.971 Y80.579 E7.32401
G1 X181.647 Y83.238 E7.42901
G1 X182.395 Y85.867 E7.53361
G1 X183.235 Y88.529 E7.64043
G1 X184.111 Y91.059 E7.7429
G1 X185.103 Y93.678 E7.85007
G1 X186.135 Y96.188 E7.95393
G1 X187.227 Y98.645 E8.05683
G1 X187.811 Y99.911 E8.11018
G1 X187.974 Y100.361 E8.1285
G1 X188.061 Y100.832 E8.14683
G1 X188.068 Y101.311 E8.16516
G1 X188.023 Y101.659 E8.17859
G1 X187.763 Y103.009 E8.2312
G1 X187.288 Y105.673 E8.33476
G1 X186.872 Y108.471 E8.44302
G1 X186.55 Y111.147 E8.54617
G1 X186.298 Y113.903 E8.65208
G1 X186.126 Y116.633 E8.75676
G1 X186.03 Y119.371 E8.86161
G1 X186.021 Y120.354 E8.89923
G1 X186.007 Y120.918 E8.92082
G1 X185.914 Y121.578 E8.94632
G1 X185.406 Y123.511 E9.02281
G1 X184.689 Y126.179 E9.12854
G1 X184.591 Y126.537 E9.14274
G1 X183.997 Y128.765 E9.23098
G1 X183.673 Y129.908 E9.27645
G1 X183.47 Y130.585 E9.3035
G1 X183.292 Y131.035 E9.32202
G1 X182.809 Y132.01 E9.36366
G1 X182.718 Y132.185 E9.37121
G1 X181.54 Y134.627 E9.47497
G1 X180.411 Y137.149 E9.58071
G1 X179.359 Y139.686 E9.68582
G1 X178.365 Y142.289 E9.79245
G1 X177.477 Y144.837 E9.89571
G1 X176.627 Y147.507 E10.00294
G1 X175.892 Y150.068 E10.10491
G1 X175.2 Y152.763 E10.21139
G1 X174.589 Y155.453 E10.31696
G1 X174.056 Y158.156 E10.42239
G1 X173.606 Y160.831 E10.5262
G1 X173.219 Y163.612 E10.63365
G1 X172.952 Y166 E10.72561
G1 X172.813 Y167.395 E10.77926
G1 X172.661 Y168.138 E10.80829
G1 X171.808 Y171.335 E10.93491
G1 X171.768 Y171.506 E10.94163
G1 X171.059 Y174.152 E11.04647
G1 X170.918 Y174.726 E11.06909
G1 X170.41 Y176.576 E11.14251
G1 X170.122 Y177.406 E11.17613
G1 X169.796 Y177.994 E11.20186
G1 X168.794 Y179.688 E11.27718
G1 X167.466 Y182.086 E11.38208
G1 X166.222 Y184.49 E11.48567
G1 X164.994 Y187.037 E11.59388
G1 X163.89 Y189.505 E11.69735
G1 X162.844 Y192.029 E11.80191
G1 X161.841 Y194.655 E11.90948
G1 X160.857 Y197.492 E12.0244
G1 X160.487 Y198.614 E12.06961
G1 X160.299 Y199.055 E12.08796
G1 X160.041 Y199.459 E12.1063
G1 X159.719 Y199.814 E12.12464
G1 X159.343 Y200.111 E12.14298
G1 X158.923 Y200.341 E12.16131
G1 X158.47 Y200.498 E12.17965
G1 X157.998 Y200.578 E12.19797
G1 X157.519 Y200.578 E12.21631
G1 X157.046 Y200.499 E12.23466
G1 X156.593 Y200.342 E12.25301
G1 X156.173 Y200.112 E12.27133
G1 X155.543 Y199.576 E12.30299
G1 X92.167 Y136.202 E15.73292
G1 X90.173 Y134.264 E15.83934
G1 X88.137 Y132.394 E15.94513
G1 X86.059 Y130.592 E16.05039
G1 X83.95 Y128.862 E16.15478
G1 X81.76 Y127.169 E16.26071
G1 X79.585 Y125.585 E16.36368
G1 X77.271 Y123.997 E16.47109
G1 X74.983 Y122.519 E16.57533
G1 X72.616 Y121.084 E16.68126
G1 X70.252 Y119.741 E16.78531
G1 X67.814 Y118.445 E16.89097
G1 X67.2 Y118.139 E16.91723
G1 X66.531 Y117.792 E16.94607
G1 X66.126 Y117.537 E16.96438
G1 X65.649 Y117.095 E16.98927
G1 X65.576 Y117.018 E16.99333
G1 X64.984 Y116.361 E17.02718
G1 X64.557 Y115.802 E17.0541
G1 X64.452 Y115.628 E17.06187
G1 X63.238 Y113.56 E17.15364
G1 X61.782 Y111.24 E17.25846
G1 X60.25 Y108.939 E17.36425
G1 X58.668 Y106.707 E17.46895
G1 X57.011 Y104.502 E17.57451
G1 X55.312 Y102.37 E17.67884
G1 X53.531 Y100.261 E17.78448
G1 X51.704 Y98.217 E17.88939
G1 X49.785 Y96.188 E17.99627
G1 X47.881 Y94.287 E18.09923
G1 X45.873 Y92.39 E18.20495
G1 X43.821 Y90.561 E18.31014
G1 X41.712 Y88.785 E18.41566
G1 X39.583 Y87.091 E18.51978
G1 X37.372 Y85.434 E18.62552
G1 X35.123 Y83.846 E18.73088
G1 X32.853 Y82.335 E18.83524
G1 X30.513 Y80.872 E18.94085
G1 X29.709 Y80.405 E18.97643
G1 X29.626 Y80.347 E18.98031
G1 X28.527 Y79.694 E19.02923
G1 X28 Y79.292 E19.0546
G1 X27.405 Y78.718 E19.08624
G1 X27.006 Y78.308 E19.10813
G1 X26.703 Y77.937 E19.12646
G1 X26.494 Y77.581 E19.14226
G1 X26.166 Y76.916 E19.17064
G1 X24.905 Y74.452 E19.27656
G1 X23.6 Y72.069 E19.38054
G1 X22.212 Y69.698 E19.48568
G1 X20.745 Y67.346 E19.59176
G1 X19.25 Y65.093 E19.69524
G1 X17.629 Y62.794 E19.80289
G1 X16.023 Y60.649 E19.90544
G1 X14.163 Y58.309 E20.01983
G1 X13.517 Y57.52 E20.05886
G1 X13.246 Y57.125 E20.07719
G1 X13.043 Y56.691 E20.09553
G1 X12.916 Y56.229 E20.11386
G1 X12.867 Y55.752 E20.13221
G1 X12.899 Y55.274 E20.15055
G1 X13.009 Y54.808 E20.16887
G1 X13.195 Y54.366 E20.18722
G1 X13.451 Y53.961 E20.20556
G1 X13.772 Y53.605 E20.2239
G1 X14.147 Y53.307 E20.24223
G1 X14.566 Y53.075 E20.26056
G1 X14.965 Y52.931 E20.2768
G0 F1285.7 X15.059 Y53.268
G1 F900 X15.976 Y53.011 E20.31324
G1 X21.757 Y51.509 E20.54182
G1 X24.458 Y50.766 E20.64903
G1 X27.092 Y49.961 E20.75443
G1 X29.711 Y49.078 E20.8602
G1 X32.293 Y48.127 E20.96551
G1 X34.815 Y47.115 E21.0695
G1 X37.39 Y45.996 E21.17695
G1 X39.541 Y44.994 E21.26776
G1 X40.055 Y44.789 E21.28894
G1 X41.132 Y44.489 E21.33172
G1 X44.387 Y43.65 E21.46036
G1 X45.01 Y43.498 E21.4849
G1 X45.465 Y43.427 E21.50253
G1 X46.441 Y43.36 E21.53996
G1 X49.195 Y43.132 E21.64572
G1 X51.903 Y42.83 E21.75
G1 X54.663 Y42.444 E21.85665
G1 X57.385 Y41.983 E21.9623
G1 X60.089 Y41.447 E22.06779
G1 X62.784 Y40.833 E22.17357
G1 X64.299 Y40.453 E22.23335
G1 X72.72 Y38.264 E22.56633
G1 X75.361 Y37.537 E22.67116
G1 X78.009 Y36.727 E22.77713
G1 X80.637 Y35.842 E22.88325
G1 X83.232 Y34.884 E22.98911
G1 X85.752 Y33.873 E23.09302
G1 X88.848 Y32.518 E23.22235
G1 X90.029 Y31.977 E23.27207
G1 X90.617 Y31.777 E23.29584
G1 X91.849 Y31.45 E23.34462
G1 X92.913 Y31.177 E23.38665
G1 X94.827 Y30.674 E23.46239
G1 X95.534 Y30.498 E23.49027
G1 X95.959 Y30.43 E23.50674
G1 X96.826 Y30.366 E23.54001
G1 X99.562 Y30.127 E23.64512
G1 X102.313 Y29.805 E23.75112
G1 X105.033 Y29.411 E23.85629
G1 X107.786 Y28.931 E23.96324
G1 X110.443 Y28.391 E24.067
G1 X112.844 Y27.835 E24.16132
G1 X113.588 Y27.653 E24.19063
G1 X114.032 Y27.586 E24.20781
G1 X114.481 Y27.598 E24.225
G1 X114.92 Y27.69 E24.24217
G1 X115.484 Y27.931 E24.26564
G1 X117.692 Y29.084 E24.36097
G1 X120.229 Y30.318 E24.46893
G1 X122.698 Y31.433 E24.57261
G1 X125.3 Y32.523 E24.68057
G1 X127.829 Y33.494 E24.78424
G1 X130.419 Y34.408 E24.88935
G1 X133.05 Y35.254 E24.99511
G1 X135.715 Y36.029 E25.10133
G1 X137.597 Y36.511 E25.17568
G1 X138.682 Y36.799 E25.21864
G1 X139.104 Y36.952 E25.23581
G1 X139.594 Y37.254 E25.25784
G1 X139.805 Y37.436 E25.26851
G1 X140.275 Y37.892 E25.29357
G1 X141.392 Y39.005 E25.35391
G1 X141.893 Y39.521 E25.38144
G1 X142.237 Y39.966 E25.40296
G1 X142.585 Y40.537 E25.42855
G1 X143.325 Y41.795 E25.48441
G1 X144.791 Y44.13 E25.58992
G1 X146.332 Y46.438 E25.69612
G1 X147.915 Y48.668 E25.80078
G1 X149.589 Y50.893 E25.90734
G1 X151.276 Y53.006 E26.01081
G1 X153.08 Y55.138 E26.11769
G1 X154.938 Y57.212 E26.22425
G1 X156.803 Y59.182 E26.32807
G1 X158.776 Y61.148 E26.43466
G1 X160.766 Y63.024 E26.53932
G1 X162.849 Y64.878 E26.64604
G1 X164.938 Y66.635 E26.7505
G1 X167.107 Y68.356 E26.85647
G1 X169.291 Y69.991 E26.96087
G1 X171.571 Y71.599 E27.06764
G1 X173.85 Y73.112 E27.17233
G1 X176.252 Y74.609 E27.28065
G1 X177.145 Y75.149 E27.32058
G1 X177.597 Y75.498 E27.34244
G1 X178.126 Y76.012 E27.37066
G1 X179.014 Y76.898 E27.41867
G1 X179.506 Y77.403 E27.44565
G1 X179.789 Y77.751 E27.46282
G1 X180.006 Y78.144 E27.48
G1 X180.153 Y78.579 E27.49757
G1 X180.326 Y79.304 E27.52609
G1 X180.634 Y80.675 E27.57987
G1 X181.3 Y83.296 E27.68336
G1 X182.07 Y86.001 E27.79099
G1 X182.888 Y88.596 E27.89512
G1 X183.8 Y91.226 E28.00165
G1 X184.777 Y93.805 E28.10719
G1 X185.818 Y96.339 E28.21203
G1 X186.909 Y98.791 E28.31473
G1 X187.493 Y100.057 E28.36809
G1 X187.644 Y100.48 E28.38528
G1 X187.718 Y100.923 E28.40247
G1 X187.679 Y101.593 E28.42815
G1 X187.426 Y102.908 E28.4794
G1 X186.938 Y105.649 E28.58594
G1 X186.53 Y108.395 E28.69219
G1 X186.197 Y111.157 E28.79865
G1 X185.951 Y113.849 E28.9021
G1 X185.775 Y116.636 E29.00897
G1 X185.68 Y119.342 E29.11259
G1 X185.671 Y120.346 E29.15102
G1 X185.657 Y120.91 E29.17261
G1 X185.575 Y121.489 E29.19499
G1 X185.068 Y123.42 E29.27139
G1 X184.351 Y126.087 E29.37708
G1 X184.253 Y126.445 E29.39128
G1 X183.66 Y128.669 E29.47937
G1 X183.338 Y129.807 E29.52463
G1 X183.135 Y130.484 E29.55168
G1 X182.979 Y130.879 E29.56793
G1 X182.498 Y131.849 E29.60937
G1 X182.412 Y132.014 E29.61649
G1 X181.23 Y134.464 E29.72059
G1 X180.074 Y137.046 E29.82885
G1 X179.045 Y139.527 E29.93164
G1 X178.032 Y142.179 E30.04028
G1 X177.144 Y144.727 E30.14355
G1 X176.305 Y147.363 E30.24941
G1 X175.546 Y150.008 E30.35472
G1 X174.855 Y152.7 E30.46108
G1 X174.245 Y155.383 E30.56638
G1 X173.717 Y158.065 E30.67099
G1 X173.257 Y160.794 E30.7769
G1 X172.872 Y163.564 E30.88392
G1 X172.604 Y165.965 E30.97638
G1 X172.465 Y167.36 E31.03003
G1 X172.321 Y168.056 E31.05723
G1 X171.473 Y171.225 E31.18277
G1 X171.43 Y171.416 E31.19026
G1 X170.707 Y174.115 E31.29719
G1 X170.579 Y174.636 E31.31773
G1 X170.075 Y176.475 E31.3907
G1 X169.807 Y177.254 E31.42223
G1 X169.492 Y177.82 E31.44702
G1 X168.493 Y179.51 E31.52215
G1 X167.155 Y181.927 E31.62787
G1 X165.891 Y184.37 E31.73314
G1 X164.698 Y186.843 E31.83821
G1 X163.567 Y189.37 E31.94416
G1 X162.514 Y191.913 E32.0495
G1 X161.523 Y194.506 E32.15573
G1 X160.527 Y197.378 E32.27206
G1 X160.155 Y198.505 E32.31748
G1 X159.977 Y198.917 E32.33466
G1 X159.728 Y199.291 E32.35185
G1 X159.418 Y199.615 E32.36901
G1 X159.054 Y199.879 E32.38622
G1 X158.65 Y200.075 E32.4034
G1 X158.218 Y200.196 E32.42057
G1 X157.771 Y200.238 E32.43775
G1 X157.323 Y200.2 E32.45496
G1 X156.89 Y200.084 E32.47212
G1 X156.483 Y199.893 E32.48932
G1 X156.022 Y199.548 E32.51136
G1 X155.783 Y199.322 E32.52394
G1 X92.411 Y135.951 E35.95369
G1 X90.406 Y134.003 E36.06067
G1 X88.375 Y132.137 E36.16622
G1 X86.279 Y130.32 E36.27238
G1 X84.176 Y128.595 E36.37647
G1 X81.97 Y126.889 E36.48319
G1 X79.771 Y125.288 E36.58729
G1 X77.473 Y123.711 E36.69395
G1 X75.16 Y122.217 E36.79933
G1 X72.811 Y120.793 E36.90445
G1 X70.419 Y119.433 E37.00975
G1 X67.978 Y118.136 E37.11554
G1 X67.361 Y117.828 E37.14193
G1 X66.692 Y117.481 E37.17077
G1 X66.314 Y117.24 E37.18792
G1 X65.9 Y116.851 E37.20966
G1 X65.836 Y116.783 E37.21324
G1 X65.249 Y116.133 E37.24675
G1 X64.856 Y115.621 E37.27146
G1 X64.754 Y115.451 E37.27904
G1 X63.539 Y113.383 E37.37083
G1 X62.063 Y111.029 E37.47716
G1 X60.547 Y108.753 E37.58182
G1 X58.942 Y106.488 E37.68805
G1 X57.298 Y104.301 E37.79276
G1 X55.573 Y102.136 E37.8987
G1 X53.819 Y100.058 E38.00276
G1 X51.935 Y97.95 E38.11096
G1 X50.075 Y95.984 E38.21453
G1 X48.121 Y94.033 E38.3202
G1 X46.098 Y92.123 E38.42668
G1 X44.052 Y90.299 E38.53158
G1 X41.925 Y88.506 E38.63804
G1 X39.8 Y86.817 E38.74192
G1 X37.574 Y85.148 E38.84839
G1 X35.333 Y83.565 E38.95339
G1 X33.022 Y82.027 E39.05963
G1 X30.717 Y80.586 E39.16366
G1 X29.885 Y80.103 E39.20048
G1 X29.812 Y80.051 E39.20391
G1 X28.706 Y79.394 E39.25314
G1 X28.243 Y79.04 E39.27544
G1 X27.586 Y78.405 E39.31041
G1 X26.975 Y77.716 E39.34565
G1 X26.807 Y77.426 E39.35848
G1 X26.479 Y76.761 E39.38685
G1 X25.224 Y74.309 E39.49227
G1 X23.883 Y71.86 E39.59912
G1 X22.526 Y69.541 E39.70194
G1 X21.043 Y67.161 E39.80926
G1 X19.531 Y64.884 E39.91386
G1 X17.915 Y62.592 E40.02119
G1 X16.297 Y60.431 E40.1245
G1 X14.437 Y58.091 E40.23889
G1 X13.788 Y57.298 E40.27811
G1 X13.536 Y56.927 E40.29527
G1 X13.353 Y56.517 E40.31245
G1 X13.246 Y56.081 E40.32964
G1 X13.218 Y55.633 E40.34681
G1 X13.27 Y55.187 E40.364
G1 X13.399 Y54.757 E40.38118
G1 X13.603 Y54.357 E40.39836
G1 X13.875 Y53.999 E40.41557
G1 X14.205 Y53.695 E40.43274
G1 X14.585 Y53.455 E40.44994
G1 X15.059 Y53.268 E40.46944
G0 F1285.7 X15.154 Y53.605
G1 F900 X16.064 Y53.35 E40.50561
G1 X21.864 Y51.843 E40.73494
G1 X24.543 Y51.106 E40.84127
G1 X27.206 Y50.292 E40.94784
G1 X29.801 Y49.418 E41.05263
G1 X32.402 Y48.459 E41.15872
G1 X34.985 Y47.423 E41.26522
G1 X37.546 Y46.31 E41.37209
G1 X39.672 Y45.319 E41.46185
G1 X40.149 Y45.126 E41.48154
G1 X41.219 Y44.828 E41.52405
G1 X44.469 Y43.99 E41.6525
G1 X45.092 Y43.838 E41.67704
G1 X45.489 Y43.776 E41.69241
G1 X46.438 Y43.711 E41.72882
G1 X49.228 Y43.479 E41.83596
G1 X51.991 Y43.172 E41.94235
G1 X54.73 Y42.788 E42.04819
G1 X57.413 Y42.334 E42.15233
G1 X60.166 Y41.788 E42.25974
G1 X62.85 Y41.177 E42.36508
G1 X64.406 Y40.787 E42.42647
G1 X72.777 Y38.611 E42.75747
G1 X75.479 Y37.867 E42.86472
G1 X78.123 Y37.059 E42.97053
G1 X80.739 Y36.177 E43.07618
G1 X83.33 Y35.221 E43.18187
G1 X85.92 Y34.182 E43.28866
G1 X88.975 Y32.844 E43.4163
G1 X90.175 Y32.295 E43.4668
G1 X90.716 Y32.113 E43.48864
G1 X91.92 Y31.793 E43.53632
G1 X93.016 Y31.512 E43.57962
G1 X94.883 Y31.021 E43.6535
G1 X95.619 Y30.837 E43.68253
G1 X95.985 Y30.779 E43.69671
G1 X96.826 Y30.717 E43.72899
G1 X99.636 Y30.471 E43.83693
G1 X102.365 Y30.152 E43.94208
G1 X105.074 Y29.759 E44.04684
G1 X107.847 Y29.276 E44.15456
G1 X110.516 Y28.733 E44.25879
