;FLAVOR:Marlin
;TIME:12722
;Filament used: 10.0992m
;Layer height: 0.2
;MINX:6.791
;MINY:19.715
;MINZ:0.26
;MAXX:178.513
;MAXY:198.353
;MAXZ:7.86
;Generated with Cura_SteamEngine 4.9.1
M82 ;absolute extrusion mode
;Begin Start Gcode for Dagoma DiscoEasy 200
;Sliced: 13-07-2021 16:58:56
;Initial extruder: 0

G90 ;Absolute positioning
M106 S255 ;Fan on full
G28 X Y ;Home stop X Y
G1 X100 ;Centre back during cooldown in case of oozing
M109 R90 ;Cooldown in case too hot
G28 ;Centre
G29 ;Auto-level
M104 S205 ;Pre-heat
M107 ;Fan off
G0 X100 Y5 Z0.5 ;Front centre for degunk
M109 S205 ;Wait for initial temp
M83 ;E Relative
G1 E10 F200 ;Degunk
G1 E-3 F5000 ;Retract
G0 Z3 ;Withdraw
M82 ;E absolute
G92 E0 ;E reset
G1 F6000 ;Set feedrate

;Finish Start Gcode for Dagoma DiscoEasy 200

G92 E0
G92 E0
G1 F3000 E-3.5
;LAYER_COUNT:39
;LAYER:0
M107
G0 F1285.7 X39.457 Y21.778 Z0.26
;TYPE:SKIRT
G1 F3000 E0
G1 F900 X39.751 Y21.305 E0.02131
G1 X40.109 Y20.879 E0.04261
G1 X40.525 Y20.51 E0.06389
G1 X40.989 Y20.203 E0.08518
G1 X41.493 Y19.966 E0.10649
G1 X42.025 Y19.804 E0.12778
G1 X42.575 Y19.72 E0.14907
G1 X43.131 Y19.715 E0.17035
G1 X43.682 Y19.79 E0.19163
G1 X44.217 Y19.943 E0.21292
G1 X44.725 Y20.171 E0.23423
G1 X45.194 Y20.47 E0.25552
G1 X45.766 Y20.989 E0.28508
G1 X46.362 Y21.652 E0.31919
G1 X177.166 Y172.154 E7.95015
G1 X177.6 Y172.668 E7.9759
G1 X177.927 Y173.118 E7.99719
G1 X178.187 Y173.61 E8.01848
G1 X178.374 Y174.134 E8.03977
G1 X178.483 Y174.68 E8.06108
G1 X178.513 Y175.235 E8.08235
G1 X178.464 Y175.789 E8.10364
G1 X178.335 Y176.331 E8.12496
G1 X178.131 Y176.848 E8.14623
G1 X177.854 Y177.331 E8.16754
G1 X177.511 Y177.769 E8.18883
G1 X177.109 Y178.154 E8.21013
G1 X176.656 Y178.477 E8.23142
G1 X176.161 Y178.731 E8.25271
G1 X175.439 Y178.96 E8.2817
G1 X174.748 Y179.105 E8.30872
G1 X77.966 Y198.161 E12.08363
G1 X77.243 Y198.293 E12.11176
G1 X76.69 Y198.353 E12.13304
G1 X76.134 Y198.334 E12.15434
G1 X75.586 Y198.235 E12.17565
G1 X75.058 Y198.059 E12.19695
G1 X74.561 Y197.809 E12.21824
G1 X74.105 Y197.49 E12.23953
G1 X73.662 Y197.068 E12.26295
G1 X73.082 Y196.421 E12.2962
G1 X8.136 Y121.694 E16.0851
G1 X7.702 Y121.179 E16.11087
G1 X7.375 Y120.729 E16.13216
G1 X7.116 Y120.237 E16.15344
G1 X6.929 Y119.712 E16.17477
G1 X6.82 Y119.167 E16.19604
G1 X6.791 Y118.611 E16.21734
G1 X6.841 Y118.057 E16.23863
G1 X6.976 Y117.491 E16.2609
G1 X7.176 Y116.877 E16.28561
G1 X39.005 Y22.933 E20.08155
G1 X39.234 Y22.287 E20.10777
G1 X39.457 Y21.778 E20.12904
G0 F1285.7 X39.778 Y21.919
G1 F900 X40.063 Y21.471 E20.14936
G1 X40.412 Y21.071 E20.16968
G1 X40.817 Y20.728 E20.18999
G1 X41.269 Y20.45 E20.2103
G1 X41.757 Y20.243 E20.23058
G1 X42.271 Y20.111 E20.25089
G1 X42.799 Y20.058 E20.2712
G1 X43.329 Y20.085 E20.29151
G1 X43.849 Y20.191 E20.31182
G1 X44.347 Y20.374 E20.33212
G1 X44.812 Y20.63 E20.35243
G1 X45.233 Y20.952 E20.37272
G1 X45.506 Y21.223 E20.38744
G1 X46.098 Y21.882 E20.42134
G1 X176.898 Y172.38 E28.05208
G1 X177.332 Y172.894 E28.07783
G1 X177.643 Y173.324 E28.09814
G1 X177.886 Y173.796 E28.11845
G1 X178.055 Y174.299 E28.13876
G1 X178.147 Y174.821 E28.15905
G1 X178.159 Y175.352 E28.17937
G1 X178.092 Y175.878 E28.19966
G1 X177.946 Y176.389 E28.22
G1 X177.725 Y176.871 E28.2403
G1 X177.435 Y177.315 E28.26059
G1 X177.081 Y177.71 E28.28089
G1 X176.671 Y178.048 E28.30122
G1 X176.216 Y178.321 E28.32153
G1 X175.725 Y178.522 E28.34183
G1 X175.367 Y178.617 E28.35601
G1 X174.68 Y178.762 E28.38288
G1 X77.903 Y197.817 E32.1576
G1 X77.18 Y197.949 E32.18572
G1 X76.652 Y198.004 E32.20604
G1 X76.122 Y197.98 E32.22634
G1 X75.602 Y197.877 E32.24663
G1 X75.103 Y197.697 E32.26693
G1 X74.636 Y197.443 E32.28727
G1 X74.213 Y197.123 E32.30757
G1 X73.923 Y196.835 E32.32321
G1 X73.346 Y196.191 E32.3563
G1 X8.404 Y121.469 E36.14496
G1 X7.97 Y120.954 E36.17073
G1 X7.659 Y120.523 E36.19107
G1 X7.417 Y120.051 E36.21137
G1 X7.248 Y119.548 E36.23168
G1 X7.157 Y119.025 E36.25199
G1 X7.145 Y118.495 E36.27228
G1 X7.213 Y117.968 E36.29262
G1 X7.496 Y117.023 E36.33037
G1 X39.318 Y23.097 E40.12556
G1 X39.564 Y22.404 E40.15371
G1 X39.778 Y21.919 E40.17399
G0 F1285.7 X40.099 Y22.061
G1 F900 X40.374 Y21.64 E40.19324
G1 X40.713 Y21.267 E40.21253
G1 X41.106 Y20.953 E40.23178
G1 X41.544 Y20.704 E40.25106
G1 X42.016 Y20.528 E40.27034
G1 X42.51 Y20.429 E40.28962
G1 X43.013 Y20.41 E40.30888
G1 X43.513 Y20.47 E40.32815
G1 X43.997 Y20.608 E40.34741
G1 X44.454 Y20.821 E40.36671
G1 X44.871 Y21.104 E40.386
G1 X45.246 Y21.458 E40.40573
G1 X45.833 Y22.111 E40.43933
G1 X176.631 Y172.606 E48.06994
G1 X177.065 Y173.12 E48.09568
G1 X177.358 Y173.529 E48.11494
G1 X177.583 Y173.98 E48.13423
G1 X177.734 Y174.46 E48.15348
G1 X177.807 Y174.958 E48.17275
G1 X177.8 Y175.462 E48.19204
G1 X177.714 Y175.958 E48.2113
G1 X177.551 Y176.434 E48.23056
G1 X177.314 Y176.879 E48.24985
G1 X177.01 Y177.28 E48.26911
G1 X176.646 Y177.628 E48.28838
G1 X176.232 Y177.915 E48.30766
G1 X175.777 Y178.132 E48.32695
G1 X175.294 Y178.275 E48.34623
G1 X174.612 Y178.418 E48.37289
G1 X77.84 Y197.472 E52.14742
G1 X77.117 Y197.604 E52.17554
G1 X76.616 Y197.655 E52.19481
G1 X76.113 Y197.626 E52.2141
G1 X75.622 Y197.518 E52.23334
G1 X75.153 Y197.334 E52.25262
G1 X74.72 Y197.077 E52.27189
G1 X74.184 Y196.601 E52.29932
G1 X73.611 Y195.962 E52.33217
G1 X8.671 Y121.243 E56.12068
G1 X8.237 Y120.728 E56.14645
G1 X7.944 Y120.318 E56.16574
G1 X7.72 Y119.868 E56.18498
G1 X7.569 Y119.387 E56.20427
G1 X7.497 Y118.889 E56.22353
G1 X7.504 Y118.385 E56.24282
G1 X7.62 Y117.784 E56.26624
G1 X7.829 Y117.131 E56.29248
G1 X39.664 Y23.167 E60.08921
G1 X39.893 Y22.521 E60.11544
G1 X40.099 Y22.061 E60.13473
G1 F3000 E56.63473
;MESH:support_half_hex_08.stl
G0 F1285.7 X42.036 Y24.067
G0 X43.169 Y24.45
G0 X94.662 Y94.527
;TYPE:WALL-INNER
G1 F3000 E60.13473
G1 F900 X46.186 Y38.753 E62.96271
G1 X45.589 Y38.871 E62.986
G1 X21.877 Y108.858 E65.81391
G1 X94.662 Y94.527 E68.65284
G0 F1285.7 X160.547 Y170.335
G1 F900 X112.073 Y114.561 E71.48076
G1 X111.476 Y114.679 E71.50405
G1 X87.764 Y184.666 E74.33197
G1 X160.547 Y170.335 E77.17082
G0 F1285.7 X173.371 Y174.892
G1 F900 X76.737 Y193.92 E80.93997
G1 X11.248 Y118.568 E84.76055
G1 X42.99 Y24.879 E88.54618
G1 X43.087 Y24.592 E88.55777
G1 X43.285 Y24.82 E88.5643
G1 X43.286 Y24.821 E88.56435
G1 X173.469 Y174.607 E96.15904
G1 X173.667 Y174.834 E96.17057
G1 X173.371 Y174.892 E96.17711
G0 F1285.7 X173.984 Y175.103
;TYPE:WALL-OUTER
G1 F900 X76.616 Y194.275 E99.97488
G1 X10.88 Y118.64 E103.80984
G1 X42.864 Y24.239 E107.62424
G1 X42.961 Y23.952 E107.63583
G1 X43.159 Y24.18 E107.64236
G1 X43.16 Y24.181 E107.64241
G1 X174.082 Y174.818 E115.28023
G1 X174.28 Y175.045 E115.29176
G1 X173.984 Y175.103 E115.2983
G0 F1285.7 X173.788 Y175.141
G0 X173.741 Y174.895
G0 X160.122 Y169.963
G0 X159.934 Y170.125
G1 F900 X112.018 Y114.993 E118.09367
G1 X111.951 Y114.916 E118.09758
G1 X111.724 Y114.961 E118.10644
G1 X111.691 Y115.058 E118.11036
G1 X88.252 Y184.239 E120.90571
G1 X159.934 Y170.125 E123.70161
G0 F1285.7 X159.803 Y169.975
G0 X159.991 Y169.812
G0 X94.237 Y94.154
G0 X94.048 Y94.317
G1 F900 X46.131 Y39.185 E126.49701
G1 X46.064 Y39.108 E126.50092
G1 X45.837 Y39.153 E126.50977
G1 X45.804 Y39.25 E126.5137
G1 X22.365 Y108.431 E129.30905
G1 X94.048 Y94.317 E132.10499
G0 F1285.7 X93.917 Y94.167
G0 X94.106 Y94.004
G0 X95.303 Y94.747
;TYPE:SKIN
G1 F900 X46.314 Y38.382 E134.96292
G1 X45.33 Y38.576 E135.0013
G1 X21.366 Y109.305 E137.8592
G1 X95.303 Y94.747 E140.74306
G0 F1285.7 X111.217 Y114.384
G1 F900 X87.253 Y185.113 E143.60097
G1 X161.188 Y170.555 E146.48476
G1 X112.201 Y114.19 E149.34263
G1 X111.217 Y114.384 E149.38101
G0 F1285.7 X43.219 Y25.262
G1 F900 X173.024 Y174.613 E156.95365
G1 X76.864 Y193.547 E160.7043
G1 X11.633 Y118.492 E164.50983
G1 X43.219 Y25.262 E168.2769
G0 F1285.7 X43.181 Y25.857
G1 F900 X45.829 Y28.505 E168.42021
G1 X45.891 Y28.567
G0 F1285.7 X42.68 Y27.336
G1 F900 X58.978 Y43.634 E169.30228
G1 X59.04 Y43.696
G0 F1285.7 X62.265 Y47.416
G1 F900 X42.555 Y27.706 E170.36901
G0 F1285.7 X42.43 Y28.076
G1 F900 X65.553 Y51.198 E171.62043
G1 X65.615 Y51.26
G0 F1285.7 X68.84 Y54.981
G1 F900 X42.304 Y28.445 E173.05659
G0 F1285.7 X42.179 Y28.815
G1 F900 X72.127 Y58.763 E174.67742
G1 X72.189 Y58.825
G0 F1285.7 X75.415 Y62.545
G1 F900 X42.054 Y29.185 E176.48293
G0 F1285.7 X41.929 Y29.554
G1 F900 X78.702 Y66.328 E178.47316
G1 X78.764 Y66.39
G0 F1285.7 X81.989 Y70.11
G1 F900 X41.804 Y29.924 E180.64805
G0 F1285.7 X41.678 Y30.294
G1 F900 X85.277 Y73.892 E183.00766
G1 X85.339 Y73.954
G0 F1285.7 X88.563 Y77.674
G1 F900 X41.553 Y30.664 E185.5519
G0 F1285.7 X41.427 Y31.033
G1 F900 X91.851 Y81.456 E188.28088
G1 X91.913 Y81.518
G0 F1285.7 X95.138 Y85.238
G1 F900 X41.302 Y31.403 E191.19453
G0 F1285.7 X41.177 Y31.773
G1 F900 X98.425 Y89.021 E194.29286
G1 X98.487 Y89.083
G0 F1285.7 X101.713 Y92.803
G1 F900 X41.052 Y32.142 E197.57591
G0 F1285.7 X40.927 Y32.512
G1 F900 X105 Y96.585 E201.04362
G1 X105.062 Y96.647
G0 F1285.7 X108.287 Y100.368
G1 F900 X47.977 Y40.058 E204.30768
G1 X47.915 Y39.996
G0 F1285.7 X46.169 Y38.25
G1 F900 X40.802 Y32.882 E204.59817
G0 F1285.7 X40.677 Y33.252
G1 F900 X45.756 Y38.332 E204.87308
G0 F1285.7 X45.343 Y38.413
G1 F900 X40.551 Y33.622 E205.13241
G0 F1285.7 X40.426 Y33.991
G1 F900 X45.126 Y38.691 E205.38678
G0 F1285.7 X45 Y39.06
G1 F900 X40.3 Y34.361 E205.64112
G0 F1285.7 X40.175 Y34.73
G1 F900 X44.875 Y39.43 E205.89549
G0 F1285.7 X44.749 Y39.8
G1 F900 X40.05 Y35.1 E206.14983
G0 F1285.7 X39.925 Y35.47
G1 F900 X44.624 Y40.17 E206.40417
G0 F1285.7 X44.499 Y40.539
G1 F900 X39.8 Y35.84 E206.65849
G0 F1285.7 X39.675 Y36.21
G1 F900 X44.374 Y40.909 E206.91281
G0 F1285.7 X44.248 Y41.278
G1 F900 X39.549 Y36.579 E207.16712
G0 F1285.7 X39.424 Y36.949
G1 F900 X44.123 Y41.648 E207.42144
G0 F1285.7 X43.998 Y42.018
G1 F900 X39.298 Y37.318 E207.67581
G0 F1285.7 X39.173 Y37.688
G1 F900 X43.873 Y42.388 E207.93018
G0 F1285.7 X43.747 Y42.758
G1 F900 X39.048 Y38.058 E208.18452
G0 F1285.7 X38.923 Y38.428
G1 F900 X43.622 Y43.127 E208.43884
G0 F1285.7 X43.497 Y43.497
G1 F900 X38.798 Y38.798 E208.69315
G0 F1285.7 X38.672 Y39.167
G1 F900 X43.371 Y43.866 E208.94747
G0 F1285.7 X43.246 Y44.236
G1 F900 X38.547 Y39.537 E209.20178
G0 F1285.7 X38.422 Y39.906
G1 F900 X43.121 Y44.606 E209.45613
G0 F1285.7 X42.996 Y44.976
G1 F900 X38.296 Y40.276 E209.7105
G0 F1285.7 X38.171 Y40.646
G1 F900 X42.871 Y45.346 E209.96487
G0 F1285.7 X42.746 Y45.715
G1 F900 X38.046 Y41.016 E210.21921
G0 F1285.7 X37.921 Y41.386
G1 F900 X42.62 Y46.085 E210.47353
G0 F1285.7 X42.494 Y46.454
G1 F900 X37.795 Y41.755 E210.72784
G0 F1285.7 X37.67 Y42.125
G1 F900 X42.369 Y46.824 E210.98216
G0 F1285.7 X42.244 Y47.194
G1 F900 X37.545 Y42.494 E211.2365
G0 F1285.7 X37.42 Y42.864
G1 F900 X42.119 Y47.564 E211.49084
G0 F1285.7 X41.994 Y47.934
G1 F900 X37.294 Y43.234 E211.74521
G0 F1285.7 X37.169 Y43.604
G1 F900 X41.869 Y48.303 E211.99956
G0 F1285.7 X41.743 Y48.672
G1 F900 X37.044 Y43.974 E212.25384
G0 F1285.7 X36.918 Y44.343
G1 F900 X41.618 Y49.042 E212.50819
G0 F1285.7 X41.493 Y49.412
G1 F900 X36.793 Y44.713 E212.76253
G0 F1285.7 X36.668 Y45.083
G1 F900 X41.367 Y49.782 E213.01685
G0 F1285.7 X41.242 Y50.152
G1 F900 X36.543 Y45.452 E213.27119
G0 F1285.7 X36.418 Y45.822
G1 F900 X41.117 Y50.522 E213.52553
G0 F1285.7 X40.992 Y50.891
G1 F900 X36.292 Y46.192 E213.77988
G0 F1285.7 X36.167 Y46.562
G1 F900 X40.866 Y51.26 E214.03416
G0 F1285.7 X40.741 Y51.63
G1 F900 X36.041 Y46.931 E214.28851
G0 F1285.7 X35.916 Y47.301
G1 F900 X40.616 Y52 E214.54285
G0 F1285.7 X40.491 Y52.37
G1 F900 X35.791 Y47.671 E214.79719
G0 F1285.7 X35.666 Y48.04
G1 F900 X40.365 Y52.74 E215.05154
G0 F1285.7 X40.24 Y53.11
G1 F900 X35.541 Y48.41 E215.30588
G0 F1285.7 X35.416 Y48.78
G1 F900 X40.115 Y53.479 E215.56019
G0 F1285.7 X39.989 Y53.849
G1 F900 X35.29 Y49.15 E215.81451
G0 F1285.7 X35.165 Y49.519
G1 F900 X39.864 Y54.218 E216.06883
G0 F1285.7 X39.739 Y54.588
G1 F900 X35.039 Y49.889 E216.32317
G0 F1285.7 X34.914 Y50.259
G1 F900 X39.614 Y54.958 E216.57751
G0 F1285.7 X39.489 Y55.328
G1 F900 X34.789 Y50.628 E216.83188
G0 F1285.7 X34.664 Y50.998
G1 F900 X39.363 Y55.698 E217.08623
G0 F1285.7 X39.238 Y56.067
G1 F900 X34.539 Y51.368 E217.34054
G0 F1285.7 X34.414 Y51.738
G1 F900 X39.112 Y56.437 E217.59483
G0 F1285.7 X38.987 Y56.806
G1 F900 X34.289 Y52.108 E217.84909
G0 F1285.7 X34.163 Y52.477
G1 F900 X38.862 Y57.176 E218.10341
G0 F1285.7 X38.737 Y57.546
G1 F900 X34.037 Y52.847 E218.35775
G0 F1285.7 X33.912 Y53.216
G1 F900 X38.612 Y57.916 E218.61212
G0 F1285.7 X38.487 Y58.286
G1 F900 X33.787 Y53.586 E218.86649
G0 F1285.7 X33.662 Y53.956
G1 F900 X38.361 Y58.655 E219.12081
G0 F1285.7 X38.236 Y59.025
G1 F900 X33.537 Y54.326 E219.37512
G0 F1285.7 X33.412 Y54.696
G1 F900 X38.11 Y59.394 E219.62938
G0 F1285.7 X37.985 Y59.764
G1 F900 X33.286 Y55.065 E219.8837
G0 F1285.7 X33.161 Y55.435
G1 F900 X37.86 Y60.134 E220.13802
G0 F1285.7 X37.735 Y60.504
G1 F900 X33.036 Y55.804 E220.39236
G0 F1285.7 X32.91 Y56.174
G1 F900 X37.609 Y60.873 E220.64667
G0 F1285.7 X37.484 Y61.243
G1 F900 X32.785 Y56.544 E220.90099
G0 F1285.7 X32.66 Y56.914
G1 F900 X37.359 Y61.613 E221.15531
G0 F1285.7 X37.234 Y61.982
G1 F900 X32.535 Y57.284 E221.40959
G0 F1285.7 X32.409 Y57.653
G1 F900 X37.108 Y62.352 E221.66391
G0 F1285.7 X36.983 Y62.722
G1 F900 X32.284 Y58.023 E221.91823
G0 F1285.7 X32.159 Y58.392
G1 F900 X36.858 Y63.092 E222.17257
G0 F1285.7 X36.732 Y63.461
G1 F900 X32.034 Y58.762 E222.42686
G0 F1285.7 X31.908 Y59.132
G1 F900 X36.607 Y63.831 E222.68117
G0 F1285.7 X36.482 Y64.201
G1 F900 X31.783 Y59.502 E222.93549
G0 F1285.7 X31.658 Y59.872
G1 F900 X36.357 Y64.57 E223.18978
G0 F1285.7 X36.232 Y64.94
G1 F900 X31.532 Y60.241 E223.44412
G0 F1285.7 X31.407 Y60.611
G1 F900 X36.106 Y65.31 E223.69844
G0 F1285.7 X35.981 Y65.68
G1 F900 X31.282 Y60.98 E223.95278
G0 F1285.7 X31.157 Y61.35
G1 F900 X35.855 Y66.049 E224.20707
G0 F1285.7 X35.73 Y66.419
G1 F900 X31.032 Y61.72 E224.46136
G0 F1285.7 X30.906 Y62.09
G1 F900 X35.605 Y66.789 E224.71567
G0 F1285.7 X35.48 Y67.158
G1 F900 X30.781 Y62.46 E224.96996
G0 F1285.7 X30.655 Y62.829
G1 F900 X35.355 Y67.528 E225.22431
G0 F1285.7 X35.23 Y67.898
G1 F900 X30.53 Y63.199 E225.47865
G0 F1285.7 X30.405 Y63.568
G1 F900 X35.104 Y68.267 E225.73296
G0 F1285.7 X34.979 Y68.637
G1 F900 X30.28 Y63.938 E225.98728
G0 F1285.7 X30.155 Y64.308
G1 F900 X34.854 Y69.007 E226.2416
G0 F1285.7 X34.728 Y69.377
G1 F900 X30.03 Y64.678 E226.49589
G0 F1285.7 X29.904 Y65.048
G1 F900 X34.603 Y69.746 E226.75017
G0 F1285.7 X34.478 Y70.116
G1 F900 X29.779 Y65.417 E227.00449
G0 F1285.7 X29.653 Y65.787
G1 F900 X34.353 Y70.486 E227.25883
G0 F1285.7 X34.227 Y70.855
G1 F900 X29.528 Y66.156 E227.51315
G0 F1285.7 X29.403 Y66.526
G1 F900 X34.102 Y71.225 E227.76746
G0 F1285.7 X33.977 Y71.595
G1 F900 X29.278 Y66.896 E228.02178
G0 F1285.7 X29.153 Y67.266
G1 F900 X33.852 Y71.965 E228.2761
G0 F1285.7 X33.726 Y72.334
G1 F900 X29.028 Y67.636 E228.53036
G0 F1285.7 X28.902 Y68.005
G1 F900 X33.601 Y72.704 E228.78467
G0 F1285.7 X33.475 Y73.073
G1 F900 X28.777 Y68.375 E229.03894
G0 F1285.7 X28.651 Y68.744
G1 F900 X33.35 Y73.443 E229.29325
G0 F1285.7 X33.225 Y73.813
G1 F900 X28.526 Y69.114 E229.54757
G0 F1285.7 X28.401 Y69.484
G1 F900 X33.1 Y74.183 E229.80188
G0 F1285.7 X32.975 Y74.553
G1 F900 X28.276 Y69.854 E230.0562
G0 F1285.7 X28.151 Y70.224
G1 F900 X32.85 Y74.922 E230.31049
G0 F1285.7 X32.724 Y75.292
G1 F900 X28.026 Y70.594 E230.56475
G0 F1285.7 X27.9 Y70.963
G1 F900 X32.599 Y75.661 E230.81904
G0 F1285.7 X32.473 Y76.031
G1 F900 X27.775 Y71.332 E231.07333
G0 F1285.7 X27.649 Y71.702
G1 F900 X32.348 Y76.401 E231.32764
G0 F1285.7 X32.223 Y76.771
G1 F900 X27.524 Y72.072 E231.58196
G0 F1285.7 X27.399 Y72.442
G1 F900 X32.098 Y77.141 E231.83627
G0 F1285.7 X31.973 Y77.51
G1 F900 X27.274 Y72.812 E232.09056
G0 F1285.7 X27.149 Y73.182
G1 F900 X31.848 Y77.88 E232.34485
G0 F1285.7 X31.722 Y78.249
G1 F900 X27.023 Y73.551 E232.59914
G0 F1285.7 X26.898 Y73.92
G1 F900 X31.597 Y78.619 E232.85346
G0 F1285.7 X31.471 Y78.989
G1 F900 X26.773 Y74.29 E233.10775
G0 F1285.7 X26.648 Y74.66
G1 F900 X31.346 Y79.359 E233.36203
G0 F1285.7 X31.221 Y79.729
G1 F900 X26.522 Y75.03 E233.61635
