;FLAVOR:Marlin
;TIME:20158
;Filament used: 23.8453m
;Layer height: 0.3
;MINX:8.411
;MINY:4.214
;MINZ:0.26
;MAXX:190.377
;MAXY:197.187
;MAXZ:26.06
;Generated with Cura_SteamEngine 4.9.1
M82 ;absolute extrusion mode
;Begin Start Gcode for Dagoma DiscoEasy 200
;Sliced: 15-07-2021 03:40:40
;Initial extruder: 0

G90 ;Absolute positioning
M106 S255 ;Fan on full
G28 X Y ;Home stop X Y
G1 X100 ;Centre back during cooldown in case of oozing
M109 R90 ;Cooldown in case too hot
G28 ;Centre
G29 ;Auto-level
M104 S205 ;Pre-heat
M107 ;Fan off
G0 X100 Y5 Z0.5 ;Front centre for degunk
M109 S205 ;Wait for initial temp
M83 ;E Relative
G1 E10 F200 ;Degunk
G1 E-3 F5000 ;Retract
G0 Z3 ;Withdraw
M82 ;E absolute
G92 E0 ;E reset
G1 F6000 ;Set feedrate

;Finish Start Gcode for Dagoma DiscoEasy 200

G92 E0
G92 E0
G1 F3000 E-3.5
;LAYER_COUNT:87
;LAYER:0
M107
G0 F1285.7 X123.677 Y35.936 Z0.26
;TYPE:SKIRT
G1 F3000 E0
G1 F900 X123.889 Y35.314 E0.02515
G1 X124.753 Y33.184 E0.11311
G1 X125.716 Y30.61 E0.21829
G1 X126.603 Y28.015 E0.32324
G1 X127.423 Y25.374 E0.42907
G1 X128.16 Y22.739 E0.53378
G1 X129.133 Y18.72 E0.69203
G1 X130.068 Y14.47 E0.85856
G1 X130.211 Y13.861 E0.8825
G1 X130.359 Y13.405 E0.90085
G1 X130.581 Y12.98 E0.9192
G1 X130.87 Y12.598 E0.93753
G1 X131.219 Y12.269 E0.95588
G1 X131.617 Y12.003 E0.9742
G1 X132.098 Y11.791 E0.99432
G1 X132.837 Y11.545 E1.02413
G1 X133.189 Y11.434 E1.03825
G1 X135.818 Y10.56 E1.14428
G1 X138.397 Y9.621 E1.24931
G1 X140.934 Y8.614 E1.35377
G1 X143.483 Y7.518 E1.45995
G1 X145.954 Y6.372 E1.56419
G1 X146.75 Y5.971 E1.5983
G1 X146.821 Y5.942 E1.60124
G1 X147.97 Y5.381 E1.65017
G1 X148.282 Y5.251 E1.66311
G1 X149.392 Y4.862 E1.70812
G1 X150.346 Y4.553 E1.7465
G1 X151.042 Y4.337 E1.77438
G1 X151.51 Y4.234 E1.79272
G1 X152.087 Y4.214 E1.81482
G1 X153.025 Y4.278 E1.8508
G1 X153.968 Y4.407 E1.88722
G1 X154.581 Y4.648 E1.91243
G1 X155.591 Y5.186 E1.95622
G1 X156.173 Y5.506 E1.98164
G1 X157.642 Y6.267 E2.04495
G1 X158.284 Y6.673 E2.07402
G1 X158.807 Y7.227 E2.10318
G1 X159.16 Y7.717 E2.12629
G1 X160.111 Y9.081 E2.18993
G1 X161.726 Y11.264 E2.29385
G1 X163.432 Y13.439 E2.39963
G1 X165.188 Y15.551 E2.50474
G1 X167.011 Y17.62 E2.61027
G1 X168.865 Y19.61 E2.71436
G1 X170.795 Y21.565 E2.81949
G1 X173.543 Y24.172 E2.96445
G1 X188.996 Y38.277 E3.76514
G1 X189.474 Y38.727 E3.79027
G1 X189.794 Y39.083 E3.80859
G1 X190.051 Y39.488 E3.82694
G1 X190.237 Y39.929 E3.84526
G1 X190.347 Y40.396 E3.86362
G1 X190.377 Y40.874 E3.88195
G1 X190.329 Y41.351 E3.9003
G1 X190.089 Y42.076 E3.92952
G1 X189.806 Y42.631 E3.95336
G1 X188.145 Y45.741 E4.08829
G1 X187.971 Y46.063 E4.1023
G1 X186.169 Y49.356 E4.24596
G1 X185.83 Y49.966 E4.27266
G1 X184.153 Y52.956 E4.40386
G1 X183.756 Y53.656 E4.43465
G1 X182.029 Y56.662 E4.56733
G1 X181.68 Y57.262 E4.59389
G1 X179.871 Y60.34 E4.73052
G1 X179.534 Y60.908 E4.7558
G1 X177.627 Y64.077 E4.89734
G1 X177.377 Y64.487 E4.91571
G1 X175.401 Y67.696 E5.05994
G1 X175.214 Y67.997 E5.0735
G1 X172.927 Y71.627 E5.23769
G1 X170.893 Y74.785 E5.38144
G1 X170.601 Y75.233 E5.40191
G1 X168.6 Y78.273 E5.54119
G1 X168.279 Y78.754 E5.56332
G1 X166.179 Y81.875 E5.70728
G1 X163.893 Y85.202 E5.86176
G1 X163.463 Y85.82 E5.89057
G1 X161.408 Y88.742 E6.02728
G1 X161.063 Y89.227 E6.05006
G1 X158.958 Y92.159 E6.18819
G1 X158.573 Y92.689 E6.21326
G1 X156.438 Y95.598 E6.35135
G1 X156.085 Y96.074 E6.37403
G1 X153.97 Y98.894 E6.50893
G1 X153.53 Y99.476 E6.53685
G1 X151.062 Y102.697 E6.69214
G1 X148.667 Y105.76 E6.84094
G1 X148.386 Y106.115 E6.85826
G1 X146.044 Y109.049 E7.00193
G1 X143.197 Y112.543 E7.17442
G1 X140.738 Y115.498 E7.32153
G1 X140.286 Y116.034 E7.34837
G1 X137.657 Y119.128 E7.50375
G1 X135.186 Y121.975 E7.64801
G1 X134.782 Y122.435 E7.67144
G1 X132.445 Y125.075 E7.80637
G1 X132.014 Y125.556 E7.83109
G1 X129.674 Y128.147 E7.9647
G1 X129.133 Y128.739 E7.99539
G1 X126.71 Y131.368 E8.13221
G1 X126.291 Y131.818 E8.15574
G1 X123.806 Y134.459 E8.29452
G1 X123.437 Y134.846 E8.31498
G1 X120.836 Y137.554 E8.45868
G1 X120.44 Y137.962 E8.48044
G1 X117.98 Y140.471 E8.61491
G1 X117.448 Y141.007 E8.64381
G1 X114.601 Y143.85 E8.79778
G1 X111.849 Y146.545 E8.94519
G1 X111.512 Y146.872 E8.96316
G1 X108.782 Y149.493 E9.10799
G1 X105.741 Y152.356 E9.26783
G1 X105.364 Y152.706 E9.28752
G1 X102.655 Y155.203 E9.42851
G1 X102.199 Y155.617 E9.45208
G1 X99.547 Y158.013 E9.58886
G1 X99.088 Y158.422 E9.61239
G1 X96.326 Y160.863 E9.75345
G1 X95.957 Y161.186 E9.77222
G1 X93.064 Y163.694 E9.91875
G1 X89.892 Y166.388 E10.07801
G1 X89.457 Y166.753 E10.09974
G1 X86.646 Y169.091 E10.23966
G1 X86.328 Y169.353 E10.25543
G1 X83.43 Y171.713 E10.39846
G1 X82.893 Y172.146 E10.42486
G1 X80.114 Y174.364 E10.56093
G1 X79.647 Y174.732 E10.58368
G1 X76.762 Y176.985 E10.72377
G1 X76.331 Y177.318 E10.74461
G1 X73.332 Y179.613 E10.88913
G1 X73.003 Y179.862 E10.90492
G1 X70.039 Y182.082 E11.04664
G1 X69.529 Y182.46 E11.07094
G1 X66.609 Y184.6 E11.20948
G1 X66.123 Y184.952 E11.23244
G1 X63.192 Y187.056 E11.37052
G1 X62.691 Y187.413 E11.39406
G1 X59.778 Y189.459 E11.53029
G1 X59.197 Y189.863 E11.55737
G1 X56.253 Y191.885 E11.69405
G1 X55.741 Y192.232 E11.71772
G1 X52.272 Y194.564 E11.87769
G1 X49.513 Y196.379 E12.00407
G1 X48.945 Y196.742 E12.02987
G1 X48.521 Y196.965 E12.0482
G1 X48.066 Y197.115 E12.06654
G1 X47.593 Y197.187 E12.08485
G1 X47.113 Y197.18 E12.10322
G1 X46.642 Y197.093 E12.12155
G1 X46.192 Y196.929 E12.13988
G1 X45.542 Y196.515 E12.16937
G1 X45.047 Y196.08 E12.19459
G1 X29.841 Y182.2 E12.98249
G1 X27.794 Y180.384 E13.08722
G1 X25.679 Y178.611 E13.19283
G1 X23.544 Y176.923 E13.29699
G1 X21.306 Y175.254 E13.40383
G1 X19.085 Y173.694 E13.5077
G1 X16.779 Y172.169 E13.6135
G1 X14.463 Y170.73 E13.71785
G1 X12.075 Y169.337 E13.82365
G1 X11.194 Y168.85 E13.86217
G1 X10.557 Y168.437 E13.89123
G1 X10.214 Y168.103 E13.90955
G1 X9.815 Y167.505 E13.93706
G1 X9.599 Y166.934 E13.96042
G1 X9.464 Y166.414 E13.98098
G1 X9.02 Y164.612 E14.05201
G1 X8.672 Y163.326 E14.10299
G1 X8.492 Y162.627 E14.13061
G1 X8.411 Y162.155 E14.14894
G1 X8.411 Y161.675 E14.16731
G1 X8.459 Y161.335 E14.18045
G1 X8.619 Y160.552 E14.21104
G1 X8.867 Y159.427 E14.25512
G1 X9.141 Y158.264 E14.30085
G1 X9.611 Y156.389 E14.37482
G1 X10.203 Y153.699 E14.48023
G1 X10.721 Y150.986 E14.58593
G1 X11.155 Y148.301 E14.69002
G1 X11.521 Y145.548 E14.7963
G1 X11.799 Y142.882 E14.89888
G1 X11.848 Y142.355 E14.91914
G1 X11.932 Y141.883 E14.93748
G1 X12.093 Y141.432 E14.95581
G1 X12.487 Y140.799 E14.98435
G1 X13.058 Y140.104 E15.01877
G1 X13.494 Y139.605 E15.04413
G1 X13.838 Y139.272 E15.06245
G1 X14.233 Y139.001 E15.08078
G1 X14.693 Y138.789 E15.10017
G1 X15.365 Y138.551 E15.12745
G1 X15.876 Y138.386 E15.148
G1 X16.264 Y138.29 E15.16329
G1 X17.575 Y138.061 E15.21422
G1 X20.288 Y137.55 E15.31988
G1 X22.962 Y136.967 E15.42461
G1 X25.648 Y136.302 E15.53051
G1 X28.275 Y135.572 E15.63485
G1 X30.377 Y134.93 E15.71896
G1 X54.978 Y127.121 E16.70672
G1 X57.638 Y126.235 E16.81402
G1 X60.207 Y125.298 E16.91867
G1 X62.756 Y124.285 E17.02364
G1 X65.264 Y123.206 E17.12812
G1 X67.796 Y122.031 E17.23495
G1 X70.224 Y120.819 E17.3388
G1 X72.645 Y119.524 E17.44387
G1 X75.038 Y118.156 E17.54936
G1 X77.385 Y116.723 E17.6546
G1 X79.696 Y115.222 E17.76005
G1 X81.94 Y113.672 E17.86443
G1 X84.165 Y112.042 E17.96998
G1 X86.321 Y110.365 E18.07451
G1 X88.441 Y108.618 E18.17964
G1 X90.521 Y106.802 E18.28531
G1 X92.536 Y104.942 E18.39025
G1 X94.488 Y103.036 E18.49466
G1 X96.419 Y101.037 E18.60102
G1 X98.267 Y99.013 E18.70591
G1 X100.062 Y96.933 E18.81105
G1 X101.798 Y94.803 E18.91621
G1 X103.463 Y92.635 E19.02083
G1 X105.081 Y90.403 E19.12633
G1 X106.633 Y88.127 E19.23175
G1 X108.104 Y85.835 E19.33597
G1 X109.525 Y83.476 E19.44137
G1 X110.882 Y81.071 E19.54704
G1 X112.158 Y78.656 E19.65157
G1 X113.382 Y76.165 E19.75779
G1 X114.504 Y73.715 E19.86091
G1 X115.602 Y71.121 E19.96871
G1 X116.587 Y68.602 E20.07222
G1 X117.508 Y66.032 E20.1767
G1 X118.371 Y63.392 E20.28299
G1 X119.146 Y60.771 E20.38759
G1 X119.854 Y58.101 E20.4933
G1 X120.484 Y55.43 E20.59832
G1 X121.041 Y52.71 E20.70458
G1 X121.511 Y50.042 E20.80825
G1 X121.91 Y47.332 E20.91308
G1 X122.233 Y44.602 E21.01828
G1 X122.511 Y41.45 E21.13938
G1 X122.553 Y41.155 E21.15078
G1 X122.771 Y40.029 E21.19467
G1 X123.034 Y38.809 E21.24243
G1 X123.523 Y36.587 E21.3295
G1 X123.677 Y35.936 E21.3551
G0 F1285.7 X124.018 Y36.017
G1 F900 X124.216 Y35.44 E21.37845
G1 X125.08 Y33.308 E21.46649
G1 X126.06 Y30.69 E21.57346
G1 X126.937 Y28.121 E21.67735
G1 X127.75 Y25.504 E21.78222
G1 X128.499 Y22.824 E21.88872
G1 X129.478 Y18.782 E22.04787
G1 X130.409 Y14.55 E22.2137
G1 X130.552 Y13.941 E22.23764
G1 X130.693 Y13.515 E22.25482
G1 X130.907 Y13.12 E22.27201
G1 X131.188 Y12.77 E22.28918
G1 X131.527 Y12.475 E22.30638
G1 X131.912 Y12.244 E22.32356
G1 X132.209 Y12.123 E22.33584
G1 X132.943 Y11.878 E22.36545
G1 X133.313 Y11.761 E22.3803
G1 X135.907 Y10.899 E22.48491
G1 X138.534 Y9.942 E22.59191
G1 X141.06 Y8.941 E22.69589
G1 X143.626 Y7.837 E22.80279
G1 X146.102 Y6.689 E22.90724
G1 X146.907 Y6.283 E22.94174
G1 X146.978 Y6.255 E22.94466
G1 X148.124 Y5.695 E22.99347
G1 X148.397 Y5.581 E23.0048
G1 X149.5 Y5.195 E23.04952
G1 X150.45 Y4.887 E23.08774
G1 X151.146 Y4.671 E23.11563
G1 X151.585 Y4.577 E23.13281
G1 X152.063 Y4.564 E23.15111
G1 X152.993 Y4.627 E23.18678
G1 X153.905 Y4.752 E23.22201
G1 X154.416 Y4.957 E23.24308
G1 X155.422 Y5.493 E23.2867
G1 X156 Y5.811 E23.31195
G1 X157.481 Y6.578 E23.37577
G1 X158.086 Y6.963 E23.40322
G1 X158.523 Y7.431 E23.42772
G1 X158.872 Y7.917 E23.45062
G1 X159.805 Y9.255 E23.51304
G1 X161.45 Y11.479 E23.61891
G1 X163.168 Y13.669 E23.72543
G1 X164.936 Y15.796 E23.83128
G1 X166.74 Y17.842 E23.93567
G1 X168.625 Y19.865 E24.04148
G1 X170.536 Y21.803 E24.14564
G1 X173.298 Y24.422 E24.29131
G1 X188.756 Y38.532 E25.09227
G1 X189.234 Y38.982 E25.11739
G1 X189.532 Y39.317 E25.13455
G1 X189.766 Y39.7 E25.15173
G1 X189.929 Y40.119 E25.16893
G1 X190.015 Y40.56 E25.18613
G1 X190.021 Y41.008 E25.20327
G1 X189.948 Y41.451 E25.22046
G1 X189.774 Y41.923 E25.23971
G1 X189.496 Y42.468 E25.26312
G1 X187.837 Y45.575 E25.39791
G1 X187.664 Y45.895 E25.41183
G1 X185.863 Y49.186 E25.55541
G1 X185.524 Y49.795 E25.58208
G1 X183.848 Y52.784 E25.71322
G1 X183.452 Y53.482 E25.74393
G1 X181.726 Y56.486 E25.87652
G1 X181.379 Y57.085 E25.90301
G1 X179.57 Y60.161 E26.03958
G1 X179.234 Y60.727 E26.06477
G1 X177.329 Y63.895 E26.20624
G1 X177.079 Y64.304 E26.22458
G1 X175.104 Y67.511 E26.36872
G1 X174.918 Y67.81 E26.38219
G1 X172.854 Y71.088 E26.53044
G1 X172.623 Y71.452 E26.54694
G1 X170.6 Y74.594 E26.68995
G1 X170.309 Y75.041 E26.71036
G1 X168.309 Y78.079 E26.84955
G1 X167.989 Y78.559 E26.87163
G1 X165.89 Y81.677 E27.01547
G1 X165.625 Y82.066 E27.03349
G1 X163.598 Y85.014 E27.1704
G1 X163.177 Y85.619 E27.19861
G1 X161.123 Y88.539 E27.33523
G1 X160.779 Y89.023 E27.35796
G1 X158.675 Y91.953 E27.496
G1 X158.29 Y92.482 E27.52104
G1 X156.156 Y95.389 E27.65905
G1 X155.805 Y95.864 E27.68165
G1 X153.691 Y98.683 E27.8165
G1 X153.252 Y99.263 E27.84433
G1 X150.786 Y102.481 E27.99949
G1 X148.393 Y105.543 E28.14821
G1 X148.113 Y105.897 E28.16548
G1 X145.772 Y108.829 E28.30907
G1 X142.928 Y112.319 E28.48136
G1 X140.47 Y115.273 E28.62842
G1 X140.02 Y115.807 E28.65515
G1 X137.671 Y118.573 E28.79402
G1 X137.38 Y118.913 E28.81115
G1 X134.923 Y121.744 E28.9546
G1 X134.52 Y122.203 E28.97798
G1 X132.184 Y124.841 E29.11283
G1 X131.755 Y125.322 E29.13749
G1 X129.415 Y127.911 E29.27104
G1 X128.876 Y128.502 E29.30165
G1 X126.454 Y131.129 E29.4384
G1 X126.036 Y131.578 E29.46187
G1 X123.552 Y134.217 E29.60057
G1 X123.184 Y134.604 E29.621
G1 X120.585 Y137.31 E29.76459
G1 X120.19 Y137.717 E29.78629
G1 X117.731 Y140.225 E29.92071
G1 X117.201 Y140.76 E29.94953
G1 X114.357 Y143.6 E30.10334
G1 X111.606 Y146.294 E30.2507
G1 X111.27 Y146.619 E30.26859
G1 X108.542 Y149.239 E30.41334
G1 X105.502 Y152.1 E30.5731
G1 X105.127 Y152.449 E30.5927
G1 X102.419 Y154.944 E30.73361
G1 X101.965 Y155.358 E30.75713
G1 X99.314 Y157.752 E30.89383
G1 X98.856 Y158.16 E30.9173
G1 X95.739 Y160.913 E31.07645
G1 X92.837 Y163.428 E31.22341
G1 X89.667 Y166.12 E31.38257
G1 X89.233 Y166.484 E31.40424
G1 X86.423 Y168.821 E31.54411
G1 X86.107 Y169.082 E31.5598
G1 X83.211 Y171.441 E31.70274
G1 X82.675 Y171.873 E31.72909
G1 X79.897 Y174.089 E31.86508
G1 X79.432 Y174.456 E31.88775
G1 X76.548 Y176.708 E32.02778
G1 X76.119 Y177.04 E32.04854
G1 X73.121 Y179.334 E32.19301
G1 X72.794 Y179.582 E32.20871
G1 X69.831 Y181.801 E32.35038
G1 X69.322 Y182.178 E32.37462
G1 X66.403 Y184.317 E32.51311
G1 X65.919 Y184.668 E32.53599
G1 X62.989 Y186.771 E32.67402
G1 X62.49 Y187.126 E32.69745
G1 X59.578 Y189.171 E32.83363
G1 X58.999 Y189.574 E32.86062
G1 X56.056 Y191.596 E32.99727
G1 X55.546 Y191.942 E33.02086
G1 X52.079 Y194.271 E33.1807
G1 X49.325 Y196.084 E33.30688
G1 X48.757 Y196.447 E33.33267
G1 X48.358 Y196.654 E33.34988
G1 X47.93 Y196.787 E33.36703
G1 X47.484 Y196.842 E33.38423
G1 X47.036 Y196.818 E33.4014
G1 X46.599 Y196.715 E33.41858
G1 X46.187 Y196.535 E33.43578
G1 X45.767 Y196.248 E33.45525
G1 X45.28 Y195.819 E33.48009
G1 X30.103 Y181.966 E34.26647
G1 X28.003 Y180.102 E34.37393
G1 X25.91 Y178.348 E34.47844
G1 X23.738 Y176.631 E34.5844
G1 X21.529 Y174.984 E34.68984
G1 X19.269 Y173.396 E34.79555
G1 X16.987 Y171.886 E34.90027
G1 X14.613 Y170.411 E35.00723
G1 X12.246 Y169.032 E35.11206
G1 X11.369 Y168.547 E35.15042
G1 X10.758 Y168.149 E35.17832
G1 X10.442 Y167.83 E35.19551
G1 X10.124 Y167.34 E35.21786
G1 X9.938 Y166.846 E35.23806
G1 X9.804 Y166.33 E35.25846
G1 X9.369 Y164.563 E35.3281
G1 X9.011 Y163.239 E35.38059
G1 X8.831 Y162.54 E35.40822
G1 X8.758 Y162.097 E35.4254
G1 X8.802 Y161.405 E35.45193
G1 X8.961 Y160.627 E35.48232
G1 X9.208 Y159.507 E35.52622
G1 X9.481 Y158.349 E35.57175
G1 X9.949 Y156.481 E35.64544
G1 X10.547 Y153.764 E35.75191
G1 X11.06 Y151.078 E35.85656
G1 X11.504 Y148.328 E35.96316
G1 X11.868 Y145.592 E36.06879
G1 X12.151 Y142.886 E36.17291
G1 X12.197 Y142.387 E36.19209
G1 X12.278 Y141.946 E36.20925
G1 X12.436 Y141.525 E36.22646
G1 X12.758 Y141.021 E36.24935
G1 X13.27 Y140.396 E36.28027
G1 X13.758 Y139.836 E36.30869
G1 X14.082 Y139.525 E36.32588
G1 X14.456 Y139.277 E36.34305
G1 X14.811 Y139.119 E36.35792
G1 X15.472 Y138.884 E36.38477
G1 X15.983 Y138.719 E36.40532
G1 X16.325 Y138.635 E36.4188
G1 X17.619 Y138.409 E36.46907
G1 X20.359 Y137.893 E36.57577
G1 X23.044 Y137.308 E36.68094
G1 X25.725 Y136.644 E36.78664
G1 X28.396 Y135.901 E36.89273
G1 X30.453 Y135.273 E36.97504
G1 X55.102 Y127.449 E37.96473
G1 X57.758 Y126.564 E38.07187
G1 X60.314 Y125.632 E38.17598
G1 X62.912 Y124.6 E38.28296
G1 X65.421 Y123.52 E38.3875
G1 X67.929 Y122.356 E38.49331
G1 X70.361 Y121.142 E38.59734
G1 X72.841 Y119.815 E38.70498
G1 X75.209 Y118.461 E38.80937
G1 X77.563 Y117.025 E38.91489
G1 X79.9 Y115.507 E39.02154
G1 X82.136 Y113.962 E39.12555
G1 X84.379 Y112.319 E39.23195
G1 X86.549 Y110.631 E39.33717
G1 X88.667 Y108.887 E39.44216
G1 X90.759 Y107.06 E39.54846
G1 X92.79 Y105.184 E39.65427
G1 X94.72 Y103.299 E39.75751
G1 X96.682 Y101.269 E39.86555
G1 X98.525 Y99.25 E39.97017
G1 X100.332 Y97.156 E40.07602
G1 X102.071 Y95.023 E40.18134
G1 X103.74 Y92.85 E40.28619
G1 X105.361 Y90.612 E40.39195
G1 X106.92 Y88.327 E40.49781
G1 X108.408 Y86.01 E40.60319
G1 X109.833 Y83.643 E40.70892
G1 X111.183 Y81.25 E40.81407
G1 X112.475 Y78.804 E40.91993
G1 X113.688 Y76.337 E41.02514
G1 X114.844 Y73.813 E41.13138
G1 X115.899 Y71.319 E41.23501
G1 X116.921 Y68.705 E41.34242
G1 X117.845 Y66.127 E41.44723
G1 X118.708 Y63.489 E41.55345
G1 X119.479 Y60.883 E41.65745
G1 X120.189 Y58.203 E41.76355
G1 X120.832 Y55.479 E41.87066
G1 X121.377 Y52.816 E41.97468
G1 X121.858 Y50.085 E42.08081
G1 X122.26 Y47.354 E42.18645
G1 X122.582 Y44.639 E42.29108
G1 X122.86 Y41.481 E42.4124
G1 X122.896 Y41.222 E42.42241
G1 X123.114 Y40.102 E42.46607
G1 X123.376 Y38.885 E42.51371
G1 X123.864 Y36.668 E42.60059
G1 X124.018 Y36.017 E42.62619
G0 F1285.7 X124.358 Y36.097
G1 F900 X124.542 Y35.567 E42.64766
G1 X125.406 Y33.439 E42.73555
G1 X126.378 Y30.839 E42.84178
G1 X127.27 Y28.228 E42.94737
G1 X128.086 Y25.601 E43.05265
