;FLAVOR:Marlin
;TIME:24140
;Filament used: 25.9707m
;Layer height: 0.3
;MINX:12.552
;MINY:9.529
;MINZ:0.26
;MAXX:188.152
;MAXY:185.131
;MAXZ:29.06
;Generated with Cura_SteamEngine 4.9.1
M82 ;absolute extrusion mode
;Begin Start Gcode for Dagoma DiscoEasy 200
;Sliced: 26-07-2021 02:08:33
;Initial extruder: 0

G90 ;Absolute positioning
M106 S255 ;Fan on full
G28 X Y ;Home stop X Y
G1 X100 ;Centre back during cooldown in case of oozing
M109 R90 ;Cooldown in case too hot
G28 ;Centre
G29 ;Auto-level
M104 S205 ;Pre-heat
M107 ;Fan off
G0 X100 Y5 Z0.5 ;Front centre for degunk
M109 S205 ;Wait for initial temp
M83 ;E Relative
G1 E10 F200 ;Degunk
G1 E-3 F5000 ;Retract
G0 Z3 ;Withdraw
M82 ;E absolute
G92 E0 ;E reset
G1 F6000 ;Set feedrate

;Finish Start Gcode for Dagoma DiscoEasy 200

G92 E0
G92 E0
G1 F3000 E-3.5
;LAYER_COUNT:97
;LAYER:0
M107
G0 F1285.7 X39.953 Y12.762 Z0.26
;TYPE:SKIRT
G1 F3000 E0
G1 F900 X40.125 Y12.315 E0.01833
G1 X40.369 Y11.903 E0.03665
G1 X40.679 Y11.537 E0.05501
G1 X41.044 Y11.227 E0.07334
G1 X41.456 Y10.983 E0.09166
G1 X41.903 Y10.81 E0.11
G1 X42.373 Y10.714 E0.12836
G1 X42.852 Y10.697 E0.1467
G1 X43.327 Y10.761 E0.16505
G1 X43.785 Y10.902 E0.18339
G1 X44.426 Y11.261 E0.2115
G1 X45.208 Y11.842 E0.24878
G1 X47.466 Y13.468 E0.35527
G1 X49.729 Y15.002 E0.4599
G1 X52.082 Y16.503 E0.56671
G1 X54.417 Y17.9 E0.67084
G1 X56.815 Y19.246 E0.77608
G1 X59.244 Y20.519 E0.88102
G1 X61.717 Y21.727 E0.98635
G1 X62.268 Y21.981 E1.00957
G1 X63.03 Y22.392 E1.0427
G1 X63.365 Y22.669 E1.05934
G1 X64.125 Y23.402 E1.09975
G1 X68.443 Y27.725 E1.33358
G1 X68.915 Y28.211 E1.35951
G1 X69.247 Y28.622 E1.37973
G1 X70.808 Y30.969 E1.4876
G1 X72.391 Y33.21 E1.5926
G1 X74.034 Y35.399 E1.69734
G1 X75.76 Y37.571 E1.80351
G1 X77.52 Y39.659 E1.90802
G1 X79.348 Y41.71 E2.01316
G1 X81.229 Y43.703 E2.11804
G1 X83.165 Y45.641 E2.22287
G1 X85.19 Y47.557 E2.32956
G1 X87.201 Y49.353 E2.43274
G1 X89.328 Y51.149 E2.53928
G1 X91.462 Y52.849 E2.64369
G1 X93.683 Y54.519 E2.75003
G1 X95.883 Y56.077 E2.8532
G1 X97.344 Y57.062 E2.92063
G1 X98.326 Y57.711 E2.96568
G1 X98.941 Y58.231 E2.9965
G1 X99.011 Y58.298 E3.00021
G1 X103.775 Y63.053 E3.2578
G1 X104.335 Y63.631 E3.2886
G1 X104.5 Y63.809 E3.29789
G1 X106.109 Y65.608 E3.39025
G1 X107.994 Y67.599 E3.49518
G1 X109.9 Y69.5 E3.5982
G1 X111.945 Y71.429 E3.70578
G1 X113.98 Y73.241 E3.81006
G1 X116.089 Y75.017 E3.91557
G1 X118.218 Y76.708 E4.01962
G1 X120.43 Y78.366 E4.12542
G1 X122.67 Y79.947 E4.23034
G1 X124.958 Y81.466 E4.33544
G1 X127.301 Y82.93 E4.44117
G1 X129.655 Y84.309 E4.54558
G1 X132.09 Y85.645 E4.65187
G1 X134.518 Y86.888 E4.75626
G1 X136.982 Y88.062 E4.86071
G1 X139.514 Y89.183 E4.96668
G1 X140.738 Y89.688 E5.01735
G1 X141.588 Y90.099 E5.05348
G1 X141.917 Y90.347 E5.06925
G1 X142.436 Y90.802 E5.09566
G1 X142.94 Y91.268 E5.12193
G1 X143.414 Y91.835 E5.15022
G1 X145.225 Y94.754 E5.28168
G1 X146.736 Y97.045 E5.3867
G1 X148.295 Y99.268 E5.49061
G1 X149.963 Y101.51 E5.59755
G1 X151.629 Y103.623 E5.70053
G1 X153.42 Y105.765 E5.80738
G1 X155.234 Y107.813 E5.91208
G1 X157.093 Y109.799 E6.01619
G1 X159.03 Y111.753 E6.12148
G1 X161.041 Y113.669 E6.22778
G1 X163.077 Y115.503 E6.33265
G1 X165.152 Y117.268 E6.4369
G1 X167.316 Y119.006 E6.54312
G1 X169.491 Y120.653 E6.64752
G1 X171.725 Y122.247 E6.75255
G1 X174.011 Y123.785 E6.85799
G1 X176.336 Y125.253 E6.96322
G1 X177.581 Y125.987 E7.01853
G1 X178.474 Y126.528 E7.05848
G1 X178.861 Y126.81 E7.07681
G1 X179.4 Y127.366 E7.10644
G1 X179.788 Y127.884 E7.13121
G1 X179.964 Y128.235 E7.14624
G1 X180.296 Y129.035 E7.17939
G1 X180.636 Y129.903 E7.21506
G1 X180.892 Y130.579 E7.24273
G1 X181.051 Y131.206 E7.26748
G1 X181.167 Y132.048 E7.30001
G1 X181.584 Y134.801 E7.40656
G1 X182.075 Y137.53 E7.51268
G1 X182.633 Y140.201 E7.6171
G1 X183.262 Y142.834 E7.7207
G1 X183.984 Y145.514 E7.82692
G1 X184.776 Y148.154 E7.9324
G1 X185.633 Y150.747 E8.03691
G1 X186.347 Y152.68 E8.11577
G1 X186.82 Y153.995 E8.16926
G1 X186.944 Y154.458 E8.1876
G1 X186.99 Y154.935 E8.20594
G1 X186.955 Y155.413 E8.22428
G1 X186.842 Y155.878 E8.24259
G1 X186.653 Y156.319 E8.26095
G1 X186.393 Y156.721 E8.27928
G1 X186.071 Y157.075 E8.29759
G1 X185.693 Y157.371 E8.31596
G1 X185.272 Y157.6 E8.3343
G1 X184.736 Y157.787 E8.35603
G1 X184.448 Y157.87 E8.3675
G1 X87.507 Y184.871 E12.2186
G1 X86.857 Y185.043 E12.24433
G1 X86.386 Y185.127 E12.26264
G1 X85.906 Y185.131 E12.28101
G1 X85.433 Y185.055 E12.29935
G1 X84.979 Y184.902 E12.31768
G1 X84.397 Y184.564 E12.34344
G1 X84.18 Y184.387 E12.35415
G1 X83.555 Y183.825 E12.38632
G1 X81.463 Y181.997 E12.49264
G1 X79.305 Y180.217 E12.59969
G1 X77.187 Y178.568 E12.70242
G1 X74.954 Y176.93 E12.8084
G1 X72.696 Y175.369 E12.91345
G1 X70.39 Y173.868 E13.01875
G1 X68.033 Y172.43 E13.12441
G1 X66.038 Y171.28 E13.21254
G1 X65.309 Y170.836 E13.2452
G1 X64.734 Y170.391 E13.27303
G1 X64.494 Y170.177 E13.28533
G1 X63.872 Y169.566 E13.3187
G1 X63.644 Y169.347 E13.3308
G1 X62.983 Y168.692 E13.36641
G1 X62.76 Y168.444 E13.37917
G1 X62.386 Y167.974 E13.40216
G1 X62.06 Y167.524 E13.42342
G1 X61.689 Y166.933 E13.45013
G1 X60.191 Y164.616 E13.55572
G1 X58.644 Y162.365 E13.66024
G1 X57.022 Y160.146 E13.76543
G1 X55.337 Y157.97 E13.87076
G1 X53.6 Y155.853 E13.97555
G1 X51.786 Y153.765 E14.0814
G1 X49.946 Y151.765 E14.18541
G1 X48.007 Y149.774 E14.29176
G1 X46.023 Y147.85 E14.39753
G1 X44.013 Y146.007 E14.50189
G1 X41.957 Y144.226 E14.60599
G1 X39.82 Y142.477 E14.71167
G1 X37.631 Y140.788 E14.81748
G1 X35.407 Y139.17 E14.92273
G1 X33.192 Y137.652 E15.0255
G1 X32.158 Y136.994 E15.0724
G1 X32.03 Y136.896 E15.07857
G1 X30.909 Y136.166 E15.12976
G1 X30.69 Y136.015 E15.13994
G1 X29.915 Y135.457 E15.17649
G1 X29.355 Y135.019 E15.2037
G1 X29.116 Y134.804 E15.216
G1 X28.516 Y134.201 E15.24855
G1 X27.511 Y133.19 E15.30311
G1 X27.134 Y132.751 E15.32525
G1 X26.637 Y132.054 E15.35801
G1 X26.386 Y131.607 E15.37763
G1 X25.016 Y129.239 E15.48233
G1 X23.571 Y126.9 E15.58755
G1 X22.057 Y124.596 E15.69305
G1 X20.478 Y122.338 E15.7985
G1 X18.84 Y120.127 E15.9038
G1 X17.163 Y117.993 E16.00767
G1 X15.364 Y115.835 E16.11519
G1 X13.422 Y113.648 E16.22712
G1 X12.972 Y113.069 E16.25518
G1 X12.756 Y112.641 E16.27353
G1 X12.615 Y112.183 E16.29187
G1 X12.552 Y111.708 E16.3102
G1 X12.569 Y111.229 E16.32855
G1 X12.64 Y110.851 E16.34326
G1 X12.894 Y109.867 E16.38216
G1 X39.762 Y13.415 E20.21387
G1 X39.953 Y12.762 E20.2399
G0 F1285.7 X40.289 Y12.86
G1 F900 X40.452 Y12.442 E20.25707
G1 X40.688 Y12.06 E20.27426
G1 X40.987 Y11.725 E20.29144
G1 X41.341 Y11.449 E20.30862
G1 X41.738 Y11.239 E20.32581
G1 X42.166 Y11.104 E20.34298
G1 X42.611 Y11.046 E20.36015
G1 X43.06 Y11.068 E20.37736
G1 X43.497 Y11.169 E20.39452
G1 X43.91 Y11.346 E20.41172
G1 X44.217 Y11.542 E20.42566
G1 X45.004 Y12.126 E20.46316
G1 X47.275 Y13.762 E20.57028
G1 X49.546 Y15.301 E20.67526
G1 X51.883 Y16.792 E20.78135
G1 X54.236 Y18.199 E20.88627
G1 X56.666 Y19.563 E20.99291
G1 X59.07 Y20.823 E21.09678
G1 X61.574 Y22.046 E21.20343
G1 X62.116 Y22.296 E21.22627
G1 X62.851 Y22.694 E21.25826
G1 X63.122 Y22.921 E21.27179
G1 X63.877 Y23.649 E21.31192
G1 X68.192 Y27.969 E21.54559
G1 X68.664 Y28.455 E21.57152
G1 X68.956 Y28.816 E21.58929
G1 X70.527 Y31.178 E21.69785
G1 X72.105 Y33.412 E21.80252
G1 X73.76 Y35.617 E21.90803
G1 X75.482 Y37.784 E22.01396
G1 X77.257 Y39.89 E22.11936
G1 X79.098 Y41.955 E22.22523
G1 X80.974 Y43.943 E22.32984
G1 X82.942 Y45.913 E22.4364
G1 X84.928 Y47.791 E22.54101
G1 X86.991 Y49.634 E22.64687
G1 X89.094 Y51.41 E22.75221
G1 X91.26 Y53.136 E22.8582
G1 X93.441 Y54.776 E22.96263
G1 X95.688 Y56.367 E23.068
G1 X97.171 Y57.367 E23.13645
G1 X98.133 Y58.003 E23.18058
G1 X98.703 Y58.487 E23.2092
G1 X103.524 Y63.297 E23.46982
G1 X104.079 Y63.869 E23.50032
G1 X104.239 Y64.042 E23.50934
G1 X105.842 Y65.833 E23.60132
G1 X107.74 Y67.839 E23.70701
G1 X109.693 Y69.787 E23.81257
G1 X111.683 Y71.664 E23.91726
G1 X113.749 Y73.504 E24.02314
G1 X115.86 Y75.281 E24.12874
G1 X118.017 Y76.995 E24.23417
G1 X120.229 Y78.652 E24.33994
G1 X122.485 Y80.244 E24.44561
G1 X124.764 Y81.758 E24.55032
G1 X127.108 Y83.223 E24.6561
G1 X129.494 Y84.62 E24.76191
G1 X131.89 Y85.935 E24.86651
G1 X134.379 Y87.209 E24.97351
G1 X136.846 Y88.385 E25.0781
G1 X139.382 Y89.507 E25.18423
G1 X140.599 Y90.009 E25.23461
G1 X141.422 Y90.408 E25.26961
G1 X141.686 Y90.61 E25.28233
G1 X142.198 Y91.059 E25.30839
G1 X142.702 Y91.525 E25.33466
G1 X143.118 Y92.023 E25.35949
G1 X144.921 Y94.93 E25.4904
G1 X146.432 Y97.221 E25.59543
G1 X148.024 Y99.491 E25.70154
G1 X149.657 Y101.686 E25.80624
G1 X151.383 Y103.875 E25.91292
G1 X153.152 Y105.99 E26.01844
G1 X154.964 Y108.037 E26.12306
G1 X156.855 Y110.055 E26.22889
G1 X158.804 Y112.023 E26.33489
G1 X160.778 Y113.903 E26.43921
G1 X162.844 Y115.764 E26.54563
G1 X164.938 Y117.544 E26.6508
G1 X167.096 Y119.278 E26.75675
G1 X169.287 Y120.937 E26.86192
G1 X171.537 Y122.543 E26.96771
G1 X173.815 Y124.075 E27.07277
G1 X176.141 Y125.544 E27.17805
G1 X177.399 Y126.286 E27.23394
G1 X178.292 Y126.827 E27.2739
G1 X178.838 Y127.273 E27.30088
G1 X179.222 Y127.693 E27.32266
G1 X179.5 Y128.086 E27.34108
G1 X179.64 Y128.37 E27.3532
G1 X179.97 Y129.163 E27.38607
G1 X180.308 Y130.027 E27.42157
G1 X180.564 Y130.703 E27.44924
G1 X180.705 Y131.253 E27.47097
G1 X180.821 Y132.1 E27.50368
G1 X181.242 Y134.881 E27.61132
G1 X181.72 Y137.54 E27.71471
G1 X182.296 Y140.293 E27.82235
G1 X182.925 Y142.93 E27.9261
G1 X183.652 Y145.628 E28.03303
G1 X184.44 Y148.253 E28.13792
G1 X185.304 Y150.867 E28.24328
G1 X186.018 Y152.798 E28.32207
G1 X186.491 Y154.113 E28.37555
G1 X186.605 Y154.548 E28.39276
G1 X186.64 Y154.995 E28.40992
G1 X186.595 Y155.442 E28.42711
G1 X186.472 Y155.874 E28.4443
G1 X186.274 Y156.277 E28.46148
G1 X186.008 Y156.639 E28.47867
G1 X185.682 Y156.948 E28.49586
G1 X185.307 Y157.194 E28.51303
G1 X184.702 Y157.431 E28.53789
G1 X184.355 Y157.532 E28.55172
G1 X87.418 Y184.533 E32.40268
G1 X86.768 Y184.705 E32.42841
G1 X86.325 Y184.781 E32.44561
G1 X85.876 Y184.777 E32.46279
G1 X85.435 Y184.694 E32.47997
G1 X85.016 Y184.534 E32.49713
G1 X84.587 Y184.269 E32.51643
G1 X84.414 Y184.127 E32.52499
G1 X83.759 Y183.538 E32.5587
G1 X81.71 Y181.747 E32.66285
G1 X79.528 Y179.947 E32.7711
G1 X77.399 Y178.29 E32.87435
G1 X75.15 Y176.64 E32.98109
G1 X72.876 Y175.067 E33.08691
G1 X70.578 Y173.572 E33.19183
G1 X68.25 Y172.151 E33.2962
G1 X66.209 Y170.975 E33.38635
G1 X65.522 Y170.559 E33.41709
G1 X65.033 Y170.182 E33.44072
G1 X64.739 Y169.928 E33.45558
G1 X64.092 Y169.292 E33.4903
G1 X63.891 Y169.099 E33.50097
G1 X63.23 Y168.444 E33.53658
G1 X63.034 Y168.226 E33.5478
G1 X62.666 Y167.763 E33.57043
G1 X62.356 Y167.337 E33.5906
G1 X61.985 Y166.746 E33.6173
G1 X60.493 Y164.438 E33.72247
G1 X58.934 Y162.17 E33.8278
G1 X57.301 Y159.935 E33.93373
G1 X55.604 Y157.744 E34.03979
G1 X53.854 Y155.611 E34.14537
G1 X52.043 Y153.527 E34.25103
G1 X50.212 Y151.536 E34.35455
G1 X48.248 Y149.519 E34.46229
G1 X46.275 Y147.605 E34.56748
G1 X44.268 Y145.766 E34.67166
G1 X42.159 Y143.939 E34.77844
G1 X40.045 Y142.209 E34.88298
G1 X37.841 Y140.508 E34.98952
G1 X35.625 Y138.896 E35.09439
G1 X33.357 Y137.341 E35.19963
G1 X32.346 Y136.698 E35.24548
G1 X32.235 Y136.612 E35.25086
G1 X31.108 Y135.879 E35.30231
G1 X30.894 Y135.73 E35.31229
G1 X30.126 Y135.178 E35.34848
G1 X29.574 Y134.746 E35.37531
G1 X29.364 Y134.557 E35.38612
G1 X28.759 Y133.949 E35.41894
G1 X27.759 Y132.943 E35.47323
G1 X27.412 Y132.539 E35.49361
G1 X26.942 Y131.882 E35.52452
G1 X26.691 Y131.435 E35.54414
G1 X25.31 Y129.05 E35.64961
G1 X23.864 Y126.709 E35.75491
G1 X22.345 Y124.398 E35.86075
G1 X20.787 Y122.167 E35.96489
G1 X19.103 Y119.895 E36.07311
G1 X17.444 Y117.784 E36.17586
G1 X15.633 Y115.611 E36.28412
G1 X13.686 Y113.418 E36.39634
G1 X13.255 Y112.862 E36.42327
G1 X13.061 Y112.458 E36.44042
G1 X12.941 Y112.025 E36.45761
G1 X12.899 Y111.578 E36.4748
G1 X12.979 Y110.939 E36.49944
G1 X13.232 Y109.96 E36.53814
G1 X40.098 Y13.513 E40.36964
G1 X40.289 Y12.86 E40.39568
G0 F1285.7 X40.624 Y12.958
G1 F900 X40.779 Y12.572 E40.4116
G1 X41.005 Y12.221 E40.42757
G1 X41.293 Y11.921 E40.44349
G1 X41.634 Y11.68 E40.45947
G1 X42.013 Y11.509 E40.47538
G1 X42.419 Y11.414 E40.49134
G1 X42.835 Y11.398 E40.50727
G1 X43.247 Y11.461 E40.52322
G1 X43.639 Y11.602 E40.53916
G1 X44.009 Y11.823 E40.55566
G1 X44.799 Y12.41 E40.59332
G1 X47.084 Y14.056 E40.70109
G1 X49.355 Y15.595 E40.80608
G1 X51.675 Y17.076 E40.91141
G1 X54.07 Y18.508 E41.0182
G1 X56.487 Y19.864 E41.12426
G1 X58.939 Y21.149 E41.2302
G1 X61.412 Y22.357 E41.33553
G1 X61.964 Y22.611 E41.35879
G1 X62.67 Y22.995 E41.38954
G1 X62.879 Y23.173 E41.40005
G1 X63.63 Y23.897 E41.43997
G1 X67.941 Y28.213 E41.67342
G1 X68.413 Y28.699 E41.69935
G1 X68.664 Y29.01 E41.71464
G1 X70.229 Y31.364 E41.82282
G1 X71.82 Y33.614 E41.92828
G1 X73.486 Y35.835 E42.03453
G1 X75.206 Y38 E42.14035
G1 X77.009 Y40.139 E42.24741
G1 X78.812 Y42.161 E42.35109
G1 X80.737 Y44.201 E42.45843
G1 X82.684 Y46.15 E42.56385
G1 X84.702 Y48.059 E42.67016
G1 X86.759 Y49.897 E42.77573
G1 X88.881 Y51.689 E42.88202
G1 X91.042 Y53.41 E42.98774
G1 X93.239 Y55.062 E43.09294
G1 X95.523 Y56.679 E43.20003
G1 X96.958 Y57.646 E43.26626
G1 X97.94 Y58.295 E43.3113
G1 X98.464 Y58.743 E43.33769
G1 X103.273 Y63.541 E43.59766
G1 X103.822 Y64.107 E43.62783
G1 X103.978 Y64.276 E43.63663
G1 X105.574 Y66.06 E43.72824
G1 X107.486 Y68.08 E43.83468
G1 X109.454 Y70.043 E43.94106
G1 X111.432 Y71.909 E44.04512
G1 X113.519 Y73.768 E44.15208
G1 X115.644 Y75.557 E44.25839
G1 X117.799 Y77.269 E44.36372
G1 X120.027 Y78.938 E44.47025
G1 X122.252 Y80.509 E44.57449
G1 X124.596 Y82.066 E44.68218
G1 X126.931 Y83.525 E44.78755
G1 X129.319 Y84.923 E44.89344
G1 X131.747 Y86.255 E44.99943
G1 X134.211 Y87.517 E45.10537
G1 X136.695 Y88.701 E45.21068
G1 X139.23 Y89.823 E45.31677
G1 X140.46 Y90.331 E45.3677
G1 X141.253 Y90.717 E45.40145
G1 X141.456 Y90.874 E45.41127
G1 X141.961 Y91.316 E45.43695
G1 X142.465 Y91.782 E45.46322
G1 X142.823 Y92.211 E45.48461
G1 X143.153 Y92.741 E45.5085
G1 X144.638 Y95.137 E45.61638
G1 X146.133 Y97.403 E45.72027
G1 X147.749 Y99.707 E45.82797
G1 X149.382 Y101.902 E45.93266
G1 X151.103 Y104.085 E46.03905
G1 X152.887 Y106.219 E46.14549
G1 X154.712 Y108.279 E46.25081
G1 X156.598 Y110.293 E46.35641
G1 X158.544 Y112.258 E46.46224
G1 X160.551 Y114.169 E46.5683
G1 X162.613 Y116.028 E46.67455
G1 X164.737 Y117.833 E46.78122
G1 X166.85 Y119.531 E46.88495
G1 X169.099 Y121.233 E46.99289
G1 X171.308 Y122.81 E47.09676
G1 X173.643 Y124.38 E47.20444
G1 X175.971 Y125.85 E47.30981
G1 X177.218 Y126.586 E47.36522
G1 X178.111 Y127.127 E47.40518
G1 X178.581 Y127.511 E47.4284
G1 X178.954 Y127.918 E47.44953
G1 X179.212 Y128.286 E47.46673
G1 X179.317 Y128.505 E47.47603
G1 X179.644 Y129.29 E47.50857
G1 X179.981 Y130.151 E47.54395
G1 X180.237 Y130.827 E47.57162
G1 X180.358 Y131.301 E47.59034
G1 X180.475 Y132.153 E47.62325
G1 X180.89 Y134.899 E47.72953
G1 X181.386 Y137.653 E47.83662
G1 X181.943 Y140.321 E47.94093
G1 X182.591 Y143.034 E48.04767
G1 X183.314 Y145.719 E48.15409
G1 X184.104 Y148.353 E48.25932
G1 X184.975 Y150.988 E48.36553
G1 X185.689 Y152.917 E48.44425
G1 X186.162 Y154.232 E48.49773
G1 X186.264 Y154.636 E48.51367
G1 X186.288 Y155.052 E48.52962
G1 X186.233 Y155.464 E48.54553
G1 X186.099 Y155.859 E48.56149
G1 X185.893 Y156.221 E48.57743
G1 X185.621 Y156.537 E48.59339
G1 X185.294 Y156.796 E48.60935
G1 X184.775 Y157.04 E48.6313
G1 X184.282 Y157.189 E48.65101
G1 X87.328 Y184.195 E52.50264
G1 X86.678 Y184.367 E52.52837
G1 X86.267 Y184.434 E52.54431
G1 X85.851 Y184.422 E52.56023
G1 X85.444 Y184.331 E52.57619
G1 X85.063 Y184.164 E52.59211
G1 X84.648 Y183.866 E52.61167
G1 X84.016 Y183.298 E52.64419
G1 X81.911 Y181.459 E52.75116
G1 X79.764 Y179.688 E52.85767
G1 X77.615 Y178.014 E52.96191
G1 X75.346 Y176.35 E53.0696
G1 X73.08 Y174.783 E53.17503
G1 X70.781 Y173.287 E53.28
G1 X68.405 Y171.836 E53.38654
G1 X66.358 Y170.656 E53.47696
G1 X65.736 Y170.282 E53.50474
G1 X65.247 Y169.905 E53.52837
G1 X64.984 Y169.678 E53.54166
G1 X64.337 Y169.042 E53.57638
G1 X64.137 Y168.85 E53.58699
G1 X63.476 Y168.195 E53.62261
G1 X63.307 Y168.007 E53.63228
G1 X62.945 Y167.552 E53.65453
