;FLAVOR:Marlin
;TIME:23978
;Filament used: 25.8925m
;Layer height: 0.3
;MINX:11.923
;MINY:9.414
;MINZ:0.26
;MAXX:185.451
;MAXY:189.245
;MAXZ:29.06
;Generated with Cura_SteamEngine 4.9.1
M82 ;absolute extrusion mode
;Begin Start Gcode for Dagoma DiscoEasy 200
;Sliced: 26-07-2021 01:59:31
;Initial extruder: 0

G90 ;Absolute positioning
M106 S255 ;Fan on full
G28 X Y ;Home stop X Y
G1 X100 ;Centre back during cooldown in case of oozing
M109 R90 ;Cooldown in case too hot
G28 ;Centre
G29 ;Auto-level
M104 S205 ;Pre-heat
M107 ;Fan off
G0 X100 Y5 Z0.5 ;Front centre for degunk
M109 S205 ;Wait for initial temp
M83 ;E Relative
G1 E10 F200 ;Degunk
G1 E-3 F5000 ;Retract
G0 Z3 ;Withdraw
M82 ;E absolute
G92 E0 ;E reset
G1 F6000 ;Set feedrate

;Finish Start Gcode for Dagoma DiscoEasy 200

G92 E0
G92 E0
G1 F3000 E-3.5
;LAYER_COUNT:97
;LAYER:0
M107
G0 F1285.7 X37.366 Y11.533 Z0.26
;TYPE:SKIRT
G1 F3000 E0
G1 F900 X37.53 Y11.083 E0.01833
G1 X37.766 Y10.666 E0.03667
G1 X38.069 Y10.294 E0.05503
G1 X38.429 Y9.978 E0.07336
G1 X38.836 Y9.726 E0.09168
G1 X39.28 Y9.545 E0.11003
G1 X39.747 Y9.44 E0.12835
G1 X40.226 Y9.414 E0.1467
G1 X40.702 Y9.468 E0.16504
G1 X41.162 Y9.601 E0.18336
G1 X41.594 Y9.808 E0.20169
G1 X42.124 Y10.207 E0.22708
G1 X42.517 Y10.593 E0.24816
G1 X109.382 Y78.79 E3.90321
G1 X111.34 Y80.731 E4.00872
G1 X113.357 Y82.621 E4.1145
G1 X115.393 Y84.422 E4.21852
G1 X117.532 Y86.21 E4.32521
G1 X119.652 Y87.882 E4.42854
G1 X121.874 Y89.536 E4.53455
G1 X124.126 Y91.113 E4.63976
G1 X126.394 Y92.611 E4.74378
G1 X128.75 Y94.071 E4.84985
G1 X131.149 Y95.465 E4.95604
G1 X133.534 Y96.763 E5.05995
G1 X135.067 Y97.55 E5.1259
G1 X135.685 Y97.88 E5.15271
G1 X136.159 Y98.197 E5.17453
G1 X136.577 Y98.565 E5.19584
G1 X136.702 Y98.684 E5.20245
G1 X137.792 Y99.766 E5.26122
G1 X138.209 Y100.172 E5.2835
G1 X138.598 Y100.605 E5.30577
G1 X139.041 Y101.187 E5.33376
G1 X139.355 Y101.702 E5.35685
G1 X140.84 Y104.074 E5.46394
G1 X142.356 Y106.348 E5.56853
G1 X143.939 Y108.58 E5.67325
G1 X145.608 Y110.803 E5.77964
G1 X147.312 Y112.941 E5.88426
G1 X149.054 Y115.004 E5.9876
G1 X150.924 Y117.097 E6.09501
G1 X152.792 Y119.071 E6.19901
G1 X154.748 Y121.024 E6.30479
G1 X156.739 Y122.905 E6.40961
G1 X158.791 Y124.734 E6.51481
G1 X160.879 Y126.493 E6.61929
G1 X163.051 Y128.219 E6.72546
G1 X165.24 Y129.861 E6.83018
G1 X167.489 Y131.449 E6.93554
G1 X169.707 Y132.926 E7.03752
G1 X170.849 Y133.664 E7.08956
G1 X171.499 Y134.193 E7.12163
G1 X171.62 Y134.305 E7.12794
G1 X172.397 Y135.07 E7.16967
G1 X172.509 Y135.185 E7.17581
G1 X173.171 Y135.833 E7.21126
G1 X173.549 Y136.24 E7.23252
G1 X173.787 Y136.52 E7.24659
G1 X174.141 Y137.049 E7.27094
G1 X174.417 Y137.581 E7.29388
G1 X174.477 Y137.704 E7.29912
G1 X175.783 Y140.544 E7.41874
G1 X176.992 Y142.99 E7.52316
G1 X178.285 Y145.429 E7.62881
G1 X179.639 Y147.818 E7.7339
G1 X181.06 Y150.166 E7.83893
G1 X182.556 Y152.489 E7.94467
G1 X184.391 Y155.152 E8.06843
G1 X184.92 Y155.894 E8.1033
G1 X185.165 Y156.306 E8.12165
G1 X185.338 Y156.753 E8.13999
G1 X185.434 Y157.222 E8.15831
G1 X185.451 Y157.701 E8.17665
G1 X185.388 Y158.176 E8.19499
G1 X185.247 Y158.634 E8.21333
G1 X185.032 Y159.062 E8.23166
G1 X184.749 Y159.449 E8.25001
G1 X184.406 Y159.783 E8.26833
G1 X184.011 Y160.056 E8.28671
G1 X183.72 Y160.202 E8.29917
G1 X182.772 Y160.612 E8.33869
G1 X180.284 Y161.731 E8.44309
G1 X177.771 Y162.948 E8.54995
G1 X175.365 Y164.198 E8.65371
G1 X172.948 Y165.544 E8.75958
G1 X170.618 Y166.926 E8.86326
G1 X168.277 Y168.407 E8.96927
G1 X165.325 Y170.418 E9.10596
G1 X164.708 Y170.78 E9.13334
G1 X164.324 Y170.92 E9.14898
G1 X163.529 Y171.146 E9.18061
G1 X157.47 Y172.76 E9.42057
G1 X156.775 Y172.935 E9.448
G1 X156.253 Y173.016 E9.46822
G1 X153.532 Y173.187 E9.57255
G1 X150.807 Y173.436 E9.67727
G1 X148.05 Y173.765 E9.78353
G1 X145.343 Y174.167 E9.88826
G1 X142.643 Y174.646 E9.9932
G1 X139.969 Y175.198 E10.09769
G1 X137.261 Y175.839 E10.20419
G1 X134.629 Y176.54 E10.30843
G1 X132 Y177.322 E10.41339
G1 X129.371 Y178.185 E10.51929
G1 X126.788 Y179.113 E10.62432
G1 X124.236 Y180.113 E10.72922
G1 X121.697 Y181.193 E10.83481
G1 X119.2 Y182.339 E10.93995
G1 X117.337 Y183.251 E11.01933
G1 X116.586 Y183.629 E11.05151
G1 X115.949 Y183.871 E11.07758
G1 X115.566 Y183.981 E11.09283
G1 X109.187 Y185.69 E11.34556
G1 X108.479 Y185.868 E11.3735
G1 X108.006 Y185.946 E11.39185
G1 X107.555 Y185.946 E11.40911
G1 X104.706 Y185.724 E11.51847
G1 X101.904 Y185.587 E11.62583
G1 X99.205 Y185.53 E11.72914
G1 X96.434 Y185.551 E11.83519
G1 X93.698 Y185.648 E11.93996
G1 X90.968 Y185.824 E12.04465
G1 X88.203 Y186.08 E12.15092
G1 X87.158 Y186.206 E12.1912
G1 X86.305 Y186.296 E12.22403
G1 X85.826 Y186.307 E12.24236
G1 X85.351 Y186.237 E12.26074
G1 X84.876 Y186.082 E12.27986
G1 X83.629 Y185.551 E12.33173
G1 X81.091 Y184.51 E12.43671
G1 X78.454 Y183.514 E12.54458
G1 X75.932 Y182.646 E12.64665
G1 X73.306 Y181.821 E12.75199
G1 X70.624 Y181.063 E12.85865
G1 X67.951 Y180.386 E12.96418
G1 X66.136 Y179.979 E13.03536
G1 X65.645 Y179.858 E13.05471
G1 X64.824 Y179.58 E13.08788
G1 X64.411 Y179.338 E13.1062
G1 X64.043 Y179.031 E13.12454
G1 X63.687 Y178.602 E13.14588
G1 X62.083 Y176.241 E13.25511
G1 X60.728 Y174.353 E13.34405
G1 X60.03 Y173.403 E13.38916
G1 X59.924 Y173.249 E13.39632
G1 X58.466 Y171.086 E13.49614
G1 X56.873 Y168.862 E13.60083
G1 X55.214 Y166.678 E13.70579
G1 X53.516 Y164.569 E13.80941
G1 X51.7 Y162.442 E13.91644
G1 X49.861 Y160.405 E14.02147
G1 X47.968 Y158.425 E14.1263
G1 X45.991 Y156.471 E14.23268
G1 X44.017 Y154.627 E14.33605
G1 X41.959 Y152.812 E14.44107
G1 X39.813 Y151.024 E14.54796
G1 X37.683 Y149.347 E14.65171
G1 X35.466 Y147.703 E14.75734
G1 X33.229 Y146.141 E14.86175
G1 X30.463 Y144.332 E14.98823
G1 X29.443 Y143.688 E15.03439
G1 X29.061 Y143.399 E15.05273
G1 X28.581 Y142.844 E15.08081
G1 X28.023 Y142.001 E15.1195
G1 X26.451 Y139.696 E15.22627
G1 X25.686 Y138.645 E15.27602
G1 X25.044 Y137.739 E15.31851
G1 X24.719 Y137.18 E15.34326
G1 X24.467 Y136.663 E15.36527
G1 X24.346 Y136.372 E15.37733
G1 X23.865 Y135.013 E15.4325
G1 X23.775 Y134.75 E15.44314
G1 X22.822 Y132.185 E15.54785
G1 X21.798 Y129.648 E15.65255
G1 X20.676 Y127.084 E15.75966
G1 X19.531 Y124.655 E15.86243
G1 X18.276 Y122.178 E15.96869
G1 X16.967 Y119.765 E16.07375
G1 X15.591 Y117.392 E16.17873
G1 X14.148 Y115.058 E16.28374
G1 X12.885 Y113.129 E16.37198
G1 X12.4 Y112.405 E16.40533
G1 X12.168 Y111.986 E16.42366
G1 X12.008 Y111.534 E16.44201
G1 X11.926 Y111.062 E16.46034
G1 X11.923 Y110.583 E16.47867
G1 X11.992 Y110.141 E16.49579
G1 X12.223 Y109.169 E16.53402
G1 X37.179 Y12.22 E20.36517
G1 X37.366 Y11.533 E20.39241
G0 F1285.7 X37.704 Y11.625
G1 F900 X37.86 Y11.204 E20.4096
G1 X38.088 Y10.817 E20.42679
G1 X38.381 Y10.477 E20.44396
G1 X38.729 Y10.194 E20.46113
G1 X39.123 Y9.977 E20.47834
G1 X39.548 Y9.833 E20.49551
G1 X39.992 Y9.767 E20.51269
G1 X40.441 Y9.781 E20.52988
G1 X40.88 Y9.874 E20.54706
G1 X41.296 Y10.043 E20.56424
G1 X41.882 Y10.46 E20.59177
G1 X42.249 Y10.821 E20.61147
G1 X109.141 Y79.044 E24.26794
G1 X111.083 Y80.969 E24.37259
G1 X113.116 Y82.874 E24.47921
G1 X115.184 Y84.704 E24.58489
G1 X117.263 Y86.442 E24.68859
G1 X119.476 Y88.187 E24.79644
G1 X121.674 Y89.823 E24.9013
G1 X123.918 Y91.395 E25.00615
G1 X126.227 Y92.92 E25.11205
G1 X128.559 Y94.365 E25.21704
G1 X130.949 Y95.754 E25.32283
G1 X133.38 Y97.077 E25.42874
G1 X134.902 Y97.859 E25.49423
G1 X135.52 Y98.189 E25.52104
G1 X135.936 Y98.467 E25.54019
G1 X136.336 Y98.819 E25.56058
G1 X136.455 Y98.932 E25.56686
G1 X137.565 Y100.034 E25.62672
G1 X137.964 Y100.423 E25.64804
G1 X138.334 Y100.835 E25.66924
G1 X138.742 Y101.369 E25.69495
G1 X139.058 Y101.888 E25.71821
G1 X140.533 Y104.244 E25.82458
G1 X142.076 Y106.558 E25.93102
G1 X143.665 Y108.8 E26.03618
G1 X145.297 Y110.973 E26.14019
G1 X147.051 Y113.175 E26.24792
G1 X148.793 Y115.237 E26.35122
G1 X150.657 Y117.322 E26.45825
G1 X152.555 Y119.329 E26.56397
G1 X154.49 Y121.261 E26.66861
G1 X156.514 Y123.172 E26.77514
G1 X158.56 Y124.996 E26.88004
G1 X160.666 Y126.771 E26.98544
G1 X162.833 Y128.493 E27.09136
G1 X165.038 Y130.147 E27.19685
G1 X167.279 Y131.73 E27.30185
G1 X169.517 Y133.22 E27.40474
G1 X170.659 Y133.958 E27.45678
G1 X171.268 Y134.456 E27.48689
G1 X171.375 Y134.555 E27.49246
G1 X172.147 Y135.315 E27.53392
G1 X172.283 Y135.454 E27.54136
G1 X172.922 Y136.078 E27.57554
G1 X173.288 Y136.473 E27.59615
G1 X173.519 Y136.745 E27.60981
G1 X173.83 Y137.21 E27.63122
G1 X174.106 Y137.742 E27.65415
G1 X174.159 Y137.85 E27.65876
G1 X175.457 Y140.674 E27.7777
G1 X176.689 Y143.166 E27.88409
G1 X177.977 Y145.596 E27.98934
G1 X179.347 Y148.013 E28.09566
G1 X180.757 Y150.342 E28.19985
G1 X182.255 Y152.668 E28.30573
G1 X184.106 Y155.355 E28.4306
G1 X184.635 Y156.097 E28.46547
G1 X184.862 Y156.485 E28.48267
G1 X185.017 Y156.906 E28.49984
G1 X185.095 Y157.348 E28.51702
G1 X185.093 Y157.797 E28.5342
G1 X185.012 Y158.239 E28.5514
G1 X184.854 Y158.659 E28.56857
G1 X184.624 Y159.045 E28.58577
G1 X184.329 Y159.383 E28.60294
G1 X183.979 Y159.664 E28.62011
G1 X183.581 Y159.881 E28.63746
G1 X182.65 Y160.284 E28.67628
G1 X180.131 Y161.417 E28.78199
G1 X177.628 Y162.629 E28.88842
G1 X175.177 Y163.902 E28.99411
G1 X172.785 Y165.234 E29.09889
G1 X170.423 Y166.636 E29.204
G1 X168.094 Y168.108 E29.30944
G1 X165.131 Y170.127 E29.44666
G1 X164.54 Y170.472 E29.47285
G1 X164.228 Y170.583 E29.48552
G1 X163.439 Y170.808 E29.51692
G1 X157.385 Y172.421 E29.75669
G1 X156.69 Y172.596 E29.78411
G1 X156.231 Y172.667 E29.80189
G1 X153.513 Y172.838 E29.90611
G1 X150.732 Y173.091 E30.01298
G1 X148.026 Y173.415 E30.11727
G1 X145.271 Y173.824 E30.22386
G1 X142.58 Y174.301 E30.32845
G1 X139.893 Y174.856 E30.43345
G1 X137.193 Y175.495 E30.53963
G1 X134.507 Y176.211 E30.64601
G1 X131.901 Y176.985 E30.75005
G1 X129.254 Y177.854 E30.85667
G1 X126.673 Y178.782 E30.96163
G1 X124.113 Y179.785 E31.06685
G1 X121.556 Y180.873 E31.1732
G1 X119.056 Y182.019 E31.27845
G1 X117.154 Y182.951 E31.3595
G1 X116.428 Y183.316 E31.3906
G1 X115.84 Y183.538 E31.41465
G1 X115.476 Y183.643 E31.42915
G1 X109.102 Y185.351 E31.68169
G1 X108.394 Y185.529 E31.70963
G1 X107.95 Y185.599 E31.72683
G1 X107.582 Y185.597 E31.74091
G1 X104.715 Y185.374 E31.85096
G1 X101.928 Y185.237 E31.95775
G1 X99.209 Y185.18 E32.06182
G1 X96.418 Y185.201 E32.16864
G1 X93.7 Y185.298 E32.27272
G1 X90.913 Y185.477 E32.3796
G1 X88.199 Y185.728 E32.4839
G1 X87.121 Y185.858 E32.52546
G1 X86.268 Y185.948 E32.55828
G1 X85.819 Y185.955 E32.57547
G1 X85.376 Y185.883 E32.59264
G1 X85.013 Y185.76 E32.60731
G1 X83.757 Y185.225 E32.65956
G1 X81.205 Y184.179 E32.76511
G1 X78.591 Y183.191 E32.87205
G1 X76.04 Y182.313 E32.9753
G1 X73.405 Y181.485 E33.081
G1 X70.729 Y180.729 E33.18741
G1 X68.038 Y180.048 E33.29364
G1 X66.219 Y179.639 E33.36499
G1 X65.369 Y179.414 E33.39864
G1 X64.95 Y179.252 E33.41584
G1 X64.566 Y179.019 E33.43303
G1 X64.23 Y178.722 E33.45019
G1 X63.976 Y178.406 E33.4657
G1 X62.341 Y175.999 E33.57706
G1 X61.01 Y174.146 E33.66437
G1 X60.358 Y173.26 E33.70647
G1 X60.214 Y173.054 E33.71609
G1 X58.749 Y170.881 E33.81638
G1 X57.155 Y168.656 E33.92113
G1 X55.498 Y166.474 E34.02598
G1 X53.752 Y164.306 E34.13251
G1 X51.961 Y162.207 E34.2381
G1 X50.126 Y160.176 E34.34285
G1 X48.22 Y158.182 E34.44842
G1 X46.221 Y156.206 E34.55599
G1 X44.24 Y154.356 E34.65972
G1 X42.188 Y152.546 E34.76443
G1 X40.045 Y150.76 E34.87119
G1 X37.898 Y149.071 E34.97573
G1 X35.666 Y147.415 E35.08209
G1 X33.428 Y145.852 E35.18656
G1 X30.672 Y144.05 E35.31257
G1 X29.63 Y143.392 E35.35973
G1 X29.273 Y143.119 E35.37693
G1 X28.873 Y142.651 E35.40049
G1 X28.312 Y141.804 E35.43937
G1 X26.732 Y139.487 E35.5467
G1 X25.972 Y138.443 E35.59612
G1 X25.33 Y137.537 E35.63861
G1 X25.028 Y137.015 E35.66169
G1 X24.782 Y136.511 E35.68315
G1 X24.676 Y136.255 E35.69376
G1 X24.197 Y134.9 E35.74876
G1 X24.115 Y134.658 E35.75853
G1 X23.143 Y132.044 E35.86526
G1 X22.119 Y129.506 E35.97
G1 X21.018 Y126.992 E36.07503
G1 X19.839 Y124.49 E36.18088
G1 X18.59 Y122.024 E36.28667
G1 X17.257 Y119.567 E36.39364
G1 X15.911 Y117.245 E36.49635
G1 X14.441 Y114.868 E36.60331
G1 X13.161 Y112.912 E36.69277
G1 X12.691 Y112.21 E36.7251
G1 X12.475 Y111.817 E36.74226
G1 X12.333 Y111.391 E36.75945
G1 X12.268 Y110.946 E36.77666
G1 X12.332 Y110.222 E36.80447
G1 X12.562 Y109.257 E36.84244
G1 X37.517 Y12.312 E40.67342
G1 X37.704 Y11.625 E40.70067
G0 F1285.7 X38.041 Y11.717
G1 F900 X38.189 Y11.327 E40.71663
G1 X38.408 Y10.973 E40.73256
G1 X38.69 Y10.666 E40.74851
G1 X39.026 Y10.42 E40.76445
G1 X39.403 Y10.242 E40.78041
G1 X39.807 Y10.139 E40.79636
G1 X40.223 Y10.115 E40.81231
G1 X40.635 Y10.17 E40.82822
G1 X41.03 Y10.304 E40.84418
G1 X41.392 Y10.51 E40.86012
G1 X41.806 Y10.872 E40.88116
G1 X42.017 Y11.083 E40.89258
G1 X108.869 Y79.267 E44.54692
G1 X110.864 Y81.244 E44.65441
G1 X112.873 Y83.127 E44.75978
G1 X114.938 Y84.954 E44.8653
G1 X117.07 Y86.736 E44.97164
G1 X119.237 Y88.445 E45.07725
G1 X121.458 Y90.098 E45.18321
G1 X123.752 Y91.705 E45.2904
G1 X126.019 Y93.202 E45.39436
G1 X128.41 Y94.684 E45.50201
G1 X130.776 Y96.059 E45.60674
G1 X133.21 Y97.383 E45.71278
G1 X134.737 Y98.167 E45.77847
G1 X135.355 Y98.497 E45.80528
G1 X135.816 Y98.821 E45.82684
G1 X136.208 Y99.18 E45.84718
G1 X137.318 Y100.282 E45.90704
G1 X137.72 Y100.674 E45.92853
G1 X138.069 Y101.064 E45.94856
G1 X138.443 Y101.551 E45.97206
G1 X138.775 Y102.096 E45.99648
G1 X140.229 Y104.418 E46.10133
G1 X141.78 Y106.744 E46.20832
G1 X143.397 Y109.026 E46.31535
G1 X145.023 Y111.191 E46.41897
G1 X146.773 Y113.387 E46.52643
G1 X148.553 Y115.494 E46.63198
G1 X150.407 Y117.568 E46.73845
G1 X152.3 Y119.571 E46.84392
G1 X154.233 Y121.5 E46.94842
G1 X156.269 Y123.423 E47.0556
G1 X158.333 Y125.262 E47.16139
G1 X160.45 Y127.047 E47.26737
G1 X162.615 Y128.767 E47.37318
G1 X164.836 Y130.433 E47.47944
G1 X167.061 Y132.005 E47.58369
G1 X169.328 Y133.514 E47.68791
G1 X170.47 Y134.252 E47.73995
G1 X171.037 Y134.719 E47.76806
G1 X171.129 Y134.804 E47.77285
G1 X171.897 Y135.56 E47.81409
G1 X172.015 Y135.681 E47.82056
G1 X172.672 Y136.323 E47.85572
G1 X173.028 Y136.706 E47.87573
G1 X173.52 Y137.371 E47.90738
G1 X173.796 Y137.903 E47.93032
G1 X173.841 Y137.996 E47.93427
G1 X175.145 Y140.833 E48.05377
G1 X176.372 Y143.315 E48.15972
G1 X177.676 Y145.774 E48.26624
G1 X179.034 Y148.17 E48.37164
G1 X180.453 Y150.516 E48.47656
G1 X181.974 Y152.877 E48.58404
G1 X183.821 Y155.558 E48.70864
G1 X184.35 Y156.3 E48.74351
G1 X184.558 Y156.661 E48.75945
G1 X184.694 Y157.055 E48.77541
G1 X184.752 Y157.468 E48.79137
G1 X184.73 Y157.884 E48.80731
G1 X184.63 Y158.288 E48.82324
G1 X184.454 Y158.666 E48.83919
G1 X184.209 Y159.003 E48.85514
G1 X183.904 Y159.288 E48.87111
G1 X183.442 Y159.559 E48.89161
G1 X182.523 Y159.957 E48.92994
G1 X179.976 Y161.102 E49.03681
G1 X177.47 Y162.316 E49.14337
G1 X175.016 Y163.591 E49.2492
G1 X172.605 Y164.933 E49.3548
G1 X170.226 Y166.345 E49.46067
G1 X167.903 Y167.814 E49.56586
G1 X164.937 Y169.835 E49.70321
G1 X164.373 Y170.163 E49.72818
G1 X164.132 Y170.247 E49.73795
G1 X163.349 Y170.47 E49.7691
G1 X157.299 Y172.081 E50.0087
G1 X156.604 Y172.256 E50.03613
G1 X156.209 Y172.318 E50.05143
G1 X153.462 Y172.491 E50.15676
G1 X150.725 Y172.74 E50.26194
G1 X147.936 Y173.074 E50.36944
G1 X145.26 Y173.471 E50.47297
G1 X142.489 Y173.963 E50.58067
G1 X139.836 Y174.51 E50.68433
G1 X137.098 Y175.158 E50.79201
G1 X134.428 Y175.87 E50.89776
G1 X131.761 Y176.662 E51.00423
G1 X129.17 Y177.513 E51.1086
G1 X126.538 Y178.459 E51.21563
G1 X123.978 Y179.462 E51.32085
G1 X121.416 Y180.552 E51.42741
G1 X118.881 Y181.715 E51.53414
G1 X117.022 Y182.626 E51.61337
G1 X116.271 Y183.004 E51.64554
G1 X115.732 Y183.206 E51.66757
G1 X115.385 Y183.305 E51.68138
G1 X109.016 Y185.011 E51.93371
G1 X108.308 Y185.189 E51.96165
G1 X107.896 Y185.252 E51.9776
G1 X107.609 Y185.248 E51.98858
G1 X104.724 Y185.024 E52.09932
G1 X101.987 Y184.889 E52.2042
G1 X99.179 Y184.83 E52.31168
G1 X96.439 Y184.851 E52.41654
G1 X93.663 Y184.95 E52.52285
G1 X90.896 Y185.127 E52.62895
G1 X88.124 Y185.384 E52.73549
G1 X87.084 Y185.51 E52.77558
G1 X86.231 Y185.6 E52.80841
G1 X85.815 Y185.604 E52.82433
G1 X85.405 Y185.528 E52.84029
G1 X85.151 Y185.438 E52.8506
