;FLAVOR:Marlin
;TIME:12850
;Filament used: 10.0543m
;Layer height: 0.2
;MINX:7.565
;MINY:15.628
;MINZ:0.26
;MAXX:171.192
;MAXY:197.094
;MAXZ:7.86
;Generated with Cura_SteamEngine 4.9.1
M82 ;absolute extrusion mode
;Begin Start Gcode for Dagoma DiscoEasy 200
;Sliced: 13-07-2021 16:58:10
;Initial extruder: 0

G90 ;Absolute positioning
M106 S255 ;Fan on full
G28 X Y ;Home stop X Y
G1 X100 ;Centre back during cooldown in case of oozing
M109 R90 ;Cooldown in case too hot
G28 ;Centre
G29 ;Auto-level
M104 S205 ;Pre-heat
M107 ;Fan off
G0 X100 Y5 Z0.5 ;Front centre for degunk
M109 S205 ;Wait for initial temp
M83 ;E Relative
G1 E10 F200 ;Degunk
G1 E-3 F5000 ;Retract
G0 Z3 ;Withdraw
M82 ;E absolute
G92 E0 ;E reset
G1 F6000 ;Set feedrate

;Finish Start Gcode for Dagoma DiscoEasy 200

G92 E0
G92 E0
G1 F3000 E-3.5
;LAYER_COUNT:39
;LAYER:0
M107
G0 F1285.7 X51.246 Y18.343 Z0.26
;TYPE:SKIRT
G1 F3000 E0
G1 F900 X51.529 Y17.774 E0.02432
G1 X51.812 Y17.295 E0.04561
G1 X52.161 Y16.862 E0.06689
G1 X52.568 Y16.482 E0.0882
G1 X53.025 Y16.165 E0.10949
G1 X53.523 Y15.917 E0.13078
G1 X54.052 Y15.743 E0.15209
G1 X54.6 Y15.646 E0.17339
G1 X55.156 Y15.628 E0.19468
G1 X55.709 Y15.691 E0.21598
G1 X56.247 Y15.831 E0.23725
G1 X56.759 Y16.048 E0.25853
G1 X57.236 Y16.336 E0.27986
G1 X57.666 Y16.689 E0.30115
G1 X58.168 Y17.27 E0.33053
G1 X58.681 Y18.001 E0.36471
G1 X170.191 Y183.315 E7.99592
G1 X170.559 Y183.877 E8.02163
G1 X170.829 Y184.363 E8.04291
G1 X171.028 Y184.883 E8.06422
G1 X171.149 Y185.426 E8.08551
G1 X171.192 Y185.981 E8.10681
G1 X171.155 Y186.536 E8.1281
G1 X171.038 Y187.08 E8.14939
G1 X170.845 Y187.602 E8.17069
G1 X170.579 Y188.091 E8.19199
G1 X170.246 Y188.537 E8.21329
G1 X169.853 Y188.93 E8.23456
G1 X169.407 Y189.263 E8.25586
G1 X168.918 Y189.529 E8.27717
G1 X168.396 Y189.722 E8.29847
G1 X167.649 Y189.861 E8.32754
G1 X166.91 Y189.924 E8.35593
G1 X68.563 Y197.051 E12.12949
G1 X67.828 Y197.094 E12.15767
G1 X67.272 Y197.087 E12.17894
G1 X66.722 Y197 E12.20025
G1 X66.191 Y196.835 E12.22153
G1 X65.689 Y196.596 E12.24281
G1 X65.226 Y196.287 E12.26411
G1 X64.812 Y195.915 E12.28541
G1 X64.42 Y195.438 E12.30904
G1 X63.918 Y194.714 E12.34276
G1 X8.606 Y112.713 E16.12807
G1 X8.201 Y112.096 E16.15632
G1 X7.929 Y111.611 E16.1776
G1 X7.731 Y111.091 E16.19889
G1 X7.608 Y110.548 E16.2202
G1 X7.565 Y109.993 E16.2415
G1 X7.602 Y109.438 E16.26279
G1 X7.717 Y108.894 E16.28407
G1 X7.929 Y108.327 E16.30723
G1 X8.163 Y107.822 E16.32853
G1 X51.246 Y18.343 E20.12911
G0 F1285.7 X51.56 Y18.499
G1 F900 X51.843 Y17.93 E20.15343
G1 X52.114 Y17.474 E20.17373
G1 X52.451 Y17.064 E20.19404
G1 X52.846 Y16.709 E20.21436
G1 X53.289 Y16.418 E20.23465
G1 X53.771 Y16.196 E20.25496
G1 X54.281 Y16.049 E20.27527
G1 X54.807 Y15.98 E20.29557
G1 X55.338 Y15.991 E20.3159
G1 X55.861 Y16.082 E20.33621
G1 X56.364 Y16.25 E20.35651
G1 X56.836 Y16.492 E20.37681
G1 X57.267 Y16.802 E20.39712
G1 X57.646 Y17.173 E20.41742
G1 X57.882 Y17.472 E20.432
G1 X58.391 Y18.197 E20.4659
G1 X169.898 Y183.507 E28.09692
G1 X170.266 Y184.069 E28.12263
G1 X170.522 Y184.534 E28.14294
G1 X170.706 Y185.031 E28.16323
G1 X170.813 Y185.551 E28.18354
G1 X170.841 Y186.081 E28.20385
G1 X170.789 Y186.609 E28.22416
G1 X170.658 Y187.123 E28.24446
G1 X170.452 Y187.612 E28.26476
G1 X170.174 Y188.065 E28.2851
G1 X169.832 Y188.47 E28.30539
G1 X169.433 Y188.82 E28.3257
G1 X168.985 Y189.105 E28.34602
G1 X168.5 Y189.32 E28.36632
G1 X167.988 Y189.46 E28.38664
G1 X167.619 Y189.512 E28.4009
G1 X166.885 Y189.575 E28.42909
G1 X68.543 Y196.702 E32.20246
G1 X67.808 Y196.745 E32.23064
G1 X67.277 Y196.736 E32.25096
G1 X66.754 Y196.647 E32.27127
G1 X66.25 Y196.481 E32.29157
G1 X65.777 Y196.242 E32.31185
G1 X65.345 Y195.933 E32.33218
G1 X64.964 Y195.564 E32.35248
G1 X64.708 Y195.238 E32.36834
G1 X64.208 Y194.518 E32.40189
G1 X8.898 Y112.521 E36.18703
G1 X8.493 Y111.904 E36.21528
G1 X8.236 Y111.44 E36.23558
G1 X8.052 Y110.942 E36.25589
G1 X7.944 Y110.423 E36.27618
G1 X7.916 Y109.893 E36.29649
G1 X7.967 Y109.365 E36.31679
G1 X8.098 Y108.85 E36.33713
G1 X8.289 Y108.379 E36.35658
G1 X8.498 Y107.933 E36.37543
G1 X51.56 Y18.499 E40.17411
G0 F1285.7 X51.873 Y18.655
G1 F900 X52.156 Y18.086 E40.19843
G1 X52.416 Y17.654 E40.21772
G1 X52.74 Y17.269 E40.23698
G1 X53.121 Y16.94 E40.25624
G1 X53.549 Y16.675 E40.27551
G1 X54.014 Y16.482 E40.29477
G1 X54.504 Y16.364 E40.31406
G1 X55.006 Y16.325 E40.33333
G1 X55.508 Y16.366 E40.35261
G1 X55.997 Y16.486 E40.37188
G1 X56.461 Y16.682 E40.39115
G1 X56.888 Y16.948 E40.41041
G1 X57.268 Y17.279 E40.42969
G1 X57.596 Y17.673 E40.44931
G1 X58.101 Y18.393 E40.48297
G1 X169.605 Y183.699 E48.1138
G1 X169.973 Y184.261 E48.13951
G1 X170.215 Y184.703 E48.15879
G1 X170.383 Y185.177 E48.17804
G1 X170.475 Y185.672 E48.1973
G1 X170.487 Y186.176 E48.2166
G1 X170.419 Y186.675 E48.23587
G1 X170.274 Y187.157 E48.25513
G1 X170.054 Y187.61 E48.27441
G1 X169.765 Y188.022 E48.29366
G1 X169.414 Y188.384 E48.31296
G1 X169.011 Y188.685 E48.33221
G1 X168.565 Y188.919 E48.35149
G1 X168.088 Y189.08 E48.37075
G1 X167.589 Y189.163 E48.39011
G1 X166.86 Y189.226 E48.41811
G1 X68.522 Y196.353 E52.19133
G1 X67.787 Y196.396 E52.21951
G1 X67.284 Y196.385 E52.23876
G1 X66.788 Y196.295 E52.25805
G1 X66.313 Y196.128 E52.27732
G1 X65.871 Y195.888 E52.29657
G1 X65.472 Y195.58 E52.31586
G1 X64.995 Y195.038 E52.34349
G1 X64.498 Y194.322 E52.37685
G1 X9.191 Y112.329 E56.1618
G1 X8.786 Y111.712 E56.19004
G1 X8.544 Y111.271 E56.2093
G1 X8.374 Y110.796 E56.2286
G1 X8.282 Y110.301 E56.24787
G1 X8.27 Y109.798 E56.26713
G1 X8.337 Y109.299 E56.28639
G1 X8.528 Y108.705 E56.31027
G1 X8.797 Y108.119 E56.33495
G1 X51.873 Y18.655 E60.13489
G1 F3000 E56.63489
;MESH:support_half_hex_07.stl
G0 F1285.7 X54.089 Y19.897
G0 X54.861 Y20.268
G0 X55.247 Y20.778
;TYPE:WALL-INNER
G1 F3000 E60.13489
G1 F900 X55.248 Y20.779 E60.13495
G1 X166.224 Y185.301 E67.7296
G1 X166.392 Y185.551 E67.74113
G1 X166.091 Y185.572 E67.74768
G1 X67.861 Y192.692 E71.51676
G1 X12.033 Y109.926 E75.33739
G1 X54.947 Y20.8 E79.12299
G1 X55.078 Y20.527 E79.13457
G1 X55.247 Y20.778 E79.14112
G0 F1285.7 X97.75 Y96.219
G1 F900 X56.427 Y34.957 E81.96909
G1 X55.821 Y35.002 E81.99234
G1 X23.764 Y101.581 E84.82025
G1 X97.75 Y96.219 E87.65909
G0 F1285.7 X153.916 Y179.486
G1 F900 X112.593 Y118.223 E90.48709
G1 X111.987 Y118.268 E90.51034
G1 X79.93 Y184.847 E93.33825
G1 X153.916 Y179.486 E96.17708
G0 F1285.7 X153.333 Y179.202
;TYPE:WALL-OUTER
G1 F900 X112.486 Y118.646 E98.97246
G1 X112.429 Y118.561 E98.97638
G1 X112.198 Y118.578 E98.98525
G1 X112.154 Y118.67 E98.98915
G1 X111.119 Y120.823 E99.08057
G1 X80.466 Y184.482 E101.78449
G1 X153.333 Y179.202 E104.58038
G0 F1285.7 X153.222 Y179.037
G0 X153.428 Y178.899
G0 X97.373 Y95.797
G0 X97.167 Y95.935
G1 F900 X56.32 Y35.38 E107.37573
G1 X56.263 Y35.295 E107.37965
G1 X56.032 Y35.312 E107.38851
G1 X55.988 Y35.404 E107.39241
G1 X54.953 Y37.557 E107.48384
G1 X24.3 Y101.216 E110.18775
G1 X97.167 Y95.935 E112.98365
G0 F1285.7 X97.056 Y95.77
G0 X97.262 Y95.632
G0 X55.051 Y20.209
G0 X55.199 Y20.127
G1 F900 X55.2 Y20.128 E112.98371
G1 X166.807 Y185.584 E120.6215
G1 X166.975 Y185.834 E120.63303
G1 X166.674 Y185.855 E120.63958
G1 X67.697 Y193.03 E124.43732
G1 X11.659 Y109.953 E128.27231
G1 X54.9 Y20.149 E132.08672
G1 X55.031 Y19.876 E132.0983
G1 X55.199 Y20.127 E132.10484
G0 F1285.7 X55.2 Y20.128
G0 X55.311 Y20.292
G0 X55.128 Y21.209
;TYPE:SKIN
G1 F900 X165.782 Y185.254 E139.67748
G1 X68.032 Y192.338 E143.42813
G1 X12.424 Y109.899 E147.23368
G1 X55.128 Y21.209 E151.00076
G0 F1285.7 X56.598 Y34.603
G1 F900 X55.6 Y34.678 E151.03906
G1 X23.203 Y101.962 E153.89692
G1 X98.36 Y96.516 E156.78069
G1 X56.598 Y34.603 E159.6387
G0 F1285.7 X97.471 Y96.084
G0 X111.766 Y117.944
G1 F900 X79.369 Y185.228 E162.49656
G1 X154.526 Y179.783 E165.38033
G1 X112.764 Y117.869 E168.23837
G1 X111.766 Y117.944 E168.27667
G0 F1285.7 X68.408 Y192.152
G1 F900 X67.448 Y191.191 E168.32866
G1 X67.386 Y191.129
G0 F1285.7 X68.87 Y192.118
G1 F900 X66.422 Y189.67 E168.46114
G1 X66.36 Y189.608
G0 F1285.7 X65.396 Y188.149
G1 F900 X69.331 Y192.084 E168.67411
G0 F1285.7 X69.792 Y192.051
G1 F900 X64.37 Y186.628 E168.96758
G1 X64.308 Y186.566
G0 F1285.7 X63.344 Y185.107
G1 F900 X70.254 Y192.018 E169.34159
G0 F1285.7 X70.715 Y191.984
G1 F900 X62.318 Y183.587 E169.79605
G1 X62.256 Y183.525
G0 F1285.7 X61.292 Y182.066
G1 F900 X71.177 Y191.951 E170.33103
G0 F1285.7 X71.639 Y191.917
G1 F900 X60.266 Y180.545 E170.94653
G1 X60.204 Y180.483
G0 F1285.7 X59.24 Y179.024
G1 F900 X72.1 Y191.884 E171.64253
G0 F1285.7 X72.561 Y191.85
G1 F900 X58.214 Y177.503 E172.41901
G1 X58.152 Y177.441
G0 F1285.7 X57.188 Y175.982
G1 F900 X73.023 Y191.817 E173.27602
G0 F1285.7 X73.485 Y191.784
G1 F900 X56.163 Y174.462 E174.21351
G1 X56.101 Y174.4
G0 F1285.7 X55.137 Y172.941
G1 F900 X73.946 Y191.75 E175.23147
G0 F1285.7 X74.408 Y191.717
G1 F900 X54.111 Y171.42 E176.32997
G1 X54.049 Y171.358
G0 F1285.7 X53.085 Y169.899
G1 F900 X74.869 Y191.683 E177.50895
G0 F1285.7 X75.33 Y191.649
G1 F900 X52.059 Y168.378 E178.76841
G1 X51.997 Y168.316
G0 F1285.7 X51.033 Y166.857
G1 F900 X75.792 Y191.616 E180.10839
G0 F1285.7 X76.254 Y191.583
G1 F900 X50.008 Y165.337 E181.52886
G1 X49.946 Y165.275
G0 F1285.7 X48.981 Y163.816
G1 F900 X76.716 Y191.55 E183.02989
G0 F1285.7 X77.177 Y191.516
G1 F900 X47.955 Y162.295 E184.61139
G1 X47.893 Y162.233
G0 F1285.7 X46.929 Y160.774
G1 F900 X77.638 Y191.483 E186.2734
G0 F1285.7 X78.1 Y191.449
G1 F900 X45.903 Y159.253 E188.01592
G1 X45.841 Y159.191
G0 F1285.7 X44.877 Y157.732
G1 F900 X78.561 Y191.415 E189.83891
G0 F1285.7 X79.023 Y191.382
G1 F900 X43.852 Y156.211 E191.74241
G1 X43.79 Y156.149
G0 F1285.7 X42.826 Y154.69
G1 F900 X79.485 Y191.349 E193.72644
G0 F1285.7 X79.946 Y191.315
G1 F900 X41.8 Y153.169 E195.79095
G1 X41.738 Y153.107
G0 F1285.7 X40.774 Y151.648
G1 F900 X80.407 Y191.282 E197.93597
G0 F1285.7 X80.869 Y191.249
G1 F900 X39.748 Y150.127 E200.16152
G1 X39.686 Y150.065
G0 F1285.7 X38.723 Y148.607
G1 F900 X81.331 Y191.215 E202.46752
G0 F1285.7 X81.792 Y191.181
G1 F900 X37.697 Y147.086 E204.85399
G1 X37.635 Y147.024
G0 F1285.7 X36.671 Y145.565
G1 F900 X82.254 Y191.148 E207.321
G0 F1285.7 X82.715 Y191.115
G1 F900 X35.645 Y144.044 E209.86852
G1 X35.583 Y143.982
G0 F1285.7 X34.619 Y142.523
G1 F900 X83.176 Y191.081 E212.49651
G0 F1285.7 X83.638 Y191.048
G1 F900 X33.593 Y141.002 E215.20504
G1 X33.531 Y140.94
G0 F1285.7 X32.567 Y139.482
G1 F900 X84.1 Y191.014 E217.99404
G0 F1285.7 X84.561 Y190.981
G1 F900 X31.541 Y137.961 E220.86355
G1 X31.479 Y137.899
G0 F1285.7 X30.515 Y136.44
G1 F900 X79.229 Y185.154 E223.50002
G0 F1285.7 X79.454 Y185.378
G1 F900 X85.023 Y190.947 E223.80142
G0 F1285.7 X85.484 Y190.914
G1 F900 X79.915 Y185.345 E224.10282
G0 F1285.7 X80.377 Y185.312
G1 F900 X85.946 Y190.881 E224.40422
G0 F1285.7 X86.407 Y190.847
G1 F900 X80.838 Y185.278 E224.70562
G0 F1285.7 X81.3 Y185.245
G1 F900 X86.869 Y190.814 E225.00702
G0 F1285.7 X87.331 Y190.78
G1 F900 X81.762 Y185.211 E225.30843
G0 F1285.7 X82.223 Y185.178
G1 F900 X87.792 Y190.747 E225.60983
G0 F1285.7 X88.253 Y190.713
G1 F900 X82.684 Y185.144 E225.91123
G0 F1285.7 X83.146 Y185.111
G1 F900 X88.715 Y190.68 E226.21263
G0 F1285.7 X89.176 Y190.646
G1 F900 X83.608 Y185.078 E226.51398
G0 F1285.7 X84.069 Y185.044
G1 F900 X89.638 Y190.613 E226.81538
G0 F1285.7 X90.1 Y190.58
G1 F900 X84.531 Y185.01 E227.11681
G0 F1285.7 X84.992 Y184.977
G1 F900 X90.561 Y190.546 E227.41821
G0 F1285.7 X91.023 Y190.512
G1 F900 X85.453 Y184.943 E227.71964
G0 F1285.7 X85.915 Y184.91
G1 F900 X91.484 Y190.479 E228.02104
G0 F1285.7 X91.946 Y190.446
G1 F900 X86.377 Y184.877 E228.32244
G0 F1285.7 X86.839 Y184.844
G1 F900 X92.407 Y190.412 E228.62379
G0 F1285.7 X92.869 Y190.379
G1 F900 X87.3 Y184.81 E228.92519
G0 F1285.7 X87.761 Y184.776
G1 F900 X93.331 Y190.346 E229.22664
G0 F1285.7 X93.792 Y190.312
G1 F900 X88.223 Y184.743 E229.52805
G0 F1285.7 X88.684 Y184.709
G1 F900 X94.253 Y190.278 E229.82945
G0 F1285.7 X94.715 Y190.245
G1 F900 X89.146 Y184.676 E230.13085
G0 F1285.7 X89.608 Y184.643
G1 F900 X95.177 Y190.212 E230.43225
G0 F1285.7 X95.638 Y190.178
G1 F900 X90.069 Y184.61 E230.73362
G0 F1285.7 X90.53 Y184.576
G1 F900 X96.1 Y190.145 E231.03505
G0 F1285.7 X96.561 Y190.112
G1 F900 X90.992 Y184.542 E231.33648
G0 F1285.7 X91.454 Y184.509
G1 F900 X97.022 Y190.078 E231.63785
G0 F1285.7 X97.484 Y190.044
G1 F900 X91.915 Y184.475 E231.93926
G0 F1285.7 X92.377 Y184.442
G1 F900 X97.946 Y190.011 E232.24066
G0 F1285.7 X98.407 Y189.977
G1 F900 X92.838 Y184.409 E232.54203
G0 F1285.7 X93.3 Y184.375
G1 F900 X98.869 Y189.944 E232.84343
G0 F1285.7 X99.33 Y189.911
G1 F900 X93.761 Y184.342 E233.14483
G0 F1285.7 X94.223 Y184.308
G1 F900 X99.792 Y189.877 E233.44624
G0 F1285.7 X100.253 Y189.844
G1 F900 X94.685 Y184.275 E233.74761
G0 F1285.7 X95.146 Y184.241
G1 F900 X100.715 Y189.81 E234.04901
G0 F1285.7 X101.177 Y189.777
G1 F900 X95.607 Y184.208 E234.35044
G0 F1285.7 X96.069 Y184.175
G1 F900 X101.638 Y189.743 E234.65181
G0 F1285.7 X102.099 Y189.71
G1 F900 X96.531 Y184.141 E234.95319
G0 F1285.7 X96.992 Y184.107
G1 F900 X102.561 Y189.677 E235.25462
G0 F1285.7 X103.022 Y189.643
G1 F900 X97.454 Y184.074 E235.55599
G0 F1285.7 X97.915 Y184.041
G1 F900 X103.484 Y189.609 E235.85737
G0 F1285.7 X103.946 Y189.576
G1 F900 X98.376 Y184.007 E236.15879
G0 F1285.7 X98.838 Y183.974
G1 F900 X104.407 Y189.543 E236.4602
G0 F1285.7 X104.868 Y189.509
G1 F900 X99.3 Y183.941 E236.76154
G0 F1285.7 X99.762 Y183.907
G1 F900 X105.33 Y189.476 E237.06292
G0 F1285.7 X105.792 Y189.443
G1 F900 X100.223 Y183.873 E237.36435
G0 F1285.7 X100.684 Y183.84
G1 F900 X106.253 Y189.409 E237.66575
G0 F1285.7 X106.715 Y189.375
G1 F900 X101.146 Y183.807 E237.96712
G0 F1285.7 X101.607 Y183.773
G1 F900 X107.176 Y189.342 E238.26852
G0 F1285.7 X107.637 Y189.308
G1 F900 X102.069 Y183.74 E238.56987
G0 F1285.7 X102.531 Y183.707
G1 F900 X108.099 Y189.275 E238.87122
G0 F1285.7 X108.561 Y189.242
G1 F900 X102.992 Y183.673 E239.17262
G0 F1285.7 X103.453 Y183.639
G1 F900 X109.023 Y189.209 E239.47407
G0 F1285.7 X109.484 Y189.175
G1 F900 X103.915 Y183.606 E239.77548
G0 F1285.7 X104.377 Y183.573
G1 F900 X109.945 Y189.141 E240.07682
G0 F1285.7 X110.407 Y189.108
G1 F900 X104.838 Y183.539 E240.37822
G0 F1285.7 X105.3 Y183.506
G1 F900 X110.868 Y189.074 E240.67957
G0 F1285.7 X111.33 Y189.041
G1 F900 X105.761 Y183.472 E240.98097
G0 F1285.7 X106.222 Y183.439
G1 F900 X111.792 Y189.008 E241.2824
G0 F1285.7 X112.253 Y188.974
G1 F900 X106.684 Y183.405 E241.5838
G0 F1285.7 X107.146 Y183.372
G1 F900 X112.714 Y188.941 E241.88518
G0 F1285.7 X113.176 Y188.907
G1 F900 X107.608 Y183.339 E242.18652
G0 F1285.7 X108.069 Y183.305
G1 F900 X113.638 Y188.874 E242.48793
G0 F1285.7 X114.099 Y188.84
G1 F900 X108.53 Y183.272 E242.7893
G0 F1285.7 X108.992 Y183.238
G1 F900 X114.561 Y188.807 E243.0907
G0 F1285.7 X115.022 Y188.774
G1 F900 X109.453 Y183.205 E243.3921
G0 F1285.7 X109.915 Y183.171
G1 F900 X115.483 Y188.74 E243.69348
G0 F1285.7 X115.945 Y188.707
G1 F900 X110.377 Y183.138 E243.99485
G0 F1285.7 X110.838 Y183.105
G1 F900 X116.407 Y188.673 E244.29623
G0 F1285.7 X116.868 Y188.639
G1 F900 X111.3 Y183.071 E244.59757
G0 F1285.7 X111.761 Y183.038
G1 F900 X117.33 Y188.606 E244.89895
G0 F1285.7 X117.791 Y188.573
G1 F900 X112.223 Y183.004 E245.20032
G0 F1285.7 X112.684 Y182.97
G1 F900 X118.253 Y188.54 E245.50175
G0 F1285.7 X118.714 Y188.506
G1 F900 X113.146 Y182.937 E245.80312
G0 F1285.7 X113.608 Y182.904
G1 F900 X119.176 Y188.472 E246.10447
G0 F1285.7 X119.638 Y188.439
G1 F900 X114.069 Y182.871 E246.40585
G0 F1285.7 X114.53 Y182.837
G1 F900 X120.099 Y188.405 E246.70722
G0 F1285.7 X120.56 Y188.372
G1 F900 X114.992 Y182.804 E247.00857
G0 F1285.7 X115.454 Y182.77
G1 F900 X121.022 Y188.339 E247.30994
G0 F1285.7 X121.483 Y188.305
G1 F900 X115.915 Y182.736 E247.61132
G0 F1285.7 X116.377 Y182.703
G1 F900 X121.945 Y188.272 E247.91269
G0 F1285.7 X122.407 Y188.238
G1 F900 X116.838 Y182.67 E248.21406
G0 F1285.7 X117.3 Y182.637
G1 F900 X122.868 Y188.205 E248.51541
G0 F1285.7 X123.33 Y188.171
G1 F900 X117.761 Y182.603 E248.81679
G0 F1285.7 X118.223 Y182.57
G1 F900 X123.791 Y188.138 E249.11813
