;FLAVOR:Marlin
;TIME:12865
;Filament used: 22.6856m
;Layer height: 0.3
;MINX:16.626
;MINY:19.154
;MINZ:0.26
;MAXX:191.954
;MAXY:194.494
;MAXZ:24.26
;Generated with Cura_SteamEngine 4.9.1
M82 ;absolute extrusion mode
;Begin Start Gcode for Dagoma DiscoEasy 200
;Sliced: 01-08-2021 01:38:44
;Initial extruder: 0

G90 ;Absolute positioning
M106 S255 ;Fan on full
G28 X Y ;Home stop X Y
G1 X100 ;Centre back during cooldown in case of oozing
M109 R90 ;Cooldown in case too hot
G28 ;Centre
G29 ;Auto-level
M104 S205 ;Pre-heat
M107 ;Fan off
G0 X100 Y5 Z0.5 ;Front centre for degunk
M109 S205 ;Wait for initial temp
M83 ;E Relative
G1 E10 F200 ;Degunk
G1 E-3 F5000 ;Retract
G0 Z3 ;Withdraw
M82 ;E absolute
G92 E0 ;E reset
G1 F6000 ;Set feedrate

;Finish Start Gcode for Dagoma DiscoEasy 200

G92 E0
G92 E0
G1 F3000 E-3.5
;LAYER_COUNT:81
;LAYER:0
M107
G0 F1285.7 X24.185 Y44.145 Z0.26
;TYPE:SKIRT
G1 F3000 E0
G1 F900 X26.564 Y42.791 E0.10476
G1 X28.954 Y41.338 E0.2118
G1 X31.227 Y39.868 E0.31539
G1 X33.483 Y38.315 E0.4202
G1 X35.709 Y36.691 E0.52565
G1 X37.032 Y35.675 E0.58949
G1 X37.56 Y35.339 E0.61344
G1 X38.019 Y35.156 E0.63235
G1 X38.57 Y34.99 E0.65437
G1 X39.147 Y34.844 E0.67715
G1 X40.008 Y34.718 E0.71045
G1 X41.336 Y34.687 E0.76129
G1 X44.109 Y34.583 E0.86749
G1 X46.879 Y34.399 E0.97373
G1 X49.597 Y34.143 E1.0782
G1 X52.29 Y33.811 E1.18204
G1 X55.055 Y33.391 E1.28907
G1 X57.744 Y32.905 E1.39365
G1 X60.417 Y32.342 E1.49818
G1 X63.087 Y31.702 E1.60326
G1 X65.751 Y30.981 E1.70888
G1 X68.36 Y30.196 E1.81314
G1 X70.995 Y29.322 E1.91939
G1 X73.587 Y28.379 E2.02494
G1 X76.114 Y27.378 E2.12896
G1 X78.649 Y26.29 E2.23453
G1 X81.141 Y25.136 E2.33963
G1 X83.61 Y23.907 E2.44517
G1 X86.016 Y22.624 E2.54952
G1 X88.955 Y20.935 E2.67925
G1 X89.534 Y20.636 E2.70418
G1 X89.994 Y20.5 E2.72254
G1 X90.412 Y20.446 E2.73867
G1 X91.564 Y20.381 E2.78283
G1 X91.906 Y20.376 E2.79592
G1 X92.591 Y20.397 E2.82214
G1 X93.753 Y20.448 E2.86666
G1 X93.913 Y20.459 E2.87279
G1 X96.663 Y20.616 E2.97821
G1 X99.431 Y20.695 E3.08418
G1 X102.168 Y20.695 E3.18892
G1 X104.938 Y20.618 E3.29497
G1 X107.635 Y20.466 E3.39835
G1 X110.402 Y20.231 E3.50462
G1 X113.15 Y19.92 E3.61046
G1 X115.835 Y19.539 E3.71424
G1 X117.911 Y19.193 E3.79478
G1 X118.388 Y19.154 E3.8131
G1 X118.866 Y19.195 E3.83146
G1 X119.33 Y19.314 E3.84979
G1 X119.768 Y19.509 E3.86814
G1 X120.375 Y19.956 E3.89699
G1 X121.087 Y20.641 E3.9348
G1 X190.688 Y90.242 E7.70169
G1 X191.157 Y90.725 E7.72746
G1 X191.461 Y91.096 E7.74581
G1 X191.699 Y91.511 E7.76412
G1 X191.865 Y91.961 E7.78248
G1 X191.954 Y92.432 E7.80082
G1 X191.932 Y93.19 E7.82984
G1 X191.732 Y94.418 E7.87746
G1 X191.716 Y94.563 E7.88304
G1 X191.466 Y96.112 E7.94309
G1 X191.1 Y98.861 E8.04922
G1 X190.818 Y101.554 E8.15284
G1 X190.609 Y104.314 E8.25877
G1 X190.477 Y107.099 E8.36547
G1 X190.425 Y109.787 E8.46835
G1 X190.451 Y112.555 E8.57429
G1 X190.553 Y115.281 E8.67868
G1 X190.6 Y115.942 E8.70404
G1 X190.598 Y116.074 E8.7091
G1 X190.678 Y117.461 E8.76226
G1 X190.744 Y119.223 E8.82974
G1 X190.731 Y119.793 E8.85156
G1 X190.672 Y120.747 E8.88814
G1 X190.599 Y121.221 E8.90649
G1 X190.449 Y121.676 E8.92483
G1 X190.294 Y121.985 E8.93806
G1 X189.723 Y122.974 E8.98176
G1 X189.365 Y123.575 E9.00853
G1 X188.038 Y125.957 E9.11288
G1 X186.755 Y128.419 E9.21913
G1 X185.556 Y130.889 E9.3242
G1 X184.421 Y133.405 E9.42983
G1 X183.374 Y135.913 E9.53384
G1 X182.368 Y138.527 E9.64103
G1 X181.473 Y141.073 E9.74431
G1 X180.63 Y143.699 E9.84986
G1 X179.873 Y146.312 E9.95397
G1 X179.176 Y148.995 E10.06005
G1 X178.562 Y151.668 E10.16501
G1 X178.015 Y154.397 E10.27152
G1 X177.567 Y157.03 E10.37374
G1 X177.174 Y159.804 E10.48096
G1 X176.868 Y162.515 E10.58536
G1 X176.633 Y165.297 E10.69221
G1 X176.482 Y167.987 E10.79532
G1 X176.442 Y169.745 E10.86261
G1 X176.397 Y171.135 E10.91583
G1 X176.286 Y171.903 E10.94553
G1 X176.161 Y172.458 E10.9673
G1 X175.99 Y173.055 E10.99107
G1 X175.816 Y173.502 E11.00942
G1 X175.514 Y173.991 E11.03142
G1 X175.021 Y174.634 E11.06243
G1 X173.382 Y176.832 E11.16735
G1 X171.806 Y179.076 E11.27229
G1 X170.276 Y181.393 E11.37855
G1 X168.829 Y183.725 E11.48358
G1 X167.453 Y186.087 E11.58819
G1 X166.148 Y188.482 E11.69257
G1 X164.836 Y191.062 E11.80334
G1 X164.379 Y191.99 E11.84293
G1 X164.133 Y192.4 E11.86123
G1 X163.821 Y192.764 E11.87957
G1 X163.454 Y193.072 E11.89791
G1 X163.04 Y193.314 E11.91626
G1 X162.592 Y193.484 E11.9346
G1 X162.122 Y193.577 E11.95293
G1 X161.643 Y193.591 E11.97127
G1 X161.168 Y193.525 E11.98963
G1 X160.711 Y193.381 E12.00796
G1 X160.285 Y193.163 E12.02628
G1 X160.022 Y192.979 E12.03856
G1 X159.003 Y192.177 E12.08819
G1 X156.783 Y190.48 E12.19512
G1 X154.57 Y188.886 E12.2995
G1 X152.285 Y187.336 E12.40516
G1 X149.978 Y185.866 E12.50985
G1 X147.608 Y184.447 E12.61556
G1 X145.219 Y183.107 E12.72039
G1 X142.925 Y181.901 E12.81957
G1 X142.315 Y181.589 E12.84579
G1 X141.908 Y181.336 E12.86413
G1 X141.472 Y180.953 E12.88634
G1 X141.403 Y180.887 E12.88999
G1 X135.327 Y174.812 E13.21881
G1 X134.852 Y174.322 E13.24492
G1 X134.546 Y173.949 E13.26339
G1 X133.897 Y173.004 E13.30726
G1 X132.299 Y170.746 E13.41312
G1 X130.665 Y168.57 E13.51726
G1 X128.946 Y166.411 E13.62288
G1 X127.191 Y164.331 E13.72703
G1 X125.35 Y162.269 E13.83281
G1 X123.451 Y160.259 E13.93864
G1 X121.53 Y158.339 E14.04258
G1 X119.521 Y156.441 E14.14834
G1 X117.454 Y154.597 E14.25435
G1 X115.381 Y152.849 E14.35812
G1 X113.211 Y151.124 E14.46421
G1 X111.021 Y149.479 E14.56903
G1 X108.404 Y147.639 E14.69146
G1 X107.911 Y147.304 E14.71427
G1 X107.528 Y146.992 E14.73317
G1 X106.881 Y146.366 E14.76763
G1 X101.207 Y140.691 E15.07474
G1 X100.671 Y140.137 E15.10424
G1 X100.591 Y140.051 E15.10873
G1 X98.886 Y138.138 E15.2068
G1 X97.004 Y136.144 E15.31173
G1 X95.049 Y134.189 E15.41754
G1 X93.079 Y132.325 E15.52133
G1 X90.993 Y130.462 E15.62836
G1 X88.917 Y128.709 E15.73234
G1 X86.779 Y127.006 E15.83695
G1 X84.567 Y125.343 E15.94286
G1 X82.32 Y123.753 E16.0482
G1 X80.042 Y122.235 E16.15296
G1 X77.711 Y120.775 E16.25822
G1 X75.35 Y119.387 E16.36303
G1 X72.931 Y118.056 E16.46869
G1 X70.488 Y116.802 E16.57378
G1 X68.036 Y115.628 E16.67782
G1 X66.727 Y115.036 E16.7328
G1 X66.309 Y114.802 E16.75113
G1 X65.925 Y114.494 E16.76997
G1 X65.102 Y113.706 E16.81358
G1 X64.287 Y112.895 E16.85758
G1 X63.787 Y112.381 E16.88502
G1 X63.371 Y111.84 E16.91114
G1 X62.85 Y110.981 E16.94958
G1 X62.579 Y110.52 E16.97005
G1 X61.114 Y108.181 E17.07567
G1 X59.588 Y105.891 E17.18098
G1 X57.996 Y103.643 E17.2864
G1 X56.364 Y101.471 E17.39037
G1 X54.638 Y99.303 E17.49642
G1 X52.87 Y97.209 E17.6013
G1 X51.045 Y95.165 E17.70617
G1 X49.144 Y93.155 E17.81204
G1 X47.239 Y91.253 E17.91506
G1 X45.197 Y89.323 E18.02259
G1 X43.167 Y87.513 E18.12667
G1 X41.068 Y85.745 E18.2317
G1 X38.908 Y84.027 E18.33732
G1 X36.714 Y82.382 E18.44226
G1 X34.49 Y80.81 E18.54649
G1 X32.151 Y79.253 E18.65402
G1 X29.872 Y77.829 E18.75686
G1 X28.555 Y77.043 E18.81556
G1 X28.066 Y76.675 E18.83898
G1 X27.679 Y76.307 E18.85941
G1 X26.437 Y75.061 E18.92674
G1 X25.939 Y74.546 E18.95416
G1 X25.636 Y74.175 E18.97249
G1 X25.399 Y73.758 E18.99084
G1 X25.191 Y73.131 E19.01612
G1 X24.994 Y72.181 E19.05325
G1 X24.399 Y69.494 E19.15858
G1 X23.741 Y66.874 E19.26196
G1 X22.981 Y64.17 E19.36945
G1 X22.17 Y61.573 E19.47356
G1 X21.275 Y58.969 E19.57894
G1 X20.307 Y56.39 E19.68436
G1 X19.269 Y53.847 E19.78948
G1 X18.099 Y51.203 E19.90012
G1 X17.785 Y50.517 E19.929
G1 X17.622 Y50.066 E19.94735
G1 X17.537 Y49.594 E19.9657
G1 X17.531 Y49.115 E19.98404
G1 X17.605 Y48.642 E20.00236
G1 X17.757 Y48.187 E20.02072
G1 X17.981 Y47.764 E20.03903
G1 X18.273 Y47.384 E20.05737
G1 X18.625 Y47.058 E20.07573
G1 X19.164 Y46.724 E20.1
G1 X19.264 Y46.676 E20.10425
G1 X21.775 Y45.428 E20.21155
G1 X24.185 Y44.145 E20.31604
G0 F1285.7 X24.365 Y44.446
G1 F900 X26.749 Y43.089 E20.42102
G1 X29.106 Y41.656 E20.52658
G1 X31.405 Y40.17 E20.63134
G1 X33.701 Y38.589 E20.73803
G1 X35.95 Y36.949 E20.84455
G1 X37.239 Y35.958 E20.90677
G1 X37.742 Y35.639 E20.92956
G1 X38.12 Y35.491 E20.9451
G1 X38.671 Y35.325 E20.96712
G1 X39.217 Y35.187 E20.98867
G1 X40.016 Y35.068 E21.01959
G1 X41.357 Y35.037 E21.07092
G1 X44.145 Y34.932 E21.17769
G1 X46.865 Y34.752 E21.28201
G1 X49.638 Y34.49 E21.38861
G1 X52.387 Y34.151 E21.49461
G1 X55.062 Y33.745 E21.59815
G1 X57.817 Y33.247 E21.70529
G1 X60.495 Y32.682 E21.81003
G1 X63.191 Y32.037 E21.91612
G1 X65.833 Y31.322 E22.02087
G1 X68.493 Y30.522 E22.12717
G1 X71.094 Y29.658 E22.23205
G1 X73.693 Y28.713 E22.33789
G1 X76.269 Y27.693 E22.44392
G1 X78.792 Y26.61 E22.54899
G1 X81.271 Y25.462 E22.65354
G1 X83.761 Y24.223 E22.75998
G1 X86.209 Y22.916 E22.86618
G1 X89.129 Y21.239 E22.99504
G1 X89.687 Y20.952 E23.01905
G1 X90.12 Y20.832 E23.03625
G1 X90.432 Y20.795 E23.04827
G1 X91.574 Y20.731 E23.09205
G1 X91.895 Y20.726 E23.10433
G1 X92.576 Y20.746 E23.1304
G1 X93.729 Y20.797 E23.17457
G1 X93.877 Y20.807 E23.18025
G1 X96.668 Y20.966 E23.28723
G1 X99.421 Y21.045 E23.39263
G1 X102.177 Y21.045 E23.4981
G1 X104.934 Y20.968 E23.60365
G1 X107.685 Y20.813 E23.7091
G1 X110.432 Y20.58 E23.8146
G1 X113.169 Y20.27 E23.92002
G1 X115.898 Y19.883 E24.0255
G1 X117.968 Y19.538 E24.10581
G1 X118.416 Y19.504 E24.123
G1 X118.863 Y19.55 E24.1402
G1 X119.294 Y19.674 E24.15736
G1 X119.697 Y19.873 E24.17456
G1 X120.133 Y20.209 E24.19563
G1 X120.804 Y20.854 E24.23125
G1 X190.437 Y90.486 E27.99985
G1 X190.906 Y90.969 E28.02561
G1 X191.188 Y91.318 E28.04278
G1 X191.405 Y91.711 E28.05996
G1 X191.549 Y92.136 E28.07714
G1 X191.615 Y92.58 E28.09431
G1 X191.586 Y93.134 E28.11555
G1 X191.377 Y94.416 E28.16525
G1 X191.371 Y94.507 E28.16874
G1 X191.117 Y96.08 E28.22972
G1 X190.753 Y98.817 E28.33539
G1 X190.471 Y101.508 E28.43894
G1 X190.259 Y104.307 E28.54636
G1 X190.13 Y107.012 E28.65
G1 X190.075 Y109.818 E28.7574
G1 X190.101 Y112.571 E28.86276
G1 X190.203 Y115.29 E28.96689
G1 X190.251 Y115.967 E28.99286
G1 X190.249 Y116.086 E28.99742
G1 X190.328 Y117.474 E29.05062
G1 X190.394 Y119.236 E29.1181
G1 X190.381 Y119.781 E29.13896
G1 X190.323 Y120.723 E29.17508
G1 X190.252 Y121.166 E29.19225
G1 X189.991 Y121.81 E29.21884
G1 X189.422 Y122.795 E29.26238
G1 X189.071 Y123.384 E29.28862
G1 X187.713 Y125.822 E29.39541
G1 X186.449 Y128.246 E29.50003
G1 X185.242 Y130.734 E29.60586
G1 X184.105 Y133.256 E29.71173
G1 X183.04 Y135.808 E29.81756
G1 X182.047 Y138.385 E29.92325
G1 X181.142 Y140.961 E30.02774
G1 X180.296 Y143.595 E30.13361
G1 X179.53 Y146.237 E30.23888
G1 X178.838 Y148.905 E30.34436
G1 X178.223 Y151.582 E30.44948
G1 X177.666 Y154.358 E30.55783
G1 X177.216 Y157.006 E30.66062
G1 X176.828 Y159.746 E30.76653
G1 X176.519 Y162.485 E30.87201
G1 X176.287 Y165.229 E30.9774
G1 X176.132 Y167.989 E31.08319
G1 X176.093 Y169.734 E31.14999
G1 X176.048 Y171.124 E31.20321
G1 X175.942 Y171.837 E31.2308
G1 X175.822 Y172.369 E31.25167
G1 X175.654 Y172.956 E31.27503
G1 X175.489 Y173.374 E31.29223
G1 X175.236 Y173.778 E31.31047
G1 X174.743 Y174.421 E31.34148
G1 X173.095 Y176.632 E31.44701
G1 X171.531 Y178.858 E31.55113
G1 X169.983 Y181.201 E31.65859
G1 X168.536 Y183.533 E31.76362
G1 X167.15 Y185.914 E31.86906
G1 X165.827 Y188.34 E31.97481
G1 X164.524 Y190.903 E32.08484
G1 X164.065 Y191.835 E32.1246
G1 X163.832 Y192.219 E32.14179
G1 X163.535 Y192.555 E32.15895
G1 X163.182 Y192.833 E32.17614
G1 X162.786 Y193.045 E32.19333
G1 X162.359 Y193.182 E32.2105
G1 X161.914 Y193.242 E32.22768
G1 X161.465 Y193.223 E32.24488
G1 X161.027 Y193.124 E32.26206
G1 X160.614 Y192.949 E32.27923
G1 X160.239 Y192.704 E32.29637
G1 X159.216 Y191.899 E32.34619
G1 X156.99 Y190.198 E32.4534
G1 X154.778 Y188.604 E32.55774
G1 X152.483 Y187.048 E32.66385
G1 X150.135 Y185.551 E32.77042
G1 X147.79 Y184.147 E32.87502
G1 X145.396 Y182.804 E32.98007
G1 X143.114 Y181.605 E33.07872
G1 X142.474 Y181.278 E33.10622
G1 X141.898 Y180.873 E33.13317
G1 X141.651 Y180.64 E33.14616
G1 X135.578 Y174.568 E33.47482
G1 X135.103 Y174.078 E33.50093
G1 X134.835 Y173.75 E33.51714
G1 X134.206 Y172.835 E33.55963
G1 X132.585 Y170.544 E33.66704
G1 X130.939 Y168.352 E33.77194
G1 X129.222 Y166.196 E33.87742
G1 X127.465 Y164.112 E33.98173
G1 X125.582 Y162.003 E34.08993
G1 X123.723 Y160.036 E34.19351
G1 X121.752 Y158.067 E34.30013
G1 X119.765 Y156.189 E34.40476
G1 X117.702 Y154.349 E34.51055
G1 X115.596 Y152.574 E34.61595
G1 X113.43 Y150.85 E34.7219
G1 X111.238 Y149.205 E34.82678
G1 X108.567 Y147.326 E34.95175
G1 X108.108 Y147.014 E34.97299
G1 X107.771 Y146.741 E34.98959
G1 X107.129 Y146.118 E35.02383
G1 X101.458 Y140.448 E35.33072
G1 X100.922 Y139.894 E35.36022
G1 X100.852 Y139.818 E35.36418
G1 X99.136 Y137.893 E35.46287
G1 X97.243 Y135.887 E35.56842
G1 X95.326 Y133.97 E35.67217
G1 X93.287 Y132.04 E35.77961
G1 X91.269 Y130.238 E35.88315
G1 X89.108 Y128.414 E35.99137
G1 X86.997 Y126.732 E36.09467
G1 X84.747 Y125.041 E36.20238
G1 X82.531 Y123.473 E36.30627
G1 X80.261 Y121.96 E36.41067
G1 X77.879 Y120.467 E36.51825
G1 X75.511 Y119.076 E36.62335
G1 X73.117 Y117.759 E36.72792
G1 X70.657 Y116.495 E36.83376
G1 X68.146 Y115.293 E36.9403
G1 X66.872 Y114.717 E36.99381
G1 X66.48 Y114.496 E37.01103
G1 X66.167 Y114.241 E37.02648
G1 X65.349 Y113.458 E37.06981
G1 X64.538 Y112.651 E37.1136
G1 X64.038 Y112.137 E37.14104
G1 X63.67 Y111.658 E37.16416
G1 X63.152 Y110.804 E37.20238
G1 X62.871 Y110.326 E37.2236
G1 X61.406 Y107.987 E37.32922
G1 X59.886 Y105.705 E37.43415
G1 X58.298 Y103.464 E37.53926
G1 X56.62 Y101.23 E37.64619
G1 X54.916 Y99.091 E37.75085
G1 X53.133 Y96.978 E37.85665
G1 X51.312 Y94.939 E37.96127
G1 X49.398 Y92.915 E38.06788
G1 X47.444 Y90.964 E38.17355
G1 X45.459 Y89.088 E38.27807
G1 X43.395 Y87.248 E38.38389
G1 X41.283 Y85.469 E38.48957
G1 X39.126 Y83.753 E38.59505
G1 X36.916 Y82.096 E38.70076
G1 X34.676 Y80.512 E38.80575
G1 X32.367 Y78.976 E38.91188
G1 X30.033 Y77.518 E39.0172
G1 X28.734 Y76.742 E39.07511
G1 X28.305 Y76.42 E39.09563
G1 X27.924 Y76.057 E39.11577
G1 X26.689 Y74.817 E39.18275
G1 X26.191 Y74.302 E39.21016
G1 X25.909 Y73.953 E39.22733
G1 X25.693 Y73.559 E39.24453
G1 X25.534 Y73.06 E39.26457
G1 X25.337 Y72.11 E39.3017
G1 X24.743 Y69.427 E39.40687
G1 X24.075 Y66.77 E39.51171
G1 X23.317 Y64.071 E39.619
G1 X22.508 Y61.479 E39.72291
G1 X21.601 Y58.843 E39.82959
G1 X20.638 Y56.277 E39.93448
G1 X19.588 Y53.703 E40.04087
G1 X18.417 Y51.057 E40.1516
G1 X18.103 Y50.371 E40.18047
G1 X17.953 Y49.948 E40.19765
G1 X17.881 Y49.505 E40.21483
G1 X17.888 Y49.056 E40.23201
G1 X17.974 Y48.615 E40.24921
G1 X18.138 Y48.197 E40.26639
G1 X18.372 Y47.814 E40.28357
G1 X18.671 Y47.479 E40.30075
G1 X19.025 Y47.202 E40.31795
G1 X19.441 Y46.98 E40.336
G1 X21.925 Y45.745 E40.44216
G1 X24.365 Y44.446 E40.54795
G0 F1285.7 X24.532 Y44.754
G1 F900 X26.935 Y43.386 E40.65377
G1 X29.267 Y41.968 E40.75821
G1 X31.624 Y40.444 E40.86563
G1 X33.903 Y38.875 E40.97151
G1 X36.135 Y37.247 E41.07724
G1 X37.445 Y36.24 E41.14047
G1 X37.923 Y35.941 E41.16205
G1 X38.221 Y35.826 E41.17427
G1 X38.772 Y35.66 E41.1963
G1 X39.286 Y35.53 E41.21659
G1 X40.024 Y35.418 E41.24515
G1 X41.378 Y35.386 E41.29698
G1 X44.146 Y35.282 E41.40299
G1 X46.918 Y35.099 E41.5093
G1 X49.647 Y34.841 E41.61421
G1 X52.443 Y34.496 E41.72202
G1 X55.141 Y34.087 E41.82645
G1 X57.882 Y33.591 E41.93305
G1 X60.573 Y33.024 E42.03829
G1 X63.231 Y32.388 E42.14289
G1 X65.947 Y31.653 E42.25057
G1 X68.614 Y30.85 E42.35716
G1 X71.202 Y29.991 E42.46151
G1 X73.847 Y29.029 E42.56922
G1 X76.364 Y28.032 E42.67283
G1 X78.935 Y26.929 E42.77989
G1 X81.461 Y25.759 E42.88642
G1 X83.911 Y24.54 E42.99115
G1 X86.368 Y23.229 E43.09773
G1 X89.274 Y21.559 E43.22599
G1 X89.839 Y21.269 E43.2503
G1 X90.451 Y21.145 E43.27419
G1 X91.585 Y21.081 E43.31766
G1 X91.885 Y21.076 E43.32914
G1 X92.561 Y21.096 E43.35502
G1 X93.705 Y21.146 E43.39885
G1 X93.881 Y21.158 E43.4056
G1 X96.638 Y21.316 E43.51128
G1 X99.411 Y21.395 E43.61744
G1 X102.187 Y21.395 E43.72368
G1 X104.928 Y21.318 E43.82862
G1 X107.732 Y21.161 E43.93609
G1 X110.466 Y20.929 E44.0411
G1 X113.223 Y20.617 E44.14728
G1 X115.967 Y20.227 E44.25335
G1 X118.026 Y19.884 E44.33323
G1 X118.441 Y19.855 E44.34915
G1 X118.855 Y19.906 E44.36512
G1 X119.251 Y20.035 E44.38105
G1 X119.615 Y20.237 E44.39699
G1 X119.89 Y20.461 E44.41056
