;FLAVOR:Marlin
;TIME:12715
;Filament used: 10.1505m
;Layer height: 0.2
;MINX:3.042
;MINY:25.206
;MINZ:0.26
;MAXX:178.387
;MAXY:202.409
;MAXZ:7.86
;Generated with Cura_SteamEngine 4.9.1
M82 ;absolute extrusion mode
;Begin Start Gcode for Dagoma DiscoEasy 200
;Sliced: 13-07-2021 17:20:19
;Initial extruder: 0

G90 ;Absolute positioning
M106 S255 ;Fan on full
G28 X Y ;Home stop X Y
G1 X100 ;Centre back during cooldown in case of oozing
M109 R90 ;Cooldown in case too hot
G28 ;Centre
G29 ;Auto-level
M104 S205 ;Pre-heat
M107 ;Fan off
G0 X100 Y5 Z0.5 ;Front centre for degunk
M109 S205 ;Wait for initial temp
M83 ;E Relative
G1 E10 F200 ;Degunk
G1 E-3 F5000 ;Retract
G0 Z3 ;Withdraw
M82 ;E absolute
G92 E0 ;E reset
G1 F6000 ;Set feedrate

;Finish Start Gcode for Dagoma DiscoEasy 200

G92 E0
G92 E0
G1 F3000 E-3.5
;LAYER_COUNT:39
;LAYER:0
M107
G0 F1285.7 X29.528 Y26.589 Z0.26
;TYPE:SKIRT
G1 F3000 E0
G1 F900 X29.916 Y26.19 E0.0213
G1 X30.357 Y25.85 E0.04261
G1 X30.841 Y25.577 E0.06387
G1 X31.36 Y25.376 E0.08517
G1 X31.903 Y25.252 E0.10649
G1 X32.457 Y25.206 E0.12776
G1 X33.012 Y25.241 E0.14905
G1 X33.557 Y25.354 E0.17035
G1 X34.08 Y25.545 E0.19165
G1 X34.57 Y25.808 E0.21294
G1 X35.183 Y26.289 E0.24276
G1 X35.9 Y26.98 E0.28086
G1 X176.797 Y167.878 E7.90642
G1 X177.295 Y168.39 E7.93375
G1 X177.653 Y168.816 E7.95504
G1 X177.947 Y169.289 E7.97636
G1 X178.17 Y169.798 E7.99762
G1 X178.317 Y170.335 E8.01893
G1 X178.387 Y170.887 E8.04023
G1 X178.376 Y171.443 E8.06151
G1 X178.286 Y171.992 E8.0828
G1 X178.118 Y172.523 E8.10411
G1 X177.876 Y173.024 E8.1254
G1 X177.565 Y173.485 E8.14669
G1 X177.191 Y173.897 E8.16798
G1 X176.761 Y174.251 E8.1893
G1 X176.286 Y174.54 E8.21057
G1 X175.679 Y174.789 E8.23568
G1 X175.261 Y174.918 E8.25242
G1 X79.606 Y202.096 E12.05798
G1 X78.928 Y202.278 E12.08485
G1 X78.381 Y202.383 E12.10616
G1 X77.825 Y202.409 E12.12747
G1 X77.272 Y202.355 E12.14873
G1 X76.731 Y202.222 E12.17005
G1 X76.215 Y202.014 E12.19134
G1 X75.735 Y201.733 E12.21263
G1 X75.265 Y201.355 E12.23571
G1 X74.956 Y201.061 E12.25203
G1 X4.648 Y130.753 E16.05719
G1 X4.134 Y130.225 E16.08539
G1 X3.776 Y129.799 E16.10668
G1 X3.482 Y129.327 E16.12797
G1 X3.259 Y128.817 E16.14927
G1 X3.111 Y128.281 E16.17055
G1 X3.042 Y127.729 E16.19184
G1 X3.052 Y127.172 E16.21316
G1 X3.157 Y126.551 E16.23726
G1 X3.285 Y126.031 E16.25775
G1 X28.584 Y28.696 E20.10648
G1 X28.759 Y28.057 E20.13184
G1 X28.944 Y27.533 E20.1531
G1 X29.202 Y27.04 E20.1744
G1 X29.528 Y26.589 E20.1957
G0 F1285.7 X29.844 Y26.758
G1 F900 X30.223 Y26.387 E20.21599
G1 X30.653 Y26.076 E20.2363
G1 X31.125 Y25.833 E20.25662
G1 X31.628 Y25.664 E20.27692
G1 X32.151 Y25.573 E20.29724
G1 X32.682 Y25.561 E20.31757
G1 X33.208 Y25.629 E20.33786
G1 X33.718 Y25.775 E20.35817
G1 X34.201 Y25.996 E20.37849
G1 X34.644 Y26.286 E20.39876
G1 X34.94 Y26.541 E20.41371
G1 X35.653 Y27.227 E20.45157
G1 X176.546 Y168.122 E28.07693
G1 X177.044 Y168.634 E28.10427
G1 X177.384 Y169.041 E28.12456
G1 X177.66 Y169.495 E28.1449
G1 X177.864 Y169.985 E28.16521
G1 X177.992 Y170.5 E28.18552
G1 X178.041 Y171.028 E28.20581
G1 X178.011 Y171.558 E28.22613
G1 X177.902 Y172.077 E28.24642
G1 X177.715 Y172.574 E28.26674
G1 X177.457 Y173.037 E28.28703
G1 X177.131 Y173.457 E28.30737
G1 X176.747 Y173.822 E28.32765
G1 X176.312 Y174.126 E28.34796
G1 X175.836 Y174.361 E28.36827
G1 X175.259 Y174.554 E28.39156
G1 X79.564 Y201.744 E32.19872
G1 X78.837 Y201.939 E32.22752
G1 X78.315 Y202.038 E32.24786
G1 X77.785 Y202.057 E32.26815
G1 X77.258 Y201.997 E32.28845
G1 X76.746 Y201.858 E32.30875
G1 X76.26 Y201.643 E32.32909
G1 X75.813 Y201.358 E32.34938
G1 X75.278 Y200.886 E32.37668
G1 X75.203 Y200.814 E32.38066
G1 X4.899 Y130.509 E36.18563
G1 X4.385 Y129.981 E36.21383
G1 X4.045 Y129.574 E36.23412
G1 X3.769 Y129.12 E36.25446
G1 X3.565 Y128.631 E36.27473
G1 X3.436 Y128.116 E36.29505
G1 X3.387 Y127.587 E36.31538
G1 X3.417 Y127.058 E36.33566
G1 X3.521 Y126.533 E36.35614
G1 X3.633 Y126.082 E36.37393
G1 X28.921 Y28.789 E40.221
G1 X29.096 Y28.15 E40.24635
G1 X29.274 Y27.65 E40.26666
G1 X29.526 Y27.183 E40.28697
G1 X29.844 Y26.758 E40.30728
G0 F1285.7 X30.159 Y26.932
G1 F900 X30.528 Y26.589 E40.32656
G1 X30.947 Y26.309 E40.34585
G1 X31.405 Y26.099 E40.36513
G1 X31.89 Y25.964 E40.3844
G1 X32.39 Y25.908 E40.40365
G1 X32.893 Y25.931 E40.42292
G1 X33.386 Y26.033 E40.44219
G1 X33.857 Y26.213 E40.46148
G1 X34.294 Y26.464 E40.48077
G1 X34.698 Y26.793 E40.50071
G1 X35.405 Y27.475 E40.5383
G1 X176.295 Y168.366 E48.16348
G1 X176.793 Y168.878 E48.19081
G1 X177.114 Y169.266 E48.21008
G1 X177.37 Y169.7 E48.22936
G1 X177.555 Y170.168 E48.24862
G1 X177.662 Y170.66 E48.26789
G1 X177.691 Y171.163 E48.28717
G1 X177.64 Y171.664 E48.30645
G1 X177.51 Y172.151 E48.32573
G1 X177.305 Y172.61 E48.34497
G1 X177.03 Y173.032 E48.36425
G1 X176.692 Y173.405 E48.38351
G1 X176.299 Y173.72 E48.40279
G1 X175.861 Y173.969 E48.42207
G1 X175.154 Y174.22 E48.45078
G1 X79.469 Y201.407 E52.25754
G1 X78.746 Y201.601 E52.28619
G1 X78.251 Y201.693 E52.30546
G1 X77.748 Y201.705 E52.32471
G1 X77.248 Y201.638 E52.34402
G1 X76.766 Y201.492 E52.36329
G1 X76.313 Y201.272 E52.38256
G1 X75.745 Y200.845 E52.40976
G1 X75.451 Y200.566 E52.42527
G1 X5.15 Y130.265 E56.23005
G1 X4.636 Y129.737 E56.25825
G1 X4.314 Y129.349 E56.27754
G1 X4.058 Y128.916 E56.29679
G1 X3.874 Y128.447 E56.31607
G1 X3.766 Y127.955 E56.33535
G1 X3.737 Y127.452 E56.35463
G1 X3.811 Y126.838 E56.3783
G1 X3.964 Y126.201 E56.40337
G1 X29.259 Y28.881 E60.25151
G1 X29.434 Y28.242 E60.27686
G1 X29.605 Y27.769 E60.29611
G1 X29.849 Y27.328 E60.3154
G1 X30.159 Y26.932 E60.33464
G1 F3000 E56.83464
;MESH:support_half_hex_36.stl
G0 F1285.7 X31.713 Y29.515
G0 X32.704 Y29.772
G0 X89.231 Y96.361
;TYPE:WALL-INNER
G1 F3000 E60.33464
G1 F900 X36.877 Y44.008 E63.16808
G1 X36.29 Y44.166 E63.19135
G1 X17.574 Y116.172 E66.03854
G1 X18.01 Y116.597 E66.06185
G1 X89.231 Y96.361 E68.89532
G0 F1285.7 X160.252 Y167.382
G1 F900 X107.898 Y115.028 E71.72879
G1 X107.311 Y115.186 E71.75205
G1 X88.595 Y187.193 E74.59929
G1 X89.031 Y187.618 E74.62259
G1 X160.252 Y167.382 E77.45606
G0 F1285.7 X173.247 Y170.916
G1 F900 X78.073 Y197.957 E81.24249
G1 X7.484 Y127.367 E85.06288
G1 X32.696 Y30.369 E88.89829
G1 X32.772 Y30.074 E88.90995
G1 X32.987 Y30.289 E88.91653
G1 X173.322 Y170.625 E96.51167
G1 X173.532 Y170.835 E96.52303
G1 X173.247 Y170.916 E96.52948
G0 F1285.7 X173.869 Y171.078
;TYPE:WALL-OUTER
G1 F900 X77.978 Y198.322 E100.34442
G1 X7.122 Y127.465 E104.17926
G1 X32.524 Y29.737 E108.04354
G1 X32.6 Y29.442 E108.0552
G1 X32.815 Y29.657 E108.06178
G1 X173.944 Y170.787 E115.69989
G1 X174.154 Y170.997 E115.71126
G1 X173.869 Y171.078 E115.7177
G0 F1285.7 X173.677 Y171.132
G0 X173.609 Y170.891
G0 X159.698 Y167.461
G0 X159.631 Y167.221
G1 F900 X107.874 Y115.464 E118.51886
G1 X107.801 Y115.391 E118.52281
G1 X107.578 Y115.451 E118.53165
G1 X107.552 Y115.551 E118.5356
G1 X88.982 Y186.993 E121.3605
G1 X88.957 Y187.092 E121.36441
G1 X89.123 Y187.254 E121.37329
G1 X89.222 Y187.226 E121.37722
G1 X159.631 Y167.221 E124.17839
G0 F1285.7 X159.49 Y167.08
G0 X159.667 Y166.904
G0 X107.856 Y115.185
G0 X88.677 Y96.44
G0 X88.61 Y96.2
G1 F900 X36.853 Y44.444 E126.97952
G1 X36.78 Y44.371 E126.98347
G1 X36.557 Y44.431 E126.99231
G1 X36.531 Y44.531 E126.99626
G1 X17.961 Y115.972 E129.82113
G1 X17.936 Y116.071 E129.82504
G1 X18.102 Y116.233 E129.83391
G1 X18.201 Y116.205 E129.83785
G1 X88.61 Y96.2 E132.63902
G0 F1285.7 X88.469 Y96.059
G0 X88.646 Y95.883
G0 X89.88 Y96.53
;TYPE:SKIN
G1 F900 X36.978 Y43.629 E135.50212
G1 X36.01 Y43.889 E135.54047
G1 X17.195 Y116.277 E138.40278
G1 X17.913 Y116.978 E138.44118
G1 X89.88 Y96.53 E141.30433
G0 F1285.7 X107.031 Y114.909
G1 F900 X88.216 Y187.298 E144.16667
G1 X88.934 Y187.999 E144.20507
G1 X160.901 Y167.551 E147.06823
G1 X107.999 Y114.649 E149.93135
G1 X107.031 Y114.909 E149.96971
G0 F1285.7 X32.951 Y30.735
G1 F900 X172.881 Y170.666 E157.54293
G1 X78.173 Y197.575 E161.31081
G1 X7.862 Y127.263 E165.11616
G1 X32.951 Y30.735 E168.93298
G0 F1285.7 X8.114 Y126.908
G1 F900 X78.519 Y197.313 E172.74339
G0 F1285.7 X78.904 Y197.203
G1 F900 X8.217 Y126.516 E176.56906
G0 F1285.7 X8.319 Y126.123
G1 F900 X79.29 Y197.093 E180.41007
G0 F1285.7 X79.675 Y196.984
G1 F900 X8.421 Y125.73 E184.26643
G0 F1285.7 X8.523 Y125.337
G1 F900 X80.061 Y196.875 E188.13816
G0 F1285.7 X80.446 Y196.765
G1 F900 X8.625 Y124.944 E192.0252
G0 F1285.7 X8.727 Y124.551
G1 F900 X80.832 Y196.656 E195.92762
G0 F1285.7 X81.217 Y196.546
G1 F900 X8.829 Y124.158 E199.84535
G0 F1285.7 X8.932 Y123.766
G1 F900 X81.602 Y196.437 E203.77837
G0 F1285.7 X81.988 Y196.327
G1 F900 X9.033 Y123.373 E207.72676
G0 F1285.7 X9.135 Y122.98
G1 F900 X82.373 Y196.217 E211.69046
G0 F1285.7 X82.759 Y196.108
G1 F900 X9.238 Y122.587 E215.66951
G0 F1285.7 X9.34 Y122.194
G1 F900 X83.145 Y195.999 E219.66394
G0 F1285.7 X83.53 Y195.889
G1 F900 X9.442 Y121.801 E223.67367
G0 F1285.7 X9.544 Y121.408
G1 F900 X83.915 Y195.78 E227.69875
G0 F1285.7 X84.301 Y195.67
G1 F900 X9.646 Y121.015 E231.73918
G0 F1285.7 X9.748 Y120.623
G1 F900 X84.686 Y195.56 E235.79489
G0 F1285.7 X85.072 Y195.451
G1 F900 X9.85 Y120.23 E239.86597
G0 F1285.7 X9.953 Y119.837
G1 F900 X85.457 Y195.341 E243.95235
G0 F1285.7 X85.842 Y195.232
G1 F900 X10.055 Y119.444 E248.05406
G0 F1285.7 X10.156 Y119.051
G1 F900 X86.228 Y195.122 E252.17115
G0 F1285.7 X86.614 Y195.013
G1 F900 X10.259 Y118.658 E256.30358
G0 F1285.7 X10.361 Y118.265
G1 F900 X86.999 Y194.904 E260.45135
G0 F1285.7 X87.384 Y194.794
G1 F900 X10.463 Y117.873 E264.61441
G0 F1285.7 X10.565 Y117.48
G1 F900 X87.77 Y194.684 E268.79282
G0 F1285.7 X88.155 Y194.575
G1 F900 X10.667 Y117.086 E272.9866
G0 F1285.7 X10.769 Y116.694
G1 F900 X88.541 Y194.465 E277.19569
G0 F1285.7 X88.926 Y194.356
G1 F900 X10.871 Y116.301 E281.42012
G0 F1285.7 X10.974 Y115.908
G1 F900 X89.311 Y194.246 E285.65985
G0 F1285.7 X89.697 Y194.136
G1 F900 X11.076 Y115.515 E289.91492
G0 F1285.7 X11.177 Y115.122
G1 F900 X90.083 Y194.027 E294.18538
G0 F1285.7 X90.468 Y193.918
G1 F900 X11.28 Y114.73 E298.47114
G0 F1285.7 X11.382 Y114.337
G1 F900 X90.854 Y193.808 E302.77224
G0 F1285.7 X91.239 Y193.699
G1 F900 X11.484 Y113.944 E307.08868
G0 F1285.7 X11.586 Y113.551
G1 F900 X91.624 Y193.589 E311.42044
G0 F1285.7 X92.01 Y193.479
G1 F900 X11.688 Y113.158 E315.76754
G0 F1285.7 X11.791 Y112.765
G1 F900 X92.395 Y193.37 E320.12996
G0 F1285.7 X92.78 Y193.26
G1 F900 X11.892 Y112.372 E324.50772
G0 F1285.7 X11.995 Y111.98
G1 F900 X93.166 Y193.151 E328.9008
G0 F1285.7 X93.552 Y193.042
G1 F900 X12.097 Y111.587 E333.30925
G0 F1285.7 X12.199 Y111.194
G1 F900 X17.084 Y116.079 E333.57363
G0 F1285.7 X17.186 Y115.686
G1 F900 X12.301 Y110.801 E333.83801
G0 F1285.7 X12.403 Y110.408
G1 F900 X17.288 Y115.293 E334.1024
G0 F1285.7 X17.39 Y114.9
G1 F900 X12.505 Y110.015 E334.36678
G0 F1285.7 X12.607 Y109.622
G1 F900 X17.492 Y114.507 E334.63116
G0 F1285.7 X17.594 Y114.115
G1 F900 X12.71 Y109.23 E334.89552
G0 F1285.7 X12.812 Y108.837
G1 F900 X17.696 Y113.721 E335.15984
G0 F1285.7 X17.799 Y113.329
G1 F900 X12.913 Y108.444 E335.42425
G0 F1285.7 X13.016 Y108.051
G1 F900 X17.901 Y112.936 E335.68864
G0 F1285.7 X18.003 Y112.543
G1 F900 X13.118 Y107.658 E335.95302
G0 F1285.7 X13.22 Y107.265
G1 F900 X18.105 Y112.15 E336.2174
G0 F1285.7 X18.207 Y111.757
G1 F900 X13.322 Y106.872 E336.48178
G0 F1285.7 X13.424 Y106.479
G1 F900 X18.309 Y111.365 E336.74619
G0 F1285.7 X18.411 Y110.971
G1 F900 X13.526 Y106.087 E337.01055
G0 F1285.7 X13.628 Y105.694
G1 F900 X18.514 Y110.579 E337.27496
G0 F1285.7 X18.616 Y110.186
G1 F900 X13.731 Y105.301 E337.53934
G0 F1285.7 X13.833 Y104.908
G1 F900 X18.717 Y109.793 E337.8037
G0 F1285.7 X18.82 Y109.4
G1 F900 X13.934 Y104.515 E338.0681
G0 F1285.7 X14.037 Y104.122
G1 F900 X18.922 Y109.007 E338.33249
G0 F1285.7 X19.024 Y108.615
G1 F900 X14.139 Y103.729 E338.5969
G0 F1285.7 X14.241 Y103.337
G1 F900 X19.126 Y108.221 E338.86125
G0 F1285.7 X19.228 Y107.828
G1 F900 X14.343 Y102.944 E339.12561
G0 F1285.7 X14.445 Y102.55
G1 F900 X19.33 Y107.436 E339.39002
G0 F1285.7 X19.432 Y107.043
G1 F900 X14.548 Y102.158 E339.65437
G0 F1285.7 X14.649 Y101.765
G1 F900 X19.535 Y106.65 E339.91878
G0 F1285.7 X19.637 Y106.257
G1 F900 X14.752 Y101.372 E340.18316
G0 F1285.7 X14.854 Y100.979
G1 F900 X19.738 Y105.864 E340.44752
G0 F1285.7 X19.841 Y105.472
G1 F900 X14.956 Y100.586 E340.71193
G0 F1285.7 X15.058 Y100.194
G1 F900 X19.943 Y105.078 E340.97628
G0 F1285.7 X20.045 Y104.686
G1 F900 X15.16 Y99.801 E341.24067
G0 F1285.7 X15.262 Y99.408
G1 F900 X20.147 Y104.293 E341.50505
G0 F1285.7 X20.249 Y103.9
G1 F900 X15.364 Y99.015 E341.76943
G0 F1285.7 X15.466 Y98.622
G1 F900 X20.351 Y103.507 E342.03381
G0 F1285.7 X20.453 Y103.114
G1 F900 X15.569 Y98.229 E342.29817
G0 F1285.7 X15.67 Y97.836
G1 F900 X20.556 Y102.722 E342.56261
G0 F1285.7 X20.658 Y102.328
G1 F900 X15.773 Y97.444 E342.82696
G0 F1285.7 X15.875 Y97.051
G1 F900 X20.759 Y101.935 E343.09129
G0 F1285.7 X20.862 Y101.543
G1 F900 X15.977 Y96.658 E343.35567
G0 F1285.7 X16.079 Y96.265
G1 F900 X20.964 Y101.15 E343.62005
G0 F1285.7 X21.066 Y100.757
G1 F900 X16.181 Y95.872 E343.88444
G0 F1285.7 X16.283 Y95.479
G1 F900 X21.168 Y100.364 E344.14882
G0 F1285.7 X21.27 Y99.971
G1 F900 X16.385 Y95.086 E344.4132
G0 F1285.7 X16.488 Y94.694
G1 F900 X21.373 Y99.579 E344.67758
G0 F1285.7 X21.474 Y99.185
G1 F900 X16.59 Y94.301 E344.94191
G0 F1285.7 X16.691 Y93.908
G1 F900 X21.577 Y98.793 E345.20632
G0 F1285.7 X21.679 Y98.4
G1 F900 X16.794 Y93.515 E345.4707
G0 F1285.7 X16.896 Y93.122
G1 F900 X21.781 Y98.007 E345.73509
G0 F1285.7 X21.883 Y97.614
G1 F900 X16.998 Y92.729 E345.99947
G0 F1285.7 X17.1 Y92.336
G1 F900 X21.985 Y97.221 E346.26385
G0 F1285.7 X22.087 Y96.829
G1 F900 X17.202 Y91.943 E346.52826
G0 F1285.7 X17.305 Y91.551
G1 F900 X22.189 Y96.435 E346.79259
G0 F1285.7 X22.292 Y96.043
G1 F900 X17.406 Y91.158 E347.057
G0 F1285.7 X17.509 Y90.765
G1 F900 X22.394 Y95.65 E347.32138
G0 F1285.7 X22.495 Y95.257
G1 F900 X17.611 Y90.372 E347.58574
G0 F1285.7 X17.713 Y89.979
G1 F900 X22.598 Y94.864 E347.85012
G0 F1285.7 X22.7 Y94.471
G1 F900 X17.815 Y89.586 E348.1145
G0 F1285.7 X17.917 Y89.193
G1 F900 X22.802 Y94.079 E348.37891
G0 F1285.7 X22.904 Y93.685
G1 F900 X18.019 Y88.801 E348.64327
G0 F1285.7 X18.121 Y88.408
G1 F900 X23.006 Y93.292 E348.90762
G0 F1285.7 X23.108 Y92.9
G1 F900 X18.223 Y88.014 E349.17203
G0 F1285.7 X18.326 Y87.622
G1 F900 X23.21 Y92.507 E349.43639
G0 F1285.7 X23.313 Y92.114
G1 F900 X18.427 Y87.229 E349.7008
G0 F1285.7 X18.53 Y86.836
G1 F900 X23.415 Y91.721 E349.96518
G0 F1285.7 X23.516 Y91.328
G1 F900 X18.632 Y86.443 E350.22953
G0 F1285.7 X18.734 Y86.05
G1 F900 X23.619 Y90.936 E350.49394
G0 F1285.7 X23.721 Y90.542
G1 F900 X18.836 Y85.658 E350.7583
G0 F1285.7 X18.938 Y85.265
G1 F900 X23.823 Y90.15 E351.02268
G0 F1285.7 X23.925 Y89.757
G1 F900 X19.04 Y84.872 E351.28706
G0 F1285.7 X19.142 Y84.479
G1 F900 X24.027 Y89.364 E351.55145
G0 F1285.7 X24.13 Y88.971
G1 F900 X19.244 Y84.086 E351.81586
G0 F1285.7 X19.347 Y83.693
G1 F900 X24.231 Y88.578 E352.08021
G0 F1285.7 X24.334 Y88.186
G1 F900 X19.448 Y83.3 E352.34465
G0 F1285.7 X19.551 Y82.908
G1 F900 X24.436 Y87.792 E352.609
G0 F1285.7 X24.538 Y87.399
G1 F900 X19.653 Y82.515 E352.87336
G0 F1285.7 X19.755 Y82.122
G1 F900 X24.64 Y87.007 E353.13774
G0 F1285.7 X24.742 Y86.614
G1 F900 X19.857 Y81.729 E353.40212
G0 F1285.7 X19.959 Y81.336
G1 F900 X24.844 Y86.221 E353.66651
G0 F1285.7 X24.946 Y85.828
G1 F900 X20.062 Y80.943 E353.93086
G0 F1285.7 X20.163 Y80.55
G1 F900 X25.049 Y85.436 E354.1953
G0 F1285.7 X25.151 Y85.043
G1 F900 X20.266 Y80.158 E354.45968
G0 F1285.7 X20.368 Y79.765
G1 F900 X25.252 Y84.649 E354.72401
G0 F1285.7 X25.355 Y84.257
G1 F900 X20.47 Y79.372 E354.98839
G0 F1285.7 X20.572 Y78.979
G1 F900 X25.457 Y83.864 E355.25277
G0 F1285.7 X25.559 Y83.471
G1 F900 X20.674 Y78.586 E355.51716
G0 F1285.7 X20.776 Y78.193
G1 F900 X25.661 Y83.078 E355.78154
G0 F1285.7 X25.763 Y82.685
G1 F900 X20.878 Y77.8 E356.04592
G0 F1285.7 X20.98 Y77.407
G1 F900 X25.865 Y82.293 E356.31033
G0 F1285.7 X25.967 Y81.899
G1 F900 X21.083 Y77.015 E356.57466
G0 F1285.7 X21.184 Y76.622
G1 F900 X26.07 Y81.507 E356.83907
