;FLAVOR:Marlin
;TIME:12976
;Filament used: 22.5815m
;Layer height: 0.3
;MINX:20.675
;MINY:20.783
;MINZ:0.26
;MAXX:193.767
;MAXY:194.826
;MAXZ:24.56
;Generated with Cura_SteamEngine 4.9.1
M82 ;absolute extrusion mode
;Begin Start Gcode for Dagoma DiscoEasy 200
;Sliced: 01-08-2021 01:29:38
;Initial extruder: 0

G90 ;Absolute positioning
M106 S255 ;Fan on full
G28 X Y ;Home stop X Y
G1 X100 ;Centre back during cooldown in case of oozing
M109 R90 ;Cooldown in case too hot
G28 ;Centre
G29 ;Auto-level
M104 S205 ;Pre-heat
M107 ;Fan off
G0 X100 Y5 Z0.5 ;Front centre for degunk
M109 S205 ;Wait for initial temp
M83 ;E Relative
G1 E10 F200 ;Degunk
G1 E-3 F5000 ;Retract
G0 Z3 ;Withdraw
M82 ;E absolute
G92 E0 ;E reset
G1 F6000 ;Set feedrate

;Finish Start Gcode for Dagoma DiscoEasy 200

G92 E0
G92 E0
G1 F3000 E-3.5
;LAYER_COUNT:82
;LAYER:0
M107
G0 F1285.7 X22.237 Y46.844 Z0.26
;TYPE:SKIRT
G1 F3000 E0
G1 F900 X22.766 Y46.637 E0.02174
G1 X23.076 Y46.55 E0.03406
G1 X25.698 Y45.773 E0.13872
G1 X28.305 Y44.918 E0.24371
G1 X30.919 Y43.979 E0.35001
G1 X33.462 Y42.984 E0.45451
G1 X35.986 Y41.912 E0.55946
G1 X38.481 Y40.769 E0.66448
G1 X41.543 Y39.249 E0.79531
G1 X41.903 Y39.061 E0.81085
G1 X42.444 Y38.846 E0.83313
G1 X43.348 Y38.589 E0.86909
G1 X51.123 Y36.519 E1.177
G1 X51.816 Y36.346 E1.20434
G1 X52.294 Y36.268 E1.22287
G1 X53.28 Y36.193 E1.26072
G1 X56.004 Y35.949 E1.36538
G1 X58.724 Y35.627 E1.4702
G1 X61.495 Y35.22 E1.57738
G1 X64.166 Y34.749 E1.68118
G1 X66.84 Y34.2 E1.78565
G1 X69.503 Y33.574 E1.89033
G1 X72.21 Y32.859 E1.99748
G1 X74.826 Y32.085 E2.10189
G1 X77.414 Y31.24 E2.20607
G1 X80.039 Y30.3 E2.31278
G1 X82.564 Y29.313 E2.41653
G1 X85.14 Y28.223 E2.52357
G1 X87.605 Y27.095 E2.62731
G1 X88.26 Y26.777 E2.65518
G1 X89.07 Y26.432 E2.68887
G1 X89.603 Y26.277 E2.71011
G1 X97.757 Y24.096 E3.03313
G1 X98.471 Y23.916 E3.06131
G1 X99.032 Y23.832 E3.08302
G1 X100.127 Y23.778 E3.12498
G1 X102.862 Y23.605 E3.22985
G1 X105.611 Y23.353 E3.3355
G1 X108.308 Y23.028 E3.43946
G1 X111.073 Y22.615 E3.54645
G1 X113.745 Y22.138 E3.65032
G1 X116.401 Y21.588 E3.75412
G1 X119.085 Y20.952 E3.85968
G1 X119.925 Y20.783 E3.89247
G1 X120.404 Y20.785 E3.9108
G1 X120.876 Y20.867 E3.92914
G1 X121.57 Y21.149 E3.9578
G1 X122.187 Y21.499 E3.98495
G1 X123.441 Y22.237 E4.04063
G1 X125.846 Y23.562 E4.14572
G1 X128.258 Y24.803 E4.24952
G1 X130.761 Y26.002 E4.35574
G1 X133.257 Y27.111 E4.46026
G1 X135.827 Y28.169 E4.56662
G1 X138.362 Y29.129 E4.67036
G1 X141.96 Y30.357 E4.81585
G1 X142.399 Y30.549 E4.83419
G1 X142.8 Y30.811 E4.85252
G1 X143.031 Y31.012 E4.86424
G1 X143.643 Y31.604 E4.89682
G1 X144.042 Y32.017 E4.9188
G1 X144.431 Y32.527 E4.94335
G1 X145.127 Y33.686 E4.99508
G1 X146.599 Y36.061 E5.10201
G1 X148.12 Y38.368 E5.20776
G1 X149.673 Y40.584 E5.31132
G1 X151.324 Y42.803 E5.41717
G1 X153.025 Y44.961 E5.52232
G1 X154.795 Y47.079 E5.62796
G1 X156.596 Y49.114 E5.73195
G1 X158.487 Y51.134 E5.83785
G1 X160.416 Y53.079 E5.94268
G1 X162.4 Y54.971 E6.0476
G1 X164.453 Y56.821 E6.15336
G1 X166.55 Y58.605 E6.25872
G1 X168.679 Y60.314 E6.3632
G1 X170.891 Y61.989 E6.46938
G1 X173.094 Y63.563 E6.573
G1 X175.395 Y65.11 E6.67911
G1 X177.71 Y66.573 E6.78391
G1 X179.442 Y67.609 E6.86115
G1 X180.306 Y68.114 E6.89944
G1 X180.823 Y68.5 E6.92414
G1 X181.242 Y68.905 E6.94644
G1 X181.957 Y69.628 E6.98535
G1 X182.421 Y70.111 E7.01098
G1 X182.723 Y70.483 E7.02932
G1 X182.959 Y70.9 E7.04766
G1 X183.082 Y71.214 E7.06056
G1 X183.313 Y71.924 E7.08914
G1 X184.198 Y74.522 E7.19417
G1 X185.153 Y77.089 E7.29899
G1 X186.188 Y79.635 E7.40416
G1 X187.299 Y82.166 E7.50994
G1 X188.479 Y84.665 E7.61571
G1 X189.714 Y87.096 E7.72006
G1 X191.005 Y89.47 E7.82347
G1 X192.419 Y91.904 E7.9312
G1 X192.791 Y92.505 E7.95825
G1 X193.358 Y93.448 E8.00036
G1 X193.57 Y93.877 E8.01867
G1 X193.707 Y94.336 E8.037
G1 X193.767 Y94.812 E8.05536
G1 X193.703 Y95.542 E8.08341
G1 X193.661 Y95.725 E8.09059
G1 X193.524 Y96.264 E8.11187
G1 X167.992 Y192.032 E11.90488
G1 X167.795 Y192.732 E11.93271
G1 X167.628 Y193.181 E11.95104
G1 X167.388 Y193.595 E11.96936
G1 X167.082 Y193.965 E11.98773
G1 X166.72 Y194.278 E12.00605
G1 X166.31 Y194.526 E12.02438
G1 X165.865 Y194.704 E12.04273
G1 X165.396 Y194.804 E12.06108
G1 X164.918 Y194.826 E12.07939
G1 X164.442 Y194.768 E12.09774
G1 X163.983 Y194.631 E12.11607
G1 X163.552 Y194.42 E12.13444
G1 X163.021 Y194.012 E12.16006
G1 X162.389 Y193.395 E12.19387
G1 X101.323 Y131.865 E15.51141
G1 X99.329 Y129.911 E15.61826
G1 X97.318 Y128.05 E15.72311
G1 X95.252 Y126.243 E15.82815
G1 X93.122 Y124.485 E15.93385
G1 X90.959 Y122.8 E16.03877
G1 X88.747 Y121.175 E16.14381
G1 X86.491 Y119.613 E16.24883
G1 X84.185 Y118.112 E16.35412
G1 X81.848 Y116.684 E16.45893
G1 X79.465 Y115.318 E16.56405
G1 X77.03 Y114.012 E16.66979
G1 X74.598 Y112.795 E16.77387
G1 X71.017 Y111.153 E16.92463
G1 X70.6 Y110.918 E16.94295
G1 X70.228 Y110.616 E16.96129
G1 X69.91 Y110.257 E16.97964
G1 X69.707 Y109.943 E16.99395
G1 X69.382 Y109.362 E17.01943
G1 X67.984 Y106.943 E17.12635
G1 X66.549 Y104.618 E17.23091
G1 X65.038 Y102.314 E17.33635
G1 X63.473 Y100.071 E17.44102
G1 X61.806 Y97.82 E17.54821
G1 X60.148 Y95.708 E17.65097
G1 X58.38 Y93.583 E17.75676
G1 X56.568 Y91.528 E17.86161
G1 X54.681 Y89.503 E17.96753
G1 X52.766 Y87.562 E18.07188
G1 X50.776 Y85.657 E18.17731
G1 X48.743 Y83.818 E18.28222
G1 X46.638 Y82.019 E18.38819
G1 X44.511 Y80.303 E18.49277
G1 X42.324 Y78.639 E18.59794
G1 X40.101 Y77.044 E18.70265
G1 X37.801 Y75.49 E18.80888
G1 X35.496 Y74.027 E18.91335
G1 X33.423 Y72.791 E19.00572
G1 X32.857 Y72.392 E19.03222
G1 X32.3 Y71.885 E19.06104
G1 X31.781 Y71.359 E19.08932
G1 X31.48 Y70.987 E19.10764
G1 X31.176 Y70.409 E19.13263
G1 X31.021 Y70.009 E19.14905
G1 X29.987 Y67.441 E19.25499
G1 X28.902 Y64.953 E19.35886
G1 X27.728 Y62.456 E19.46446
G1 X26.492 Y60.006 E19.56947
G1 X25.163 Y57.549 E19.67638
G1 X23.82 Y55.225 E19.7791
G1 X22.381 Y52.892 E19.884
G1 X21.647 Y51.775 E19.93515
G1 X21.122 Y50.955 E19.97241
G1 X20.898 Y50.532 E19.99073
G1 X20.748 Y50.077 E20.00906
G1 X20.675 Y49.603 E20.02742
G1 X20.682 Y49.124 E20.04575
G1 X20.768 Y48.653 E20.06407
G1 X20.932 Y48.202 E20.08244
G1 X21.168 Y47.785 E20.10077
G1 X21.47 Y47.413 E20.11911
G1 X21.829 Y47.096 E20.13744
G1 X22.237 Y46.844 E20.15579
G0 F1285.7 X22.25 Y47.236
G1 F900 X22.861 Y46.974 E20.18123
G1 X23.135 Y46.897 E20.19212
G1 X25.838 Y46.096 E20.30001
G1 X28.422 Y45.249 E20.40408
G1 X31.034 Y44.31 E20.5103
G1 X33.584 Y43.312 E20.6151
G1 X36.127 Y42.233 E20.72081
G1 X38.652 Y41.076 E20.82711
G1 X41.677 Y39.573 E20.95637
G1 X42.065 Y39.371 E20.97311
G1 X42.54 Y39.183 E20.99266
G1 X43.438 Y38.927 E21.0284
G1 X51.207 Y36.858 E21.33608
G1 X51.9 Y36.685 E21.36341
G1 X52.32 Y36.617 E21.37969
G1 X53.302 Y36.542 E21.41738
G1 X56.041 Y36.296 E21.52263
G1 X58.816 Y35.968 E21.62956
G1 X61.499 Y35.574 E21.73334
G1 X64.262 Y35.087 E21.84071
G1 X66.922 Y34.541 E21.94463
G1 X69.606 Y33.91 E22.05015
G1 X72.289 Y33.2 E22.15636
G1 X74.923 Y32.422 E22.26146
G1 X77.54 Y31.567 E22.36683
G1 X80.142 Y30.635 E22.4726
G1 X82.729 Y29.624 E22.57889
G1 X85.251 Y28.557 E22.68369
G1 X87.765 Y27.407 E22.78949
G1 X88.407 Y27.094 E22.81682
G1 X89.171 Y26.767 E22.84863
G1 X89.697 Y26.614 E22.86959
G1 X97.843 Y24.436 E23.19228
G1 X98.557 Y24.256 E23.22046
G1 X99.05 Y24.182 E23.23954
G1 X100.125 Y24.129 E23.28073
G1 X102.916 Y23.952 E23.38776
G1 X105.616 Y23.705 E23.49151
G1 X108.403 Y23.368 E23.59895
G1 X111.083 Y22.968 E23.70265
G1 X113.837 Y22.477 E23.8097
G1 X116.484 Y21.928 E23.91316
G1 X119.166 Y21.293 E24.01864
G1 X119.981 Y21.13 E24.05044
G1 X120.43 Y21.139 E24.06763
G1 X120.87 Y21.228 E24.08481
G1 X121.397 Y21.453 E24.10674
G1 X122.01 Y21.801 E24.13371
G1 X123.253 Y22.533 E24.18892
G1 X125.687 Y23.873 E24.29525
G1 X128.117 Y25.124 E24.39984
G1 X130.61 Y26.318 E24.50563
G1 X133.124 Y27.435 E24.61091
G1 X135.682 Y28.487 E24.71676
G1 X138.245 Y29.459 E24.82166
G1 X141.847 Y30.688 E24.96731
G1 X142.258 Y30.87 E24.98451
G1 X142.788 Y31.263 E25.00976
G1 X143.4 Y31.855 E25.04235
G1 X143.789 Y32.259 E25.06381
G1 X144.131 Y32.707 E25.08538
G1 X144.829 Y33.871 E25.13732
G1 X146.305 Y36.252 E25.24453
G1 X147.797 Y38.517 E25.34832
G1 X149.402 Y40.807 E25.45534
G1 X151.048 Y43.019 E25.56086
G1 X152.762 Y45.193 E25.6668
G1 X154.513 Y47.288 E25.77129
G1 X156.343 Y49.357 E25.877
G1 X158.229 Y51.372 E25.98262
G1 X160.174 Y53.332 E26.0883
G1 X162.17 Y55.235 E26.19384
G1 X164.222 Y57.084 E26.29954
G1 X166.315 Y58.864 E26.40469
G1 X168.459 Y60.586 E26.50993
G1 X170.687 Y62.273 E26.61688
G1 X172.905 Y63.858 E26.7212
G1 X175.198 Y65.4 E26.82695
G1 X177.518 Y66.866 E26.93198
G1 X179.265 Y67.911 E27.00988
G1 X180.129 Y68.416 E27.04818
G1 X180.584 Y68.755 E27.0699
G1 X180.996 Y69.154 E27.09184
G1 X181.705 Y69.871 E27.13043
G1 X182.169 Y70.354 E27.15607
G1 X182.45 Y70.704 E27.17324
G1 X182.749 Y71.322 E27.19952
G1 X182.969 Y71.999 E27.22676
G1 X183.871 Y74.646 E27.33378
G1 X184.837 Y77.242 E27.43978
G1 X185.862 Y79.765 E27.544
G1 X186.975 Y82.3 E27.64995
G1 X188.163 Y84.816 E27.75643
G1 X189.393 Y87.237 E27.86035
G1 X190.722 Y89.68 E27.96678
G1 X192.1 Y92.051 E28.07173
G1 X192.491 Y92.685 E28.10024
G1 X193.058 Y93.628 E28.14235
G1 X193.254 Y94.032 E28.15953
G1 X193.376 Y94.464 E28.17671
G1 X193.419 Y94.911 E28.1939
G1 X193.361 Y95.468 E28.21533
G1 X193.322 Y95.639 E28.22204
G1 X193.186 Y96.173 E28.24313
G1 X167.656 Y191.937 E32.03597
G1 X167.459 Y192.637 E32.0638
G1 X167.299 Y193.057 E32.081
G1 X167.068 Y193.442 E32.09818
G1 X166.772 Y193.779 E32.11535
G1 X166.421 Y194.059 E32.13253
G1 X166.026 Y194.273 E32.14972
G1 X165.599 Y194.413 E32.16692
G1 X165.154 Y194.475 E32.18411
G1 X164.706 Y194.457 E32.20127
G1 X164.267 Y194.361 E32.21847
G1 X163.853 Y194.188 E32.23564
G1 X163.265 Y193.761 E32.26345
G1 X162.638 Y193.149 E32.29698
G1 X101.568 Y131.615 E35.61475
G1 X99.564 Y129.652 E35.7221
G1 X97.556 Y127.793 E35.82682
G1 X95.477 Y125.975 E35.93251
G1 X93.35 Y124.219 E36.03807
G1 X91.171 Y122.522 E36.14376
G1 X88.943 Y120.885 E36.24957
G1 X86.695 Y119.329 E36.3542
G1 X84.388 Y117.827 E36.45955
G1 X82.019 Y116.38 E36.56578
G1 X79.62 Y115.004 E36.67162
G1 X77.183 Y113.696 E36.77747
G1 X74.756 Y112.483 E36.8813
G1 X71.163 Y110.835 E37.03258
G1 X70.773 Y110.612 E37.04977
G1 X70.429 Y110.324 E37.06694
G1 X70.012 Y109.772 E37.09342
G1 X69.685 Y109.187 E37.11906
G1 X68.288 Y106.77 E37.2259
G1 X66.833 Y104.412 E37.33194
G1 X65.337 Y102.132 E37.4363
G1 X63.744 Y99.849 E37.54283
G1 X62.104 Y97.634 E37.64831
G1 X60.412 Y95.478 E37.75319
G1 X58.631 Y93.338 E37.85974
G1 X56.845 Y91.311 E37.96313
G1 X54.939 Y89.266 E38.07011
G1 X53.01 Y87.311 E38.17521
G1 X51.005 Y85.392 E38.28143
G1 X48.978 Y83.557 E38.38606
G1 X46.876 Y81.762 E38.49185
G1 X44.712 Y80.015 E38.59828
G1 X42.53 Y78.355 E38.7032
G1 X40.323 Y76.771 E38.80716
G1 X38.001 Y75.203 E38.91439
G1 X35.668 Y73.722 E39.02014
G1 X33.608 Y72.494 E39.11192
G1 X33.088 Y72.13 E39.13621
G1 X32.538 Y71.629 E39.16468
G1 X32.034 Y71.117 E39.19218
G1 X31.753 Y70.767 E39.20936
G1 X31.503 Y70.282 E39.23024
G1 X31.348 Y69.882 E39.24665
G1 X30.33 Y67.355 E39.35091
G1 X29.206 Y64.777 E39.45854
G1 X28.045 Y62.305 E39.56306
G1 X26.799 Y59.838 E39.66883
G1 X25.483 Y57.404 E39.77472
G1 X24.114 Y55.036 E39.8794
G1 X22.665 Y52.685 E39.98508
G1 X21.942 Y51.586 E40.03543
G1 X21.417 Y50.766 E40.07269
G1 X21.209 Y50.368 E40.08987
G1 X21.075 Y49.94 E40.10704
G1 X21.02 Y49.494 E40.12424
G1 X21.044 Y49.046 E40.14141
G1 X21.147 Y48.609 E40.15859
G1 X21.326 Y48.197 E40.17578
G1 X21.575 Y47.823 E40.19297
G1 X21.886 Y47.5 E40.21013
G1 X22.25 Y47.236 E40.22734
G0 F1285.7 X22.669 Y47.413
G1 F900 X23.265 Y47.224 E40.25127
G1 X25.904 Y46.442 E40.3566
G1 X28.549 Y45.575 E40.46312
G1 X31.157 Y44.638 E40.56918
G1 X33.719 Y43.635 E40.67447
G1 X36.284 Y42.546 E40.78111
G1 X38.771 Y41.407 E40.88579
G1 X41.875 Y39.865 E41.01843
G1 X42.635 Y39.519 E41.05039
G1 X43.528 Y39.265 E41.08592
G1 X51.292 Y37.198 E41.3934
G1 X51.985 Y37.025 E41.42073
G1 X52.347 Y36.966 E41.43477
G1 X53.333 Y36.891 E41.47261
G1 X56.079 Y36.645 E41.57812
G1 X58.835 Y36.319 E41.68432
G1 X61.575 Y35.917 E41.79031
G1 X64.291 Y35.438 E41.89585
G1 X67.03 Y34.875 E42.00286
G1 X69.664 Y34.256 E42.10641
G1 X72.377 Y33.539 E42.2138
G1 X75.031 Y32.754 E42.31972
G1 X77.656 Y31.897 E42.42539
G1 X80.288 Y30.954 E42.53239
G1 X82.838 Y29.957 E42.63717
G1 X85.391 Y28.877 E42.74325
G1 X87.906 Y27.727 E42.84908
G1 X88.555 Y27.412 E42.87669
G1 X89.272 Y27.102 E42.90659
G1 X89.791 Y26.951 E42.92727
G1 X97.928 Y24.775 E43.24961
G1 X98.642 Y24.595 E43.27779
G1 X99.067 Y24.532 E43.29424
G1 X100.131 Y24.479 E43.335
G1 X102.935 Y24.301 E43.44253
G1 X105.689 Y24.049 E43.54836
G1 X108.422 Y23.719 E43.65371
G1 X111.161 Y23.31 E43.7597
G1 X113.873 Y22.827 E43.86512
G1 X116.587 Y22.264 E43.97119
G1 X119.219 Y21.64 E44.07471
G1 X120.034 Y21.477 E44.10652
G1 X120.451 Y21.495 E44.12249
G1 X120.856 Y21.591 E44.13842
G1 X121.224 Y21.757 E44.15387
G1 X121.832 Y22.102 E44.18062
G1 X123.103 Y22.85 E44.23706
G1 X125.501 Y24.171 E44.34183
G1 X127.948 Y25.43 E44.44715
G1 X130.472 Y26.639 E44.55425
G1 X133.008 Y27.766 E44.66045
G1 X135.536 Y28.806 E44.76506
G1 X138.154 Y29.798 E44.8722
G1 X141.734 Y31.02 E45.01697
G1 X142.114 Y31.191 E45.03292
G1 X142.544 Y31.515 E45.05352
G1 X143.214 Y32.165 E45.08925
G1 X143.536 Y32.501 E45.10706
G1 X143.831 Y32.887 E45.12565
G1 X144.532 Y34.055 E45.17778
G1 X146.012 Y36.443 E45.28529
G1 X147.533 Y38.751 E45.39108
G1 X149.115 Y41.007 E45.49652
G1 X150.759 Y43.217 E45.60193
G1 X152.481 Y45.402 E45.7084
G1 X154.263 Y47.534 E45.81474
G1 X156.09 Y49.598 E45.92023
G1 X157.974 Y51.611 E46.02574
G1 X159.931 Y53.584 E46.13209
G1 X161.924 Y55.485 E46.23749
G1 X163.989 Y57.345 E46.34385
G1 X166.1 Y59.14 E46.44989
G1 X168.255 Y60.871 E46.55568
G1 X170.458 Y62.54 E46.66145
G1 X172.7 Y64.142 E46.7669
G1 X175.002 Y65.689 E46.87304
G1 X177.355 Y67.176 E46.97956
G1 X179.089 Y68.213 E47.05688
G1 X179.953 Y68.718 E47.09518
G1 X180.492 Y69.15 E47.12162
G1 X180.769 Y69.422 E47.13647
G1 X181.452 Y70.113 E47.17366
G1 X181.916 Y70.596 E47.19929
G1 X182.175 Y70.923 E47.21525
G1 X182.416 Y71.43 E47.23673
G1 X182.638 Y72.112 E47.26418
G1 X183.544 Y74.77 E47.37165
G1 X184.505 Y77.354 E47.47716
G1 X185.543 Y79.908 E47.58266
G1 X186.658 Y82.449 E47.68885
G1 X187.848 Y84.968 E47.79547
G1 X189.087 Y87.407 E47.90016
G1 X190.424 Y89.866 E48.00728
G1 X191.79 Y92.216 E48.1113
G1 X192.191 Y92.865 E48.1405
G1 X192.758 Y93.808 E48.1826
G1 X192.938 Y94.184 E48.19856
G1 X193.042 Y94.588 E48.21452
G1 X193.068 Y95.003 E48.23044
G1 X192.983 Y95.552 E48.2517
G1 X192.848 Y96.083 E48.27266
G1 X167.319 Y191.842 E52.06531
G1 X167.122 Y192.542 E52.09314
G1 X166.971 Y192.931 E52.10911
G1 X166.749 Y193.283 E52.12503
G1 X166.464 Y193.587 E52.14098
G1 X166.126 Y193.831 E52.15693
G1 X165.748 Y194.006 E52.17288
G1 X165.343 Y194.105 E52.18883
G1 X164.927 Y194.126 E52.20477
G1 X164.514 Y194.066 E52.22074
G1 X164.121 Y193.93 E52.23666
G1 X163.76 Y193.72 E52.25264
G1 X163.51 Y193.51 E52.26514
G1 X162.886 Y192.902 E52.29848
G1 X101.791 Y131.343 E55.6176
G1 X99.816 Y129.409 E55.72338
G1 X97.779 Y127.522 E55.82965
G1 X95.7 Y125.705 E55.93531
G1 X93.578 Y123.953 E56.04062
G1 X91.384 Y122.244 E56.14705
G1 X89.139 Y120.595 E56.25365
G1 X86.906 Y119.049 E56.35759
G1 X84.551 Y117.516 E56.46513
G1 X82.207 Y116.083 E56.57027
G1 X79.789 Y114.698 E56.67691
G1 X77.361 Y113.395 E56.78236
G1 X74.902 Y112.165 E56.88758
G1 X71.309 Y110.517 E57.03886
G1 X70.949 Y110.308 E57.05479
G1 X70.635 Y110.034 E57.07074
G1 X70.318 Y109.601 E57.09127
G1 X69.988 Y109.012 E57.11711
G1 X68.582 Y106.581 E57.22458
G1 X67.143 Y104.247 E57.32952
G1 X65.62 Y101.926 E57.43576
G1 X64.016 Y99.627 E57.54304
G1 X62.393 Y97.436 E57.64738
G1 X60.676 Y95.248 E57.75382
G1 X58.914 Y93.131 E57.85923
G1 X57.076 Y91.046 E57.9656
G1 X55.172 Y89.003 E58.07247
G1 X53.271 Y87.077 E58.17603
G1 X51.273 Y85.164 E58.28189
G1 X49.192 Y83.28 E58.38932
G1 X47.096 Y81.489 E58.49483
G1 X44.934 Y79.745 E58.60113
G1 X42.736 Y78.073 E58.70682
G1 X40.481 Y76.454 E58.81306
G1 X38.215 Y74.924 E58.91769
G1 X35.875 Y73.438 E59.02377
G1 X33.793 Y72.198 E59.11651
