;FLAVOR:Marlin
;TIME:11640
;Filament used: 14.1689m
;Layer height: 0.3
;MINX:36.146
;MINY:13.85
;MINZ:0.26
;MAXX:193.858
;MAXY:195.79
;MAXZ:7.76
;Generated with Cura_SteamEngine 4.9.1
M82 ;absolute extrusion mode
;Begin Start Gcode for Dagoma DiscoEasy 200
;Sliced: 07-07-2021 19:55:00
;Initial extruder: 0

G90 ;Absolute positioning
M106 S255 ;Fan on full
G28 X Y ;Home stop X Y
G1 X100 ;Centre back during cooldown in case of oozing
M109 R90 ;Cooldown in case too hot
G28 ;Centre
G29 ;Auto-level
M104 S205 ;Pre-heat
M107 ;Fan off
G0 X100 Y5 Z0.5 ;Front centre for degunk
M109 S205 ;Wait for initial temp
M83 ;E Relative
G1 E10 F200 ;Degunk
G1 E-3 F5000 ;Retract
G0 Z3 ;Withdraw
M82 ;E absolute
G92 E0 ;E reset
G1 F6000 ;Set feedrate

;Finish Start Gcode for Dagoma DiscoEasy 200

G92 E0
G92 E0
G1 F3000 E-3.5
;LAYER_COUNT:26
;LAYER:0
M107
G0 F1285.7 X86.289 Y16.406 Z0.26
;TYPE:SKIRT
G1 F3000 E0
G1 F900 X86.668 Y15.765 E0.0285
G1 X86.985 Y15.307 E0.04981
G1 X87.364 Y14.9 E0.0711
G1 X87.798 Y14.551 E0.09241
G1 X88.277 Y14.268 E0.1137
G1 X88.791 Y14.057 E0.13497
G1 X89.331 Y13.921 E0.15628
G1 X89.943 Y13.862 E0.17981
G1 X90.71 Y13.85 E0.20916
G1 X189.349 Y13.85 E3.98403
G1 X190.04 Y13.86 E4.01048
G1 X190.594 Y13.908 E4.03176
G1 X191.136 Y14.035 E4.05306
G1 X191.654 Y14.238 E4.07435
G1 X192.138 Y14.514 E4.09567
G1 X192.577 Y14.855 E4.11695
G1 X192.963 Y15.256 E4.13825
G1 X193.287 Y15.709 E4.15956
G1 X193.543 Y16.202 E4.18082
G1 X193.726 Y16.728 E4.20213
G1 X193.832 Y17.274 E4.22342
G1 X193.858 Y17.83 E4.24472
G1 X193.804 Y18.384 E4.26602
G1 X193.672 Y18.924 E4.2873
G1 X193.37 Y19.619 E4.3163
G1 X193.03 Y20.23 E4.34306
G1 X93.706 Y193.269 E11.97854
G1 X93.336 Y193.893 E12.00631
G1 X93.019 Y194.35 E12.02759
G1 X92.639 Y194.757 E12.0489
G1 X92.205 Y195.105 E12.07019
G1 X91.726 Y195.388 E12.09148
G1 X91.211 Y195.599 E12.11278
G1 X90.671 Y195.734 E12.13408
G1 X90.118 Y195.79 E12.15535
G1 X89.562 Y195.767 E12.17665
G1 X89.015 Y195.664 E12.19795
G1 X88.488 Y195.484 E12.21926
G1 X87.993 Y195.23 E12.24055
G1 X87.539 Y194.908 E12.26185
G1 X87.136 Y194.524 E12.28316
G1 X86.676 Y193.903 E12.31273
G1 X86.196 Y193.099 E12.34857
G1 X36.958 Y107.319 E16.13369
G1 X36.621 Y106.71 E16.16033
G1 X36.388 Y106.205 E16.18161
G1 X36.229 Y105.672 E16.2029
G1 X36.148 Y105.122 E16.22417
G1 X36.146 Y104.565 E16.24549
G1 X36.225 Y104.014 E16.26679
G1 X36.381 Y103.48 E16.28808
G1 X36.613 Y102.972 E16.30945
G1 X36.665 Y102.875 E16.31366
G1 X36.957 Y102.352 E16.33659
G1 X86.289 Y16.406 E20.12901
G0 F1285.7 X86.591 Y16.584
G1 F900 X86.97 Y15.943 E20.15751
G1 X87.273 Y15.508 E20.1778
G1 X87.639 Y15.123 E20.19813
G1 X88.058 Y14.798 E20.21842
G1 X88.521 Y14.539 E20.23872
G1 X89.018 Y14.353 E20.25903
G1 X89.538 Y14.243 E20.27937
G1 X89.949 Y14.212 E20.29514
G1 X90.716 Y14.2 E20.3245
G1 X189.344 Y14.2 E24.09895
G1 X190.035 Y14.21 E24.12539
G1 X190.564 Y14.258 E24.14572
G1 X191.079 Y14.384 E24.16601
G1 X191.569 Y14.587 E24.18631
G1 X192.024 Y14.86 E24.20661
G1 X192.433 Y15.199 E24.22694
G1 X192.785 Y15.595 E24.24722
G1 X193.075 Y16.04 E24.26755
G1 X193.294 Y16.523 E24.28784
G1 X193.439 Y17.034 E24.30817
G1 X193.505 Y17.561 E24.3285
G1 X193.491 Y18.091 E24.34879
G1 X193.398 Y18.614 E24.36912
G1 X193.227 Y19.116 E24.38941
G1 X193.064 Y19.449 E24.4036
G1 X192.726 Y20.056 E24.43019
G1 X93.405 Y193.091 E32.06549
G1 X93.035 Y193.715 E32.09325
G1 X92.731 Y194.15 E32.11356
G1 X92.365 Y194.534 E32.13386
G1 X91.945 Y194.859 E32.15418
G1 X91.482 Y195.117 E32.17447
G1 X90.984 Y195.303 E32.19481
G1 X90.465 Y195.412 E32.21511
G1 X89.935 Y195.441 E32.23542
G1 X89.407 Y195.391 E32.25572
G1 X88.892 Y195.262 E32.27603
G1 X88.403 Y195.058 E32.29631
G1 X87.949 Y194.782 E32.31664
G1 X87.542 Y194.441 E32.33696
G1 X87.191 Y194.043 E32.35727
G1 X86.976 Y193.724 E32.37199
G1 X86.5 Y192.925 E32.40759
G1 X37.265 Y107.15 E36.19249
G1 X36.928 Y106.541 E36.21912
G1 X36.706 Y106.058 E36.23947
G1 X36.56 Y105.548 E36.25977
G1 X36.492 Y105.022 E36.28006
G1 X36.504 Y104.492 E36.30035
G1 X36.595 Y103.969 E36.32067
G1 X36.763 Y103.466 E36.34096
G1 X36.971 Y103.045 E36.35893
G1 X37.261 Y102.526 E36.38169
G1 X86.591 Y16.584 E40.17394
G0 F1285.7 X86.892 Y16.762
G1 F900 X87.271 Y16.121 E40.20244
G1 X87.561 Y15.709 E40.22172
G1 X87.912 Y15.348 E40.24099
G1 X88.316 Y15.048 E40.26024
G1 X88.763 Y14.815 E40.27953
G1 X89.24 Y14.655 E40.29879
G1 X89.954 Y14.562 E40.32634
G1 X90.721 Y14.55 E40.3557
G1 X189.339 Y14.55 E44.12976
G1 X190.03 Y14.56 E44.15621
G1 X190.531 Y14.608 E44.17547
G1 X191.019 Y14.733 E44.19475
G1 X191.48 Y14.935 E44.21401
G1 X191.904 Y15.207 E44.23329
G1 X192.28 Y15.542 E44.25256
G1 X192.598 Y15.933 E44.27185
G1 X192.85 Y16.369 E44.29112
G1 X193.03 Y16.839 E44.31038
G1 X193.133 Y17.332 E44.32966
G1 X193.157 Y17.835 E44.34893
G1 X193.102 Y18.335 E44.36818
G1 X192.968 Y18.821 E44.38747
G1 X192.758 Y19.279 E44.40675
G1 X192.423 Y19.882 E44.43315
G1 X93.104 Y192.912 E52.06825
G1 X92.734 Y193.536 E52.09601
G1 X92.444 Y193.948 E52.11529
G1 X92.092 Y194.308 E52.13456
G1 X91.687 Y194.608 E52.15385
G1 X91.241 Y194.841 E52.1731
G1 X90.763 Y195 E52.19238
G1 X90.266 Y195.081 E52.21165
G1 X89.762 Y195.083 E52.23094
G1 X89.265 Y195.005 E52.25019
G1 X88.786 Y194.849 E52.26947
G1 X88.338 Y194.62 E52.28873
G1 X87.931 Y194.323 E52.30801
G1 X87.577 Y193.965 E52.32728
G1 X87.277 Y193.545 E52.34703
G1 X86.803 Y192.751 E52.38242
G1 X37.571 Y106.98 E56.16713
G1 X37.234 Y106.371 E56.19376
G1 X37.026 Y105.913 E56.21301
G1 X36.893 Y105.427 E56.2323
G1 X36.838 Y104.926 E56.25158
G1 X36.864 Y104.423 E56.27086
G1 X36.968 Y103.931 E56.2901
G1 X37.196 Y103.367 E56.31339
G1 X37.277 Y103.216 E56.31994
G1 X37.564 Y102.7 E56.34254
G1 X86.892 Y16.762 E60.13462
G1 F3000 E56.63462
;MESH:support_half_hex_3.stl
G0 F1285.7 X89.09 Y18.026
G0 X89.965 Y18.527
G0 X90.151 Y190.625
;TYPE:WALL-INNER
G1 F3000 E60.13462
G1 F900 X90 Y190.888 E60.14623
G1 X89.849 Y190.625 E60.1528
G1 X40.605 Y104.834 E63.9384
G1 X90.304 Y18.25 E67.75899
G1 X188.791 Y18.25 E71.52804
G1 X188.792 Y18.25 E71.52808
G1 X189.093 Y18.25 E71.53959
G1 X188.943 Y18.511 E71.54613
G1 X90.151 Y190.625 E79.14078
G0 F1285.7 X90.151 Y191.278
;TYPE:WALL-OUTER
G1 F900 X90 Y191.541 E79.15239
G1 X89.849 Y191.278 E79.15896
G1 X40.23 Y104.834 E82.97338
G1 X90.116 Y17.925 E86.80832
G1 X189.353 Y17.925 E90.60607
G1 X189.354 Y17.925 E90.60611
G1 X189.655 Y17.925 E90.61763
G1 X189.505 Y18.186 E90.62416
G1 X90.151 Y191.278 E98.26198
G0 F1285.7 X90.052 Y191.451
G0 X89.966 Y191.401
G0 X90 Y190.205
;TYPE:SKIN
G1 F900 X40.997 Y104.834 E102.02905
G1 X90.5 Y18.59 E105.83462
G1 X188.506 Y18.59 E109.58526
G1 X90 Y190.205 E117.15791
G0 F1285.7 X90.145 Y189.635
G1 F900 X89.463 Y188.953 E117.19482
G1 X89.401 Y188.891
G0 F1285.7 X90.325 Y189.32
G1 F900 X88.796 Y187.791 E117.27757
G1 X88.734 Y187.729
G0 F1285.7 X88.129 Y186.629
G1 F900 X90.506 Y189.006 E117.40621
G0 F1285.7 X90.686 Y188.691
G1 F900 X87.462 Y185.467 E117.5807
G1 X87.4 Y185.405
G0 F1285.7 X86.795 Y184.305
G1 F900 X90.867 Y188.377 E117.80108
G0 F1285.7 X91.047 Y188.062
G1 F900 X86.129 Y183.144 E118.06725
G1 X86.067 Y183.082
G0 F1285.7 X85.461 Y181.981
G1 F900 X91.228 Y187.748 E118.37937
G0 F1285.7 X91.409 Y187.434
G1 F900 X84.794 Y180.819 E118.73738
G1 X84.732 Y180.757
G0 F1285.7 X84.128 Y179.658
G1 F900 X91.589 Y187.119 E119.14118
G0 F1285.7 X91.769 Y186.804
G1 F900 X83.461 Y178.496 E119.59082
G1 X83.399 Y178.434
G0 F1285.7 X82.794 Y177.334
G1 F900 X91.95 Y186.49 E120.08635
G0 F1285.7 X92.131 Y186.176
G1 F900 X82.126 Y176.172 E120.62781
G1 X82.064 Y176.11
G0 F1285.7 X81.46 Y175.01
G1 F900 X92.311 Y185.861 E121.21508
G0 F1285.7 X92.491 Y185.546
G1 F900 X80.793 Y173.848 E121.84819
G1 X80.731 Y173.786
G0 F1285.7 X80.126 Y172.686
G1 F900 X92.672 Y185.232 E122.5272
G0 F1285.7 X92.853 Y184.918
G1 F900 X79.459 Y171.524 E123.2521
G1 X79.397 Y171.462
G0 F1285.7 X78.792 Y170.362
G1 F900 X93.033 Y184.603 E124.02284
G0 F1285.7 X93.213 Y184.288
G1 F900 X78.125 Y169.2 E124.83942
G1 X78.063 Y169.138
G0 F1285.7 X77.458 Y168.038
G1 F900 X93.394 Y183.975 E125.70192
G0 F1285.7 X93.574 Y183.66
G1 F900 X76.791 Y166.877 E126.61024
G1 X76.729 Y166.815
G0 F1285.7 X76.124 Y165.714
G1 F900 X93.755 Y183.345 E127.56445
G0 F1285.7 X93.935 Y183.031
G1 F900 X75.457 Y164.552 E128.56453
G1 X75.395 Y164.49
G0 F1285.7 X74.79 Y163.391
G1 F900 X94.116 Y182.717 E129.61048
G0 F1285.7 X94.296 Y182.402
G1 F900 X74.123 Y162.229 E130.70227
G1 X74.061 Y162.167
G0 F1285.7 X73.457 Y161.067
G1 F900 X94.477 Y182.087 E131.8399
G0 F1285.7 X94.657 Y181.773
G1 F900 X72.789 Y159.905 E133.02342
G1 X72.727 Y159.843
G0 F1285.7 X72.122 Y158.743
G1 F900 X94.838 Y181.459 E134.25284
G0 F1285.7 X95.018 Y181.144
G1 F900 X71.455 Y157.581 E135.5281
G1 X71.393 Y157.519
G0 F1285.7 X70.789 Y156.419
G1 F900 X95.199 Y180.829 E136.8492
G0 F1285.7 X95.38 Y180.515
G1 F900 X70.121 Y155.257 E138.21622
G1 X70.059 Y155.195
G0 F1285.7 X69.454 Y154.095
G1 F900 X95.56 Y180.201 E139.62911
G0 F1285.7 X95.74 Y179.886
G1 F900 X68.788 Y152.933 E141.08782
G1 X68.726 Y152.871
G0 F1285.7 X68.121 Y151.771
G1 F900 X95.921 Y179.571 E142.59239
G0 F1285.7 X96.102 Y179.257
G1 F900 X67.454 Y150.61 E144.14283
G1 X67.392 Y150.548
G0 F1285.7 X66.786 Y149.447
G1 F900 X96.282 Y178.943 E145.73919
G0 F1285.7 X96.462 Y178.628
G1 F900 X66.12 Y148.285 E147.38136
G1 X66.058 Y148.223
G0 F1285.7 X65.453 Y147.124
G1 F900 X96.643 Y178.313 E149.06938
G0 F1285.7 X96.824 Y177.999
G1 F900 X64.786 Y145.962 E150.80329
G1 X64.724 Y145.9
G0 F1285.7 X64.119 Y144.799
G1 F900 X97.004 Y177.685 E152.58309
G0 F1285.7 X97.184 Y177.37
G1 F900 X63.452 Y143.638 E154.40871
G1 X63.39 Y143.576
G0 F1285.7 X62.785 Y142.476
G1 F900 X97.365 Y177.056 E156.28023
G0 F1285.7 X97.546 Y176.742
G1 F900 X62.118 Y141.314 E158.19764
G1 X62.056 Y141.252
G0 F1285.7 X61.451 Y140.152
G1 F900 X97.726 Y176.427 E160.16088
G0 F1285.7 X97.906 Y176.112
G1 F900 X60.784 Y138.99 E162.16997
G1 X60.722 Y138.928
G0 F1285.7 X60.117 Y137.828
G1 F900 X98.087 Y175.798 E164.22496
G0 F1285.7 X98.268 Y175.484
G1 F900 X59.45 Y136.666 E166.32584
G1 X59.388 Y136.604
G0 F1285.7 X58.783 Y135.504
G1 F900 X98.448 Y175.169 E168.47256
G0 F1285.7 X98.628 Y174.854
G1 F900 X58.117 Y134.343 E170.66507
G1 X58.055 Y134.281
G0 F1285.7 X57.449 Y133.18
G1 F900 X98.809 Y174.54 E172.90352
G0 F1285.7 X98.989 Y174.226
G1 F900 X56.782 Y132.018 E175.18785
G1 X56.72 Y131.956
G0 F1285.7 X56.115 Y130.857
G1 F900 X99.17 Y173.911 E177.51801
G0 F1285.7 X99.351 Y173.597
G1 F900 X55.449 Y129.695 E179.89404
G1 X55.387 Y129.633
G0 F1285.7 X54.781 Y128.532
G1 F900 X99.531 Y173.282 E182.31597
G0 F1285.7 X99.711 Y172.968
G1 F900 X54.114 Y127.371 E184.78374
G1 X54.052 Y127.309
G0 F1285.7 X53.448 Y126.209
G1 F900 X99.892 Y172.653 E187.29735
G0 F1285.7 X100.073 Y172.339
G1 F900 X52.781 Y125.047 E189.85685
G1 X52.719 Y124.985
G0 F1285.7 X52.114 Y123.885
G1 F900 X100.253 Y172.024 E192.46219
G0 F1285.7 X100.433 Y171.71
G1 F900 X51.446 Y122.723 E195.11343
G1 X51.384 Y122.661
G0 F1285.7 X50.78 Y121.561
G1 F900 X100.614 Y171.395 E197.81051
G0 F1285.7 X100.795 Y171.081
G1 F900 X50.113 Y120.399 E200.55349
G1 X50.051 Y120.337
G0 F1285.7 X49.446 Y119.238
G1 F900 X100.975 Y170.766 E203.34227
G0 F1285.7 X101.155 Y170.452
G1 F900 X48.779 Y118.075 E206.17696
G1 X48.717 Y118.013
G0 F1285.7 X48.112 Y116.913
G1 F900 X101.336 Y170.138 E209.05753
G0 F1285.7 X101.517 Y169.823
G1 F900 X47.445 Y115.751 E211.98398
G1 X47.383 Y115.689
G0 F1285.7 X46.778 Y114.59
G1 F900 X101.697 Y169.509 E214.95627
G0 F1285.7 X101.877 Y169.194
G1 F900 X46.111 Y113.428 E217.97439
G1 X46.049 Y113.366
G0 F1285.7 X45.444 Y112.265
G1 F900 X102.058 Y168.88 E221.03844
G0 F1285.7 X102.239 Y168.565
G1 F900 X44.777 Y111.104 E224.14833
G1 X44.715 Y111.042
G0 F1285.7 X44.11 Y109.942
G1 F900 X102.419 Y168.251 E227.30409
G0 F1285.7 X102.599 Y167.936
G1 F900 X43.443 Y108.78 E230.50569
G1 X43.381 Y108.718
G0 F1285.7 X42.777 Y107.618
G1 F900 X102.78 Y167.622 E233.75315
G0 F1285.7 X102.961 Y167.307
G1 F900 X42.109 Y106.456 E237.04651
G1 X42.047 Y106.394
G0 F1285.7 X41.442 Y105.294
G1 F900 X103.141 Y166.993 E240.38574
G0 F1285.7 X103.322 Y166.679
G1 F900 X41.286 Y104.643 E243.74321
G0 F1285.7 X41.467 Y104.329
G1 F900 X103.502 Y166.364 E247.10062
G0 F1285.7 X103.683 Y166.049
G1 F900 X41.647 Y104.014 E250.45806
G0 F1285.7 X41.828 Y103.7
G1 F900 X103.863 Y165.735 E253.81548
G0 F1285.7 X104.044 Y165.421
G1 F900 X42.008 Y103.385 E257.17294
G0 F1285.7 X42.189 Y103.071
G1 F900 X104.224 Y165.106 E260.53036
G0 F1285.7 X104.405 Y164.791
G1 F900 X42.369 Y102.756 E263.8878
G0 F1285.7 X42.55 Y102.442
G1 F900 X104.585 Y164.477 E267.24521
G0 F1285.7 X104.766 Y164.163
G1 F900 X42.731 Y102.128 E270.60262
G0 F1285.7 X42.911 Y101.813
G1 F900 X104.946 Y163.848 E273.96004
G0 F1285.7 X105.126 Y163.533
G1 F900 X43.091 Y101.498 E277.31745
G0 F1285.7 X43.272 Y101.184
G1 F900 X105.307 Y163.22 E280.67489
G0 F1285.7 X105.488 Y162.905
G1 F900 X43.453 Y100.87 E284.0323
G0 F1285.7 X43.633 Y100.555
G1 F900 X105.668 Y162.59 E287.38972
G0 F1285.7 X105.848 Y162.276
G1 F900 X43.813 Y100.24 E290.74716
G0 F1285.7 X43.994 Y99.926
G1 F900 X106.029 Y161.962 E294.1046
G0 F1285.7 X106.21 Y161.647
G1 F900 X44.175 Y99.612 E297.46201
G0 F1285.7 X44.355 Y99.297
G1 F900 X106.39 Y161.332 E300.81942
G0 F1285.7 X106.57 Y161.018
G1 F900 X44.535 Y98.982 E304.17686
G0 F1285.7 X44.716 Y98.668
G1 F900 X106.751 Y160.704 E307.5343
G0 F1285.7 X106.932 Y160.389
G1 F900 X44.897 Y98.354 E310.89172
G0 F1285.7 X45.077 Y98.039
G1 F900 X107.112 Y160.074 E314.24913
G0 F1285.7 X107.293 Y159.76
G1 F900 X45.257 Y97.724 E317.6066
G0 F1285.7 X45.438 Y97.411
G1 F900 X107.473 Y159.446 E320.96401
G0 F1285.7 X107.654 Y159.131
G1 F900 X45.618 Y97.096 E324.32145
G0 F1285.7 X45.799 Y96.781
G1 F900 X107.834 Y158.816 E327.67887
G0 F1285.7 X108.015 Y158.502
G1 F900 X45.979 Y96.467 E331.03631
G0 F1285.7 X46.16 Y96.153
G1 F900 X108.195 Y158.188 E334.39372
G0 F1285.7 X108.376 Y157.873
G1 F900 X46.34 Y95.838 E337.75116
G0 F1285.7 X46.521 Y95.523
G1 F900 X108.556 Y157.558 E341.10857
G0 F1285.7 X108.737 Y157.244
G1 F900 X46.701 Y95.209 E344.46601
G0 F1285.7 X46.882 Y94.895
G1 F900 X108.917 Y156.93 E347.82343
G0 F1285.7 X109.098 Y156.615
G1 F900 X47.062 Y94.58 E351.18087
G0 F1285.7 X47.243 Y94.265
G1 F900 X109.279 Y156.301 E354.53833
G0 F1285.7 X109.459 Y155.987
G1 F900 X47.423 Y93.951 E357.8958
G0 F1285.7 X47.604 Y93.637
G1 F900 X109.639 Y155.672 E361.25321
G0 F1285.7 X109.82 Y155.357
G1 F900 X47.784 Y93.322 E364.61065
G0 F1285.7 X47.965 Y93.007
G1 F900 X110.001 Y155.043 E367.96812
G0 F1285.7 X110.181 Y154.729
G1 F900 X48.146 Y92.693 E371.32556
G0 F1285.7 X48.326 Y92.379
G1 F900 X110.361 Y154.414 E374.68298
G0 F1285.7 X110.542 Y154.099
G1 F900 X48.506 Y92.064 E378.04042
G0 F1285.7 X48.687 Y91.749
G1 F900 X110.723 Y153.785 E381.39788
G0 F1285.7 X110.903 Y153.471
G1 F900 X48.868 Y91.435 E384.75532
G0 F1285.7 X49.048 Y91.121
G1 F900 X111.083 Y153.156 E388.11274
G0 F1285.7 X111.264 Y152.842
G1 F900 X49.228 Y90.806 E391.4702
G0 F1285.7 X49.409 Y90.491
G1 F900 X111.444 Y152.527 E394.82764
G0 F1285.7 X111.625 Y152.213
G1 F900 X49.59 Y90.178 E398.18506
G0 F1285.7 X49.77 Y89.863
G1 F900 X111.805 Y151.898 E401.54247
G0 F1285.7 X111.986 Y151.584
G1 F900 X49.95 Y89.548 E404.89994
G0 F1285.7 X50.131 Y89.234
G1 F900 X112.166 Y151.269 E408.25735
G0 F1285.7 X112.347 Y150.955
G1 F900 X50.312 Y88.92 E411.61476
G0 F1285.7 X50.492 Y88.605
G1 F900 X112.527 Y150.64 E414.97218
G0 F1285.7 X112.708 Y150.326
G1 F900 X50.672 Y88.29 E418.32965
G0 F1285.7 X50.853 Y87.976
G1 F900 X112.888 Y150.011 E421.68706
G0 F1285.7 X113.069 Y149.697
G1 F900 X51.034 Y87.662 E425.04447
G0 F1285.7 X51.214 Y87.347
G1 F900 X113.25 Y149.383 E428.40194
G0 F1285.7 X113.43 Y149.068
G1 F900 X51.394 Y87.032 E431.75941
G0 F1285.7 X51.575 Y86.718
G1 F900 X113.61 Y148.754 E435.11685
G0 F1285.7 X113.791 Y148.439
G1 F900 X51.755 Y86.404 E438.47429
G0 F1285.7 X51.936 Y86.089
G1 F900 X113.972 Y148.125 E441.83175
G0 F1285.7 X114.152 Y147.81
G1 F900 X52.116 Y85.774 E445.18922
G0 F1285.7 X52.297 Y85.46
G1 F900 X114.332 Y147.496 E448.54666
G0 F1285.7 X114.513 Y147.181
G1 F900 X52.477 Y85.146 E451.9041
