;FLAVOR:Marlin
;TIME:11963
;Filament used: 14.5163m
;Layer height: 0.3
;MINX:35.622
;MINY:9.036
;MINZ:0.26
;MAXX:195.067
;MAXY:190.965
;MAXZ:7.76
;Generated with Cura_SteamEngine 4.9.1
M82 ;absolute extrusion mode
;Begin Start Gcode for Dagoma DiscoEasy 200
;Sliced: 07-07-2021 20:19:57
;Initial extruder: 0

G90 ;Absolute positioning
M106 S255 ;Fan on full
G28 X Y ;Home stop X Y
G1 X100 ;Centre back during cooldown in case of oozing
M109 R90 ;Cooldown in case too hot
G28 ;Centre
G29 ;Auto-level
M104 S205 ;Pre-heat
M107 ;Fan off
G0 X100 Y5 Z0.5 ;Front centre for degunk
M109 S205 ;Wait for initial temp
M83 ;E Relative
G1 E10 F200 ;Degunk
G1 E-3 F5000 ;Retract
G0 Z3 ;Withdraw
M82 ;E absolute
G92 E0 ;E reset
G1 F6000 ;Set feedrate

;Finish Start Gcode for Dagoma DiscoEasy 200

G92 E0
G92 E0
G1 F3000 E-3.5
;LAYER_COUNT:26
;LAYER:0
M107
G0 F1285.7 X85.77 Y11.567 Z0.26
;TYPE:SKIRT
G1 F3000 E0
G1 F900 X86.146 Y10.936 E0.02811
G1 X86.465 Y10.48 E0.04941
G1 X86.845 Y10.074 E0.07069
G1 X87.28 Y9.727 E0.09198
G1 X87.76 Y9.445 E0.11329
G1 X88.275 Y9.235 E0.13457
G1 X88.815 Y9.102 E0.15586
G1 X89.438 Y9.045 E0.1798
G1 X90.465 Y9.036 E0.2191
G1 X190.586 Y10.024 E4.05087
G1 X191.283 Y10.04 E4.07755
G1 X191.837 Y10.093 E4.09885
G1 X192.378 Y10.224 E4.12015
G1 X192.894 Y10.432 E4.14144
G1 X193.375 Y10.711 E4.16272
G1 X193.811 Y11.056 E4.184
G1 X194.194 Y11.461 E4.20533
G1 X194.514 Y11.916 E4.22662
G1 X194.766 Y12.412 E4.24791
G1 X194.944 Y12.939 E4.2692
G1 X195.045 Y13.486 E4.29049
G1 X195.067 Y14.042 E4.31178
G1 X195.009 Y14.595 E4.33306
G1 X194.872 Y15.135 E4.35438
G1 X194.616 Y15.732 E4.37924
G1 X194.361 Y16.198 E4.39957
G1 X94.902 Y188.467 E12.0121
G1 X94.544 Y189.07 E12.03893
G1 X94.226 Y189.527 E12.06024
G1 X93.847 Y189.934 E12.08152
G1 X93.412 Y190.282 E12.10284
G1 X92.933 Y190.564 E12.12411
G1 X92.418 Y190.775 E12.14541
G1 X91.878 Y190.909 E12.16671
G1 X91.324 Y190.965 E12.18801
G1 X90.769 Y190.942 E12.20927
G1 X90.222 Y190.838 E12.23058
G1 X89.695 Y190.658 E12.25189
G1 X89.2 Y190.404 E12.27318
G1 X88.747 Y190.082 E12.29445
G1 X88.344 Y189.698 E12.31576
G1 X87.941 Y189.169 E12.34121
G1 X87.638 Y188.68 E12.36322
G1 X36.462 Y102.023 E16.21467
G1 X36.127 Y101.437 E16.2405
G1 X35.886 Y100.936 E16.26178
G1 X35.72 Y100.405 E16.28307
G1 X35.631 Y99.855 E16.30439
G1 X35.622 Y99.299 E16.32567
G1 X35.693 Y98.747 E16.34697
G1 X35.842 Y98.211 E16.36826
G1 X36.098 Y97.643 E16.3921
G1 X36.618 Y96.701 E16.43328
G1 X85.77 Y11.567 E20.19533
G0 F1285.7 X86.071 Y11.747
G1 F900 X86.447 Y11.116 E20.22344
G1 X86.752 Y10.681 E20.24378
G1 X87.119 Y10.298 E20.26408
G1 X87.539 Y9.974 E20.28438
G1 X88.003 Y9.717 E20.30467
G1 X88.501 Y9.532 E20.32501
G1 X89.02 Y9.424 E20.34529
G1 X89.442 Y9.395 E20.36148
G1 X90.462 Y9.386 E20.40052
G1 X190.578 Y10.374 E24.2321
G1 X191.275 Y10.39 E24.25878
G1 X191.803 Y10.442 E24.27908
G1 X192.317 Y10.573 E24.29938
G1 X192.806 Y10.779 E24.31969
G1 X193.258 Y11.057 E24.33999
G1 X193.664 Y11.399 E24.36031
G1 X194.013 Y11.798 E24.3806
G1 X194.299 Y12.246 E24.40094
G1 X194.514 Y12.731 E24.42124
G1 X194.654 Y13.242 E24.44151
G1 X194.716 Y13.77 E24.46186
G1 X194.698 Y14.3 E24.48215
G1 X194.6 Y14.821 E24.50244
G1 X194.425 Y15.322 E24.52275
G1 X194.196 Y15.776 E24.54221
G1 X194.058 Y16.023 E24.55304
G1 X94.601 Y188.289 E32.16543
G1 X94.243 Y188.892 E32.19227
G1 X93.939 Y189.326 E32.21254
G1 X93.572 Y189.71 E32.23287
G1 X93.153 Y190.035 E32.25317
G1 X92.689 Y190.293 E32.27348
G1 X92.192 Y190.478 E32.29378
G1 X91.672 Y190.587 E32.31411
G1 X91.142 Y190.616 E32.33442
G1 X90.614 Y190.566 E32.35472
G1 X90.099 Y190.437 E32.37504
G1 X89.61 Y190.232 E32.39533
G1 X89.157 Y189.956 E32.41563
G1 X88.75 Y189.615 E32.43595
G1 X88.399 Y189.217 E32.45626
G1 X88.102 Y188.771 E32.47677
G1 X87.926 Y188.479 E32.48981
G1 X36.766 Y101.849 E36.34006
G1 X36.431 Y101.263 E36.36589
G1 X36.203 Y100.784 E36.38619
G1 X36.049 Y100.276 E36.40651
G1 X35.974 Y99.751 E36.4268
G1 X35.978 Y99.22 E36.44712
G1 X36.062 Y98.696 E36.46743
G1 X36.224 Y98.191 E36.48773
G1 X36.404 Y97.812 E36.50379
G1 X36.921 Y96.876 E36.54471
G1 X86.071 Y11.747 E40.30656
G0 F1285.7 X86.372 Y11.926
G1 F900 X86.748 Y11.295 E40.33467
G1 X87.039 Y10.884 E40.35394
G1 X87.391 Y10.524 E40.37321
G1 X87.796 Y10.225 E40.39247
G1 X88.244 Y9.994 E40.41176
G1 X88.722 Y9.836 E40.43103
G1 X89.445 Y9.745 E40.45892
G1 X90.458 Y9.736 E40.49769
G1 X190.57 Y10.724 E44.32911
G1 X191.267 Y10.74 E44.35579
G1 X191.768 Y10.791 E44.37506
G1 X192.254 Y10.921 E44.39432
G1 X192.714 Y11.127 E44.4136
G1 X193.136 Y11.402 E44.43288
G1 X193.509 Y11.741 E44.45217
G1 X193.823 Y12.134 E44.47142
G1 X194.071 Y12.572 E44.49068
G1 X194.247 Y13.044 E44.50996
G1 X194.347 Y13.538 E44.52925
G1 X194.366 Y14.041 E44.54851
G1 X194.307 Y14.541 E44.56778
G1 X194.168 Y15.025 E44.58705
G1 X193.887 Y15.612 E44.61196
G1 X193.755 Y15.848 E44.62231
G1 X94.3 Y188.11 E52.23453
G1 X93.942 Y188.713 E52.26136
G1 X93.651 Y189.124 E52.28063
G1 X93.299 Y189.484 E52.2999
G1 X92.895 Y189.784 E52.31916
G1 X92.448 Y190.016 E52.33843
G1 X91.97 Y190.175 E52.35771
G1 X91.473 Y190.256 E52.37698
G1 X90.97 Y190.258 E52.39623
G1 X90.472 Y190.18 E52.41552
G1 X89.993 Y190.024 E52.4348
G1 X89.545 Y189.794 E52.45407
G1 X89.139 Y189.497 E52.47333
G1 X88.785 Y189.139 E52.49259
G1 X88.398 Y188.583 E52.51852
G1 X88.227 Y188.301 E52.53114
G1 X37.07 Y101.676 E56.38116
G1 X36.735 Y101.09 E56.40699
G1 X36.52 Y100.634 E56.42629
G1 X36.38 Y100.15 E56.44557
G1 X36.319 Y99.65 E56.46484
G1 X36.337 Y99.147 E56.48411
G1 X36.435 Y98.653 E56.50338
G1 X36.711 Y97.981 E56.53118
G1 X37.224 Y97.051 E56.57183
G1 X86.372 Y11.926 E60.33351
G1 F3000 E56.83351
;MESH:support_half_hex_33.stl
G0 F1285.7 X88.762 Y12.857
G0 X89.784 Y13.447
G0 X190.01 Y14.518
G0 X190.01 Y14.421
;TYPE:WALL-INNER
G1 F3000 E60.33351
G1 F900 X190.307 Y14.422 E60.34487
G1 X190.158 Y14.68 E60.35134
G1 X91.355 Y185.812 E67.91363
G1 X91.206 Y186.07 E67.92504
G1 X91.055 Y185.814 E67.93149
G1 X91.054 Y185.813 E67.93154
G1 X40.081 Y99.501 E71.76767
G1 X89.775 Y13.43 E75.57115
G1 X190.009 Y14.42 E79.40725
G1 X190.01 Y14.421 E79.4073
G0 F1285.7 X190.57 Y14.101
;TYPE:WALL-OUTER
G1 F900 X190.867 Y14.102 E79.41867
G1 X190.718 Y14.36 E79.42513
G1 X91.358 Y186.456 E87.03003
G1 X91.209 Y186.714 E87.04144
G1 X91.058 Y186.458 E87.04789
G1 X91.057 Y186.457 E87.04794
G1 X39.705 Y99.503 E90.9126
G1 X89.589 Y13.103 E94.73062
G1 X190.569 Y14.1 E98.59527
G1 X190.57 Y14.101 E98.59532
G0 F1285.7 X190.77 Y14.101
G0 X190.221 Y14.471
G0 X189.721 Y14.756
;TYPE:SKIN
G1 F900 X91.202 Y185.396 E106.13587
G1 X40.475 Y99.499 E109.95354
G1 X89.971 Y13.772 E113.74183
G1 X189.721 Y14.756 E117.5594
G0 F1285.7 X189.337 Y15.105
G1 F900 X189.138 Y14.907 E117.57014
G0 F1285.7 X188.638 Y14.902
G1 F900 X189.156 Y15.419 E117.59815
G0 F1285.7 X188.974 Y15.733
G1 F900 X188.138 Y14.897 E117.64339
G0 F1285.7 X187.638 Y14.892
G1 F900 X188.793 Y16.047 E117.7059
G0 F1285.7 X188.612 Y16.361
G1 F900 X187.138 Y14.887 E117.78568
G0 F1285.7 X186.638 Y14.882
G1 F900 X188.431 Y16.674 E117.88269
G0 F1285.7 X188.25 Y16.988
G1 F900 X186.138 Y14.877 E117.99697
G0 F1285.7 X185.638 Y14.872
G1 F900 X188.068 Y17.302 E118.12848
G0 F1285.7 X187.887 Y17.616
G1 F900 X185.138 Y14.867 E118.27726
G0 F1285.7 X184.639 Y14.862
G1 F900 X187.706 Y17.93 E118.44328
G0 F1285.7 X187.525 Y18.244
G1 F900 X184.139 Y14.857 E118.62656
G0 F1285.7 X183.639 Y14.852
G1 F900 X187.344 Y18.558 E118.82711
G0 F1285.7 X187.162 Y18.871
G1 F900 X183.139 Y14.848 E119.04484
G0 F1285.7 X182.64 Y14.843
G1 F900 X186.981 Y19.185 E119.27981
G0 F1285.7 X186.8 Y19.499
G1 F900 X182.14 Y14.838 E119.53204
G0 F1285.7 X181.64 Y14.833
G1 F900 X186.619 Y19.813 E119.80153
G0 F1285.7 X186.437 Y20.126
G1 F900 X181.14 Y14.828 E120.08824
G0 F1285.7 X180.64 Y14.823
G1 F900 X186.256 Y20.44 E120.39221
G0 F1285.7 X186.075 Y20.754
G1 F900 X180.14 Y14.818 E120.71345
G0 F1285.7 X179.64 Y14.813
G1 F900 X185.894 Y21.068 E121.05195
G0 F1285.7 X185.713 Y21.382
G1 F900 X179.14 Y14.808 E121.40772
G0 F1285.7 X178.64 Y14.803
G1 F900 X185.532 Y21.695 E121.78072
G0 F1285.7 X185.351 Y22.009
G1 F900 X178.14 Y14.799 E122.17096
G0 F1285.7 X177.64 Y14.794
G1 F900 X185.17 Y22.323 E122.57847
G0 F1285.7 X184.989 Y22.637
G1 F900 X177.14 Y14.789 E123.00324
G0 F1285.7 X176.64 Y14.784
G1 F900 X184.807 Y22.95 E123.44522
G0 F1285.7 X184.626 Y23.264
G1 F900 X176.141 Y14.779 E123.90444
G0 F1285.7 X175.641 Y14.774
G1 F900 X184.445 Y23.578 E124.38093
G0 F1285.7 X184.264 Y23.892
G1 F900 X175.141 Y14.769 E124.87467
G0 F1285.7 X174.641 Y14.764
G1 F900 X184.083 Y24.206 E125.38569
G0 F1285.7 X183.901 Y24.519
G1 F900 X174.141 Y14.759 E125.91391
G0 F1285.7 X173.641 Y14.754
G1 F900 X183.72 Y24.833 E126.4594
G0 F1285.7 X183.539 Y25.147
G1 F900 X173.141 Y14.749 E127.02215
G0 F1285.7 X172.641 Y14.744
G1 F900 X183.358 Y25.461 E127.60217
G0 F1285.7 X183.177 Y25.775
G1 F900 X172.141 Y14.739 E128.19945
G0 F1285.7 X171.641 Y14.734
G1 F900 X182.995 Y26.088 E128.81394
G0 F1285.7 X182.814 Y26.402
G1 F900 X171.141 Y14.729 E129.4457
G0 F1285.7 X170.641 Y14.724
G1 F900 X182.633 Y26.716 E130.09472
G0 F1285.7 X182.452 Y27.03
G1 F900 X170.141 Y14.719 E130.76101
G0 F1285.7 X169.641 Y14.714
G1 F900 X182.27 Y27.343 E131.44451
G0 F1285.7 X182.089 Y27.657
G1 F900 X169.142 Y14.709 E132.14524
G0 F1285.7 X168.642 Y14.704
G1 F900 X181.908 Y27.971 E132.86324
G0 F1285.7 X181.727 Y28.285
G1 F900 X168.142 Y14.7 E133.59848
G0 F1285.7 X167.642 Y14.695
G1 F900 X181.546 Y28.599 E134.35098
G0 F1285.7 X181.365 Y28.912
G1 F900 X167.142 Y14.69 E135.12072
G0 F1285.7 X166.642 Y14.685
G1 F900 X181.184 Y29.226 E135.90773
G0 F1285.7 X181.003 Y29.54
G1 F900 X166.142 Y14.68 E136.712
G0 F1285.7 X165.643 Y14.676
G1 F900 X180.822 Y29.854 E137.53348
G0 F1285.7 X180.64 Y30.168
G1 F900 X165.143 Y14.671 E138.37219
G0 F1285.7 X164.643 Y14.666
G1 F900 X180.459 Y30.481 E139.22815
G0 F1285.7 X180.278 Y30.795
G1 F900 X164.143 Y14.661 E140.10137
G0 F1285.7 X163.643 Y14.656
G1 F900 X180.097 Y31.109 E140.99185
G0 F1285.7 X179.916 Y31.423
G1 F900 X163.143 Y14.651 E141.8996
G0 F1285.7 X162.643 Y14.646
G1 F900 X179.734 Y31.737 E142.82459
G0 F1285.7 X179.553 Y32.051
G1 F900 X162.143 Y14.641 E143.76684
G0 F1285.7 X161.643 Y14.636
G1 F900 X179.372 Y32.364 E144.72633
G0 F1285.7 X179.191 Y32.678
G1 F900 X161.143 Y14.631 E145.70308
G0 F1285.7 X160.644 Y14.626
G1 F900 X179.01 Y32.992 E146.69707
G0 F1285.7 X178.828 Y33.306
G1 F900 X160.144 Y14.621 E147.7083
G0 F1285.7 X159.644 Y14.616
G1 F900 X178.647 Y33.62 E148.7368
G0 F1285.7 X178.466 Y33.934
G1 F900 X159.144 Y14.611 E149.78256
G0 F1285.7 X158.644 Y14.606
G1 F900 X178.285 Y34.248 E150.84558
G0 F1285.7 X178.103 Y34.561
G1 F900 X158.144 Y14.601 E151.92581
G0 F1285.7 X157.644 Y14.596
G1 F900 X177.922 Y34.875 E153.02331
G0 F1285.7 X177.741 Y35.189
G1 F900 X157.144 Y14.591 E154.13807
G0 F1285.7 X156.644 Y14.586
G1 F900 X177.56 Y35.503 E155.2701
G0 F1285.7 X177.379 Y35.817
G1 F900 X156.144 Y14.581 E156.41939
G0 F1285.7 X155.644 Y14.577
G1 F900 X177.198 Y36.13 E157.5859
G0 F1285.7 X177.017 Y36.444
G1 F900 X155.144 Y14.572 E158.76966
G0 F1285.7 X154.644 Y14.567
G1 F900 X176.836 Y36.758 E159.9707
G0 F1285.7 X176.655 Y37.072
G1 F900 X154.145 Y14.562 E161.18897
G0 F1285.7 X153.645 Y14.557
G1 F900 X176.473 Y37.385 E162.42445
G0 F1285.7 X176.292 Y37.699
G1 F900 X153.145 Y14.552 E163.67719
G0 F1285.7 X152.645 Y14.547
G1 F900 X176.111 Y38.013 E164.9472
G0 F1285.7 X175.93 Y38.327
G1 F900 X152.145 Y14.542 E166.23448
G0 F1285.7 X151.645 Y14.537
G1 F900 X175.749 Y38.641 E167.53902
G0 F1285.7 X175.567 Y38.954
G1 F900 X151.145 Y14.532 E168.86076
G0 F1285.7 X150.645 Y14.527
G1 F900 X175.386 Y39.268 E170.19978
G0 F1285.7 X175.205 Y39.582
G1 F900 X150.145 Y14.522 E171.55606
G0 F1285.7 X149.645 Y14.517
G1 F900 X175.024 Y39.896 E172.9296
G0 F1285.7 X174.843 Y40.21
G1 F900 X149.145 Y14.512 E174.32041
G0 F1285.7 X148.645 Y14.507
G1 F900 X174.661 Y40.523 E175.72843
G0 F1285.7 X174.48 Y40.837
G1 F900 X148.146 Y14.503 E177.15366
G0 F1285.7 X147.646 Y14.498
G1 F900 X174.299 Y41.151 E178.59615
G0 F1285.7 X174.118 Y41.465
G1 F900 X147.146 Y14.493 E180.05591
G0 F1285.7 X146.646 Y14.488
G1 F900 X173.936 Y41.778 E181.53288
G0 F1285.7 X173.755 Y42.092
G1 F900 X146.146 Y14.483 E183.02712
G0 F1285.7 X145.647 Y14.478
G1 F900 X173.574 Y42.406 E184.53859
G0 F1285.7 X173.393 Y42.72
G1 F900 X145.147 Y14.473 E186.06732
G0 F1285.7 X144.647 Y14.468
G1 F900 X173.212 Y43.034 E187.61333
G0 F1285.7 X173.031 Y43.347
G1 F900 X144.147 Y14.463 E189.17657
G0 F1285.7 X143.647 Y14.458
G1 F900 X172.85 Y43.661 E190.75707
G0 F1285.7 X172.669 Y43.975
G1 F900 X143.147 Y14.453 E192.35484
G0 F1285.7 X142.647 Y14.449
G1 F900 X172.488 Y44.289 E193.96984
G0 F1285.7 X172.306 Y44.602
G1 F900 X142.147 Y14.444 E195.60206
G0 F1285.7 X141.647 Y14.439
G1 F900 X172.125 Y44.916 E197.25154
G0 F1285.7 X171.944 Y45.23
G1 F900 X141.147 Y14.434 E198.91829
G0 F1285.7 X140.647 Y14.429
G1 F900 X171.763 Y45.544 E200.6023
G0 F1285.7 X171.582 Y45.858
G1 F900 X140.147 Y14.424 E202.30357
G0 F1285.7 X139.647 Y14.419
G1 F900 X171.4 Y46.171 E204.02206
G0 F1285.7 X171.219 Y46.485
G1 F900 X139.148 Y14.414 E205.75778
G0 F1285.7 X138.648 Y14.409
G1 F900 X171.038 Y46.799 E207.51077
G0 F1285.7 X170.857 Y47.113
G1 F900 X138.148 Y14.404 E209.28102
G0 F1285.7 X137.648 Y14.399
G1 F900 X170.676 Y47.427 E211.06854
G0 F1285.7 X170.494 Y47.741
G1 F900 X137.148 Y14.394 E212.87329
G0 F1285.7 X136.648 Y14.389
G1 F900 X170.313 Y48.054 E214.69529
G0 F1285.7 X170.132 Y48.368
G1 F900 X136.148 Y14.384 E216.53454
G0 F1285.7 X135.648 Y14.379
G1 F900 X169.951 Y48.682 E218.39107
G0 F1285.7 X169.769 Y48.996
G1 F900 X135.148 Y14.374 E220.26483
G0 F1285.7 X134.648 Y14.369
G1 F900 X169.588 Y49.31 E222.15585
G0 F1285.7 X169.407 Y49.624
G1 F900 X134.148 Y14.364 E224.06414
G0 F1285.7 X133.648 Y14.359
G1 F900 X169.226 Y49.938 E225.98969
G0 F1285.7 X169.045 Y50.251
G1 F900 X133.148 Y14.354 E227.93248
G0 F1285.7 X132.648 Y14.35
G1 F900 X168.864 Y50.565 E229.89251
G0 F1285.7 X168.683 Y50.879
G1 F900 X132.149 Y14.345 E231.86978
G0 F1285.7 X131.649 Y14.34
G1 F900 X168.502 Y51.193 E233.86431
G0 F1285.7 X168.321 Y51.507
G1 F900 X131.149 Y14.335 E235.87611
G0 F1285.7 X130.649 Y14.33
G1 F900 X168.139 Y51.82 E237.90511
G0 F1285.7 X167.958 Y52.134
G1 F900 X130.15 Y14.325 E239.95136
G0 F1285.7 X129.65 Y14.321
G1 F900 X167.777 Y52.448 E242.01484
G0 F1285.7 X167.596 Y52.762
G1 F900 X129.15 Y14.316 E244.09559
G0 F1285.7 X128.65 Y14.311
G1 F900 X167.415 Y53.076 E246.1936
G0 F1285.7 X167.233 Y53.389
G1 F900 X128.15 Y14.306 E248.30882
G0 F1285.7 X127.65 Y14.301
G1 F900 X167.052 Y53.703 E250.44131
G0 F1285.7 X166.871 Y54.017
G1 F900 X127.15 Y14.296 E252.59106
G0 F1285.7 X126.65 Y14.291
G1 F900 X166.69 Y54.331 E254.75807
G0 F1285.7 X166.509 Y54.645
G1 F900 X126.15 Y14.286 E256.94235
G0 F1285.7 X125.65 Y14.281
G1 F900 X166.327 Y54.958 E259.14384
G0 F1285.7 X166.146 Y55.272
G1 F900 X125.15 Y14.276 E261.3626
G0 F1285.7 X124.65 Y14.271
G1 F900 X165.965 Y55.586 E263.59862
G0 F1285.7 X165.784 Y55.9
G1 F900 X124.15 Y14.266 E265.85191
G0 F1285.7 X123.651 Y14.261
G1 F900 X165.602 Y56.213 E268.12237
G0 F1285.7 X165.421 Y56.527
G1 F900 X123.151 Y14.256 E270.41011
G0 F1285.7 X122.651 Y14.251
G1 F900 X165.24 Y56.841 E272.71511
G0 F1285.7 X165.059 Y57.155
G1 F900 X122.151 Y14.246 E275.03737
G0 F1285.7 X121.651 Y14.241
G1 F900 X164.878 Y57.469 E277.3769
G0 F1285.7 X164.697 Y57.782
G1 F900 X121.151 Y14.236 E279.73366
G0 F1285.7 X120.651 Y14.231
G1 F900 X164.516 Y58.096 E282.10769
G0 F1285.7 X164.335 Y58.41
G1 F900 X120.151 Y14.226 E284.49899
G0 F1285.7 X119.651 Y14.222
G1 F900 X164.154 Y58.724 E286.90752
G0 F1285.7 X163.972 Y59.037
G1 F900 X119.151 Y14.217 E289.33326
G0 F1285.7 X118.651 Y14.212
G1 F900 X163.791 Y59.351 E291.77627
G0 F1285.7 X163.61 Y59.665
G1 F900 X118.151 Y14.207 E294.23654
G0 F1285.7 X117.651 Y14.202
G1 F900 X163.429 Y59.979 E296.71408
G0 F1285.7 X163.248 Y60.293
G1 F900 X117.152 Y14.197 E299.20885
G0 F1285.7 X116.652 Y14.192
G1 F900 X163.066 Y60.606 E301.72083
G0 F1285.7 X162.885 Y60.92
G1 F900 X116.152 Y14.187 E304.25008
G0 F1285.7 X115.652 Y14.182
G1 F900 X162.704 Y61.234 E306.7966
G0 F1285.7 X162.523 Y61.548
