;FLAVOR:Marlin
;TIME:11736
;Filament used: 14.2403m
;Layer height: 0.3
;MINX:35.752
;MINY:11.491
;MINZ:0.26
;MAXX:193.903
;MAXY:192.678
;MAXZ:7.76
;Generated with Cura_SteamEngine 4.9.1
M82 ;absolute extrusion mode
;Begin Start Gcode for Dagoma DiscoEasy 200
;Sliced: 07-07-2021 20:02:27
;Initial extruder: 0

G90 ;Absolute positioning
M106 S255 ;Fan on full
G28 X Y ;Home stop X Y
G1 X100 ;Centre back during cooldown in case of oozing
M109 R90 ;Cooldown in case too hot
G28 ;Centre
G29 ;Auto-level
M104 S205 ;Pre-heat
M107 ;Fan off
G0 X100 Y5 Z0.5 ;Front centre for degunk
M109 S205 ;Wait for initial temp
M83 ;E Relative
G1 E10 F200 ;Degunk
G1 E-3 F5000 ;Retract
G0 Z3 ;Withdraw
M82 ;E absolute
G92 E0 ;E reset
G1 F6000 ;Set feedrate

;Finish Start Gcode for Dagoma DiscoEasy 200

G92 E0
G92 E0
G1 F3000 E-3.5
;LAYER_COUNT:26
;LAYER:0
M107
G0 F1285.7 X85.926 Y13.99 Z0.26
;TYPE:SKIRT
G1 F3000 E0
G1 F900 X86.28 Y13.395 E0.0265
G1 X86.598 Y12.938 E0.0478
G1 X86.978 Y12.532 E0.06908
G1 X87.413 Y12.184 E0.0904
G1 X87.892 Y11.902 E0.11167
G1 X88.408 Y11.692 E0.13299
G1 X88.948 Y11.558 E0.15429
G1 X89.559 Y11.501 E0.17777
G1 X90.383 Y11.491 E0.20931
G1 X189.441 Y11.741 E4.00022
G1 X190.094 Y11.752 E4.02521
G1 X190.648 Y11.801 E4.0465
G1 X191.19 Y11.929 E4.06781
G1 X191.707 Y12.133 E4.08908
G1 X192.19 Y12.41 E4.11039
G1 X192.629 Y12.752 E4.13169
G1 X193.013 Y13.154 E4.15296
G1 X193.337 Y13.607 E4.17428
G1 X193.592 Y14.102 E4.19558
G1 X193.773 Y14.628 E4.21687
G1 X193.878 Y15.174 E4.23815
G1 X193.903 Y15.73 E4.25945
G1 X193.848 Y16.284 E4.28076
G1 X193.714 Y16.824 E4.30205
G1 X193.417 Y17.506 E4.33052
G1 X193.112 Y18.055 E4.35455
G1 X93.734 Y190.183 E11.96086
G1 X93.375 Y190.786 E11.98771
G1 X93.056 Y191.243 E12.00904
G1 X92.676 Y191.649 E12.03032
G1 X92.241 Y191.996 E12.05162
G1 X91.762 Y192.278 E12.07289
G1 X91.246 Y192.488 E12.09421
G1 X90.706 Y192.622 E12.1155
G1 X90.153 Y192.678 E12.13677
G1 X89.597 Y192.653 E12.15807
G1 X89.05 Y192.549 E12.17938
G1 X88.524 Y192.368 E12.20067
G1 X88.029 Y192.113 E12.22198
G1 X87.576 Y191.791 E12.24325
G1 X87.174 Y191.406 E12.26455
G1 X86.72 Y190.794 E12.29371
G1 X86.333 Y190.147 E12.32256
G1 X36.609 Y104.52 E16.11191
G1 X36.243 Y103.87 E16.14046
G1 X36.006 Y103.367 E16.16174
G1 X35.843 Y102.835 E16.18303
G1 X35.758 Y102.285 E16.20433
G1 X35.752 Y101.729 E16.22561
G1 X35.827 Y101.177 E16.24693
G1 X35.979 Y100.642 E16.26821
G1 X36.235 Y100.083 E16.29174
G1 X36.645 Y99.348 E16.32395
G1 X85.926 Y13.99 E20.0959
G0 F1285.7 X86.227 Y14.169
G1 F900 X86.581 Y13.574 E20.12239
G1 X86.886 Y13.139 E20.14273
G1 X87.252 Y12.756 E20.163
G1 X87.672 Y12.431 E20.18332
G1 X88.136 Y12.174 E20.20362
G1 X88.634 Y11.989 E20.22395
G1 X89.153 Y11.881 E20.24424
G1 X89.564 Y11.851 E20.26001
G1 X90.382 Y11.841 E20.29132
G1 X189.435 Y12.091 E24.08204
G1 X190.088 Y12.102 E24.10703
G1 X190.617 Y12.15 E24.12736
G1 X191.132 Y12.278 E24.14767
G1 X191.622 Y12.481 E24.16797
G1 X192.076 Y12.756 E24.18828
G1 X192.484 Y13.096 E24.20861
G1 X192.836 Y13.493 E24.22891
G1 X193.124 Y13.939 E24.24923
G1 X193.342 Y14.422 E24.26951
G1 X193.485 Y14.933 E24.28981
G1 X193.55 Y15.46 E24.31014
G1 X193.535 Y15.99 E24.33043
G1 X193.441 Y16.513 E24.35076
G1 X193.269 Y17.015 E24.37107
G1 X193.111 Y17.336 E24.38476
G1 X192.809 Y17.88 E24.40857
G1 X93.433 Y190.004 E32.01471
G1 X93.074 Y190.607 E32.04156
G1 X92.769 Y191.041 E32.06186
G1 X92.402 Y191.425 E32.08219
G1 X91.982 Y191.749 E32.10249
G1 X91.518 Y192.007 E32.12281
G1 X91.02 Y192.191 E32.14313
G1 X90.501 Y192.299 E32.16341
G1 X89.971 Y192.328 E32.18373
G1 X89.443 Y192.277 E32.20403
G1 X88.928 Y192.147 E32.22436
G1 X88.439 Y191.942 E32.24465
G1 X87.986 Y191.665 E32.26497
G1 X87.58 Y191.324 E32.28526
G1 X87.23 Y190.925 E32.30557
G1 X87.021 Y190.615 E32.31988
G1 X86.636 Y189.971 E32.34859
G1 X36.914 Y104.349 E36.13774
G1 X36.548 Y103.699 E36.16629
G1 X36.324 Y103.218 E36.18659
G1 X36.174 Y102.709 E36.2069
G1 X36.102 Y102.183 E36.22722
G1 X36.109 Y101.652 E36.24754
G1 X36.197 Y101.129 E36.26784
G1 X36.361 Y100.625 E36.28812
G1 X36.541 Y100.254 E36.3039
G1 X36.948 Y99.523 E36.33592
G1 X86.227 Y14.169 E40.1077
G0 F1285.7 X86.527 Y14.348
G1 F900 X86.881 Y13.753 E40.13419
G1 X87.172 Y13.342 E40.15346
G1 X87.525 Y12.982 E40.17276
G1 X87.93 Y12.682 E40.19205
G1 X88.377 Y12.45 E40.21132
G1 X88.855 Y12.292 E40.23059
G1 X89.568 Y12.201 E40.25809
G1 X90.381 Y12.191 E40.28921
G1 X189.429 Y12.44 E44.07974
G1 X190.082 Y12.451 E44.10473
G1 X190.584 Y12.5 E44.12404
G1 X191.071 Y12.627 E44.1433
G1 X191.532 Y12.829 E44.16256
G1 X191.955 Y13.102 E44.18183
G1 X192.33 Y13.439 E44.20112
G1 X192.647 Y13.83 E44.22038
G1 X192.898 Y14.266 E44.23964
G1 X193.077 Y14.737 E44.25892
G1 X193.179 Y15.23 E44.27819
G1 X193.202 Y15.733 E44.29746
G1 X193.145 Y16.234 E44.31675
G1 X193.01 Y16.719 E44.33602
G1 X192.805 Y17.166 E44.35484
G1 X192.506 Y17.705 E44.37843
G1 X93.132 Y189.825 E51.98439
G1 X92.773 Y190.428 E52.01125
G1 X92.482 Y190.839 E52.03052
G1 X92.13 Y191.199 E52.04979
G1 X91.725 Y191.498 E52.06905
G1 X91.278 Y191.73 E52.08833
G1 X90.799 Y191.888 E52.10763
G1 X90.302 Y191.969 E52.1269
G1 X89.799 Y191.969 E52.14615
G1 X89.301 Y191.891 E52.16544
G1 X88.823 Y191.734 E52.18469
G1 X88.375 Y191.504 E52.20397
G1 X87.969 Y191.206 E52.22324
G1 X87.615 Y190.848 E52.24251
G1 X87.321 Y190.435 E52.26191
G1 X86.938 Y189.795 E52.29045
G1 X37.219 Y104.177 E56.07941
G1 X36.853 Y103.527 E56.10796
G1 X36.642 Y103.07 E56.12722
G1 X36.505 Y102.585 E56.14651
G1 X36.447 Y102.085 E56.16577
G1 X36.469 Y101.582 E56.18504
G1 X36.57 Y101.088 E56.20433
G1 X36.846 Y100.424 E56.23185
G1 X37.251 Y99.698 E56.26367
G1 X86.527 Y14.348 E60.03525
G1 F3000 E56.53525
;MESH:support_half_hex_12.stl
G0 F1285.7 X88.721 Y15.617
G0 X89.73 Y16.198
G0 X90.108 Y187.463
G0 X90.194 Y187.514
;TYPE:WALL-INNER
G1 F3000 E60.03525
G1 F900 X90.043 Y187.775 E60.04679
G1 X89.892 Y187.514 E60.05333
G1 X40.213 Y101.966 E63.8392
G1 X89.908 Y15.889 E67.6429
G1 X188.835 Y16.14 E71.4288
G1 X188.836 Y16.14 E71.42884
G1 X189.137 Y16.14 E71.44036
G1 X188.986 Y16.401 E71.4469
G1 X90.194 Y187.514 E79.00836
G0 F1285.7 X90.195 Y188.162
;TYPE:WALL-OUTER
G1 F900 X90.044 Y188.423 E79.0199
G1 X89.893 Y188.162 E79.02643
G1 X39.838 Y101.967 E82.84094
G1 X89.721 Y15.564 E86.65904
G1 X189.397 Y15.816 E90.47361
G1 X189.398 Y15.816 E90.47364
G1 X189.699 Y15.816 E90.48516
G1 X189.548 Y16.077 E90.49171
G1 X90.195 Y188.162 E98.09611
G0 F1285.7 X90.095 Y188.335
G0 X90.043 Y187.675
G0 X90.042 Y187.095
;TYPE:SKIN
G1 F900 X40.606 Y101.965 E101.86348
G1 X90.104 Y16.229 E105.65211
G1 X188.548 Y16.478 E109.41952
G1 X90.042 Y187.095 E116.95907
G0 F1285.7 X90.121 Y186.641
G1 F900 X89.736 Y186.256 E116.9799
G0 F1285.7 X90.302 Y186.327
G1 F900 X89.051 Y185.076 E117.04761
G1 X88.989 Y185.014
G0 F1285.7 X88.365 Y183.895
G1 F900 X90.483 Y186.013 E117.16224
G0 F1285.7 X90.665 Y185.7
G1 F900 X87.68 Y182.715 E117.32379
G1 X87.618 Y182.653
G0 F1285.7 X86.994 Y181.534
G1 F900 X90.846 Y185.386 E117.53226
G0 F1285.7 X91.027 Y185.072
G1 F900 X86.309 Y180.354 E117.78761
G1 X86.247 Y180.292
G0 F1285.7 X85.623 Y179.173
G1 F900 X91.208 Y184.758 E118.08988
G0 F1285.7 X91.39 Y184.445
G1 F900 X84.937 Y177.992 E118.43912
G1 X84.875 Y177.93
G0 F1285.7 X84.252 Y176.812
G1 F900 X91.571 Y184.131 E118.83523
G0 F1285.7 X91.752 Y183.817
G1 F900 X83.566 Y175.631 E119.27827
G1 X83.504 Y175.569
G0 F1285.7 X82.881 Y174.451
G1 F900 X91.933 Y183.503 E119.76818
G0 F1285.7 X92.114 Y183.189
G1 F900 X82.195 Y173.27 E120.305
G1 X82.133 Y173.208
G0 F1285.7 X81.51 Y172.09
G1 F900 X92.295 Y182.876 E120.88873
G0 F1285.7 X92.476 Y182.562
G1 F900 X80.824 Y170.909 E121.51938
G1 X80.762 Y170.847
G0 F1285.7 X80.139 Y169.729
G1 F900 X92.657 Y182.248 E122.1969
G0 F1285.7 X92.838 Y181.934
G1 F900 X79.453 Y168.548 E122.92134
G1 X79.391 Y168.486
G0 F1285.7 X78.768 Y167.368
G1 F900 X93.019 Y181.62 E123.69264
G0 F1285.7 X93.201 Y181.307
G1 F900 X78.082 Y166.187 E124.51093
G1 X78.02 Y166.125
G0 F1285.7 X77.397 Y165.007
G1 F900 X93.382 Y180.993 E125.37609
G0 F1285.7 X93.563 Y180.679
G1 F900 X76.711 Y163.826 E126.28817
G1 X76.649 Y163.764
G0 F1285.7 X76.025 Y162.646
G1 F900 X93.744 Y180.365 E127.24714
G0 F1285.7 X93.926 Y180.052
G1 F900 X75.34 Y161.465 E128.25307
G1 X75.278 Y161.403
G0 F1285.7 X74.654 Y160.285
G1 F900 X94.107 Y179.738 E129.30589
G0 F1285.7 X94.288 Y179.424
G1 F900 X73.969 Y159.104 E130.4056
G1 X73.907 Y159.042
G0 F1285.7 X73.283 Y157.924
G1 F900 X94.469 Y179.11 E131.55222
G0 F1285.7 X94.65 Y178.796
G1 F900 X72.597 Y156.743 E132.74575
G1 X72.535 Y156.681
G0 F1285.7 X71.912 Y155.563
G1 F900 X94.832 Y178.482 E133.98619
G0 F1285.7 X95.013 Y178.168
G1 F900 X71.226 Y154.382 E135.27354
G1 X71.164 Y154.32
G0 F1285.7 X70.541 Y153.202
G1 F900 X95.194 Y177.855 E136.60779
G0 F1285.7 X95.375 Y177.541
G1 F900 X69.855 Y152.021 E137.98897
G1 X69.793 Y151.959
G0 F1285.7 X69.169 Y150.84
G1 F900 X95.556 Y177.227 E139.41707
G0 F1285.7 X95.738 Y176.913
G1 F900 X68.484 Y149.66 E140.89206
G1 X68.422 Y149.598
G0 F1285.7 X67.798 Y148.479
G1 F900 X95.919 Y176.599 E142.41398
G0 F1285.7 X96.1 Y176.285
G1 F900 X67.113 Y147.299 E143.98276
G1 X67.051 Y147.237
G0 F1285.7 X66.427 Y146.118
G1 F900 X96.281 Y175.972 E145.5985
G0 F1285.7 X96.462 Y175.658
G1 F900 X65.742 Y144.938 E147.26111
G1 X65.68 Y144.876
G0 F1285.7 X65.056 Y143.757
G1 F900 X96.643 Y175.344 E148.97064
G0 F1285.7 X96.824 Y175.03
G1 F900 X64.371 Y142.577 E150.72703
G1 X64.309 Y142.515
G0 F1285.7 X63.685 Y141.396
G1 F900 X97.005 Y174.716 E152.53035
G0 F1285.7 X97.187 Y174.403
G1 F900 X63 Y140.216 E154.3806
G1 X62.938 Y140.154
G0 F1285.7 X62.314 Y139.035
G1 F900 X97.368 Y174.089 E156.27777
G0 F1285.7 X97.549 Y173.775
G1 F900 X61.629 Y137.855 E158.2218
G1 X61.567 Y137.793
G0 F1285.7 X60.943 Y136.674
G1 F900 X97.73 Y173.461 E160.21276
G0 F1285.7 X97.911 Y173.147
G1 F900 X60.258 Y135.494 E162.25059
G1 X60.196 Y135.432
G0 F1285.7 X59.572 Y134.313
G1 F900 X98.093 Y172.834 E164.33539
G0 F1285.7 X98.274 Y172.52
G1 F900 X58.887 Y133.133 E166.46707
G1 X58.825 Y133.071
G0 F1285.7 X58.201 Y131.952
G1 F900 X98.455 Y172.206 E168.64567
G0 F1285.7 X98.636 Y171.892
G1 F900 X57.516 Y130.772 E170.87113
G1 X57.454 Y130.71
G0 F1285.7 X56.83 Y129.591
G1 F900 X98.817 Y171.578 E173.14352
G0 F1285.7 X98.999 Y171.265
G1 F900 X56.144 Y128.411 E175.46286
G1 X56.082 Y128.349
G0 F1285.7 X55.459 Y127.23
G1 F900 X99.18 Y170.951 E177.8291
G0 F1285.7 X99.361 Y170.637
G1 F900 X54.773 Y126.05 E180.24223
G1 X54.711 Y125.988
G0 F1285.7 X54.088 Y124.869
G1 F900 X99.542 Y170.323 E182.70226
G0 F1285.7 X99.723 Y170.01
G1 F900 X53.402 Y123.688 E185.20924
G1 X53.34 Y123.626
G0 F1285.7 X52.716 Y122.508
G1 F900 X99.904 Y169.696 E187.76311
G0 F1285.7 X100.086 Y169.382
G1 F900 X52.031 Y121.327 E190.36391
G1 X51.969 Y121.265
G0 F1285.7 X51.345 Y120.147
G1 F900 X100.267 Y169.068 E193.01161
G0 F1285.7 X100.448 Y168.754
G1 F900 X50.659 Y118.966 E195.70622
G1 X50.597 Y118.904
G0 F1285.7 X49.974 Y117.786
G1 F900 X100.629 Y168.441 E198.44774
G0 F1285.7 X100.81 Y168.127
G1 F900 X49.288 Y116.605 E201.23617
G1 X49.226 Y116.543
G0 F1285.7 X48.603 Y115.425
G1 F900 X100.991 Y167.813 E204.07148
G0 F1285.7 X101.172 Y167.499
G1 F900 X47.917 Y114.244 E206.95371
G1 X47.855 Y114.182
G0 F1285.7 X47.232 Y113.064
G1 F900 X101.354 Y167.186 E209.88286
G0 F1285.7 X101.535 Y166.872
G1 F900 X46.546 Y111.883 E212.85893
G1 X46.484 Y111.821
G0 F1285.7 X45.861 Y110.703
G1 F900 X101.716 Y166.558 E215.88188
G0 F1285.7 X101.897 Y166.244
G1 F900 X45.175 Y109.522 E218.95174
G1 X45.113 Y109.46
G0 F1285.7 X44.49 Y108.342
G1 F900 X102.078 Y165.93 E222.06848
G0 F1285.7 X102.26 Y165.617
G1 F900 X43.804 Y107.161 E225.23219
G1 X43.742 Y107.099
G0 F1285.7 X43.119 Y105.981
G1 F900 X102.441 Y165.303 E228.44277
G0 F1285.7 X102.622 Y164.989
G1 F900 X42.433 Y104.8 E231.70028
G1 X42.371 Y104.738
G0 F1285.7 X41.748 Y103.62
G1 F900 X102.803 Y164.675 E235.00465
G0 F1285.7 X102.985 Y164.362
G1 F900 X41.062 Y102.439 E238.35601
G0 F1285.7 X40.894 Y101.776
G1 F900 X103.166 Y164.048 E241.72625
G0 F1285.7 X103.347 Y163.734
G1 F900 X41.075 Y101.462 E245.09649
G0 F1285.7 X41.256 Y101.148
G1 F900 X103.528 Y163.42 E248.46673
G0 F1285.7 X103.709 Y163.106
G1 F900 X41.437 Y100.834 E251.83697
G0 F1285.7 X41.618 Y100.52
G1 F900 X103.89 Y162.792 E255.20721
G0 F1285.7 X104.071 Y162.478
G1 F900 X41.8 Y100.207 E258.57739
G0 F1285.7 X41.981 Y99.893
G1 F900 X104.252 Y162.165 E261.9476
G0 F1285.7 X104.434 Y161.851
G1 F900 X42.162 Y99.579 E265.31784
G0 F1285.7 X42.343 Y99.265
G1 F900 X104.615 Y161.537 E268.68808
G0 F1285.7 X104.796 Y161.223
G1 F900 X42.524 Y98.951 E272.05832
G0 F1285.7 X42.706 Y98.638
G1 F900 X104.977 Y160.909 E275.42851
G0 F1285.7 X105.158 Y160.595
G1 F900 X42.887 Y98.324 E278.7987
G0 F1285.7 X43.068 Y98.01
G1 F900 X105.339 Y160.282 E282.16891
G0 F1285.7 X105.521 Y159.968
G1 F900 X43.249 Y97.696 E285.53915
G0 F1285.7 X43.431 Y97.383
G1 F900 X105.702 Y159.654 E288.90933
G0 F1285.7 X105.883 Y159.34
G1 F900 X43.612 Y97.069 E292.27952
G0 F1285.7 X43.793 Y96.755
G1 F900 X106.064 Y159.026 E295.64971
G0 F1285.7 X106.245 Y158.712
G1 F900 X43.974 Y96.441 E299.01989
G0 F1285.7 X44.155 Y96.127
G1 F900 X106.427 Y158.399 E302.39013
G0 F1285.7 X106.608 Y158.085
G1 F900 X44.337 Y95.814 E305.76032
G0 F1285.7 X44.518 Y95.5
G1 F900 X106.789 Y157.771 E309.1305
G0 F1285.7 X106.97 Y157.457
G1 F900 X44.699 Y95.186 E312.50069
G0 F1285.7 X44.88 Y94.872
G1 F900 X107.152 Y157.144 E315.87093
G0 F1285.7 X107.333 Y156.83
G1 F900 X45.061 Y94.558 E319.24117
G0 F1285.7 X45.242 Y94.245
G1 F900 X107.514 Y156.516 E322.61138
G0 F1285.7 X107.695 Y156.202
G1 F900 X45.423 Y93.931 E325.9816
G0 F1285.7 X45.604 Y93.617
G1 F900 X107.876 Y155.888 E329.35181
G0 F1285.7 X108.057 Y155.575
G1 F900 X45.785 Y93.303 E332.72205
G0 F1285.7 X45.967 Y92.99
G1 F900 X108.238 Y155.261 E336.09223
G0 F1285.7 X108.419 Y154.947
G1 F900 X46.148 Y92.676 E339.46242
G0 F1285.7 X46.329 Y92.362
G1 F900 X108.6 Y154.633 E342.83261
G0 F1285.7 X108.782 Y154.32
G1 F900 X46.51 Y92.048 E346.20285
G0 F1285.7 X46.691 Y91.734
G1 F900 X108.963 Y154.006 E349.57309
G0 F1285.7 X109.144 Y153.692
G1 F900 X46.873 Y91.421 E352.94327
G0 F1285.7 X47.054 Y91.107
G1 F900 X109.325 Y153.378 E356.31346
G0 F1285.7 X109.506 Y153.064
G1 F900 X47.235 Y90.793 E359.68364
G0 F1285.7 X47.416 Y90.479
G1 F900 X109.688 Y152.751 E363.05388
G0 F1285.7 X109.869 Y152.437
G1 F900 X47.597 Y90.165 E366.42412
G0 F1285.7 X47.779 Y89.852
G1 F900 X110.05 Y152.123 E369.79431
G0 F1285.7 X110.231 Y151.809
G1 F900 X47.96 Y89.538 E373.1645
G0 F1285.7 X48.141 Y89.224
G1 F900 X110.413 Y151.496 E376.53474
G0 F1285.7 X110.594 Y151.182
G1 F900 X48.322 Y88.91 E379.90498
G0 F1285.7 X48.503 Y88.596
G1 F900 X110.775 Y150.868 E383.27522
G0 F1285.7 X110.956 Y150.554
G1 F900 X48.685 Y88.282 E386.64543
G0 F1285.7 X48.866 Y87.969
G1 F900 X111.137 Y150.24 E390.01561
G0 F1285.7 X111.319 Y149.927
G1 F900 X49.047 Y87.655 E393.38585
G0 F1285.7 X49.228 Y87.341
G1 F900 X111.5 Y149.613 E396.75609
G0 F1285.7 X111.681 Y149.299
G1 F900 X49.409 Y87.027 E400.12633
G0 F1285.7 X49.59 Y86.713
G1 F900 X111.862 Y148.985 E403.49657
G0 F1285.7 X112.043 Y148.671
G1 F900 X49.771 Y86.399 E406.86681
G0 F1285.7 X49.952 Y86.086
G1 F900 X112.224 Y148.358 E410.23705
G0 F1285.7 X112.405 Y148.044
G1 F900 X50.134 Y85.772 E413.60727
G0 F1285.7 X50.315 Y85.458
G1 F900 X112.586 Y147.73 E416.97748
G0 F1285.7 X112.767 Y147.416
G1 F900 X50.496 Y85.144 E420.34769
G0 F1285.7 X50.677 Y84.83
G1 F900 X112.949 Y147.102 E423.71793
G0 F1285.7 X113.13 Y146.789
G1 F900 X50.858 Y84.516 E427.0882
G0 F1285.7 X51.04 Y84.203
G1 F900 X113.311 Y146.475 E430.45841
G0 F1285.7 X113.492 Y146.161
G1 F900 X51.221 Y83.889 E433.82863
G0 F1285.7 X51.402 Y83.575
G1 F900 X113.673 Y145.847 E437.19884
G0 F1285.7 X113.855 Y145.533
G1 F900 X51.583 Y83.261 E440.56908
G0 F1285.7 X51.764 Y82.947
G1 F900 X114.036 Y145.219 E443.93932
G0 F1285.7 X114.217 Y144.905
G1 F900 X51.946 Y82.634 E447.3095
G0 F1285.7 X52.127 Y82.32
G1 F900 X114.398 Y144.592 E450.67972
G0 F1285.7 X114.58 Y144.278
G1 F900 X52.308 Y82.006 E454.04996
G0 F1285.7 X52.489 Y81.692
G1 F900 X114.761 Y143.964 E457.4202
G0 F1285.7 X114.942 Y143.65
