;FLAVOR:Marlin
;TIME:11854
;Filament used: 14.4049m
;Layer height: 0.3
;MINX:37.334
;MINY:8.777
;MINZ:0.26
;MAXX:195.69
;MAXY:191.968
;MAXZ:7.76
;Generated with Cura_SteamEngine 4.9.1
M82 ;absolute extrusion mode
;Begin Start Gcode for Dagoma DiscoEasy 200
;Sliced: 07-07-2021 20:18:34
;Initial extruder: 0

G90 ;Absolute positioning
M106 S255 ;Fan on full
G28 X Y ;Home stop X Y
G1 X100 ;Centre back during cooldown in case of oozing
M109 R90 ;Cooldown in case too hot
G28 ;Centre
G29 ;Auto-level
M104 S205 ;Pre-heat
M107 ;Fan off
G0 X100 Y5 Z0.5 ;Front centre for degunk
M109 S205 ;Wait for initial temp
M83 ;E Relative
G1 E10 F200 ;Degunk
G1 E-3 F5000 ;Retract
G0 Z3 ;Withdraw
M82 ;E absolute
G92 E0 ;E reset
G1 F6000 ;Set feedrate

;Finish Start Gcode for Dagoma DiscoEasy 200

G92 E0
G92 E0
G1 F3000 E-3.5
;LAYER_COUNT:26
;LAYER:0
M107
G0 F1285.7 X87.751 Y11.229 Z0.26
;TYPE:SKIRT
G1 F3000 E0
G1 F900 X88.083 Y10.672 E0.02482
G1 X88.402 Y10.216 E0.04611
G1 X88.782 Y9.81 E0.06739
G1 X89.217 Y9.463 E0.08869
G1 X89.697 Y9.181 E0.10999
G1 X90.213 Y8.971 E0.13131
G1 X90.753 Y8.838 E0.1526
G1 X91.375 Y8.781 E0.1765
G1 X91.887 Y8.777 E0.19609
G1 X191.247 Y10.271 E3.99898
G1 X191.931 Y10.291 E4.02517
G1 X192.485 Y10.347 E4.04648
G1 X193.025 Y10.482 E4.06778
G1 X193.54 Y10.692 E4.08907
G1 X194.019 Y10.975 E4.11036
G1 X194.453 Y11.323 E4.13165
G1 X194.833 Y11.73 E4.15296
G1 X195.15 Y12.187 E4.17424
G1 X195.399 Y12.684 E4.19551
G1 X195.574 Y13.212 E4.2168
G1 X195.672 Y13.76 E4.23811
G1 X195.69 Y14.316 E4.2594
G1 X195.628 Y14.869 E4.28069
G1 X195.488 Y15.408 E4.302
G1 X195.231 Y15.999 E4.32667
G1 X195.024 Y16.38 E4.34326
G1 X95.075 Y189.497 E11.99327
G1 X94.727 Y190.08 E12.01925
G1 X94.409 Y190.536 E12.04053
G1 X94.028 Y190.942 E12.06184
G1 X93.593 Y191.289 E12.08313
G1 X93.113 Y191.57 E12.10442
G1 X92.597 Y191.779 E12.12572
G1 X92.057 Y191.913 E12.14701
G1 X91.503 Y191.968 E12.16832
G1 X90.947 Y191.942 E12.18962
G1 X90.401 Y191.838 E12.21089
G1 X89.875 Y191.656 E12.23219
G1 X89.38 Y191.401 E12.2535
G1 X88.928 Y191.078 E12.27476
G1 X88.526 Y190.693 E12.29606
G1 X88.064 Y190.066 E12.32587
G1 X87.563 Y189.216 E12.36363
G1 X38.132 Y102.093 E16.19705
G1 X37.803 Y101.494 E16.2232
G1 X37.57 Y100.989 E16.24449
G1 X37.413 Y100.455 E16.26579
G1 X37.334 Y99.904 E16.28709
G1 X37.334 Y99.348 E16.30837
G1 X37.414 Y98.797 E16.32968
G1 X37.572 Y98.264 E16.35095
G1 X37.849 Y97.673 E16.37593
G1 X38.081 Y97.258 E16.39412
G1 X87.751 Y11.229 E20.19575
G0 F1285.7 X88.052 Y11.408
G1 F900 X88.384 Y10.851 E20.22057
G1 X88.689 Y10.417 E20.24087
G1 X89.056 Y10.034 E20.26117
G1 X89.477 Y9.71 E20.2815
G1 X89.941 Y9.453 E20.3018
G1 X90.438 Y9.268 E20.32209
G1 X90.958 Y9.16 E20.34242
G1 X91.795 Y9.127 E20.37447
G1 X191.237 Y10.621 E24.1805
G1 X191.921 Y10.641 E24.20669
G1 X192.449 Y10.696 E24.227
G1 X192.962 Y10.83 E24.2473
G1 X193.45 Y11.039 E24.26761
G1 X193.9 Y11.32 E24.28791
G1 X194.304 Y11.665 E24.30825
G1 X194.651 Y12.066 E24.32854
G1 X194.934 Y12.515 E24.34885
G1 X195.146 Y13.001 E24.36914
G1 X195.283 Y13.514 E24.38946
G1 X195.341 Y14.042 E24.40979
G1 X195.319 Y14.572 E24.43009
G1 X195.218 Y15.093 E24.4504
G1 X195.04 Y15.593 E24.47071
G1 X194.773 Y16.112 E24.49305
G1 X194.721 Y16.205 E24.49713
G1 X94.775 Y189.318 E32.14694
G1 X94.427 Y189.901 E32.17293
G1 X94.121 Y190.335 E32.19325
G1 X93.754 Y190.718 E32.21355
G1 X93.334 Y191.041 E32.23383
G1 X92.869 Y191.298 E32.25416
G1 X92.372 Y191.482 E32.27444
G1 X91.852 Y191.59 E32.29477
G1 X91.322 Y191.618 E32.31508
G1 X90.794 Y191.566 E32.33538
G1 X90.279 Y191.436 E32.35571
G1 X89.79 Y191.23 E32.37601
G1 X89.338 Y190.953 E32.3963
G1 X88.932 Y190.611 E32.41662
G1 X88.582 Y190.212 E32.43693
G1 X88.366 Y189.888 E32.45183
G1 X87.867 Y189.044 E32.48935
G1 X38.438 Y101.925 E36.3226
G1 X38.109 Y101.326 E36.34876
G1 X37.89 Y100.843 E36.36905
G1 X37.745 Y100.332 E36.38938
G1 X37.678 Y99.806 E36.40967
G1 X37.692 Y99.275 E36.43
G1 X37.785 Y98.753 E36.45029
G1 X37.955 Y98.25 E36.47061
G1 X38.205 Y97.752 E36.49194
G1 X38.384 Y97.433 E36.50594
G1 X88.052 Y11.408 E40.30739
G0 F1285.7 X88.33 Y11.625
G1 F900 X88.685 Y11.03 E40.33391
G1 X88.976 Y10.62 E40.35315
G1 X89.329 Y10.26 E40.37245
G1 X89.734 Y9.961 E40.39171
G1 X90.181 Y9.729 E40.41098
G1 X90.659 Y9.572 E40.43024
G1 X91.382 Y9.481 E40.45813
G1 X91.877 Y9.477 E40.47707
G1 X191.227 Y10.97 E44.27958
G1 X191.911 Y10.99 E44.30576
G1 X192.411 Y11.045 E44.32501
G1 X192.897 Y11.178 E44.3443
G1 X193.356 Y11.386 E44.36358
G1 X193.776 Y11.664 E44.38286
G1 X194.146 Y12.005 E44.40211
G1 X194.458 Y12.4 E44.42138
G1 X194.704 Y12.84 E44.44067
G1 X194.877 Y13.313 E44.45994
G1 X194.973 Y13.807 E44.4792
G1 X194.99 Y14.311 E44.4985
G1 X194.927 Y14.81 E44.51775
G1 X194.785 Y15.294 E44.53705
G1 X194.464 Y15.946 E44.56486
G1 X194.418 Y16.03 E44.56853
G1 X94.474 Y189.138 E52.21814
G1 X94.126 Y189.721 E52.24413
G1 X93.835 Y190.132 E52.2634
G1 X93.482 Y190.491 E52.28267
G1 X93.077 Y190.79 E52.30193
G1 X92.629 Y191.021 E52.32122
G1 X92.151 Y191.179 E52.34049
G1 X91.654 Y191.259 E52.35975
G1 X91.15 Y191.259 E52.37904
G1 X90.653 Y191.18 E52.3983
G1 X90.174 Y191.023 E52.41759
G1 X89.727 Y190.792 E52.43685
G1 X89.321 Y190.494 E52.45612
G1 X88.968 Y190.135 E52.47539
G1 X88.667 Y189.71 E52.49532
G1 X88.172 Y188.871 E52.5326
G1 X38.745 Y101.756 E56.36568
G1 X38.416 Y101.157 E56.39183
G1 X38.209 Y100.698 E56.4111
G1 X38.078 Y100.212 E56.43036
G1 X38.025 Y99.711 E56.44964
G1 X38.052 Y99.208 E56.46892
G1 X38.158 Y98.716 E56.48818
G1 X38.39 Y98.149 E56.51163
G1 X38.669 Y97.641 E56.53381
G1 X88.33 Y11.625 E60.33483
G1 F3000 E56.83483
;MESH:support_half_hex_31.stl
G0 F1285.7 X90.525 Y12.893
G0 X91.383 Y13.388
G0 X91.553 Y186.799
;TYPE:WALL-INNER
G1 F3000 E60.33483
G1 F900 X91.401 Y187.063 E60.34649
G1 X91.251 Y186.798 E60.35307
G1 X41.792 Y99.63 E64.18852
G1 X91.706 Y13.176 E68.00891
G1 X190.638 Y14.663 E71.79541
G1 X190.934 Y14.667 E71.80674
G1 X190.786 Y14.924 E71.81319
G1 X91.553 Y186.799 E79.40834
G0 F1285.7 X91.55 Y187.453
;TYPE:WALL-OUTER
G1 F900 X91.398 Y187.717 E79.42
G1 X91.248 Y187.452 E79.42658
G1 X41.418 Y99.629 E83.29084
G1 X91.521 Y12.848 E87.12568
G1 X191.195 Y14.346 E90.94058
G1 X191.491 Y14.35 E90.95191
G1 X191.343 Y14.607 E90.95836
G1 X91.55 Y187.453 E98.5964
G0 F1285.7 X91.45 Y187.626
G0 X91.365 Y187.576
G0 X91.403 Y186.377
;TYPE:SKIN
G1 F900 X42.184 Y99.631 E102.41327
G1 X91.9 Y13.519 E106.21853
G1 X190.349 Y14.999 E109.98656
G1 X91.403 Y186.377 E117.55974
G0 F1285.7 X91.446 Y185.986
G1 F900 X91.252 Y185.792 E117.57024
G0 F1285.7 X91.627 Y185.672
G1 F900 X90.603 Y184.648 E117.62566
G1 X90.541 Y184.586
G0 F1285.7 X89.953 Y183.504
G1 F900 X91.808 Y185.358 E117.72603
G0 F1285.7 X91.99 Y185.045
G1 F900 X89.304 Y182.36 E117.87137
G1 X89.242 Y182.298
G0 F1285.7 X88.655 Y181.215
G1 F900 X92.171 Y184.731 E118.06166
G0 F1285.7 X92.352 Y184.417
G1 F900 X88.006 Y180.071 E118.29687
G1 X87.944 Y180.009
G0 F1285.7 X87.357 Y178.927
G1 F900 X92.533 Y184.103 E118.577
G0 F1285.7 X92.714 Y183.789
G1 F900 X86.708 Y177.783 E118.90205
G1 X86.646 Y177.721
G0 F1285.7 X86.059 Y176.639
G1 F900 X92.896 Y183.476 E119.27208
G0 F1285.7 X93.077 Y183.162
G1 F900 X85.409 Y175.494 E119.68708
G1 X85.347 Y175.432
G0 F1285.7 X84.76 Y174.35
G1 F900 X93.258 Y182.848 E120.14701
G0 F1285.7 X93.439 Y182.534
G1 F900 X84.111 Y173.206 E120.65185
G1 X84.049 Y173.144
G0 F1285.7 X83.461 Y172.062
G1 F900 X93.62 Y182.221 E121.20167
G0 F1285.7 X93.801 Y181.907
G1 F900 X82.812 Y170.918 E121.79641
G1 X82.75 Y170.856
G0 F1285.7 X82.163 Y169.774
G1 F900 X93.982 Y181.593 E122.43607
G0 F1285.7 X94.163 Y181.279
G1 F900 X81.514 Y168.63 E123.12065
G1 X81.452 Y168.568
G0 F1285.7 X80.865 Y167.486
G1 F900 X94.345 Y180.965 E123.85017
G0 F1285.7 X94.526 Y180.652
G1 F900 X80.216 Y166.341 E124.62468
G1 X80.154 Y166.279
G0 F1285.7 X79.567 Y165.197
G1 F900 X94.707 Y180.338 E125.4441
G0 F1285.7 X94.888 Y180.024
G1 F900 X78.918 Y164.053 E126.30844
G1 X78.856 Y163.991
G0 F1285.7 X78.268 Y162.909
G1 F900 X95.069 Y179.71 E127.21773
G0 F1285.7 X95.251 Y179.397
G1 F900 X77.619 Y161.764 E128.17203
G1 X77.557 Y161.702
G0 F1285.7 X76.969 Y160.62
G1 F900 X95.432 Y179.083 E129.17127
G0 F1285.7 X95.613 Y178.769
G1 F900 X76.32 Y159.476 E130.21543
G1 X76.258 Y159.414
G0 F1285.7 X75.671 Y158.332
G1 F900 X95.794 Y178.455 E131.30451
G0 F1285.7 X95.975 Y178.141
G1 F900 X75.022 Y157.188 E132.43852
G1 X74.96 Y157.126
G0 F1285.7 X74.373 Y156.044
G1 F900 X96.157 Y177.828 E133.61749
G0 F1285.7 X96.338 Y177.514
G1 F900 X73.724 Y154.9 E134.84139
G1 X73.662 Y154.838
G0 F1285.7 X73.075 Y153.756
G1 F900 X96.519 Y177.2 E136.11021
G0 F1285.7 X96.7 Y176.886
G1 F900 X72.426 Y152.612 E137.42395
G1 X72.364 Y152.55
G0 F1285.7 X71.776 Y151.467
G1 F900 X96.881 Y176.572 E138.78267
G0 F1285.7 X97.063 Y176.259
G1 F900 X71.127 Y150.323 E140.18635
G1 X71.065 Y150.261
G0 F1285.7 X70.478 Y149.179
G1 F900 X97.244 Y175.945 E141.63496
G0 F1285.7 X97.425 Y175.631
G1 F900 X69.829 Y148.035 E143.1285
G1 X69.767 Y147.973
G0 F1285.7 X69.179 Y146.89
G1 F900 X97.606 Y175.317 E144.667
G0 F1285.7 X97.787 Y175.003
G1 F900 X68.53 Y145.746 E146.25043
G1 X68.468 Y145.684
G0 F1285.7 X67.881 Y144.602
G1 F900 X97.968 Y174.69 E147.8788
G0 F1285.7 X98.149 Y174.376
G1 F900 X67.232 Y143.458 E149.5521
G1 X67.17 Y143.396
G0 F1285.7 X66.583 Y142.314
G1 F900 X98.33 Y174.062 E151.27031
G0 F1285.7 X98.511 Y173.748
G1 F900 X65.934 Y141.17 E153.03345
G1 X65.872 Y141.108
G0 F1285.7 X65.285 Y140.026
G1 F900 X98.693 Y173.434 E154.84153
G0 F1285.7 X98.874 Y173.12
G1 F900 X64.635 Y138.882 E156.69456
G1 X64.573 Y138.82
G0 F1285.7 X63.986 Y137.738
G1 F900 X99.055 Y172.806 E158.59251
G0 F1285.7 X99.236 Y172.493
G1 F900 X63.337 Y136.593 E160.53544
G1 X63.275 Y136.531
G0 F1285.7 X62.688 Y135.449
G1 F900 X99.418 Y172.179 E162.52331
G0 F1285.7 X99.599 Y171.865
G1 F900 X62.039 Y134.305 E164.55611
G1 X61.977 Y134.243
G0 F1285.7 X61.389 Y133.16
G1 F900 X99.78 Y171.551 E166.63388
G0 F1285.7 X99.961 Y171.237
G1 F900 X60.74 Y132.016 E168.75657
G1 X60.678 Y131.954
G0 F1285.7 X60.091 Y130.872
G1 F900 X100.142 Y170.923 E170.92418
G0 F1285.7 X100.324 Y170.61
G1 F900 X59.442 Y129.728 E173.13677
G1 X59.38 Y129.666
G0 F1285.7 X58.793 Y128.584
G1 F900 X100.505 Y170.296 E175.39427
G0 F1285.7 X100.686 Y169.982
G1 F900 X58.143 Y127.44 E177.69673
G1 X58.081 Y127.378
G0 F1285.7 X57.494 Y126.296
G1 F900 X100.867 Y169.668 E180.0441
G0 F1285.7 X101.049 Y169.355
G1 F900 X56.845 Y125.152 E182.43645
G1 X56.783 Y125.09
G0 F1285.7 X56.196 Y124.008
G1 F900 X101.23 Y169.041 E184.87372
G0 F1285.7 X101.411 Y168.727
G1 F900 X55.547 Y122.864 E187.35591
G1 X55.485 Y122.802
G0 F1285.7 X54.898 Y121.719
G1 F900 X101.592 Y168.413 E189.88305
G0 F1285.7 X101.773 Y168.099
G1 F900 X54.249 Y120.575 E192.45511
G1 X54.187 Y120.513
G0 F1285.7 X53.6 Y119.431
G1 F900 X101.954 Y167.786 E195.07212
G0 F1285.7 X102.135 Y167.472
G1 F900 X52.95 Y118.286 E197.7341
G1 X52.888 Y118.224
G0 F1285.7 X52.301 Y117.142
G1 F900 X102.316 Y167.158 E200.441
G0 F1285.7 X102.497 Y166.844
G1 F900 X51.652 Y115.998 E203.19283
G1 X51.59 Y115.936
G0 F1285.7 X51.002 Y114.854
G1 F900 X102.679 Y166.531 E205.98965
G0 F1285.7 X102.86 Y166.217
G1 F900 X50.353 Y113.71 E208.8314
G1 X50.291 Y113.648
G0 F1285.7 X49.704 Y112.566
G1 F900 X103.041 Y165.903 E211.71806
G0 F1285.7 X103.222 Y165.589
G1 F900 X49.055 Y111.422 E214.64965
G1 X48.993 Y111.36
G0 F1285.7 X48.406 Y110.278
G1 F900 X103.403 Y165.275 E217.62616
G0 F1285.7 X103.585 Y164.962
G1 F900 X47.757 Y109.134 E220.64764
G1 X47.695 Y109.072
G0 F1285.7 X47.108 Y107.99
G1 F900 X103.766 Y164.648 E223.71404
G0 F1285.7 X103.947 Y164.334
G1 F900 X46.459 Y106.845 E226.8254
G1 X46.397 Y106.783
G0 F1285.7 X45.809 Y105.701
G1 F900 X104.128 Y164.02 E229.98169
G0 F1285.7 X104.31 Y163.707
G1 F900 X45.16 Y104.557 E233.18297
G1 X45.098 Y104.495
G0 F1285.7 X44.51 Y103.412
G1 F900 X104.491 Y163.393 E236.42922
G0 F1285.7 X104.672 Y163.079
G1 F900 X43.861 Y102.268 E239.72038
G1 X43.799 Y102.206
G0 F1285.7 X43.212 Y101.124
G1 F900 X104.853 Y162.765 E243.05647
G0 F1285.7 X105.034 Y162.451
G1 F900 X42.563 Y99.98 E246.43748
G0 F1285.7 X42.49 Y99.412
G1 F900 X105.216 Y162.138 E249.83229
G0 F1285.7 X105.397 Y161.824
G1 F900 X42.672 Y99.099 E253.22705
G0 F1285.7 X42.853 Y98.785
G1 F900 X105.578 Y161.51 E256.62181
G0 F1285.7 X105.759 Y161.196
G1 F900 X43.034 Y98.471 E260.01657
G0 F1285.7 X43.215 Y98.157
G1 F900 X105.94 Y160.882 E263.41132
G0 F1285.7 X106.121 Y160.569
G1 F900 X43.396 Y97.843 E266.80611
G0 F1285.7 X43.578 Y97.53
G1 F900 X106.302 Y160.255 E270.20084
G0 F1285.7 X106.483 Y159.941
G1 F900 X43.759 Y97.216 E273.59557
G0 F1285.7 X43.94 Y96.902
G1 F900 X106.664 Y159.627 E276.9903
G0 F1285.7 X106.846 Y159.313
G1 F900 X44.121 Y96.588 E280.38505
G0 F1285.7 X44.303 Y96.275
G1 F900 X107.027 Y159 E283.77978
G0 F1285.7 X107.208 Y158.686
G1 F900 X44.484 Y95.961 E287.17451
G0 F1285.7 X44.665 Y95.647
G1 F900 X107.389 Y158.372 E290.56924
G0 F1285.7 X107.57 Y158.058
G1 F900 X44.846 Y95.333 E293.96397
G0 F1285.7 X45.027 Y95.019
G1 F900 X107.752 Y157.744 E297.35873
G0 F1285.7 X107.933 Y157.43
G1 F900 X45.208 Y94.706 E300.75346
G0 F1285.7 X45.389 Y94.392
G1 F900 X108.114 Y157.117 E304.14822
G0 F1285.7 X108.295 Y156.803
G1 F900 X45.57 Y94.078 E307.54297
G0 F1285.7 X45.751 Y93.764
G1 F900 X108.477 Y156.489 E310.93776
G0 F1285.7 X108.658 Y156.175
G1 F900 X45.932 Y93.45 E314.33254
G0 F1285.7 X46.114 Y93.137
G1 F900 X108.839 Y155.861 E317.72727
G0 F1285.7 X109.02 Y155.547
G1 F900 X46.295 Y92.823 E321.122
G0 F1285.7 X46.476 Y92.509
G1 F900 X109.201 Y155.233 E324.51673
G0 F1285.7 X109.383 Y154.92
G1 F900 X46.657 Y92.195 E327.91151
G0 F1285.7 X46.838 Y91.881
G1 F900 X109.564 Y154.606 E331.3063
G0 F1285.7 X109.745 Y154.292
G1 F900 X47.02 Y91.568 E334.70103
G0 F1285.7 X47.201 Y91.254
G1 F900 X109.926 Y153.978 E338.09576
G0 F1285.7 X110.107 Y153.665
G1 F900 X47.382 Y90.94 E341.49052
G0 F1285.7 X47.563 Y90.626
G1 F900 X110.288 Y153.351 E344.88527
G0 F1285.7 X110.469 Y153.037
G1 F900 X47.745 Y90.313 E348.27997
G0 F1285.7 X47.926 Y89.999
G1 F900 X110.65 Y152.723 E351.67468
G0 F1285.7 X110.831 Y152.409
G1 F900 X48.107 Y89.685 E355.06938
G0 F1285.7 X48.288 Y89.371
G1 F900 X111.013 Y152.096 E358.46414
G0 F1285.7 X111.194 Y151.782
G1 F900 X48.469 Y89.057 E361.85889
G0 F1285.7 X48.651 Y88.744
G1 F900 X111.375 Y151.468 E365.2536
G0 F1285.7 X111.556 Y151.154
G1 F900 X48.832 Y88.43 E368.6483
G0 F1285.7 X49.013 Y88.116
G1 F900 X111.738 Y150.841 E372.04306
G0 F1285.7 X111.919 Y150.527
G1 F900 X49.194 Y87.802 E375.43781
G0 F1285.7 X49.375 Y87.488
G1 F900 X112.1 Y150.213 E378.83257
G0 F1285.7 X112.281 Y149.899
G1 F900 X49.556 Y87.174 E382.22733
G0 F1285.7 X49.737 Y86.86
G1 F900 X112.462 Y149.585 E385.62208
G0 F1285.7 X112.644 Y149.272
G1 F900 X49.918 Y86.547 E389.01687
G0 F1285.7 X50.099 Y86.233
G1 F900 X112.825 Y148.958 E392.41165
G0 F1285.7 X113.006 Y148.644
G1 F900 X50.281 Y85.919 E395.80641
G0 F1285.7 X50.462 Y85.605
G1 F900 X113.187 Y148.33 E399.20117
G0 F1285.7 X113.369 Y148.017
G1 F900 X50.643 Y85.291 E402.59598
G0 F1285.7 X50.824 Y84.977
G1 F900 X113.55 Y147.703 E405.99079
G0 F1285.7 X113.731 Y147.389
G1 F900 X51.005 Y84.664 E409.38557
G0 F1285.7 X51.187 Y84.35
G1 F900 X113.912 Y147.075 E412.78033
G0 F1285.7 X114.093 Y146.761
G1 F900 X51.368 Y84.036 E416.17509
G0 F1285.7 X51.549 Y83.722
G1 F900 X114.274 Y146.448 E419.56987
G0 F1285.7 X114.455 Y146.134
G1 F900 X51.73 Y83.408 E422.96465
G0 F1285.7 X51.911 Y83.094
G1 F900 X114.636 Y145.82 E426.35944
G0 F1285.7 X114.817 Y145.506
G1 F900 X52.093 Y82.781 E429.75417
G0 F1285.7 X52.274 Y82.467
G1 F900 X114.998 Y145.192 E433.1489
G0 F1285.7 X115.18 Y144.879
G1 F900 X52.455 Y82.153 E436.54368
G0 F1285.7 X52.636 Y81.839
G1 F900 X115.361 Y144.565 E439.93847
G0 F1285.7 X115.542 Y144.251
G1 F900 X52.817 Y81.525 E443.33325
G0 F1285.7 X52.999 Y81.212
G1 F900 X115.723 Y143.937 E446.72798
G0 F1285.7 X115.905 Y143.623
G1 F900 X53.18 Y80.898 E450.12274
G0 F1285.7 X53.361 Y80.584
G1 F900 X116.086 Y143.31 E453.51752
G0 F1285.7 X116.267 Y142.996
G1 F900 X53.542 Y80.27 E456.9123
G0 F1285.7 X53.723 Y79.957
G1 F900 X116.448 Y142.682 E460.30706
G0 F1285.7 X116.629 Y142.368
