;FLAVOR:Marlin
;TIME:13003
;Filament used: 22.7458m
;Layer height: 0.3
;MINX:23.762
;MINY:15.046
;MINZ:0.26
;MAXX:192.282
;MAXY:191.945
;MAXZ:24.56
;Generated with Cura_SteamEngine 4.9.1
M82 ;absolute extrusion mode
;Begin Start Gcode for Dagoma DiscoEasy 200
;Sliced: 01-08-2021 01:26:22
;Initial extruder: 0

G90 ;Absolute positioning
M106 S255 ;Fan on full
G28 X Y ;Home stop X Y
G1 X100 ;Centre back during cooldown in case of oozing
M109 R90 ;Cooldown in case too hot
G28 ;Centre
G29 ;Auto-level
M104 S205 ;Pre-heat
M107 ;Fan off
G0 X100 Y5 Z0.5 ;Front centre for degunk
M109 S205 ;Wait for initial temp
M83 ;E Relative
G1 E10 F200 ;Degunk
G1 E-3 F5000 ;Retract
G0 Z3 ;Withdraw
M82 ;E absolute
G92 E0 ;E reset
G1 F6000 ;Set feedrate

;Finish Start Gcode for Dagoma DiscoEasy 200

G92 E0
G92 E0
G1 F3000 E-3.5
;LAYER_COUNT:82
;LAYER:0
M107
G0 F1285.7 X25.037 Y31.257 Z0.26
;TYPE:SKIRT
G1 F3000 E0
G1 F900 X25.456 Y31.025 E0.01833
G1 X26.138 Y30.816 E0.04563
G1 X27.021 Y30.66 E0.07994
G1 X124.758 Y15.167 E3.86699
G1 X125.413 Y15.074 E3.89231
G1 X125.891 Y15.046 E3.91063
G1 X126.368 Y15.098 E3.929
G1 X126.829 Y15.229 E3.94734
G1 X127.261 Y15.434 E3.96564
G1 X127.554 Y15.629 E3.97911
G1 X128.629 Y16.444 E4.03073
G1 X130.894 Y18.112 E4.13838
G1 X133.106 Y19.646 E4.2414
G1 X135.421 Y21.157 E4.34719
G1 X137.8 Y22.614 E4.45395
G1 X140.129 Y23.953 E4.55676
G1 X142.586 Y25.273 E4.6635
G1 X145.022 Y26.495 E4.7678
G1 X148.333 Y28.021 E4.90732
G1 X149.016 Y28.368 E4.93664
G1 X149.392 Y28.665 E4.95497
G1 X149.622 Y28.906 E4.96772
G1 X150.166 Y29.548 E4.99993
G1 X150.575 Y30.046 E5.02459
G1 X151.044 Y30.637 E5.05346
G1 X151.417 Y31.251 E5.08096
G1 X151.484 Y31.401 E5.08724
G1 X152.657 Y33.95 E5.19462
G1 X153.86 Y36.38 E5.29839
G1 X155.156 Y38.818 E5.40406
G1 X156.521 Y41.222 E5.50985
G1 X157.924 Y43.538 E5.61348
G1 X159.436 Y45.882 E5.72023
G1 X160.968 Y48.113 E5.8238
G1 X162.601 Y50.355 E5.92994
G1 X164.275 Y52.521 E6.03471
G1 X166.016 Y54.648 E6.1399
G1 X167.826 Y56.734 E6.24559
G1 X169.68 Y58.755 E6.35055
G1 X171.589 Y60.718 E6.45534
G1 X173.564 Y62.639 E6.56077
G1 X175.571 Y64.483 E6.66508
G1 X177.667 Y66.301 E6.77126
G1 X179.775 Y68.031 E6.87562
G1 X181.973 Y69.73 E6.98194
G1 X182.541 Y70.146 E7.00888
G1 X183.125 Y70.59 E7.03696
G1 X183.509 Y70.942 E7.05689
G1 X183.621 Y71.068 E7.06334
G1 X184.014 Y71.539 E7.08682
G1 X184.446 Y72.085 E7.11346
G1 X184.711 Y72.484 E7.13179
G1 X184.906 Y72.922 E7.15014
G1 X184.997 Y73.244 E7.16295
G1 X185.249 Y74.377 E7.20737
G1 X185.884 Y77.072 E7.31333
G1 X186.599 Y79.76 E7.41977
G1 X187.375 Y82.376 E7.5242
G1 X188.23 Y84.985 E7.62927
G1 X189.16 Y87.578 E7.73469
G1 X190.165 Y90.145 E7.84019
G1 X191.232 Y92.657 E7.94463
G1 X191.597 Y93.454 E7.97818
G1 X192.046 Y94.469 E8.02066
G1 X192.203 Y94.922 E8.039
G1 X192.282 Y95.394 E8.05732
G1 X192.282 Y95.873 E8.07565
G1 X192.122 Y96.607 E8.1044
G1 X191.918 Y97.173 E8.12742
G1 X191.02 Y99.76 E8.23222
G1 X190.19 Y102.382 E8.33747
G1 X189.435 Y105.036 E8.44307
G1 X188.75 Y107.726 E8.5493
G1 X188.164 Y110.339 E8.65178
G1 X187.63 Y113.077 E8.75854
G1 X187.134 Y116.089 E8.87536
G1 X187.057 Y116.602 E8.89521
G1 X186.919 Y117.152 E8.91691
G1 X186.619 Y117.982 E8.95068
G1 X183.73 Y125.566 E9.26127
G1 X183.467 Y126.228 E9.28853
G1 X183.249 Y126.665 E9.30722
G1 X182.704 Y127.558 E9.34725
G1 X181.286 Y129.959 E9.45397
G1 X179.937 Y132.398 E9.56063
G1 X178.697 Y134.8 E9.66408
G1 X177.513 Y137.258 E9.76849
G1 X176.377 Y139.799 E9.87501
G1 X175.324 Y142.343 E9.98038
G1 X174.35 Y144.909 E10.08541
G1 X173.451 Y147.484 E10.18979
G1 X172.632 Y150.065 E10.29342
G1 X171.86 Y152.758 E10.40063
G1 X171.187 Y155.392 E10.50467
G1 X170.568 Y158.119 E10.61168
G1 X169.868 Y161.796 E10.75493
G1 X169.756 Y162.2 E10.77097
G1 X169.391 Y163.22 E10.81243
G1 X166.528 Y170.736 E11.12023
G1 X166.293 Y171.327 E11.14457
G1 X166.035 Y171.827 E11.1661
G1 X165.479 Y172.686 E11.20526
G1 X164.012 Y175.016 E11.31063
G1 X162.622 Y177.369 E11.41521
G1 X161.288 Y179.782 E11.52073
G1 X160.034 Y182.208 E11.62524
G1 X158.831 Y184.708 E11.73142
G1 X157.709 Y187.22 E11.8367
G1 X156.679 Y189.708 E11.93975
G1 X156.296 Y190.562 E11.97557
G1 X156.014 Y190.95 E11.99393
G1 X155.672 Y191.285 E12.01225
G1 X155.279 Y191.559 E12.03058
G1 X154.845 Y191.764 E12.04895
G1 X154.384 Y191.894 E12.06728
G1 X153.908 Y191.945 E12.0856
G1 X153.43 Y191.917 E12.10393
G1 X152.963 Y191.809 E12.12227
G1 X152.52 Y191.626 E12.14061
G1 X152.114 Y191.372 E12.15894
G1 X151.637 Y190.921 E12.18406
G1 X151.181 Y190.378 E12.2112
G1 X97.277 Y124.512 E15.46838
G1 X95.503 Y122.407 E15.57373
G1 X93.705 Y120.391 E15.6771
G1 X91.764 Y118.333 E15.78537
G1 X89.88 Y116.448 E15.88736
G1 X87.836 Y114.514 E15.99505
G1 X85.804 Y112.699 E16.09931
G1 X83.719 Y110.937 E16.20378
G1 X81.57 Y109.226 E16.30891
G1 X79.354 Y107.561 E16.41498
G1 X77.121 Y105.979 E16.51971
G1 X74.838 Y104.456 E16.62474
G1 X72.519 Y103.003 E16.72946
G1 X70.52 Y101.823 E16.8183
G1 X70.041 Y101.549 E16.83942
G1 X69.647 Y101.277 E16.85774
G1 X69.273 Y100.908 E16.87785
G1 X68.876 Y100.438 E16.90139
G1 X68.359 Y99.76 E16.93402
G1 X68.071 Y99.287 E16.95521
G1 X67.882 Y98.895 E16.97187
G1 X67.022 Y97.038 E17.05019
G1 X65.772 Y94.527 E17.15753
G1 X64.5 Y92.145 E17.26087
G1 X63.134 Y89.752 E17.36632
G1 X61.703 Y87.403 E17.47158
G1 X60.22 Y85.115 E17.57593
G1 X58.654 Y82.845 E17.68146
G1 X57.026 Y80.617 E17.78707
G1 X55.35 Y78.458 E17.89166
G1 X53.593 Y76.323 E17.99748
G1 X51.795 Y74.259 E18.10223
G1 X49.951 Y72.258 E18.20637
G1 X48.013 Y70.271 E18.31259
G1 X46.052 Y68.372 E18.41706
G1 X44.011 Y66.505 E18.52292
G1 X41.936 Y64.712 E18.62786
G1 X39.815 Y62.98 E18.73266
G1 X37.637 Y61.304 E18.83783
G1 X34.959 Y59.37 E18.96425
G1 X34.687 Y59.15 E18.97764
G1 X34.352 Y58.807 E18.99599
G1 X34.079 Y58.414 E19.0143
G1 X33.808 Y57.78 E19.04068
G1 X33.567 Y56.954 E19.07361
G1 X32.763 Y54.334 E19.17849
G1 X31.886 Y51.744 E19.28314
G1 X30.928 Y49.153 E19.38886
G1 X29.885 Y46.565 E19.49564
G1 X28.803 Y44.083 E19.59926
G1 X27.642 Y41.612 E19.70374
G1 X26.398 Y39.15 E19.8093
G1 X25.078 Y36.71 E19.91547
G1 X24.142 Y35.077 E19.9875
G1 X23.939 Y34.643 E20.00584
G1 X23.811 Y34.181 E20.02418
G1 X23.762 Y33.704 E20.04253
G1 X23.792 Y33.226 E20.06086
G1 X23.901 Y32.76 E20.07918
G1 X24.087 Y32.318 E20.09753
G1 X24.343 Y31.913 E20.11587
G1 X24.663 Y31.556 E20.13421
G1 X25.037 Y31.257 E20.15254
G0 F1285.7 X25.074 Y31.663
G1 F900 X25.45 Y31.418 E20.16971
G1 X25.864 Y31.243 E20.18691
G1 X26.198 Y31.16 E20.20008
G1 X27.076 Y31.006 E20.2342
G1 X124.807 Y15.513 E24.02102
G1 X125.462 Y15.42 E24.04634
G1 X125.91 Y15.397 E24.06351
G1 X126.356 Y15.453 E24.08071
G1 X126.784 Y15.588 E24.09788
G1 X127.342 Y15.908 E24.1225
G1 X128.421 Y16.726 E24.17432
G1 X130.657 Y18.373 E24.2806
G1 X132.926 Y19.947 E24.38628
G1 X135.258 Y21.468 E24.49283
G1 X137.601 Y22.903 E24.59797
G1 X139.985 Y24.273 E24.7032
G1 X142.406 Y25.574 E24.80838
G1 X144.875 Y26.812 E24.91408
G1 X148.161 Y28.328 E25.05257
G1 X148.847 Y28.676 E25.08201
G1 X149.355 Y29.132 E25.10813
G1 X149.896 Y29.77 E25.14015
G1 X150.301 Y30.263 E25.16456
G1 X150.77 Y30.854 E25.19344
G1 X151.097 Y31.394 E25.2176
G1 X152.332 Y34.081 E25.33077
G1 X153.558 Y36.556 E25.43647
G1 X154.848 Y38.985 E25.54172
G1 X156.215 Y41.391 E25.64762
G1 X157.637 Y43.74 E25.7527
G1 X159.134 Y46.06 E25.85837
G1 X160.694 Y48.331 E25.96381
G1 X162.321 Y50.565 E26.06957
G1 X164.008 Y52.748 E26.17515
G1 X165.747 Y54.872 E26.28021
G1 X167.549 Y56.95 E26.38547
G1 X169.428 Y58.998 E26.49183
G1 X171.341 Y60.966 E26.59687
G1 X173.313 Y62.883 E26.70212
G1 X175.353 Y64.757 E26.80813
G1 X177.443 Y66.571 E26.91403
G1 X179.549 Y68.298 E27.01826
G1 X181.756 Y70.004 E27.12502
G1 X182.329 Y70.425 E27.15223
G1 X182.913 Y70.869 E27.1803
G1 X183.282 Y71.212 E27.19958
G1 X183.353 Y71.293 E27.2037
G1 X183.739 Y71.756 E27.22677
G1 X184.171 Y72.302 E27.25342
G1 X184.417 Y72.678 E27.27061
G1 X184.656 Y73.32 E27.29683
G1 X184.909 Y74.458 E27.34144
G1 X185.555 Y77.2 E27.44925
G1 X186.247 Y79.803 E27.55233
G1 X187.043 Y82.484 E27.65935
G1 X187.9 Y85.102 E27.76478
G1 X188.842 Y87.724 E27.8714
G1 X189.832 Y90.254 E27.97537
G1 X190.917 Y92.81 E28.08163
G1 X191.277 Y93.596 E28.11472
G1 X191.726 Y94.611 E28.15719
G1 X191.871 Y95.036 E28.17438
G1 X191.937 Y95.48 E28.19156
G1 X191.925 Y95.928 E28.20871
G1 X191.792 Y96.488 E28.23073
G1 X191.599 Y97.026 E28.25261
G1 X190.672 Y99.698 E28.36084
G1 X189.866 Y102.245 E28.46308
G1 X189.095 Y104.955 E28.5709
G1 X188.411 Y107.639 E28.6769
G1 X187.812 Y110.315 E28.78185
G1 X187.292 Y112.974 E28.88553
G1 X186.788 Y116.032 E29.00414
G1 X186.711 Y116.55 E29.02418
G1 X186.589 Y117.034 E29.04328
G1 X186.292 Y117.858 E29.0768
G1 X183.405 Y125.437 E29.38718
G1 X183.142 Y126.099 E29.41444
G1 X182.95 Y126.482 E29.43083
G1 X182.402 Y127.38 E29.47109
G1 X180.991 Y129.769 E29.57728
G1 X179.631 Y132.228 E29.68481
G1 X178.391 Y134.63 E29.78826
G1 X177.178 Y137.148 E29.89522
G1 X176.067 Y139.633 E29.9994
G1 X174.998 Y142.215 E30.10634
G1 X174.024 Y144.78 E30.21134
G1 X173.119 Y147.374 E30.31648
G1 X172.28 Y150.019 E30.42267
G1 X171.529 Y152.643 E30.52713
G1 X170.839 Y155.338 E30.63359
G1 X170.234 Y158.006 E30.73828
G1 X169.556 Y161.572 E30.8772
G1 X169.427 Y162.082 E30.89733
G1 X169.064 Y163.096 E30.93855
G1 X166.202 Y170.607 E31.24615
G1 X165.967 Y171.198 E31.27049
G1 X165.741 Y171.637 E31.28939
G1 X165.185 Y172.496 E31.32854
G1 X163.712 Y174.837 E31.43439
G1 X162.321 Y177.192 E31.53906
G1 X160.962 Y179.649 E31.64652
G1 X159.713 Y182.066 E31.75064
G1 X158.515 Y184.555 E31.85635
G1 X157.399 Y187.055 E31.96112
G1 X156.34 Y189.612 E32.06704
G1 X155.982 Y190.405 E32.10033
G1 X155.712 Y190.763 E32.11749
G1 X155.382 Y191.069 E32.13472
G1 X155.004 Y191.311 E32.15189
G1 X154.589 Y191.482 E32.16907
G1 X154.15 Y191.577 E32.18626
G1 X153.702 Y191.592 E32.20341
G1 X153.257 Y191.528 E32.22062
G1 X152.831 Y191.387 E32.23779
G1 X152.437 Y191.172 E32.25497
G1 X151.905 Y190.696 E32.28229
G1 X151.452 Y190.156 E32.30926
G1 X97.571 Y124.318 E35.56505
G1 X95.769 Y122.179 E35.67209
G1 X93.932 Y120.121 E35.77766
G1 X92.052 Y118.127 E35.88254
G1 X90.084 Y116.158 E35.98907
G1 X88.098 Y114.28 E36.09368
G1 X86.053 Y112.452 E36.19865
G1 X83.914 Y110.645 E36.30581
G1 X81.788 Y108.952 E36.40981
G1 X79.556 Y107.275 E36.51665
G1 X77.331 Y105.698 E36.62102
G1 X75.032 Y104.165 E36.72677
G1 X72.67 Y102.685 E36.83344
G1 X70.694 Y101.519 E36.92125
G1 X70.215 Y101.245 E36.94236
G1 X69.847 Y100.988 E36.95954
G1 X69.54 Y100.682 E36.97613
G1 X69.143 Y100.212 E36.99967
G1 X68.639 Y99.55 E37.03151
G1 X68.217 Y98.785 E37.06495
G1 X67.334 Y96.877 E37.14541
G1 X66.095 Y94.389 E37.25178
G1 X64.821 Y92.002 E37.35532
G1 X63.43 Y89.566 E37.46267
G1 X62.022 Y87.253 E37.5663
G1 X60.494 Y84.896 E37.6738
G1 X58.928 Y82.625 E37.77937
G1 X57.322 Y80.428 E37.88352
G1 X55.616 Y78.23 E37.99
G1 X53.879 Y76.119 E38.09462
G1 X52.05 Y74.02 E38.20116
G1 X50.176 Y71.987 E38.30698
G1 X48.3 Y70.062 E38.40984
G1 X46.283 Y68.11 E38.51726
G1 X44.248 Y66.248 E38.62282
G1 X42.155 Y64.44 E38.72866
G1 X40.023 Y62.699 E38.834
G1 X37.841 Y61.019 E38.93939
G1 X35.164 Y59.086 E39.06575
G1 X34.604 Y58.562 E39.0951
G1 X34.354 Y58.189 E39.11229
G1 X34.144 Y57.682 E39.13329
G1 X33.903 Y56.856 E39.16622
G1 X33.096 Y54.229 E39.27139
G1 X32.198 Y51.576 E39.37858
G1 X31.257 Y49.031 E39.48242
G1 X30.226 Y46.475 E39.58789
G1 X29.113 Y43.921 E39.69451
G1 X27.965 Y41.476 E39.79788
G1 X26.698 Y38.968 E39.90541
G1 X25.407 Y36.581 E40.00926
G1 X24.445 Y34.903 E40.08329
G1 X24.258 Y34.495 E40.10046
G1 X24.145 Y34.06 E40.11766
G1 X24.111 Y33.613 E40.13482
G1 X24.157 Y33.166 E40.15201
G1 X24.282 Y32.735 E40.16919
G1 X24.48 Y32.332 E40.18637
G1 X24.747 Y31.971 E40.20355
G1 X25.074 Y31.663 E40.22075
G0 F1285.7 X25.487 Y31.8
G1 F900 X25.86 Y31.615 E40.23668
G1 X26.259 Y31.505 E40.25252
G1 X27.13 Y31.352 E40.28636
G1 X124.856 Y15.86 E44.07299
G1 X125.511 Y15.767 E44.09831
G1 X125.927 Y15.748 E44.11424
G1 X126.34 Y15.809 E44.13022
G1 X126.733 Y15.947 E44.14616
G1 X127.131 Y16.187 E44.16395
G1 X128.214 Y17.008 E44.21596
G1 X130.476 Y18.674 E44.32347
G1 X132.721 Y20.231 E44.42802
G1 X135.053 Y21.752 E44.53457
G1 X137.414 Y23.198 E44.64053
G1 X139.83 Y24.587 E44.74718
G1 X142.253 Y25.889 E44.85244
G1 X144.716 Y27.125 E44.9579
G1 X148.04 Y28.657 E45.09797
G1 X148.675 Y28.983 E45.12529
G1 X149.088 Y29.359 E45.14666
G1 X149.625 Y29.992 E45.17843
G1 X150.027 Y30.481 E45.20266
G1 X150.496 Y31.072 E45.23153
G1 X150.778 Y31.537 E45.25234
G1 X150.848 Y31.694 E45.25892
G1 X152.02 Y34.241 E45.36622
G1 X153.241 Y36.706 E45.47149
G1 X154.547 Y39.165 E45.57804
G1 X155.907 Y41.56 E45.68345
G1 X157.334 Y43.916 E45.78886
G1 X158.848 Y46.262 E45.89571
G1 X160.402 Y48.525 E46.00077
G1 X162.041 Y50.775 E46.1073
G1 X163.726 Y52.956 E46.21277
G1 X165.489 Y55.109 E46.31926
G1 X167.293 Y57.188 E46.4246
G1 X169.175 Y59.24 E46.53116
G1 X171.094 Y61.213 E46.63649
G1 X173.08 Y63.145 E46.74252
G1 X175.114 Y65.014 E46.84824
G1 X177.201 Y66.825 E46.95398
G1 X179.344 Y68.582 E47.06003
G1 X181.539 Y70.279 E47.16621
G1 X182.117 Y70.704 E47.19367
G1 X182.701 Y71.148 E47.22174
G1 X183.084 Y71.517 E47.2421
G1 X183.465 Y71.973 E47.26484
G1 X183.897 Y72.519 E47.29148
G1 X184.123 Y72.869 E47.30743
G1 X184.314 Y73.396 E47.32888
G1 X184.568 Y74.538 E47.37365
G1 X185.21 Y77.26 E47.48068
G1 X185.921 Y79.937 E47.58668
G1 X186.706 Y82.583 E47.6923
G1 X187.569 Y85.218 E47.79841
G1 X188.506 Y87.827 E47.9045
G1 X189.509 Y90.389 E48.00979
G1 X190.591 Y92.938 E48.11577
G1 X190.957 Y93.737 E48.1494
G1 X191.406 Y94.752 E48.19187
G1 X191.537 Y95.148 E48.20784
G1 X191.591 Y95.561 E48.22378
G1 X191.565 Y95.977 E48.23973
G1 X191.463 Y96.369 E48.25523
G1 X191.268 Y96.911 E48.27727
G1 X190.352 Y99.551 E48.38421
G1 X189.517 Y102.19 E48.49014
G1 X188.763 Y104.841 E48.59562
G1 X188.063 Y107.589 E48.70414
G1 X187.477 Y110.205 E48.80673
G1 X186.935 Y112.981 E48.91498
G1 X186.443 Y115.975 E49.03109
G1 X186.365 Y116.499 E49.05137
G1 X186.26 Y116.915 E49.06778
G1 X185.965 Y117.733 E49.10106
G1 X183.079 Y125.308 E49.41128
G1 X182.816 Y125.97 E49.43854
G1 X182.652 Y126.3 E49.45264
G1 X182.085 Y127.229 E49.4943
G1 X180.674 Y129.619 E49.60051
G1 X179.333 Y132.043 E49.70652
G1 X178.083 Y134.463 E49.81076
G1 X176.863 Y136.996 E49.91836
G1 X175.728 Y139.536 E50.02482
G1 X174.672 Y142.087 E50.13048
G1 X173.709 Y144.623 E50.2343
G1 X172.777 Y147.294 E50.34256
G1 X171.959 Y149.872 E50.44606
G1 X171.186 Y152.57 E50.55347
G1 X170.502 Y155.242 E50.65902
G1 X169.889 Y157.948 E50.7652
G1 X169.213 Y161.504 E50.90373
G1 X169.097 Y161.964 E50.92188
G1 X168.737 Y162.971 E50.96281
G1 X165.877 Y170.478 E51.27024
G1 X165.642 Y171.069 E51.29458
G1 X165.447 Y171.447 E51.31086
G1 X164.891 Y172.306 E51.35002
G1 X163.421 Y174.642 E51.45564
G1 X161.993 Y177.059 E51.56308
G1 X160.672 Y179.449 E51.66758
G1 X159.413 Y181.884 E51.77249
G1 X158.201 Y184.403 E51.87947
G1 X157.076 Y186.92 E51.98498
G1 X156.017 Y189.478 E52.09093
G1 X155.669 Y190.245 E52.12316
G1 X155.411 Y190.573 E52.13913
G1 X155.096 Y190.845 E52.15506
G1 X154.735 Y191.053 E52.171
G1 X154.34 Y191.187 E52.18696
G1 X153.928 Y191.244 E52.20288
G1 X153.511 Y191.221 E52.21886
G1 X153.107 Y191.12 E52.2348
G1 X152.73 Y190.943 E52.25074
G1 X152.394 Y190.697 E52.26668
G1 X152.173 Y190.47 E52.2788
G1 X151.723 Y189.935 E52.30555
G1 X97.819 Y124.069 E55.56273
G1 X96.057 Y121.976 E55.66743
G1 X94.174 Y119.866 E55.77566
G1 X92.307 Y117.887 E55.87978
G1 X90.342 Y115.921 E55.98616
G1 X88.324 Y114.012 E56.09246
G1 X86.263 Y112.171 E56.19822
G1 X84.148 Y110.384 E56.30418
G1 X81.99 Y108.665 E56.40977
G1 X79.783 Y107.007 E56.51541
G1 X77.534 Y105.413 E56.6209
G1 X75.201 Y103.858 E56.7282
G1 X72.876 Y102.401 E56.8332
G1 X70.842 Y101.2 E56.9236
G1 X70.389 Y100.941 E56.94357
G1 X70.049 Y100.7 E56.95952
G1 X69.807 Y100.456 E56.97267
G1 X69.41 Y99.986 E56.99621
G1 X68.919 Y99.341 E57.02724
G1 X68.532 Y98.633 E57.05812
G1 X67.645 Y96.716 E57.13895
G1 X66.411 Y94.238 E57.24489
G1 X65.107 Y91.796 E57.35083
G1 X63.742 Y89.406 E57.45616
G1 X62.294 Y87.028 E57.56271
G1 X60.811 Y84.74 E57.66706
G1 X59.219 Y82.431 E57.77439
G1 X57.584 Y80.195 E57.8804
