;FLAVOR:Marlin
;TIME:24332
;Filament used: 26.0845m
;Layer height: 0.3
;MINX:12.039
;MINY:11.734
;MINZ:0.26
;MAXX:187.642
;MAXY:187.339
;MAXZ:29.06
;Generated with Cura_SteamEngine 4.9.1
M82 ;absolute extrusion mode
;Begin Start Gcode for Dagoma DiscoEasy 200
;Sliced: 26-07-2021 01:53:49
;Initial extruder: 0

G90 ;Absolute positioning
M106 S255 ;Fan on full
G28 X Y ;Home stop X Y
G1 X100 ;Centre back during cooldown in case of oozing
M109 R90 ;Cooldown in case too hot
G28 ;Centre
G29 ;Auto-level
M104 S205 ;Pre-heat
M107 ;Fan off
G0 X100 Y5 Z0.5 ;Front centre for degunk
M109 S205 ;Wait for initial temp
M83 ;E Relative
G1 E10 F200 ;Degunk
G1 E-3 F5000 ;Retract
G0 Z3 ;Withdraw
M82 ;E absolute
G92 E0 ;E reset
G1 F6000 ;Set feedrate

;Finish Start Gcode for Dagoma DiscoEasy 200

G92 E0
G92 E0
G1 F3000 E-3.5
;LAYER_COUNT:97
;LAYER:0
M107
G0 F1285.7 X37.013 Y19.918 Z0.26
;TYPE:SKIRT
G1 F3000 E0
G1 F900 X38.238 Y17.474 E0.10462
G1 X39.233 Y15.356 E0.19418
G1 X39.587 Y14.58 E0.22682
G1 X39.821 Y14.162 E0.24515
G1 X40.122 Y13.789 E0.26349
G1 X40.48 Y13.471 E0.28182
G1 X40.887 Y13.217 E0.30018
G1 X41.33 Y13.035 E0.31851
G1 X41.797 Y12.928 E0.33684
G1 X42.275 Y12.9 E0.35516
G1 X42.751 Y12.952 E0.37349
G1 X43.213 Y13.082 E0.39186
G1 X43.646 Y13.288 E0.41021
G1 X43.914 Y13.464 E0.42248
G1 X44.74 Y14.076 E0.46182
G1 X46.959 Y15.676 E0.56651
G1 X49.244 Y17.226 E0.67218
G1 X51.551 Y18.696 E0.77687
G1 X53.933 Y20.123 E0.88313
G1 X56.314 Y21.459 E0.98761
G1 X58.744 Y22.732 E1.0926
G1 X61.224 Y23.945 E1.19825
G1 X62.099 Y24.362 E1.23534
G1 X62.632 Y24.688 E1.25925
G1 X63.088 Y25.098 E1.28272
G1 X63.154 Y25.161 E1.28621
G1 X67.918 Y29.927 E1.5441
G1 X68.416 Y30.441 E1.57149
G1 X68.744 Y30.848 E1.59149
G1 X70.312 Y33.203 E1.69977
G1 X71.885 Y35.426 E1.80399
G1 X73.528 Y37.615 E1.90873
G1 X75.253 Y39.785 E2.01482
G1 X77.003 Y41.86 E2.1187
G1 X78.844 Y43.922 E2.22448
G1 X80.761 Y45.951 E2.33131
G1 X82.647 Y47.837 E2.43338
G1 X84.689 Y49.768 E2.54093
G1 X86.718 Y51.58 E2.64504
G1 X88.815 Y53.348 E2.75001
G1 X90.976 Y55.068 E2.85571
G1 X93.152 Y56.702 E2.95984
G1 X95.424 Y58.311 E3.06639
G1 X96.693 Y59.166 E3.12495
G1 X97.815 Y59.911 E3.17649
G1 X98.436 Y60.437 E3.20763
G1 X103.279 Y65.279 E3.46972
G1 X103.81 Y65.828 E3.49895
G1 X104.596 Y66.682 E3.54336
G1 X106.539 Y68.737 E3.65159
G1 X108.442 Y70.64 E3.75459
G1 X110.45 Y72.538 E3.86033
G1 X112.501 Y74.369 E3.96554
G1 X114.587 Y76.13 E4.07002
G1 X116.758 Y77.857 E4.17618
G1 X118.93 Y79.488 E4.28013
G1 X121.203 Y81.096 E4.38668
G1 X123.471 Y82.606 E4.49096
G1 X125.798 Y84.062 E4.596
G1 X128.167 Y85.452 E4.70112
G1 X130.586 Y86.784 E4.8068
G1 X133.013 Y88.029 E4.91119
G1 X135.495 Y89.216 E5.01648
G1 X137.672 Y90.178 E5.10756
G1 X137.742 Y90.216 E5.11061
G1 X138.957 Y90.742 E5.16128
G1 X139.669 Y91.145 E5.19259
G1 X141.333 Y92.204 E5.26807
G1 X142.257 Y92.779 E5.30972
G1 X142.641 Y93.065 E5.32804
G1 X142.973 Y93.411 E5.34639
G1 X143.174 Y93.694 E5.35968
G1 X144.962 Y96.546 E5.4885
G1 X146.473 Y98.819 E5.59295
G1 X148.033 Y101.029 E5.69647
G1 X149.704 Y103.26 E5.80315
G1 X151.404 Y105.4 E5.90774
G1 X153.187 Y107.519 E6.01372
G1 X154.983 Y109.535 E6.11705
G1 X156.922 Y111.593 E6.22526
G1 X158.805 Y113.479 E6.32725
G1 X160.849 Y115.415 E6.43499
G1 X162.856 Y117.209 E6.53801
G1 X164.994 Y119.014 E6.64509
G1 X167.109 Y120.702 E6.74865
G1 X169.306 Y122.355 E6.85386
G1 X171.578 Y123.965 E6.96043
G1 X173.831 Y125.468 E7.06408
G1 X174.391 Y125.821 E7.08941
G1 X175.283 Y126.398 E7.13006
G1 X175.858 Y126.821 E7.15738
G1 X176.217 Y127.103 E7.17485
G1 X176.739 Y127.524 E7.20052
G1 X177.402 Y128.214 E7.23714
G1 X178.439 Y129.364 E7.2964
G1 X178.95 Y130.014 E7.32804
G1 X179.22 Y130.459 E7.34796
G1 X179.588 Y131.143 E7.37768
G1 X179.798 Y131.661 E7.39907
G1 X179.829 Y131.74 E7.40232
G1 X180.055 Y132.359 E7.42754
G1 X180.196 Y132.912 E7.44938
G1 X180.327 Y133.772 E7.48267
G1 X180.457 Y134.716 E7.51914
G1 X180.914 Y137.448 E7.62514
G1 X181.441 Y140.132 E7.72982
G1 X182.031 Y142.745 E7.83234
G1 X182.732 Y145.49 E7.94076
G1 X183.486 Y148.126 E8.04568
G1 X184.309 Y150.721 E8.14987
G1 X185.217 Y153.329 E8.25555
G1 X186.115 Y155.697 E8.35247
G1 X186.421 Y156.589 E8.38856
G1 X186.479 Y157.065 E8.40691
G1 X186.457 Y157.543 E8.42522
G1 X186.357 Y158.012 E8.44357
G1 X186.179 Y158.457 E8.46192
G1 X185.931 Y158.867 E8.48025
G1 X185.617 Y159.229 E8.49859
G1 X185.248 Y159.535 E8.51694
G1 X184.811 Y159.785 E8.5362
G1 X182.252 Y160.966 E8.64406
G1 X179.795 Y162.185 E8.74903
G1 X177.385 Y163.47 E8.85355
G1 X174.992 Y164.832 E8.95892
G1 X172.602 Y166.285 E9.06596
G1 X170.329 Y167.755 E9.16955
G1 X168.068 Y169.311 E9.27459
G1 X167.528 Y169.702 E9.30011
G1 X166.246 Y170.588 E9.35974
G1 X165.808 Y170.843 E9.37914
G1 X165.113 Y171.125 E9.40784
G1 X164.629 Y171.274 E9.42722
G1 X164.001 Y171.436 E9.45204
G1 X162.373 Y171.866 E9.51648
G1 X161.71 Y171.986 E9.54227
G1 X161.526 Y172 E9.54933
G1 X160.615 Y172.042 E9.58423
G1 X157.841 Y172.208 E9.69058
G1 X155.118 Y172.448 E9.79519
G1 X152.372 Y172.768 E9.90099
G1 X149.649 Y173.165 E10.0063
G1 X146.952 Y173.636 E10.11108
G1 X144.285 Y174.178 E10.21523
G1 X141.594 Y174.808 E10.32099
G1 X138.933 Y175.508 E10.42629
G1 X136.312 Y176.279 E10.53085
G1 X133.672 Y177.138 E10.63709
G1 X131.087 Y178.06 E10.74212
G1 X128.593 Y179.03 E10.84453
G1 X125.985 Y180.128 E10.95283
G1 X123.521 Y181.251 E11.05645
G1 X121.041 Y182.466 E11.16214
G1 X118.588 Y183.756 E11.2682
G1 X117.872 Y184.151 E11.2995
G1 X117.328 Y184.406 E11.32249
G1 X116.629 Y184.644 E11.35075
G1 X116.485 Y184.686 E11.35649
G1 X115.394 Y184.969 E11.39962
G1 X114.353 Y185.244 E11.44083
G1 X113.769 Y185.368 E11.46368
G1 X113.128 Y185.418 E11.48828
G1 X112.84 Y185.408 E11.49931
G1 X111.438 Y185.334 E11.55304
G1 X108.661 Y185.226 E11.65939
G1 X105.925 Y185.197 E11.7641
G1 X103.155 Y185.245 E11.87013
G1 X100.419 Y185.37 E11.97494
G1 X97.691 Y185.573 E12.07963
G1 X94.934 Y185.856 E12.18569
G1 X92.252 Y186.209 E12.28922
G1 X89.501 Y186.65 E12.39584
G1 X86.878 Y187.145 E12.49799
G1 X86.19 Y187.284 E12.52485
G1 X85.714 Y187.339 E12.54319
G1 X85.236 Y187.315 E12.56151
G1 X84.768 Y187.212 E12.57985
G1 X84.324 Y187.032 E12.59818
G1 X83.916 Y186.781 E12.61651
G1 X83.628 Y186.538 E12.63093
G1 X82.883 Y185.821 E12.6705
G1 X13.365 Y116.301 E16.43296
G1 X12.851 Y115.774 E16.46113
G1 X12.546 Y115.405 E16.47945
G1 X12.307 Y114.989 E16.49781
G1 X12.14 Y114.54 E16.51615
G1 X12.05 Y114.07 E16.53446
G1 X12.039 Y113.591 E16.5528
G1 X12.086 Y113.224 E16.56696
G1 X12.294 Y112.144 E16.60905
G1 X12.433 Y111.471 E16.63535
G1 X12.918 Y108.744 E16.74135
G1 X13.321 Y106.036 E16.84612
G1 X13.652 Y103.278 E16.95243
G1 X13.9 Y100.559 E17.05691
G1 X14.072 Y97.824 E17.16179
G1 X14.166 Y95.088 E17.26655
G1 X14.184 Y92.309 E17.37291
G1 X14.124 Y89.591 E17.47695
G1 X14.042 Y87.795 E17.54575
G1 X13.962 Y86.317 E17.6024
G1 X14.014 Y85.595 E17.6301
G1 X14.139 Y85.01 E17.65299
G1 X14.374 Y84.127 E17.68796
G1 X14.606 Y83.215 E17.72397
G1 X14.755 Y82.685 E17.74504
G1 X14.985 Y82.031 E17.77157
G1 X15.335 Y81.328 E17.80163
G1 X16.615 Y78.93 E17.90565
G1 X17.86 Y76.432 E18.01247
G1 X19.001 Y73.967 E18.11642
G1 X20.107 Y71.393 E18.22363
G1 X21.115 Y68.85 E18.32832
G1 X22.043 Y66.294 E18.43238
G1 X22.903 Y63.707 E18.53671
G1 X23.706 Y61.04 E18.6433
G1 X24.417 Y58.409 E18.7476
G1 X25.058 Y55.741 E18.85261
G1 X25.631 Y53.028 E18.95872
G1 X26.118 Y50.334 E19.06349
G1 X26.529 Y47.628 E19.16824
G1 X26.864 Y44.908 E19.27312
G1 X27.123 Y42.184 E19.37783
G1 X27.305 Y39.427 E19.48357
G1 X27.356 Y38.216 E19.52996
G1 X27.419 Y37.456 E19.55914
G1 X27.548 Y36.848 E19.58293
G1 X27.909 Y35.504 E19.63619
G1 X28.115 Y34.716 E19.66736
G1 X28.284 Y34.184 E19.68872
G1 X28.395 Y33.88 E19.7011
G1 X28.631 Y33.387 E19.72202
G1 X28.836 Y33.053 E19.73702
G1 X29.188 Y32.53 E19.76114
G1 X29.84 Y31.618 E19.80405
G1 X31.402 Y29.367 E19.9089
G1 X32.907 Y27.059 E20.01435
G1 X34.345 Y24.714 E20.11962
G1 X35.71 Y22.338 E20.22448
G1 X37.013 Y19.918 E20.32967
G0 F1285.7 X37.341 Y20.045
G1 F900 X38.555 Y17.624 E20.43331
G1 X39.549 Y15.505 E20.52289
G1 X39.905 Y14.725 E20.5557
G1 X40.127 Y14.335 E20.57287
G1 X40.415 Y13.99 E20.59007
G1 X40.759 Y13.702 E20.60724
G1 X41.149 Y13.479 E20.62443
G1 X41.572 Y13.329 E20.64161
G1 X42.015 Y13.256 E20.65879
G1 X42.464 Y13.263 E20.67597
G1 X42.904 Y13.349 E20.69313
G1 X43.323 Y13.511 E20.71032
G1 X43.705 Y13.745 E20.72747
G1 X44.505 Y14.338 E20.76558
G1 X46.768 Y15.97 E20.87235
G1 X49.046 Y17.514 E20.97767
G1 X51.394 Y19.011 E21.08423
G1 X53.725 Y20.407 E21.18821
G1 X56.165 Y21.776 E21.29529
G1 X58.555 Y23.029 E21.39856
G1 X61.096 Y24.272 E21.50681
G1 X61.948 Y24.678 E21.54293
G1 X62.065 Y24.737 E21.54794
G1 X62.605 Y25.124 E21.57337
G1 X62.907 Y25.409 E21.58926
G1 X67.666 Y30.171 E21.8469
G1 X68.164 Y30.685 E21.87429
G1 X68.453 Y31.042 E21.89187
G1 X70.016 Y33.388 E21.99975
G1 X71.616 Y35.652 E22.10585
G1 X73.254 Y37.834 E22.21026
G1 X74.978 Y40 E22.3162
G1 X76.754 Y42.108 E22.42169
G1 X78.592 Y44.166 E22.52729
G1 X80.472 Y46.157 E22.63208
G1 X82.443 Y48.127 E22.73873
G1 X84.426 Y50.003 E22.8432
G1 X86.49 Y51.845 E22.94907
G1 X88.599 Y53.623 E23.05463
G1 X90.758 Y55.342 E23.16025
G1 X92.95 Y56.988 E23.26515
G1 X95.231 Y58.602 E23.37208
G1 X96.482 Y59.446 E23.42984
G1 X97.621 Y60.202 E23.48215
G1 X98.197 Y60.693 E23.51112
G1 X103.059 Y65.554 E23.77423
G1 X103.553 Y66.065 E23.80143
G1 X104.365 Y66.948 E23.84734
G1 X106.247 Y68.94 E23.95221
G1 X108.202 Y70.894 E24.05799
G1 X110.224 Y72.806 E24.16449
G1 X112.244 Y74.609 E24.26811
G1 X114.392 Y76.422 E24.37568
G1 X116.54 Y78.131 E24.48073
G1 X118.745 Y79.786 E24.58624
G1 X120.976 Y81.365 E24.69084
G1 X123.277 Y82.897 E24.79663
G1 X125.646 Y84.379 E24.90356
G1 X127.99 Y85.755 E25.00758
G1 X130.381 Y87.071 E25.11203
G1 X132.888 Y88.357 E25.21986
G1 X135.332 Y89.526 E25.32354
G1 X137.531 Y90.498 E25.41555
G1 X137.605 Y90.539 E25.41878
G1 X138.818 Y91.064 E25.46937
G1 X139.486 Y91.443 E25.49876
G1 X141.145 Y92.499 E25.57402
G1 X142.072 Y93.076 E25.6158
G1 X142.43 Y93.346 E25.63296
G1 X142.878 Y93.879 E25.65961
G1 X144.66 Y96.723 E25.78805
G1 X146.176 Y99.004 E25.89286
G1 X147.783 Y101.28 E25.99949
G1 X149.428 Y103.475 E26.10446
G1 X151.142 Y105.633 E26.20993
G1 X152.921 Y107.746 E26.31563
G1 X154.74 Y109.788 E26.42029
G1 X156.652 Y111.817 E26.52698
G1 X158.602 Y113.77 E26.6326
G1 X160.587 Y115.649 E26.7372
G1 X162.645 Y117.49 E26.84287
G1 X164.738 Y119.257 E26.9477
G1 X166.912 Y120.992 E27.05414
G1 X169.12 Y122.653 E27.15988
G1 X171.351 Y124.234 E27.26453
G1 X173.679 Y125.787 E27.37162
G1 X174.2 Y126.115 E27.39518
G1 X175.092 Y126.692 E27.43584
G1 X175.646 Y127.099 E27.46215
G1 X175.997 Y127.376 E27.47926
G1 X176.519 Y127.797 E27.50492
G1 X177.12 Y128.423 E27.53813
G1 X178.175 Y129.593 E27.59842
G1 X178.651 Y130.196 E27.62782
G1 X178.916 Y130.633 E27.64738
G1 X179.266 Y131.279 E27.6755
G1 X179.473 Y131.791 E27.69663
G1 X179.5 Y131.86 E27.69947
G1 X179.726 Y132.479 E27.72469
G1 X179.85 Y132.965 E27.74388
G1 X179.98 Y133.82 E27.77698
G1 X180.114 Y134.787 E27.81434
G1 X180.56 Y137.46 E27.91805
G1 X181.098 Y140.201 E28.02495
G1 X181.705 Y142.887 E28.13033
G1 X182.379 Y145.527 E28.2346
G1 X183.149 Y148.219 E28.34176
G1 X183.977 Y150.831 E28.44662
G1 X184.892 Y153.457 E28.55304
G1 X185.789 Y155.824 E28.64991
G1 X186.084 Y156.688 E28.68485
G1 X186.131 Y157.135 E28.70205
G1 X186.098 Y157.582 E28.7192
G1 X185.986 Y158.017 E28.73639
G1 X185.8 Y158.426 E28.75359
G1 X185.543 Y158.794 E28.77077
G1 X185.226 Y159.112 E28.78795
G1 X184.664 Y159.468 E28.81341
G1 X182.106 Y160.648 E28.92122
G1 X179.601 Y161.892 E29.02825
G1 X177.204 Y163.169 E29.13219
G1 X174.807 Y164.534 E29.23775
G1 X172.45 Y165.967 E29.34332
G1 X170.151 Y167.453 E29.44808
G1 X167.834 Y169.048 E29.55573
G1 X167.329 Y169.414 E29.57959
G1 X166.047 Y170.3 E29.63923
G1 X165.644 Y170.534 E29.65707
G1 X164.994 Y170.796 E29.68389
G1 X164.541 Y170.935 E29.70202
G1 X163.912 Y171.097 E29.72688
G1 X162.284 Y171.527 E29.79132
G1 X161.675 Y171.637 E29.815
G1 X161.51 Y171.65 E29.82133
G1 X160.578 Y171.693 E29.85704
G1 X157.824 Y171.858 E29.96262
G1 X155.085 Y172.099 E30.06785
G1 X152.346 Y172.419 E30.17338
G1 X149.578 Y172.822 E30.28043
G1 X146.891 Y173.291 E30.38481
G1 X144.236 Y173.831 E30.4885
G1 X141.501 Y174.471 E30.59599
G1 X138.813 Y175.179 E30.70237
G1 X136.205 Y175.945 E30.80639
G1 X133.567 Y176.804 E30.91256
G1 X130.974 Y177.728 E31.01791
G1 X128.442 Y178.713 E31.12188
G1 X125.875 Y179.794 E31.22847
G1 X123.335 Y180.951 E31.33529
G1 X120.894 Y182.147 E31.43932
G1 X118.43 Y183.443 E31.54586
G1 X117.709 Y183.842 E31.57739
G1 X117.209 Y184.076 E31.59852
G1 X116.524 Y184.311 E31.62624
G1 X116.397 Y184.347 E31.63129
G1 X115.29 Y184.634 E31.67505
G1 X114.321 Y184.891 E31.71342
G1 X113.703 Y185.025 E31.73762
G1 X113.14 Y185.069 E31.75923
G1 X112.858 Y185.058 E31.77003
G1 X111.461 Y184.984 E31.82357
G1 X108.679 Y184.876 E31.93011
G1 X105.922 Y184.846 E32.03563
G1 X103.133 Y184.895 E32.14238
G1 X100.412 Y185.02 E32.24662
G1 X97.664 Y185.224 E32.35207
G1 X94.887 Y185.509 E32.45891
G1 X92.19 Y185.864 E32.56301
G1 X89.45 Y186.303 E32.66921
G1 X86.824 Y186.799 E32.77148
G1 X86.121 Y186.941 E32.79892
G1 X85.675 Y186.99 E32.8161
G1 X85.227 Y186.96 E32.83328
G1 X84.791 Y186.851 E32.85048
G1 X84.382 Y186.666 E32.86766
G1 X83.871 Y186.286 E32.89203
G1 X83.131 Y185.573 E32.93135
G1 X13.615 Y116.057 E36.69365
G1 X13.101 Y115.53 E36.72182
G1 X12.818 Y115.182 E36.73899
G1 X12.6 Y114.789 E36.75618
G1 X12.456 Y114.364 E36.77336
G1 X12.389 Y113.92 E36.79054
G1 X12.429 Y113.29 E36.8147
G1 X12.636 Y112.215 E36.85659
G1 X12.784 Y111.5 E36.88454
G1 X13.261 Y108.817 E36.98882
G1 X13.671 Y106.06 E37.09549
G1 X13.996 Y103.352 E37.19987
G1 X14.249 Y100.578 E37.30647
G1 X14.421 Y97.858 E37.41077
G1 X14.516 Y95.07 E37.51753
G1 X14.534 Y92.309 E37.62319
G1 X14.473 Y89.552 E37.72873
G1 X14.392 Y87.779 E37.79665
G1 X14.312 Y86.298 E37.85341
G1 X14.358 Y85.664 E37.87774
G1 X14.477 Y85.1 E37.8998
G1 X14.712 Y84.217 E37.93477
G1 X14.943 Y83.307 E37.9707
G1 X15.087 Y82.797 E37.99098
G1 X15.314 Y82.151 E38.01718
G1 X15.641 Y81.498 E38.04513
G1 X16.932 Y79.081 E38.14999
G1 X18.171 Y76.593 E38.25636
G1 X19.321 Y74.11 E38.36108
G1 X20.418 Y71.556 E38.46746
G1 X21.445 Y68.968 E38.57401
G1 X22.372 Y66.413 E38.67803
G1 X23.238 Y63.808 E38.78308
G1 X24.034 Y61.164 E38.88875
G1 X24.765 Y58.458 E38.99602
G1 X25.397 Y55.827 E39.09957
G1 X25.975 Y53.087 E39.20674
G1 X26.467 Y50.368 E39.31249
G1 X26.874 Y47.689 E39.41619
G1 X27.212 Y44.95 E39.5218
G1 X27.476 Y42.16 E39.62905
G1 X27.654 Y39.465 E39.73241
G1 X27.705 Y38.236 E39.77949
G1 X27.764 Y37.516 E39.80713
G1 X27.886 Y36.939 E39.8297
G1 X28.248 Y35.592 E39.88308
G1 X28.454 Y34.804 E39.91425
G1 X28.613 Y34.304 E39.93433
G1 X28.931 Y33.567 E39.96505
G1 X29.126 Y33.248 E39.97935
G1 X29.473 Y32.734 E40.00309
G1 X30.104 Y31.851 E40.04462
G1 X31.691 Y29.563 E40.15118
G1 X33.202 Y27.248 E40.25698
G1 X34.662 Y24.866 E40.3639
G1 X36.001 Y22.536 E40.46674
G1 X37.341 Y20.045 E40.57499
G0 F1285.7 X37.636 Y20.236
G1 F900 X38.871 Y17.773 E40.68043
G1 X39.866 Y15.654 E40.77002
G1 X40.223 Y14.871 E40.80295
G1 X40.432 Y14.51 E40.81892
G1 X40.705 Y14.196 E40.83484
G1 X41.034 Y13.939 E40.85082
G1 X41.405 Y13.75 E40.86675
G1 X41.806 Y13.635 E40.88271
G1 X42.221 Y13.599 E40.89866
G1 X42.635 Y13.643 E40.91459
G1 X43.034 Y13.764 E40.93055
G1 X43.497 Y14.026 E40.9509
G1 X44.323 Y14.638 E40.99025
G1 X46.577 Y16.263 E41.09659
G1 X48.846 Y17.802 E41.20151
G1 X51.195 Y19.3 E41.30813
G1 X53.558 Y20.715 E41.41353
G1 X55.986 Y22.077 E41.52007
G1 X58.424 Y23.355 E41.62541
G1 X60.942 Y24.586 E41.73268
G1 X61.798 Y24.994 E41.76897
G1 X61.901 Y25.046 E41.77338
G1 X62.365 Y25.379 E41.79524
G1 X62.659 Y25.656 E41.8107
G1 X67.415 Y30.415 E42.06818
G1 X67.913 Y30.929 E42.09557
G1 X68.161 Y31.236 E42.11067
G1 X69.718 Y33.574 E42.21817
G1 X71.33 Y35.854 E42.32503
G1 X72.98 Y38.052 E42.43021
G1 X74.699 Y40.213 E42.53588
G1 X76.492 Y42.339 E42.64232
G1 X78.324 Y44.391 E42.74759
G1 X80.235 Y46.415 E42.85412
G1 X82.184 Y48.363 E42.95957
G1 X84.2 Y50.27 E43.06577
G1 X86.259 Y52.108 E43.1714
G1 X88.387 Y53.902 E43.27791
