;FLAVOR:Marlin
;TIME:11286
;Filament used: 13.7029m
;Layer height: 0.3
;MINX:37.541
;MINY:10.599
;MINZ:0.26
;MAXX:192.457
;MAXY:183.887
;MAXZ:7.76
;Generated with Cura_SteamEngine 4.9.1
M82 ;absolute extrusion mode
;Begin Start Gcode for Dagoma DiscoEasy 200
;Sliced: 08-07-2021 02:12:11
;Initial extruder: 0

G90 ;Absolute positioning
M106 S255 ;Fan on full
G28 X Y ;Home stop X Y
G1 X100 ;Centre back during cooldown in case of oozing
M109 R90 ;Cooldown in case too hot
G28 ;Centre
G29 ;Auto-level
M104 S205 ;Pre-heat
M107 ;Fan off
G0 X100 Y5 Z0.5 ;Front centre for degunk
M109 S205 ;Wait for initial temp
M83 ;E Relative
G1 E10 F200 ;Degunk
G1 E-3 F5000 ;Retract
G0 Z3 ;Withdraw
M82 ;E absolute
G92 E0 ;E reset
G1 F6000 ;Set feedrate

;Finish Start Gcode for Dagoma DiscoEasy 200

G92 E0
G92 E0
G1 F3000 E-3.5
;LAYER_COUNT:26
;LAYER:0
M107
G0 F1285.7 X84.949 Y13.05 Z0.26
;TYPE:SKIRT
G1 F3000 E0
G1 F900 X85.281 Y12.495 E0.02475
G1 X85.6 Y12.039 E0.04605
G1 X85.981 Y11.634 E0.06733
G1 X86.416 Y11.287 E0.08862
G1 X86.897 Y11.006 E0.10994
G1 X87.412 Y10.797 E0.13121
G1 X87.953 Y10.664 E0.15253
G1 X88.55 Y10.609 E0.17547
G1 X89.237 Y10.599 E0.20177
G1 X187.949 Y10.599 E3.97943
G1 X188.639 Y10.609 E4.00584
G1 X189.193 Y10.657 E4.02712
G1 X189.735 Y10.784 E4.04842
G1 X190.253 Y10.987 E4.06971
G1 X190.737 Y11.263 E4.09104
G1 X191.176 Y11.604 E4.11231
G1 X191.562 Y12.005 E4.13361
G1 X191.886 Y12.458 E4.15492
G1 X192.142 Y12.952 E4.17622
G1 X192.325 Y13.477 E4.19749
G1 X192.431 Y14.023 E4.21878
G1 X192.457 Y14.579 E4.24008
G1 X192.403 Y15.133 E4.26138
G1 X192.271 Y15.673 E4.28266
G1 X191.966 Y16.374 E4.31191
G1 X191.606 Y17.017 E4.34011
G1 X97.867 Y179.378 E11.51482
G1 X97.519 Y179.96 E11.54077
G1 X97.2 Y180.415 E11.56203
G1 X96.819 Y180.821 E11.58334
G1 X96.383 Y181.168 E11.60467
G1 X95.903 Y181.448 E11.62593
G1 X95.34 Y181.672 E11.64912
G1 X94.658 Y181.869 E11.67629
G1 X88.232 Y183.59 E11.93087
G1 X87.513 Y183.772 E11.95926
G1 X86.965 Y183.869 E11.98055
G1 X86.409 Y183.887 E12.00184
G1 X85.856 Y183.825 E12.02314
G1 X85.318 Y183.685 E12.04441
G1 X84.805 Y183.469 E12.06572
G1 X84.328 Y183.181 E12.08704
G1 X83.898 Y182.829 E12.10831
G1 X83.522 Y182.418 E12.12962
G1 X83.186 Y181.917 E12.15271
G1 X82.693 Y181.04 E12.19121
G1 X38.309 Y98.659 E15.77234
G1 X37.976 Y98.021 E15.79988
G1 X37.754 Y97.511 E15.82117
G1 X37.608 Y96.974 E15.84247
G1 X37.541 Y96.421 E15.86378
G1 X37.553 Y95.865 E15.88507
G1 X37.645 Y95.316 E15.90637
G1 X37.814 Y94.786 E15.92766
G1 X38.027 Y94.341 E15.94654
G1 X38.389 Y93.691 E15.97501
G1 X84.949 Y13.05 E19.53856
G0 F1285.7 X85.249 Y13.229
G1 F900 X85.581 Y12.674 E19.56331
G1 X85.887 Y12.241 E19.5836
G1 X86.254 Y11.858 E19.6039
G1 X86.675 Y11.535 E19.62421
G1 X87.14 Y11.278 E19.64454
G1 X87.638 Y11.095 E19.66484
G1 X88.157 Y10.988 E19.68512
G1 X88.555 Y10.959 E19.7004
G1 X89.242 Y10.949 E19.72669
G1 X187.944 Y10.949 E23.50397
G1 X188.634 Y10.959 E23.53038
G1 X189.163 Y11.007 E23.5507
G1 X189.678 Y11.133 E23.57099
G1 X190.169 Y11.336 E23.59133
G1 X190.623 Y11.609 E23.6116
G1 X191.032 Y11.948 E23.63193
G1 X191.384 Y12.345 E23.65224
G1 X191.674 Y12.789 E23.67253
G1 X191.893 Y13.273 E23.69286
G1 X192.038 Y13.783 E23.71315
G1 X192.104 Y14.31 E23.73348
G1 X192.09 Y14.84 E23.75377
G1 X191.997 Y15.363 E23.7741
G1 X191.826 Y15.865 E23.79439
G1 X191.66 Y16.203 E23.8088
G1 X191.303 Y16.842 E23.83681
G1 X97.566 Y179.198 E31.01131
G1 X97.218 Y179.78 E31.03726
G1 X96.913 Y180.214 E31.05756
G1 X96.545 Y180.597 E31.07789
G1 X96.124 Y180.92 E31.0982
G1 X95.66 Y181.176 E31.11848
G1 X95.094 Y181.382 E31.14153
G1 X94.564 Y181.532 E31.16261
G1 X88.146 Y183.25 E31.41687
G1 X87.427 Y183.432 E31.44525
G1 X86.904 Y183.523 E31.46557
G1 X86.374 Y183.535 E31.48586
G1 X85.847 Y183.467 E31.50619
G1 X85.337 Y183.32 E31.5265
G1 X84.855 Y183.099 E31.5468
G1 X84.411 Y182.808 E31.56711
G1 X84.017 Y182.453 E31.58741
G1 X83.679 Y182.044 E31.60771
G1 X83.491 Y181.745 E31.62123
G1 X83.001 Y180.874 E31.65948
G1 X38.619 Y98.497 E35.24043
G1 X38.286 Y97.859 E35.26798
G1 X38.077 Y97.371 E35.28829
G1 X37.943 Y96.858 E35.30858
G1 X37.887 Y96.33 E35.3289
G1 X37.912 Y95.8 E35.34921
G1 X38.016 Y95.28 E35.3695
G1 X38.197 Y94.781 E35.38982
G1 X38.332 Y94.511 E35.40137
G1 X38.692 Y93.866 E35.42964
G1 X85.249 Y13.229 E38.993
G0 F1285.7 X85.549 Y13.409
G1 F900 X85.881 Y12.854 E39.01774
G1 X86.173 Y12.444 E39.03701
G1 X86.526 Y12.085 E39.05628
G1 X86.932 Y11.786 E39.07557
G1 X87.38 Y11.555 E39.09486
G1 X87.858 Y11.398 E39.11412
G1 X88.56 Y11.309 E39.1412
G1 X89.247 Y11.299 E39.16749
G1 X187.939 Y11.299 E42.94439
G1 X188.629 Y11.309 E42.97079
G1 X189.13 Y11.357 E42.99006
G1 X189.618 Y11.482 E43.00933
G1 X190.08 Y11.684 E43.02863
G1 X190.503 Y11.956 E43.04788
G1 X190.879 Y12.291 E43.06715
G1 X191.197 Y12.682 E43.08644
G1 X191.449 Y13.118 E43.10571
G1 X191.629 Y13.588 E43.12497
G1 X191.732 Y14.081 E43.14424
G1 X191.756 Y14.584 E43.16351
G1 X191.701 Y15.084 E43.18276
G1 X191.567 Y15.57 E43.20206
G1 X191.355 Y16.033 E43.22155
G1 X191 Y16.667 E43.24935
G1 X97.266 Y179.018 E50.42363
G1 X96.918 Y179.6 E50.44958
G1 X96.626 Y180.011 E50.46887
G1 X96.273 Y180.37 E50.48814
G1 X95.868 Y180.668 E50.50738
G1 X95.42 Y180.899 E50.52667
G1 X94.904 Y181.073 E50.54751
G1 X94.438 Y181.203 E50.56603
G1 X88.06 Y182.911 E50.81871
G1 X87.341 Y183.093 E50.84709
G1 X86.845 Y183.177 E50.86635
G1 X86.341 Y183.182 E50.88564
G1 X85.843 Y183.108 E50.9049
G1 X85.363 Y182.955 E50.92418
G1 X84.913 Y182.728 E50.94347
G1 X84.505 Y182.434 E50.96272
G1 X84.149 Y182.078 E50.98198
G1 X83.796 Y181.573 E51.00556
G1 X83.309 Y180.708 E51.04355
G1 X38.929 Y98.335 E54.62434
G1 X38.596 Y97.697 E54.65188
G1 X38.399 Y97.234 E54.67114
G1 X38.278 Y96.745 E54.69042
G1 X38.236 Y96.243 E54.70969
G1 X38.274 Y95.741 E54.72896
G1 X38.39 Y95.251 E54.74823
G1 X38.638 Y94.682 E54.77198
G1 X38.995 Y94.041 E54.80006
G1 X85.549 Y13.409 E58.3632
G1 F3000 E54.8632
;MESH:support_half_hex_02.stl
G0 F1285.7 X87.743 Y14.679
G0 X88.617 Y15.182
G0 X93.854 Y177.529
;TYPE:WALL-INNER
G1 F3000 E58.3632
G1 F900 X86.815 Y179.415 E58.64208
G1 X42.001 Y96.235 E62.25793
G1 X88.902 Y14.999 E65.84773
G1 X187.388 Y14.999 E69.61674
G1 X187.389 Y14.999 E69.61678
G1 X187.691 Y14.999 E69.62833
G1 X187.54 Y15.261 E69.6349
G1 X93.854 Y177.529 E76.8055
G0 F1285.7 X94.068 Y177.808
;TYPE:WALL-OUTER
G1 F900 X86.651 Y179.795 E77.09936
G1 X41.629 Y96.23 E80.73196
G1 X88.715 Y14.674 E84.3359
G1 X187.951 Y14.674 E88.13361
G1 X187.952 Y14.674 E88.13365
G1 X188.254 Y14.674 E88.14521
G1 X188.103 Y14.936 E88.15177
G1 X94.068 Y177.808 E95.34907
G0 F1285.7 X93.875 Y177.859
G0 X93.629 Y177.238
;TYPE:SKIN
G1 F900 X86.986 Y179.017 E95.61225
G1 X42.39 Y96.241 E99.21054
G1 X89.098 Y15.339 E102.78557
G1 X187.101 Y15.339 E106.5361
G1 X93.629 Y177.238 E113.69038
G0 F1285.7 X87.22 Y178.79
G1 F900 X86.835 Y178.405 E113.71122
G0 F1285.7 X87.61 Y178.685
G1 F900 X86.257 Y177.332 E113.78444
G1 X86.195 Y177.27
G0 F1285.7 X85.678 Y176.259
G1 F900 X88 Y178.581 E113.91011
G0 F1285.7 X88.391 Y178.476
G1 F900 X85.101 Y175.186 E114.08817
G1 X85.039 Y175.124
G0 F1285.7 X84.522 Y174.113
G1 F900 X88.781 Y178.371 E114.31865
G0 F1285.7 X89.171 Y178.267
G1 F900 X83.944 Y173.039 E114.60156
G1 X83.882 Y172.977
G0 F1285.7 X83.366 Y171.966
G1 F900 X89.562 Y178.162 E114.9369
G0 F1285.7 X89.953 Y178.058
G1 F900 X82.788 Y170.893 E115.32468
G1 X82.726 Y170.831
G0 F1285.7 X82.21 Y169.82
G1 F900 X90.343 Y177.954 E115.76487
G0 F1285.7 X90.733 Y177.849
G1 F900 X81.631 Y168.747 E116.25749
G1 X81.569 Y168.685
G0 F1285.7 X81.053 Y167.674
G1 F900 X91.124 Y177.744 E116.80251
G0 F1285.7 X91.514 Y177.64
G1 F900 X80.475 Y166.601 E117.39996
G1 X80.413 Y166.539
G0 F1285.7 X79.897 Y165.528
G1 F900 X91.904 Y177.535 E118.04979
G0 F1285.7 X92.295 Y177.43
G1 F900 X79.318 Y164.454 E118.7521
G1 X79.256 Y164.392
G0 F1285.7 X78.741 Y163.381
G1 F900 X92.685 Y177.326 E119.50679
G0 F1285.7 X93.075 Y177.221
G1 F900 X78.162 Y162.308 E120.3139
G1 X78.1 Y162.246
G0 F1285.7 X77.584 Y161.235
G1 F900 X93.466 Y177.116 E121.17343
G0 F1285.7 X93.679 Y176.835
G1 F900 X77.006 Y160.162 E122.07579
G1 X76.944 Y160.1
G0 F1285.7 X76.428 Y159.089
G1 F900 X93.86 Y176.521 E123.01924
G0 F1285.7 X94.041 Y176.207
G1 F900 X75.849 Y158.015 E124.00381
G1 X75.787 Y157.953
G0 F1285.7 X75.272 Y156.943
G1 F900 X94.222 Y175.893 E125.02941
G0 F1285.7 X94.404 Y175.58
G1 F900 X74.693 Y155.869 E126.09619
G1 X74.631 Y155.807
G0 F1285.7 X74.115 Y154.796
G1 F900 X94.585 Y175.266 E127.20406
G0 F1285.7 X94.766 Y174.952
G1 F900 X73.537 Y153.723 E128.353
G1 X73.475 Y153.661
G0 F1285.7 X72.959 Y152.65
G1 F900 X94.947 Y174.638 E129.54301
G0 F1285.7 X95.128 Y174.324
G1 F900 X72.38 Y151.576 E130.77417
G1 X72.318 Y151.514
G0 F1285.7 X71.803 Y150.504
G1 F900 X95.31 Y174.011 E132.04639
G0 F1285.7 X95.491 Y173.697
G1 F900 X71.224 Y149.43 E133.35975
G1 X71.162 Y149.368
G0 F1285.7 X70.646 Y148.357
G1 F900 X95.672 Y173.383 E134.71419
G0 F1285.7 X95.853 Y173.069
G1 F900 X70.068 Y147.284 E136.10971
G1 X70.006 Y147.222
G0 F1285.7 X69.49 Y146.211
G1 F900 X96.035 Y172.756 E137.54636
G0 F1285.7 X96.216 Y172.442
G1 F900 X68.911 Y145.137 E139.02414
G1 X68.849 Y145.075
G0 F1285.7 X68.334 Y144.065
G1 F900 X96.397 Y172.128 E140.54295
G0 F1285.7 X96.578 Y171.814
G1 F900 X67.755 Y142.991 E142.10288
G1 X67.693 Y142.929
G0 F1285.7 X67.177 Y141.918
G1 F900 X96.759 Y171.5 E143.7039
G0 F1285.7 X96.94 Y171.187
G1 F900 X66.599 Y140.845 E145.34602
G1 X66.537 Y140.783
G0 F1285.7 X66.021 Y139.772
G1 F900 X97.121 Y170.873 E147.02922
G0 F1285.7 X97.302 Y170.559
G1 F900 X65.442 Y138.698 E148.75355
G1 X65.38 Y138.636
G0 F1285.7 X64.865 Y137.626
G1 F900 X97.483 Y170.245 E150.5189
G0 F1285.7 X97.664 Y169.931
G1 F900 X64.286 Y136.552 E152.32539
G1 X64.224 Y136.49
G0 F1285.7 X63.708 Y135.479
G1 F900 X97.846 Y169.617 E154.17298
G0 F1285.7 X98.027 Y169.303
G1 F900 X63.13 Y134.406 E156.06165
G1 X63.068 Y134.344
G0 F1285.7 X62.552 Y133.333
G1 F900 X98.208 Y168.99 E157.99143
G0 F1285.7 X98.389 Y168.676
G1 F900 X61.973 Y132.26 E159.96231
G1 X61.911 Y132.198
G0 F1285.7 X61.395 Y131.187
G1 F900 X98.571 Y168.362 E161.97429
G0 F1285.7 X98.752 Y168.048
G1 F900 X60.817 Y130.114 E164.02736
G1 X60.755 Y130.052
G0 F1285.7 X60.239 Y129.04
G1 F900 X98.933 Y167.734 E166.12153
G0 F1285.7 X99.114 Y167.42
G1 F900 X59.661 Y127.967 E168.25677
G1 X59.599 Y127.905
G0 F1285.7 X59.083 Y126.894
G1 F900 X99.295 Y167.107 E170.43313
G0 F1285.7 X99.477 Y166.793
G1 F900 X58.505 Y125.821 E172.65058
G1 X58.443 Y125.759
G0 F1285.7 X57.926 Y124.748
G1 F900 X99.658 Y166.479 E174.90914
G0 F1285.7 X99.839 Y166.165
G1 F900 X57.348 Y123.675 E177.20878
G1 X57.286 Y123.613
G0 F1285.7 X56.77 Y122.602
G1 F900 X100.02 Y165.851 E179.5495
G0 F1285.7 X100.201 Y165.538
G1 F900 X56.192 Y121.529 E181.93133
G1 X56.13 Y121.467
G0 F1285.7 X55.613 Y120.455
G1 F900 X100.382 Y165.224 E184.35428
G0 F1285.7 X100.564 Y164.91
G1 F900 X55.036 Y119.382 E186.81831
G1 X54.974 Y119.32
G0 F1285.7 X54.457 Y118.309
G1 F900 X100.745 Y164.596 E189.32345
G0 F1285.7 X100.926 Y164.282
G1 F900 X53.879 Y117.236 E191.86967
G1 X53.817 Y117.174
G0 F1285.7 X53.301 Y116.163
G1 F900 X101.107 Y163.969 E194.45699
G0 F1285.7 X101.288 Y163.655
G1 F900 X52.723 Y115.09 E197.08539
G1 X52.661 Y115.028
G0 F1285.7 X52.144 Y114.016
G1 F900 X101.469 Y163.341 E199.75492
G0 F1285.7 X101.65 Y163.027
G1 F900 X51.567 Y112.944 E202.46548
G1 X51.505 Y112.882
G0 F1285.7 X50.988 Y111.87
G1 F900 X101.832 Y162.714 E205.21722
G0 F1285.7 X102.013 Y162.4
G1 F900 X50.41 Y110.797 E208.01004
G1 X50.348 Y110.735
G0 F1285.7 X49.832 Y109.724
G1 F900 X102.194 Y162.086 E210.84394
G0 F1285.7 X102.375 Y161.772
G1 F900 X49.254 Y108.651 E213.71891
G1 X49.192 Y108.589
G0 F1285.7 X48.675 Y107.577
G1 F900 X102.556 Y161.458 E216.63502
G0 F1285.7 X102.738 Y161.145
G1 F900 X48.098 Y106.505 E219.59221
G1 X48.036 Y106.443
G0 F1285.7 X47.519 Y105.431
G1 F900 X102.919 Y160.831 E222.59053
G0 F1285.7 X103.1 Y160.517
G1 F900 X46.941 Y104.358 E225.62992
G1 X46.879 Y104.296
G0 F1285.7 X46.363 Y103.285
G1 F900 X103.281 Y160.203 E228.7104
G0 F1285.7 X103.463 Y159.89
G1 F900 X45.785 Y102.212 E231.83201
G1 X45.723 Y102.15
G0 F1285.7 X45.206 Y101.138
G1 F900 X103.644 Y159.576 E234.99474
G0 F1285.7 X103.825 Y159.262
G1 F900 X44.629 Y100.066 E238.19851
G1 X44.567 Y100.004
G0 F1285.7 X44.05 Y98.992
G1 F900 X104.006 Y158.948 E241.4434
G0 F1285.7 X104.187 Y158.634
G1 F900 X43.472 Y97.919 E244.72938
G1 X43.41 Y97.857
G0 F1285.7 X42.894 Y96.846
G1 F900 X104.368 Y158.321 E248.05645
G0 F1285.7 X104.549 Y158.007
G1 F900 X42.648 Y96.105 E251.40664
G0 F1285.7 X42.829 Y95.791
G1 F900 X104.73 Y157.693 E254.75683
G0 F1285.7 X104.912 Y157.379
G1 F900 X43.01 Y95.477 E258.10705
G0 F1285.7 X43.191 Y95.163
G1 F900 X105.093 Y157.065 E261.45726
G0 F1285.7 X105.274 Y156.752
G1 F900 X43.372 Y94.849 E264.8075
G0 F1285.7 X43.554 Y94.536
G1 F900 X105.455 Y156.438 E268.15769
G0 F1285.7 X105.636 Y156.124
G1 F900 X43.735 Y94.222 E271.50788
G0 F1285.7 X43.916 Y93.908
G1 F900 X105.817 Y155.81 E274.85807
G0 F1285.7 X105.999 Y155.497
G1 F900 X44.097 Y93.594 E278.20831
G0 F1285.7 X44.278 Y93.28
G1 F900 X106.18 Y155.183 E281.55855
G0 F1285.7 X106.361 Y154.869
G1 F900 X44.46 Y92.967 E284.90874
G0 F1285.7 X44.641 Y92.653
G1 F900 X106.542 Y154.555 E288.25893
G0 F1285.7 X106.723 Y154.241
G1 F900 X44.822 Y92.339 E291.60912
G0 F1285.7 X45.003 Y92.025
G1 F900 X106.905 Y153.927 E294.95933
G0 F1285.7 X107.086 Y153.613
G1 F900 X45.184 Y91.712 E298.30952
G0 F1285.7 X45.365 Y91.398
G1 F900 X107.267 Y153.3 E301.65973
G0 F1285.7 X107.448 Y152.986
G1 F900 X45.546 Y91.084 E305.00995
G0 F1285.7 X45.727 Y90.77
G1 F900 X107.63 Y152.672 E308.36019
G0 F1285.7 X107.811 Y152.358
G1 F900 X45.908 Y90.456 E311.71043
G0 F1285.7 X46.09 Y90.143
G1 F900 X107.992 Y152.044 E315.06062
G0 F1285.7 X108.173 Y151.73
G1 F900 X46.271 Y89.829 E318.41081
G0 F1285.7 X46.452 Y89.515
G1 F900 X108.354 Y151.417 E321.76102
G0 F1285.7 X108.535 Y151.103
G1 F900 X46.633 Y89.201 E325.11124
G0 F1285.7 X46.814 Y88.887
G1 F900 X108.716 Y150.789 E328.46145
G0 F1285.7 X108.897 Y150.475
G1 F900 X46.996 Y88.574 E331.81162
G0 F1285.7 X47.177 Y88.26
G1 F900 X109.078 Y150.161 E335.16178
G0 F1285.7 X109.26 Y149.848
G1 F900 X47.358 Y87.946 E338.51199
G0 F1285.7 X47.539 Y87.632
G1 F900 X109.441 Y149.534 E341.86221
G0 F1285.7 X109.622 Y149.22
G1 F900 X47.721 Y87.319 E345.21237
G0 F1285.7 X47.902 Y87.005
G1 F900 X109.803 Y148.906 E348.56253
G0 F1285.7 X109.984 Y148.592
G1 F900 X48.083 Y86.691 E351.91269
G0 F1285.7 X48.264 Y86.377
G1 F900 X110.166 Y148.279 E355.2629
G0 F1285.7 X110.347 Y147.965
G1 F900 X48.445 Y86.063 E358.61312
G0 F1285.7 X48.627 Y85.75
G1 F900 X110.528 Y147.651 E361.96328
G0 F1285.7 X110.709 Y147.337
G1 F900 X48.808 Y85.436 E365.31344
G0 F1285.7 X48.989 Y85.122
G1 F900 X110.891 Y147.024 E368.66366
G0 F1285.7 X111.072 Y146.71
G1 F900 X49.17 Y84.808 E372.01387
G0 F1285.7 X49.351 Y84.495
G1 F900 X111.253 Y146.396 E375.36406
G0 F1285.7 X111.434 Y146.082
G1 F900 X49.532 Y84.181 E378.71425
G0 F1285.7 X49.713 Y83.867
G1 F900 X111.615 Y145.768 E382.06444
G0 F1285.7 X111.797 Y145.455
G1 F900 X49.894 Y83.553 E385.41468
G0 F1285.7 X50.075 Y83.239
G1 F900 X111.978 Y145.141 E388.76492
G0 F1285.7 X112.159 Y144.827
G1 F900 X50.257 Y82.925 E392.11514
G0 F1285.7 X50.438 Y82.611
G1 F900 X112.34 Y144.513 E395.46535
G0 F1285.7 X112.521 Y144.199
G1 F900 X50.619 Y82.298 E398.81554
G0 F1285.7 X50.8 Y81.984
G1 F900 X112.702 Y143.886 E402.16575
G0 F1285.7 X112.883 Y143.572
G1 F900 X50.981 Y81.67 E405.51597
G0 F1285.7 X51.163 Y81.356
G1 F900 X113.064 Y143.258 E408.86616
G0 F1285.7 X113.245 Y142.944
G1 F900 X51.344 Y81.042 E412.21635
G0 F1285.7 X51.525 Y80.728
G1 F900 X113.427 Y142.631 E415.56659
G0 F1285.7 X113.608 Y142.317
G1 F900 X51.706 Y80.415 E418.9168
G0 F1285.7 X51.888 Y80.101
G1 F900 X113.789 Y142.003 E422.26699
G0 F1285.7 X113.97 Y141.689
G1 F900 X52.069 Y79.787 E425.61718
G0 F1285.7 X52.25 Y79.473
G1 F900 X114.151 Y141.375 E428.96737
G0 F1285.7 X114.333 Y141.062
G1 F900 X52.431 Y79.159 E432.31761
G0 F1285.7 X52.612 Y78.845
G1 F900 X114.514 Y140.748 E435.66785
G0 F1285.7 X114.695 Y140.434
G1 F900 X52.794 Y78.532 E439.01804
