;FLAVOR:Marlin
;TIME:24467
;Filament used: 25.7703m
;Layer height: 0.3
;MINX:11.91
;MINY:11.002
;MINZ:0.26
;MAXX:191.262
;MAXY:184.995
;MAXZ:29.06
;Generated with Cura_SteamEngine 4.9.1
M82 ;absolute extrusion mode
;Begin Start Gcode for Dagoma DiscoEasy 200
;Sliced: 26-07-2021 01:47:28
;Initial extruder: 0

G90 ;Absolute positioning
M106 S255 ;Fan on full
G28 X Y ;Home stop X Y
G1 X100 ;Centre back during cooldown in case of oozing
M109 R90 ;Cooldown in case too hot
G28 ;Centre
G29 ;Auto-level
M104 S205 ;Pre-heat
M107 ;Fan off
G0 X100 Y5 Z0.5 ;Front centre for degunk
M109 S205 ;Wait for initial temp
M83 ;E Relative
G1 E10 F200 ;Degunk
G1 E-3 F5000 ;Retract
G0 Z3 ;Withdraw
M82 ;E absolute
G92 E0 ;E reset
G1 F6000 ;Set feedrate

;Finish Start Gcode for Dagoma DiscoEasy 200

G92 E0
G92 E0
G1 F3000 E-3.5
;LAYER_COUNT:97
;LAYER:0
M107
G0 F1285.7 X38.633 Y19.545 Z0.26
;TYPE:SKIRT
G1 F3000 E0
G1 F900 X39.867 Y17.116 E0.10426
G1 X41.054 Y14.607 E0.21049
G1 X41.569 Y13.434 E0.25951
G1 X41.909 Y12.686 E0.29096
G1 X42.143 Y12.268 E0.30929
G1 X42.443 Y11.895 E0.32761
G1 X42.801 Y11.576 E0.34596
G1 X43.207 Y11.322 E0.36429
G1 X43.649 Y11.138 E0.38261
G1 X44.116 Y11.03 E0.40095
G1 X44.595 Y11.002 E0.41931
G1 X45.071 Y11.053 E0.43763
G1 X45.532 Y11.183 E0.45596
G1 X45.966 Y11.387 E0.47432
G1 X46.488 Y11.774 E0.49918
G1 X46.836 Y12.108 E0.51764
G1 X110.262 Y75.534 E3.95034
G1 X112.256 Y77.472 E4.05675
G1 X114.293 Y79.343 E4.1626
G1 X116.37 Y81.144 E4.26781
G1 X118.478 Y82.874 E4.37217
G1 X120.651 Y84.553 E4.47726
G1 X122.868 Y86.168 E4.58223
G1 X125.141 Y87.728 E4.68773
G1 X127.445 Y89.217 E4.79272
G1 X129.812 Y90.652 E4.89865
G1 X132.176 Y91.995 E5.00269
G1 X134.623 Y93.296 E5.10875
G1 X135.384 Y93.672 E5.14124
G1 X135.45 Y93.712 E5.14419
G1 X136.326 Y94.154 E5.18174
G1 X136.877 Y94.447 E5.20562
G1 X137.431 Y94.828 E5.23135
G1 X137.915 Y95.26 E5.25618
G1 X138.627 Y95.98 E5.29493
G1 X139.461 Y96.838 E5.34072
G1 X139.919 Y97.34 E5.36673
G1 X140.221 Y97.735 E5.38576
G1 X140.965 Y98.91 E5.43898
G1 X141.064 Y99.071 E5.44621
G1 X142.579 Y101.385 E5.55206
G1 X144.126 Y103.61 E5.65577
G1 X145.774 Y105.84 E5.76189
G1 X147.471 Y108.009 E5.86728
G1 X149.206 Y110.098 E5.9712
G1 X151.044 Y112.189 E6.07774
G1 X152.898 Y114.183 E6.18194
G1 X154.827 Y116.144 E6.28721
G1 X156.814 Y118.051 E6.39261
G1 X158.86 Y119.908 E6.49835
G1 X160.903 Y121.658 E6.6013
G1 X163.065 Y123.408 E6.70774
G1 X165.263 Y125.083 E6.8135
G1 X167.501 Y126.693 E6.91901
G1 X169.743 Y128.212 E7.02264
G1 X172.235 Y129.79 E7.13552
G1 X172.756 Y130.16 E7.15998
G1 X173.275 Y130.624 E7.18662
G1 X173.395 Y130.742 E7.19306
G1 X173.937 Y131.307 E7.22302
G1 X175.015 Y132.415 E7.28218
G1 X175.349 Y132.802 E7.30175
G1 X175.659 Y133.253 E7.32269
G1 X175.898 Y133.701 E7.34212
G1 X176.166 Y134.247 E7.3654
G1 X177.42 Y136.728 E7.47179
G1 X178.735 Y139.154 E7.57739
G1 X180.105 Y141.519 E7.68199
G1 X181.568 Y143.89 E7.78861
G1 X183.053 Y146.15 E7.8921
G1 X184.637 Y148.418 E7.99796
G1 X186.262 Y150.611 E8.10242
G1 X187.963 Y152.774 E8.20773
G1 X190.103 Y155.33 E8.3353
G1 X190.56 Y155.856 E8.36197
G1 X190.843 Y156.243 E8.38031
G1 X191.058 Y156.671 E8.39864
G1 X191.199 Y157.129 E8.41698
G1 X191.262 Y157.604 E8.43532
G1 X191.245 Y158.083 E8.45366
G1 X191.148 Y158.553 E8.47203
G1 X190.975 Y159 E8.49037
G1 X190.731 Y159.411 E8.50866
G1 X190.421 Y159.777 E8.52702
G1 X190.055 Y160.086 E8.54535
G1 X189.642 Y160.33 E8.56371
G1 X189.023 Y160.552 E8.58887
G1 X188.666 Y160.644 E8.60298
G1 X90.983 Y184.764 E12.45354
G1 X90.289 Y184.926 E12.48081
G1 X89.814 Y184.995 E12.49918
G1 X89.335 Y184.985 E12.51752
G1 X88.865 Y184.896 E12.53582
G1 X88.415 Y184.729 E12.55419
G1 X88.035 Y184.515 E12.57088
G1 X87.312 Y184.03 E12.6042
G1 X86.416 Y183.41 E12.6459
G1 X84.092 Y181.898 E12.752
G1 X81.776 Y180.482 E12.85589
G1 X79.383 Y179.111 E12.96143
G1 X76.933 Y177.797 E13.06783
G1 X74.509 Y176.585 E13.17154
G1 X72 Y175.418 E13.27744
G1 X69.5 Y174.338 E13.38166
G1 X66.898 Y173.301 E13.48885
G1 X64.898 Y172.565 E13.57041
G1 X64.357 Y172.372 E13.59239
G1 X64.231 Y172.324 E13.59755
G1 X63.717 Y172.113 E13.61881
G1 X63.278 Y171.886 E13.63773
G1 X62.764 Y171.562 E13.66098
G1 X62.327 Y171.265 E13.6812
G1 X62.166 Y171.146 E13.68886
G1 X60.167 Y169.592 E13.78576
G1 X58.171 Y168.125 E13.88056
G1 X57.119 Y167.371 E13.93009
G1 X56.754 Y167.06 E13.94844
G1 X56.35 Y166.549 E13.97337
G1 X55.865 Y165.765 E14.00865
G1 X54.392 Y163.454 E14.11353
G1 X52.846 Y161.176 E14.21889
G1 X51.237 Y158.942 E14.32425
G1 X49.562 Y156.75 E14.42982
G1 X47.867 Y154.657 E14.53289
G1 X46.035 Y152.522 E14.64055
G1 X44.205 Y150.507 E14.74472
G1 X42.308 Y148.533 E14.8495
G1 X40.327 Y146.586 E14.95579
G1 X38.327 Y144.73 E15.06021
G1 X36.263 Y142.919 E15.1653
G1 X34.155 Y141.171 E15.27009
G1 X31.988 Y139.476 E15.37538
G1 X29.771 Y137.843 E15.48076
G1 X27.622 Y136.347 E15.58096
G1 X27.057 Y135.965 E15.60706
G1 X26.8 Y135.77 E15.61941
G1 X25.864 Y134.971 E15.6665
G1 X24.577 Y133.89 E15.73083
G1 X24.411 Y133.74 E15.73939
G1 X23.998 Y133.337 E15.76147
G1 X22.735 Y132.07 E15.82994
G1 X22.064 Y131.435 E15.86529
G1 X21.338 Y130.728 E15.90407
G1 X21.024 Y130.366 E15.92241
G1 X20.774 Y129.957 E15.94075
G1 X20.529 Y129.253 E15.96928
G1 X20.427 Y128.762 E15.98847
G1 X19.828 Y126.073 E16.0939
G1 X19.158 Y123.422 E16.19854
G1 X18.409 Y120.772 E16.30393
G1 X17.594 Y118.174 E16.40813
G1 X16.688 Y115.549 E16.51441
G1 X15.716 Y112.971 E16.61984
G1 X15.42 Y112.249 E16.64971
G1 X15.025 Y111.246 E16.69096
G1 X14.887 Y110.788 E16.70927
G1 X14.827 Y110.312 E16.72763
G1 X14.87 Y109.663 E16.75252
G1 X15.198 Y106.943 E16.85737
G1 X15.45 Y104.189 E16.9632
G1 X15.623 Y101.452 E17.06815
G1 X15.718 Y98.721 E17.17273
G1 X15.737 Y95.932 E17.27947
G1 X15.678 Y93.212 E17.38358
G1 X15.541 Y90.471 E17.48861
G1 X15.439 Y89.162 E17.53886
G1 X15.406 Y88.628 E17.55933
G1 X15.417 Y88.149 E17.57767
G1 X15.493 Y87.728 E17.59404
G1 X15.745 Y86.76 E17.63232
G1 X17.403 Y80.809 E17.86874
G1 X17.591 Y80.17 E17.89423
G1 X17.785 Y79.68 E17.91439
G1 X19.069 Y77.149 E18.02301
G1 X20.244 Y74.667 E18.1281
G1 X21.355 Y72.135 E18.23391
G1 X22.398 Y69.569 E18.33992
G1 X23.344 Y67.026 E18.44375
G1 X24.236 Y64.411 E18.54949
G1 X25.047 Y61.794 E18.65434
G1 X25.777 Y59.177 E18.75831
G1 X26.447 Y56.487 E18.8644
G1 X27.045 Y53.765 E18.97106
G1 X27.542 Y51.13 E19.07367
G1 X27.987 Y48.354 E19.18127
G1 X28.337 Y45.692 E19.28402
G1 X28.622 Y42.925 E19.39047
G1 X28.754 Y41.269 E19.45404
G1 X28.836 Y40.115 E19.49832
G1 X28.918 Y39.589 E19.51869
G1 X28.998 Y39.267 E19.53139
G1 X30.829 Y32.7 E19.79229
G1 X31.034 Y31.997 E19.82031
G1 X31.206 Y31.55 E19.83864
G1 X31.476 Y31.096 E19.85886
G1 X32.969 Y28.968 E19.95834
G1 X34.482 Y26.676 E20.06344
G1 X35.948 Y24.314 E20.16983
G1 X37.317 Y21.96 E20.27404
G1 X38.633 Y19.545 E20.3793
G0 F1285.7 X38.946 Y19.702
G1 F900 X40.19 Y17.253 E20.48442
G1 X41.372 Y14.755 E20.59017
G1 X41.887 Y13.579 E20.63931
G1 X42.227 Y12.831 E20.67075
G1 X42.449 Y12.441 E20.68792
G1 X42.736 Y12.095 E20.70513
G1 X43.08 Y11.806 E20.72232
G1 X43.469 Y11.583 E20.73948
G1 X43.892 Y11.432 E20.75667
G1 X44.335 Y11.358 E20.77386
G1 X44.784 Y11.364 E20.79104
G1 X45.224 Y11.45 E20.8082
G1 X45.643 Y11.612 E20.82539
G1 X46.027 Y11.845 E20.84258
G1 X46.43 Y12.2 E20.86313
G1 X110.018 Y75.785 E24.30452
G1 X112.023 Y77.733 E24.4115
G1 X114.057 Y79.602 E24.51721
G1 X116.146 Y81.414 E24.62304
G1 X118.252 Y83.141 E24.72727
G1 X120.441 Y84.833 E24.83315
G1 X122.674 Y86.46 E24.93888
G1 X124.955 Y88.025 E25.04474
G1 X127.268 Y89.519 E25.15012
G1 X129.617 Y90.943 E25.25525
G1 X132.009 Y92.303 E25.36055
G1 X134.474 Y93.613 E25.46738
G1 X135.229 Y93.986 E25.4996
G1 X135.285 Y94.02 E25.50211
G1 X136.162 Y94.463 E25.53971
G1 X136.713 Y94.756 E25.56359
G1 X137.201 Y95.092 E25.58627
G1 X137.678 Y95.518 E25.61074
G1 X138.376 Y96.224 E25.64874
G1 X139.21 Y97.082 E25.69453
G1 X139.661 Y97.576 E25.72013
G1 X139.925 Y97.923 E25.73681
G1 X140.667 Y99.093 E25.78983
G1 X140.764 Y99.252 E25.79696
G1 X142.284 Y101.574 E25.90317
G1 X143.849 Y103.824 E26.00806
G1 X145.514 Y106.077 E26.11527
G1 X147.169 Y108.192 E26.21804
G1 X148.969 Y110.36 E26.32588
G1 X150.774 Y112.412 E26.43047
G1 X152.639 Y114.419 E26.53531
G1 X154.582 Y116.394 E26.64134
G1 X156.566 Y118.298 E26.74658
G1 X158.609 Y120.152 E26.85216
G1 X160.71 Y121.952 E26.95803
G1 X162.864 Y123.695 E27.06407
G1 X165.033 Y125.348 E27.16844
G1 X167.287 Y126.97 E27.27471
G1 X169.577 Y128.521 E27.38056
G1 X172.045 Y130.083 E27.49233
G1 X172.527 Y130.425 E27.51495
G1 X173.037 Y130.88 E27.5411
G1 X173.142 Y130.984 E27.54676
G1 X173.684 Y131.549 E27.57672
G1 X174.764 Y132.659 E27.63599
G1 X175.081 Y133.026 E27.65455
G1 X175.425 Y133.553 E27.67863
G1 X175.617 Y133.921 E27.69452
G1 X175.868 Y134.434 E27.71638
G1 X177.106 Y136.883 E27.82139
G1 X178.421 Y139.311 E27.92706
G1 X179.81 Y141.709 E28.03312
G1 X181.258 Y144.056 E28.13865
G1 X182.771 Y146.357 E28.24404
G1 X184.349 Y148.616 E28.3495
G1 X185.986 Y150.826 E28.45475
G1 X187.696 Y153.001 E28.56063
G1 X189.858 Y155.582 E28.68948
G1 X190.296 Y156.086 E28.71503
G1 X190.559 Y156.45 E28.73222
G1 X190.754 Y156.854 E28.74938
G1 X190.874 Y157.287 E28.76658
G1 X190.915 Y157.734 E28.78376
G1 X190.876 Y158.182 E28.80097
G1 X190.759 Y158.615 E28.81813
G1 X190.567 Y159.021 E28.83532
G1 X190.306 Y159.386 E28.85249
G1 X189.985 Y159.7 E28.86968
G1 X189.613 Y159.951 E28.88685
G1 X189.091 Y160.168 E28.90848
G1 X188.601 Y160.3 E28.92791
G1 X90.903 Y184.423 E32.77905
G1 X90.209 Y184.585 E32.80632
G1 X89.764 Y184.648 E32.82352
G1 X89.316 Y184.631 E32.84068
G1 X88.877 Y184.535 E32.85787
G1 X88.23 Y184.224 E32.88535
G1 X87.511 Y183.742 E32.91847
G1 X86.596 Y183.109 E32.96105
G1 X84.296 Y181.612 E33.06607
G1 X81.948 Y180.177 E33.17138
G1 X79.537 Y178.796 E33.27772
G1 X77.127 Y177.503 E33.38238
G1 X74.642 Y176.26 E33.48871
G1 X72.161 Y175.106 E33.59343
G1 X69.639 Y174.017 E33.69856
G1 X67.026 Y172.976 E33.8062
G1 X64.992 Y172.227 E33.88915
G1 X64.475 Y172.042 E33.91016
G1 X64.364 Y172 E33.91471
G1 X63.85 Y171.789 E33.93597
G1 X63.464 Y171.59 E33.95259
G1 X62.959 Y171.271 E33.97545
G1 X62.535 Y170.984 E33.99504
G1 X62.381 Y170.869 E34.0024
G1 X60.385 Y169.317 E34.09916
G1 X58.375 Y167.84 E34.19461
G1 X57.323 Y167.086 E34.24415
G1 X56.983 Y166.793 E34.26132
G1 X56.648 Y166.364 E34.28215
G1 X56.162 Y165.58 E34.31745
G1 X54.681 Y163.256 E34.42292
G1 X53.14 Y160.986 E34.52791
G1 X51.506 Y158.718 E34.63489
G1 X49.846 Y156.545 E34.73954
G1 X48.122 Y154.416 E34.84438
G1 X46.312 Y152.307 E34.95074
G1 X44.452 Y150.259 E35.05661
G1 X42.558 Y148.289 E35.16119
G1 X40.581 Y146.345 E35.2673
G1 X38.548 Y144.458 E35.37345
G1 X36.507 Y142.667 E35.47737
G1 X34.366 Y140.893 E35.58378
G1 X32.196 Y139.195 E35.68922
G1 X29.975 Y137.559 E35.79479
G1 X27.79 Y136.038 E35.89667
G1 X27.253 Y135.675 E35.92148
G1 X27.028 Y135.503 E35.93232
G1 X26.109 Y134.719 E35.97855
G1 X24.808 Y133.627 E36.04355
G1 X24.655 Y133.489 E36.05143
G1 X24.246 Y133.09 E36.0733
G1 X22.976 Y131.816 E36.14214
G1 X22.308 Y131.184 E36.17734
G1 X21.582 Y130.477 E36.21612
G1 X21.29 Y130.136 E36.2333
G1 X21.062 Y129.749 E36.25049
G1 X20.872 Y129.182 E36.27337
G1 X20.777 Y128.726 E36.2912
G1 X20.162 Y125.965 E36.39945
G1 X19.504 Y123.361 E36.50224
G1 X18.734 Y120.64 E36.61046
G1 X17.931 Y118.077 E36.71324
G1 X17.008 Y115.402 E36.82154
G1 X16.047 Y112.856 E36.92568
G1 X15.746 Y112.121 E36.95608
G1 X15.351 Y111.118 E36.99733
G1 X15.224 Y110.687 E37.01452
G1 X15.175 Y110.241 E37.0317
G1 X15.217 Y109.709 E37.05212
G1 X15.551 Y106.933 E37.15912
G1 X15.797 Y104.243 E37.26249
G1 X15.974 Y101.452 E37.36952
G1 X16.068 Y98.735 E37.47356
G1 X16.087 Y95.939 E37.58056
G1 X16.029 Y93.239 E37.68392
G1 X15.888 Y90.413 E37.7922
G1 X15.789 Y89.141 E37.84103
G1 X15.756 Y88.607 E37.8615
G1 X15.768 Y88.158 E37.87869
G1 X15.832 Y87.816 E37.89201
G1 X16.083 Y86.854 E37.93005
G1 X17.739 Y80.907 E38.1663
G1 X17.927 Y80.268 E38.19179
G1 X18.097 Y79.838 E38.20949
G1 X19.402 Y77.266 E38.31986
G1 X20.562 Y74.816 E38.4236
G1 X21.676 Y72.278 E38.52967
G1 X22.719 Y69.71 E38.63574
G1 X23.671 Y67.15 E38.74027
G1 X24.566 Y64.527 E38.84633
G1 X25.391 Y61.866 E38.95295
G1 X26.121 Y59.246 E39.05704
G1 X26.787 Y56.571 E39.16253
G1 X27.387 Y53.844 E39.26939
G1 X27.889 Y51.181 E39.3731
G1 X28.329 Y48.436 E39.47949
G1 X28.684 Y45.735 E39.58374
G1 X28.973 Y42.933 E39.69154
G1 X29.101 Y41.317 E39.75358
G1 X29.185 Y40.139 E39.79877
G1 X29.313 Y39.444 E39.82582
G1 X31.165 Y32.798 E40.08985
G1 X31.37 Y32.095 E40.11787
G1 X31.533 Y31.677 E40.13504
G1 X31.801 Y31.241 E40.15463
G1 X33.267 Y29.151 E40.25233
G1 X34.775 Y26.868 E40.35704
G1 X36.241 Y24.505 E40.46346
G1 X37.629 Y22.119 E40.56909
G1 X38.946 Y19.702 E40.67443
G0 F1285.7 X39.26 Y19.857
G1 F900 X40.505 Y17.405 E40.77967
G1 X41.682 Y14.917 E40.885
G1 X42.206 Y13.724 E40.93487
G1 X42.546 Y12.976 E40.96631
G1 X42.754 Y12.615 E40.98226
G1 X43.027 Y12.3 E40.99821
G1 X43.355 Y12.043 E41.01415
G1 X43.726 Y11.854 E41.03009
G1 X44.126 Y11.738 E41.04603
G1 X44.541 Y11.701 E41.06197
G1 X44.956 Y11.744 E41.07794
G1 X45.354 Y11.865 E41.09386
G1 X45.723 Y12.06 E41.10983
G1 X46.145 Y12.412 E41.13086
G1 X46.36 Y12.622 E41.14236
G1 X109.774 Y76.036 E44.57441
G1 X111.789 Y77.995 E44.68196
G1 X113.819 Y79.858 E44.7874
G1 X115.904 Y81.668 E44.89307
G1 X118.047 Y83.425 E44.99912
G1 X120.231 Y85.113 E45.10475
G1 X122.481 Y86.752 E45.21128
G1 X124.753 Y88.311 E45.31673
G1 X127.082 Y89.816 E45.42285
G1 X129.432 Y91.24 E45.52801
G1 X131.842 Y92.61 E45.6341
G1 X134.298 Y93.915 E45.74053
G1 X135.074 Y94.299 E45.77367
G1 X135.133 Y94.336 E45.77633
G1 X135.997 Y94.772 E45.81337
G1 X136.548 Y95.065 E45.83725
G1 X136.97 Y95.356 E45.85687
G1 X137.442 Y95.776 E45.88105
G1 X138.125 Y96.468 E45.91826
G1 X139.008 Y97.378 E45.96678
G1 X139.402 Y97.811 E45.98919
G1 X139.63 Y98.11 E46.00358
G1 X140.369 Y99.276 E46.05641
G1 X140.479 Y99.456 E46.06448
G1 X141.984 Y101.755 E46.16964
G1 X143.577 Y104.045 E46.27639
G1 X145.22 Y106.268 E46.38218
G1 X146.911 Y108.43 E46.48722
G1 X148.702 Y110.587 E46.59451
G1 X150.494 Y112.625 E46.69837
G1 X152.398 Y114.673 E46.80538
G1 X154.338 Y116.645 E46.91125
G1 X156.313 Y118.541 E47.01602
G1 X158.393 Y120.429 E47.12352
G1 X160.489 Y122.224 E47.22913
G1 X162.641 Y123.966 E47.33509
G1 X164.826 Y125.631 E47.44022
G1 X167.08 Y127.253 E47.54649
G1 X169.379 Y128.81 E47.65275
G1 X171.854 Y130.377 E47.76485
G1 X172.297 Y130.689 E47.78559
G1 X172.799 Y131.137 E47.81134
G1 X172.89 Y131.226 E47.81621
G1 X173.421 Y131.78 E47.84558
G1 X174.514 Y132.903 E47.90555
G1 X175.047 Y133.592 E47.93889
G1 X175.303 Y134.075 E47.95981
G1 X175.554 Y134.588 E47.98166
G1 X176.806 Y137.065 E48.08788
G1 X178.116 Y139.484 E48.19315
G1 X179.506 Y141.883 E48.29926
G1 X180.964 Y144.246 E48.40552
G1 X182.482 Y146.556 E48.5113
G1 X184.047 Y148.796 E48.61587
G1 X185.722 Y151.057 E48.72356
G1 X187.419 Y153.215 E48.82862
G1 X189.595 Y155.813 E48.95831
G1 X190.032 Y156.316 E48.98381
G1 X190.274 Y156.655 E48.99975
G1 X190.447 Y157.034 E49.0157
G1 X190.544 Y157.439 E49.03163
G1 X190.562 Y157.855 E49.04757
G1 X190.501 Y158.267 E49.06351
G1 X190.362 Y158.66 E49.07946
G1 X190.15 Y159.019 E49.09542
G1 X189.875 Y159.332 E49.11136
G1 X189.544 Y159.585 E49.1273
G1 X188.994 Y159.831 E49.15036
G1 X188.498 Y159.965 E49.17002
G1 X90.823 Y184.082 E53.02026
G1 X90.129 Y184.244 E53.04753
G1 X89.716 Y184.299 E53.06347
G1 X89.301 Y184.275 E53.07938
G1 X88.897 Y184.172 E53.09534
G1 X88.425 Y183.933 E53.11559
G1 X87.71 Y183.455 E53.1485
G1 X86.772 Y182.806 E53.19215
G1 X84.484 Y181.317 E53.29662
G1 X82.109 Y179.865 E53.40315
G1 X79.734 Y178.505 E53.50789
G1 X77.265 Y177.18 E53.61512
G1 X74.804 Y175.95 E53.72041
G1 X72.306 Y174.787 E53.82586
G1 X69.736 Y173.678 E53.93298
G1 X67.166 Y172.654 E54.03885
G1 X65.133 Y171.906 E54.12175
G1 X64.592 Y171.713 E54.14374
G1 X64.497 Y171.676 E54.14764
G1 X63.983 Y171.465 E54.1689
G1 X63.651 Y171.294 E54.18319
G1 X63.154 Y170.98 E54.20569
G1 X62.64 Y170.626 E54.22958
G1 X60.598 Y169.039 E54.32855
G1 X58.579 Y167.556 E54.42442
G1 X57.527 Y166.802 E54.47395
G1 X57.213 Y166.528 E54.4899
G1 X56.945 Y166.18 E54.50671
