;FLAVOR:Marlin
;TIME:11686
;Filament used: 14.2052m
;Layer height: 0.3
;MINX:36.19
;MINY:11.693
;MINZ:0.26
;MAXX:194.34
;MAXY:192.878
;MAXZ:7.76
;Generated with Cura_SteamEngine 4.9.1
M82 ;absolute extrusion mode
;Begin Start Gcode for Dagoma DiscoEasy 200
;Sliced: 07-07-2021 20:01:47
;Initial extruder: 0

G90 ;Absolute positioning
M106 S255 ;Fan on full
G28 X Y ;Home stop X Y
G1 X100 ;Centre back during cooldown in case of oozing
M109 R90 ;Cooldown in case too hot
G28 ;Centre
G29 ;Auto-level
M104 S205 ;Pre-heat
M107 ;Fan off
G0 X100 Y5 Z0.5 ;Front centre for degunk
M109 S205 ;Wait for initial temp
M83 ;E Relative
G1 E10 F200 ;Degunk
G1 E-3 F5000 ;Retract
G0 Z3 ;Withdraw
M82 ;E absolute
G92 E0 ;E reset
G1 F6000 ;Set feedrate

;Finish Start Gcode for Dagoma DiscoEasy 200

G92 E0
G92 E0
G1 F3000 E-3.5
;LAYER_COUNT:26
;LAYER:0
M107
G0 F1285.7 X86.364 Y14.192 Z0.26
;TYPE:SKIRT
G1 F3000 E0
G1 F900 X86.718 Y13.597 E0.0265
G1 X87.036 Y13.14 E0.0478
G1 X87.416 Y12.734 E0.06908
G1 X87.851 Y12.386 E0.0904
G1 X88.33 Y12.104 E0.11167
G1 X88.846 Y11.894 E0.13299
G1 X89.386 Y11.76 E0.15429
G1 X89.997 Y11.703 E0.17777
G1 X90.821 Y11.693 E0.20931
G1 X189.878 Y11.943 E4.00018
G1 X190.531 Y11.954 E4.02518
G1 X191.085 Y12.003 E4.04646
G1 X191.627 Y12.131 E4.06777
G1 X192.144 Y12.335 E4.08904
G1 X192.627 Y12.612 E4.11035
G1 X193.066 Y12.954 E4.13165
G1 X193.45 Y13.356 E4.15292
G1 X193.774 Y13.809 E4.17424
G1 X194.029 Y14.304 E4.19555
G1 X194.21 Y14.83 E4.21683
G1 X194.315 Y15.376 E4.23811
G1 X194.34 Y15.932 E4.25941
G1 X194.285 Y16.486 E4.28072
G1 X194.151 Y17.026 E4.30201
G1 X193.853 Y17.71 E4.33056
G1 X193.553 Y18.249 E4.35417
G1 X94.172 Y190.384 E11.96076
G1 X93.814 Y190.986 E11.98757
G1 X93.496 Y191.442 E12.00884
G1 X93.115 Y191.849 E12.03018
G1 X92.681 Y192.196 E12.05144
G1 X92.201 Y192.478 E12.07275
G1 X91.686 Y192.688 E12.09403
G1 X91.146 Y192.823 E12.11534
G1 X90.593 Y192.878 E12.1366
G1 X90.037 Y192.854 E12.1579
G1 X89.49 Y192.751 E12.1792
G1 X88.964 Y192.57 E12.20049
G1 X88.469 Y192.315 E12.2218
G1 X88.016 Y191.993 E12.24307
G1 X87.613 Y191.609 E12.26437
G1 X87.279 Y191.184 E12.28506
G1 X87.14 Y190.969 E12.29486
G1 X86.77 Y190.349 E12.32249
G1 X37.017 Y104.671 E16.11408
G1 X36.679 Y104.07 E16.14047
G1 X36.442 Y103.567 E16.16175
G1 X36.28 Y103.035 E16.18303
G1 X36.195 Y102.485 E16.20433
G1 X36.19 Y101.929 E16.22561
G1 X36.264 Y101.377 E16.24692
G1 X36.417 Y100.842 E16.26822
G1 X36.67 Y100.288 E16.29153
G1 X37.094 Y99.526 E16.3249
G1 X86.364 Y14.192 E20.09584
G0 F1285.7 X86.665 Y14.371
G1 F900 X87.019 Y13.776 E20.12233
G1 X87.324 Y13.341 E20.14267
G1 X87.69 Y12.958 E20.16294
G1 X88.11 Y12.633 E20.18326
G1 X88.574 Y12.376 E20.20356
G1 X89.072 Y12.191 E20.22389
G1 X89.591 Y12.083 E20.24418
G1 X90.002 Y12.053 E20.25995
G1 X90.82 Y12.043 E20.29126
G1 X189.872 Y12.293 E24.08194
G1 X190.525 Y12.304 E24.10693
G1 X191.054 Y12.352 E24.12726
G1 X191.569 Y12.48 E24.14757
G1 X192.059 Y12.683 E24.16787
G1 X192.513 Y12.958 E24.18818
G1 X192.921 Y13.298 E24.20851
G1 X193.273 Y13.695 E24.22881
G1 X193.561 Y14.141 E24.24913
G1 X193.779 Y14.624 E24.26941
G1 X193.922 Y15.135 E24.28972
G1 X193.987 Y15.662 E24.31004
G1 X193.972 Y16.192 E24.33033
G1 X193.878 Y16.715 E24.35066
G1 X193.706 Y17.217 E24.37097
G1 X193.547 Y17.54 E24.38475
G1 X193.25 Y18.074 E24.40813
G1 X93.871 Y190.205 E32.01456
G1 X93.513 Y190.807 E32.04136
G1 X93.208 Y191.241 E32.06166
G1 X92.841 Y191.625 E32.08199
G1 X92.421 Y191.949 E32.10229
G1 X91.957 Y192.207 E32.12261
G1 X91.46 Y192.392 E32.1429
G1 X90.941 Y192.5 E32.16319
G1 X90.411 Y192.529 E32.1835
G1 X89.883 Y192.478 E32.2038
G1 X89.368 Y192.349 E32.22412
G1 X88.879 Y192.144 E32.24441
G1 X88.426 Y191.867 E32.26473
G1 X88.019 Y191.526 E32.28505
G1 X87.568 Y190.987 E32.31195
G1 X87.441 Y190.789 E32.32095
G1 X87.073 Y190.173 E32.34841
G1 X37.323 Y104.5 E36.13978
G1 X36.985 Y103.899 E36.16617
G1 X36.76 Y103.418 E36.18649
G1 X36.61 Y102.909 E36.2068
G1 X36.538 Y102.383 E36.22712
G1 X36.546 Y101.853 E36.2474
G1 X36.634 Y101.329 E36.26774
G1 X36.799 Y100.825 E36.28803
G1 X36.976 Y100.458 E36.30362
G1 X37.397 Y99.701 E36.33677
G1 X86.665 Y14.371 E40.10754
G0 F1285.7 X86.965 Y14.55
G1 F900 X87.319 Y13.955 E40.13404
G1 X87.61 Y13.544 E40.15331
G1 X87.963 Y13.184 E40.17261
G1 X88.368 Y12.884 E40.1919
G1 X88.815 Y12.652 E40.21117
G1 X89.293 Y12.494 E40.23043
G1 X90.006 Y12.403 E40.25794
G1 X90.819 Y12.393 E40.28906
G1 X189.866 Y12.642 E44.07955
G1 X190.519 Y12.653 E44.10454
G1 X191.021 Y12.702 E44.12385
G1 X191.508 Y12.829 E44.14311
G1 X191.969 Y13.031 E44.16237
G1 X192.392 Y13.304 E44.18164
G1 X192.767 Y13.641 E44.20093
G1 X193.084 Y14.032 E44.22019
G1 X193.335 Y14.468 E44.23945
G1 X193.514 Y14.939 E44.25873
G1 X193.616 Y15.432 E44.278
G1 X193.639 Y15.935 E44.29727
G1 X193.582 Y16.436 E44.31656
G1 X193.447 Y16.921 E44.33583
G1 X193.241 Y17.37 E44.35473
G1 X192.947 Y17.899 E44.37789
G1 X93.57 Y190.026 E51.98415
G1 X93.212 Y190.628 E52.01095
G1 X92.921 Y191.039 E52.03022
G1 X92.569 Y191.399 E52.04949
G1 X92.164 Y191.698 E52.06876
G1 X91.717 Y191.93 E52.08803
G1 X91.239 Y192.089 E52.10731
G1 X90.742 Y192.169 E52.12657
G1 X90.238 Y192.171 E52.14586
G1 X89.741 Y192.092 E52.16512
G1 X89.262 Y191.936 E52.1844
G1 X88.814 Y191.706 E52.20367
G1 X88.408 Y191.408 E52.22295
G1 X88.054 Y191.05 E52.24221
G1 X87.741 Y190.609 E52.26291
G1 X87.375 Y189.997 E52.2902
G1 X37.628 Y104.328 E56.08138
G1 X37.29 Y103.727 E56.10777
G1 X37.078 Y103.27 E56.12705
G1 X36.942 Y102.785 E56.14632
G1 X36.884 Y102.285 E56.16559
G1 X36.906 Y101.782 E56.18486
G1 X37.007 Y101.289 E56.20411
G1 X37.282 Y100.628 E56.23151
G1 X37.7 Y99.876 E56.26444
G1 X86.965 Y14.55 E60.03502
G1 F3000 E56.53502
;MESH:support_half_hex_11.stl
G0 F1285.7 X89.159 Y15.818
G0 X90.168 Y16.4
G0 X90.545 Y187.665
G0 X90.631 Y187.716
;TYPE:WALL-INNER
G1 F3000 E60.03502
G1 F900 X90.48 Y187.977 E60.04656
G1 X90.329 Y187.716 E60.05309
G1 X40.65 Y102.167 E63.839
G1 X90.346 Y16.091 E67.64268
G1 X189.272 Y16.342 E71.42855
G1 X189.273 Y16.342 E71.42858
G1 X189.574 Y16.342 E71.4401
G1 X189.423 Y16.603 E71.44665
G1 X90.631 Y187.716 E79.0081
G0 F1285.7 X90.632 Y188.364
;TYPE:WALL-OUTER
G1 F900 X90.481 Y188.625 E79.01964
G1 X90.33 Y188.364 E79.02618
G1 X40.275 Y102.168 E82.84072
G1 X90.159 Y15.766 E86.65881
G1 X189.834 Y16.018 E90.47333
G1 X189.835 Y16.018 E90.47337
G1 X190.136 Y16.018 E90.48489
G1 X189.985 Y16.279 E90.49144
G1 X90.632 Y188.364 E98.09584
G0 F1285.7 X90.532 Y188.537
G0 X90.48 Y187.877
G0 X90.479 Y187.297
;TYPE:SKIN
G1 F900 X41.043 Y102.167 E101.86321
G1 X90.543 Y16.431 E105.65187
G1 X188.985 Y16.68 E109.41921
G1 X90.479 Y187.297 E116.95875
G0 F1285.7 X90.653 Y186.679
G1 F900 X89.813 Y185.838 E117.00424
G1 X89.751 Y185.776
G0 F1285.7 X90.834 Y186.365
G1 F900 X89.127 Y184.658 E117.09663
G1 X89.065 Y184.596
G0 F1285.7 X88.442 Y183.477
G1 F900 X91.015 Y186.051 E117.23591
G0 F1285.7 X91.196 Y185.737
G1 F900 X87.756 Y182.297 E117.42209
G1 X87.694 Y182.235
G0 F1285.7 X87.071 Y181.116
G1 F900 X91.378 Y185.423 E117.65519
G0 F1285.7 X91.559 Y185.109
G1 F900 X86.385 Y179.936 E117.93518
G1 X86.323 Y179.874
G0 F1285.7 X85.699 Y178.755
G1 F900 X91.74 Y184.795 E118.2621
G0 F1285.7 X91.921 Y184.482
G1 F900 X85.014 Y177.575 E118.63592
G1 X84.952 Y177.513
G0 F1285.7 X84.328 Y176.394
G1 F900 X92.102 Y184.168 E119.05666
G0 F1285.7 X92.284 Y183.854
G1 F900 X83.643 Y175.213 E119.52432
G1 X83.581 Y175.151
G0 F1285.7 X82.957 Y174.033
G1 F900 X92.465 Y183.54 E120.03888
G0 F1285.7 X92.646 Y183.226
G1 F900 X82.272 Y172.852 E120.60033
G1 X82.21 Y172.79
G0 F1285.7 X81.586 Y171.672
G1 F900 X92.827 Y182.912 E121.20868
G0 F1285.7 X93.009 Y182.599
G1 F900 X80.901 Y170.491 E121.86398
G1 X80.839 Y170.429
G0 F1285.7 X80.215 Y169.311
G1 F900 X93.19 Y182.285 E122.56618
G0 F1285.7 X93.371 Y181.971
G1 F900 X79.53 Y168.13 E123.31527
G1 X79.468 Y168.068
G0 F1285.7 X78.844 Y166.95
G1 F900 X93.552 Y181.657 E124.11126
G0 F1285.7 X93.733 Y181.343
G1 F900 X78.159 Y165.769 E124.95414
G1 X78.097 Y165.707
G0 F1285.7 X77.473 Y164.589
G1 F900 X93.915 Y181.03 E125.84398
G0 F1285.7 X94.096 Y180.716
G1 F900 X76.788 Y163.408 E126.78071
G1 X76.726 Y163.346
G0 F1285.7 X76.102 Y162.227
G1 F900 X94.277 Y180.402 E127.76436
G0 F1285.7 X94.458 Y180.088
G1 F900 X75.417 Y161.047 E128.79489
G1 X75.355 Y160.985
G0 F1285.7 X74.731 Y159.866
G1 F900 X94.639 Y179.774 E129.87233
G0 F1285.7 X94.82 Y179.461
G1 F900 X74.046 Y158.686 E130.99668
G1 X73.984 Y158.624
G0 F1285.7 X73.36 Y157.505
G1 F900 X95.001 Y179.147 E132.16794
G0 F1285.7 X95.182 Y178.833
G1 F900 X72.675 Y156.325 E133.38608
G1 X72.613 Y156.263
G0 F1285.7 X71.989 Y155.144
G1 F900 X95.363 Y178.519 E134.65113
G0 F1285.7 X95.545 Y178.206
G1 F900 X71.303 Y153.964 E135.96314
G1 X71.241 Y153.902
G0 F1285.7 X70.618 Y152.783
G1 F900 X95.726 Y177.892 E137.32205
G0 F1285.7 X95.907 Y177.578
G1 F900 X69.932 Y151.603 E138.72785
G1 X69.87 Y151.541
G0 F1285.7 X69.246 Y150.422
G1 F900 X96.088 Y177.264 E140.18057
G0 F1285.7 X96.269 Y176.95
G1 F900 X68.561 Y149.242 E141.68016
G1 X68.499 Y149.18
G0 F1285.7 X67.875 Y148.061
G1 F900 X96.451 Y176.637 E143.22673
G0 F1285.7 X96.632 Y176.323
G1 F900 X67.19 Y146.881 E144.82017
G1 X67.128 Y146.819
G0 F1285.7 X66.504 Y145.7
G1 F900 X96.813 Y176.009 E146.46053
G0 F1285.7 X96.994 Y175.695
G1 F900 X65.819 Y144.52 E148.14776
G1 X65.757 Y144.458
G0 F1285.7 X65.133 Y143.339
G1 F900 X97.176 Y175.382 E149.88197
G0 F1285.7 X97.357 Y175.068
G1 F900 X64.448 Y142.159 E151.66305
G1 X64.386 Y142.097
G0 F1285.7 X63.762 Y140.978
G1 F900 X97.538 Y174.754 E153.49105
G0 F1285.7 X97.719 Y174.44
G1 F900 X63.077 Y139.798 E155.36592
G1 X63.015 Y139.736
G0 F1285.7 X62.391 Y138.617
G1 F900 X97.9 Y174.126 E157.28771
G0 F1285.7 X98.082 Y173.813
G1 F900 X61.706 Y137.437 E159.25642
G1 X61.644 Y137.375
G0 F1285.7 X61.02 Y136.256
G1 F900 X98.263 Y173.499 E161.27206
G0 F1285.7 X98.444 Y173.185
G1 F900 X60.335 Y135.076 E163.33457
G1 X60.273 Y135.014
G0 F1285.7 X59.649 Y133.895
G1 F900 X98.625 Y172.871 E165.444
G0 F1285.7 X98.806 Y172.558
G1 F900 X58.964 Y132.715 E167.60033
G1 X58.902 Y132.653
G0 F1285.7 X58.278 Y131.534
G1 F900 X98.987 Y172.244 E169.80358
G0 F1285.7 X99.168 Y171.93
G1 F900 X57.593 Y130.354 E172.0537
G1 X57.531 Y130.292
G0 F1285.7 X56.907 Y129.173
G1 F900 X99.349 Y171.616 E174.35074
G0 F1285.7 X99.53 Y171.302
G1 F900 X56.222 Y127.993 E176.69465
G1 X56.16 Y127.931
G0 F1285.7 X55.536 Y126.812
G1 F900 X99.712 Y170.989 E179.08554
G0 F1285.7 X99.893 Y170.675
G1 F900 X54.85 Y125.632 E181.52332
G1 X54.788 Y125.57
G0 F1285.7 X54.165 Y124.451
G1 F900 X100.074 Y170.361 E184.008
G0 F1285.7 X100.255 Y170.047
G1 F900 X53.479 Y123.271 E186.53958
G1 X53.417 Y123.209
G0 F1285.7 X52.794 Y122.09
G1 F900 X100.437 Y169.733 E189.11808
G0 F1285.7 X100.618 Y169.419
G1 F900 X52.108 Y120.91 E191.74348
G1 X52.046 Y120.848
G0 F1285.7 X51.422 Y119.729
G1 F900 X100.799 Y169.106 E194.41582
G0 F1285.7 X100.98 Y168.792
G1 F900 X50.737 Y118.549 E197.13504
G1 X50.675 Y118.487
G0 F1285.7 X50.051 Y117.368
G1 F900 X101.161 Y168.478 E199.90118
G0 F1285.7 X101.343 Y168.164
G1 F900 X49.365 Y116.187 E202.71427
G1 X49.303 Y116.125
G0 F1285.7 X48.68 Y115.007
G1 F900 X101.524 Y167.85 E205.57422
G0 F1285.7 X101.705 Y167.536
G1 F900 X47.994 Y113.826 E208.4811
G1 X47.932 Y113.764
G0 F1285.7 X47.309 Y112.646
G1 F900 X101.886 Y167.222 E211.43485
G0 F1285.7 X102.067 Y166.909
G1 F900 X46.623 Y111.465 E214.43555
G1 X46.561 Y111.403
G0 F1285.7 X45.938 Y110.285
G1 F900 X102.249 Y166.595 E217.48315
G0 F1285.7 X102.43 Y166.281
G1 F900 X45.252 Y109.104 E220.57767
G1 X45.19 Y109.042
G0 F1285.7 X44.567 Y107.924
G1 F900 X102.611 Y165.967 E223.71906
G0 F1285.7 X102.792 Y165.653
G1 F900 X43.881 Y106.743 E226.90737
G1 X43.819 Y106.681
G0 F1285.7 X43.196 Y105.563
G1 F900 X102.973 Y165.34 E230.14258
G0 F1285.7 X103.154 Y165.026
G1 F900 X42.51 Y104.382 E233.42471
G1 X42.448 Y104.32
G0 F1285.7 X41.825 Y103.202
G1 F900 X103.335 Y164.712 E236.75371
G0 F1285.7 X103.516 Y164.398
G1 F900 X41.246 Y102.128 E240.12384
G0 F1285.7 X41.427 Y101.814
G1 F900 X103.697 Y164.084 E243.49397
G0 F1285.7 X103.879 Y163.771
G1 F900 X41.608 Y101.5 E246.86415
G0 F1285.7 X41.79 Y101.186
G1 F900 X104.06 Y163.457 E250.23431
G0 F1285.7 X104.241 Y163.143
G1 F900 X41.971 Y100.873 E253.60445
G0 F1285.7 X42.152 Y100.559
G1 F900 X104.422 Y162.829 E256.97458
G0 F1285.7 X104.604 Y162.516
G1 F900 X42.333 Y100.245 E260.34476
G0 F1285.7 X42.514 Y99.931
G1 F900 X104.785 Y162.202 E263.71495
G0 F1285.7 X104.966 Y161.888
G1 F900 X42.695 Y99.617 E267.08513
G0 F1285.7 X42.876 Y99.303
G1 F900 X105.147 Y161.574 E270.45532
G0 F1285.7 X105.328 Y161.26
G1 F900 X43.057 Y98.989 E273.82551
G0 F1285.7 X43.238 Y98.676
G1 F900 X105.51 Y160.947 E277.19572
G0 F1285.7 X105.691 Y160.633
G1 F900 X43.42 Y98.362 E280.56591
G0 F1285.7 X43.601 Y98.048
G1 F900 X105.872 Y160.319 E283.93609
G0 F1285.7 X106.053 Y160.005
G1 F900 X43.782 Y97.734 E287.30628
G0 F1285.7 X43.963 Y97.42
G1 F900 X106.235 Y159.692 E290.67652
G0 F1285.7 X106.416 Y159.378
G1 F900 X44.145 Y97.107 E294.0467
G0 F1285.7 X44.326 Y96.793
G1 F900 X106.597 Y159.064 E297.41689
G0 F1285.7 X106.778 Y158.75
G1 F900 X44.507 Y96.479 E300.78707
G0 F1285.7 X44.688 Y96.165
G1 F900 X106.959 Y158.436 E304.15726
G0 F1285.7 X107.14 Y158.123
G1 F900 X44.869 Y95.851 E307.52747
G0 F1285.7 X45.051 Y95.538
G1 F900 X107.321 Y157.809 E310.89763
G0 F1285.7 X107.502 Y157.495
G1 F900 X45.232 Y95.224 E314.26779
G0 F1285.7 X45.413 Y94.91
G1 F900 X107.683 Y157.181 E317.63795
G0 F1285.7 X107.864 Y156.867
G1 F900 X45.594 Y94.596 E321.00811
G0 F1285.7 X45.775 Y94.283
G1 F900 X108.046 Y156.554 E324.37829
G0 F1285.7 X108.227 Y156.24
G1 F900 X45.956 Y93.969 E327.74848
G0 F1285.7 X46.138 Y93.655
G1 F900 X108.408 Y155.926 E331.11864
G0 F1285.7 X108.589 Y155.612
G1 F900 X46.319 Y93.341 E334.4888
G0 F1285.7 X46.5 Y93.027
G1 F900 X108.771 Y155.299 E337.85901
G0 F1285.7 X108.952 Y154.985
G1 F900 X46.681 Y92.714 E341.2292
G0 F1285.7 X46.862 Y92.4
G1 F900 X109.133 Y154.671 E344.59938
G0 F1285.7 X109.314 Y154.357
G1 F900 X47.043 Y92.086 E347.96957
G0 F1285.7 X47.224 Y91.772
G1 F900 X109.495 Y154.043 E351.33975
G0 F1285.7 X109.677 Y153.729
G1 F900 X47.406 Y91.459 E354.70991
G0 F1285.7 X47.587 Y91.145
G1 F900 X109.858 Y153.416 E358.0801
G0 F1285.7 X110.039 Y153.102
G1 F900 X47.768 Y90.831 E361.45028
G0 F1285.7 X47.949 Y90.517
G1 F900 X110.22 Y152.788 E364.82047
G0 F1285.7 X110.401 Y152.474
G1 F900 X48.13 Y90.203 E368.19066
G0 F1285.7 X48.312 Y89.89
G1 F900 X110.583 Y152.16 E371.56082
G0 F1285.7 X110.764 Y151.846
G1 F900 X48.493 Y89.576 E374.93097
G0 F1285.7 X48.674 Y89.262
G1 F900 X110.945 Y151.532 E378.30113
G0 F1285.7 X111.126 Y151.219
G1 F900 X48.855 Y88.948 E381.67132
G0 F1285.7 X49.037 Y88.635
G1 F900 X111.307 Y150.905 E385.04145
G0 F1285.7 X111.488 Y150.591
G1 F900 X49.218 Y88.321 E388.41158
G0 F1285.7 X49.399 Y88.007
G1 F900 X111.669 Y150.277 E391.78171
G0 F1285.7 X111.85 Y149.963
G1 F900 X49.58 Y87.693 E395.15185
G0 F1285.7 X49.761 Y87.379
G1 F900 X112.032 Y149.65 E398.52203
G0 F1285.7 X112.213 Y149.336
G1 F900 X49.942 Y87.066 E401.89219
G0 F1285.7 X50.123 Y86.752
G1 F900 X112.394 Y149.022 E405.26235
G0 F1285.7 X112.575 Y148.708
G1 F900 X50.304 Y86.438 E408.63251
G0 F1285.7 X50.486 Y86.124
G1 F900 X112.756 Y148.394 E412.00264
G0 F1285.7 X112.938 Y148.081
G1 F900 X50.667 Y85.81 E415.37283
G0 F1285.7 X50.848 Y85.496
G1 F900 X113.119 Y147.767 E418.74301
G0 F1285.7 X113.3 Y147.453
G1 F900 X51.029 Y85.183 E422.11317
G0 F1285.7 X51.21 Y84.869
G1 F900 X113.481 Y147.139 E425.48333
G0 F1285.7 X113.663 Y146.826
G1 F900 X51.391 Y84.555 E428.85354
G0 F1285.7 X51.573 Y84.241
G1 F900 X113.844 Y146.512 E432.22373
G0 F1285.7 X114.025 Y146.198
G1 F900 X51.754 Y83.927 E435.59391
G0 F1285.7 X51.935 Y83.613
G1 F900 X114.206 Y145.884 E438.9641
G0 F1285.7 X114.387 Y145.57
G1 F900 X52.116 Y83.3 E442.33426
G0 F1285.7 X52.298 Y82.986
G1 F900 X114.568 Y145.257 E445.70442
G0 F1285.7 X114.749 Y144.943
G1 F900 X52.479 Y82.672 E449.07458
G0 F1285.7 X52.66 Y82.358
G1 F900 X114.931 Y144.629 E452.44476
G0 F1285.7 X115.112 Y144.315
G1 F900 X52.841 Y82.044 E455.81495
G0 F1285.7 X53.022 Y81.73
