;FLAVOR:Marlin
;TIME:11847
;Filament used: 14.3905m
;Layer height: 0.3
;MINX:33.995
;MINY:11.695
;MINZ:0.26
;MAXX:192.352
;MAXY:194.884
;MAXZ:7.76
;Generated with Cura_SteamEngine 4.9.1
M82 ;absolute extrusion mode
;Begin Start Gcode for Dagoma DiscoEasy 200
;Sliced: 07-07-2021 20:07:22
;Initial extruder: 0

G90 ;Absolute positioning
M106 S255 ;Fan on full
G28 X Y ;Home stop X Y
G1 X100 ;Centre back during cooldown in case of oozing
M109 R90 ;Cooldown in case too hot
G28 ;Centre
G29 ;Auto-level
M104 S205 ;Pre-heat
M107 ;Fan off
G0 X100 Y5 Z0.5 ;Front centre for degunk
M109 S205 ;Wait for initial temp
M83 ;E Relative
G1 E10 F200 ;Degunk
G1 E-3 F5000 ;Retract
G0 Z3 ;Withdraw
M82 ;E absolute
G92 E0 ;E reset
G1 F6000 ;Set feedrate

;Finish Start Gcode for Dagoma DiscoEasy 200

G92 E0
G92 E0
G1 F3000 E-3.5
;LAYER_COUNT:26
;LAYER:0
M107
G0 F1285.7 X84.409 Y14.155 Z0.26
;TYPE:SKIRT
G1 F3000 E0
G1 F900 X84.749 Y13.586 E0.02537
G1 X85.068 Y13.13 E0.04666
G1 X85.449 Y12.725 E0.06794
G1 X85.884 Y12.378 E0.08924
G1 X86.364 Y12.097 E0.11052
G1 X86.88 Y11.888 E0.13183
G1 X87.42 Y11.755 E0.15311
G1 X88.038 Y11.699 E0.17686
G1 X88.55 Y11.695 E0.19645
G1 X187.909 Y13.189 E3.99931
G1 X188.593 Y13.209 E4.02549
G1 X189.147 Y13.265 E4.0468
G1 X189.687 Y13.4 E4.0681
G1 X190.202 Y13.61 E4.08939
G1 X190.681 Y13.893 E4.11068
G1 X191.115 Y14.241 E4.13197
G1 X191.495 Y14.648 E4.15328
G1 X191.812 Y15.105 E4.17456
G1 X192.061 Y15.602 E4.19584
G1 X192.236 Y16.13 E4.21712
G1 X192.334 Y16.678 E4.23843
G1 X192.352 Y17.234 E4.25972
G1 X192.29 Y17.787 E4.28101
G1 X192.15 Y18.326 E4.30232
G1 X191.895 Y18.913 E4.32682
G1 X191.695 Y19.283 E4.34291
G1 X91.781 Y192.338 E11.9902
G1 X91.39 Y192.994 E12.01942
G1 X91.071 Y193.45 E12.04072
G1 X90.691 Y193.856 E12.062
G1 X90.256 Y194.203 E12.0833
G1 X89.776 Y194.485 E12.1046
G1 X89.261 Y194.695 E12.12589
G1 X88.72 Y194.828 E12.14721
G1 X88.167 Y194.884 E12.16848
G1 X87.611 Y194.859 E12.18978
G1 X87.064 Y194.755 E12.21109
G1 X86.538 Y194.573 E12.23239
G1 X86.044 Y194.318 E12.25366
G1 X85.591 Y193.995 E12.27495
G1 X85.188 Y193.611 E12.29626
G1 X84.726 Y192.983 E12.32609
G1 X84.229 Y192.141 E12.36351
G1 X34.793 Y105.01 E16.19729
G1 X34.464 Y104.411 E16.22345
G1 X34.231 Y103.906 E16.24473
G1 X34.074 Y103.372 E16.26603
G1 X33.995 Y102.821 E16.28733
G1 X33.995 Y102.265 E16.30861
G1 X34.075 Y101.714 E16.32992
G1 X34.233 Y101.181 E16.35119
G1 X34.509 Y100.594 E16.37602
G1 X34.755 Y100.153 E16.39534
G1 X84.409 Y14.155 E20.19564
G0 F1285.7 X84.709 Y14.335
G1 F900 X85.049 Y13.766 E20.221
G1 X85.355 Y13.332 E20.24133
G1 X85.722 Y12.949 E20.26163
G1 X86.143 Y12.626 E20.28193
G1 X86.607 Y12.369 E20.30223
G1 X87.105 Y12.185 E20.32255
G1 X87.625 Y12.078 E20.34287
G1 X88.458 Y12.045 E20.37477
G1 X187.899 Y13.539 E24.18076
G1 X188.583 Y13.559 E24.20695
G1 X189.111 Y13.614 E24.22726
G1 X189.624 Y13.748 E24.24755
G1 X190.112 Y13.957 E24.26787
G1 X190.562 Y14.238 E24.28817
G1 X190.966 Y14.583 E24.3085
G1 X191.313 Y14.984 E24.3288
G1 X191.596 Y15.433 E24.34911
G1 X191.808 Y15.919 E24.3694
G1 X191.945 Y16.432 E24.38972
G1 X192.003 Y16.96 E24.41005
G1 X191.981 Y17.49 E24.43035
G1 X191.88 Y18.011 E24.45066
G1 X191.587 Y18.748 E24.48101
G1 X191.392 Y19.108 E24.49668
G1 X91.48 Y192.159 E32.14379
G1 X91.089 Y192.815 E32.17302
G1 X90.784 Y193.249 E32.19332
G1 X90.417 Y193.632 E32.21362
G1 X89.996 Y193.956 E32.23395
G1 X89.532 Y194.213 E32.25425
G1 X89.035 Y194.398 E32.27454
G1 X88.515 Y194.506 E32.29487
G1 X87.985 Y194.534 E32.31518
G1 X87.457 Y194.483 E32.33548
G1 X86.943 Y194.353 E32.35577
G1 X86.453 Y194.147 E32.37611
G1 X86.001 Y193.87 E32.3964
G1 X85.595 Y193.529 E32.41669
G1 X85.245 Y193.13 E32.437
G1 X85.027 Y192.805 E32.45198
G1 X84.533 Y191.969 E32.48914
G1 X35.099 Y104.842 E36.32275
G1 X34.77 Y104.243 E36.3489
G1 X34.551 Y103.76 E36.3692
G1 X34.406 Y103.249 E36.38953
G1 X34.339 Y102.723 E36.40982
G1 X34.353 Y102.192 E36.43015
G1 X34.446 Y101.67 E36.45044
G1 X34.616 Y101.167 E36.47076
G1 X34.862 Y100.676 E36.49177
G1 X35.058 Y100.328 E36.50706
G1 X84.709 Y14.335 E40.30713
G0 F1285.7 X84.985 Y14.555
G1 F900 X85.35 Y13.945 E40.33434
G1 X85.641 Y13.535 E40.35358
G1 X85.994 Y13.176 E40.37285
G1 X86.4 Y12.877 E40.39214
G1 X86.847 Y12.646 E40.4114
G1 X87.326 Y12.489 E40.43069
G1 X88.045 Y12.399 E40.45842
G1 X88.54 Y12.395 E40.47736
G1 X187.889 Y13.888 E44.27983
G1 X188.573 Y13.908 E44.30602
G1 X189.073 Y13.963 E44.32527
G1 X189.559 Y14.096 E44.34455
G1 X190.018 Y14.304 E44.36384
G1 X190.438 Y14.582 E44.38311
G1 X190.808 Y14.923 E44.40237
G1 X191.12 Y15.318 E44.42163
G1 X191.366 Y15.758 E44.44092
G1 X191.539 Y16.231 E44.4602
G1 X191.635 Y16.725 E44.47946
G1 X191.652 Y17.229 E44.49875
G1 X191.589 Y17.728 E44.518
G1 X191.447 Y18.212 E44.53731
G1 X191.137 Y18.845 E44.56428
G1 X191.089 Y18.933 E44.56811
G1 X91.179 Y191.98 E52.21506
G1 X90.788 Y192.636 E52.24428
G1 X90.497 Y193.046 E52.26352
G1 X90.144 Y193.406 E52.28282
G1 X89.739 Y193.705 E52.30209
G1 X89.292 Y193.937 E52.32136
G1 X88.814 Y194.094 E52.34061
G1 X88.317 Y194.175 E52.35988
G1 X87.813 Y194.175 E52.37917
G1 X87.316 Y194.096 E52.39843
G1 X86.837 Y193.94 E52.41771
G1 X86.389 Y193.709 E52.437
G1 X85.984 Y193.411 E52.45624
G1 X85.63 Y193.052 E52.47554
G1 X85.328 Y192.627 E52.49549
G1 X84.838 Y191.796 E52.53241
G1 X35.406 Y104.673 E56.36585
G1 X35.077 Y104.074 E56.392
G1 X34.87 Y103.615 E56.41127
G1 X34.739 Y103.129 E56.43053
G1 X34.686 Y102.628 E56.44981
G1 X34.713 Y102.125 E56.46909
G1 X34.819 Y101.633 E56.48835
G1 X35.053 Y101.063 E56.51193
G1 X35.344 Y100.535 E56.535
G1 X84.985 Y14.555 E60.33445
G1 F3000 E56.83445
;MESH:support_half_hex_17.stl
G0 F1285.7 X87.179 Y15.825
G0 X88.055 Y16.33
G0 X88.214 Y189.716
;TYPE:WALL-INNER
G1 F3000 E60.33445
G1 F900 X88.062 Y189.98 E60.34611
G1 X87.912 Y189.715 E60.3527
G1 X38.453 Y102.547 E64.18814
G1 X88.369 Y16.094 E68.00853
G1 X187.299 Y17.581 E71.79496
G1 X187.595 Y17.585 E71.80629
G1 X187.447 Y17.842 E71.81274
G1 X88.214 Y189.716 E79.40786
G0 F1285.7 X88.211 Y190.37
;TYPE:WALL-OUTER
G1 F900 X88.059 Y190.634 E79.41952
G1 X87.909 Y190.369 E79.4261
G1 X38.079 Y102.546 E83.29036
G1 X88.183 Y15.766 E87.12518
G1 X187.857 Y17.264 E90.94009
G1 X188.153 Y17.268 E90.95141
G1 X188.005 Y17.525 E90.95787
G1 X88.211 Y190.37 E98.59589
G0 F1285.7 X88.111 Y190.543
G0 X88.026 Y190.494
G0 X88.064 Y189.294
;TYPE:SKIN
G1 F900 X38.845 Y102.55 E102.4127
G1 X88.565 Y16.437 E106.21807
G1 X187.01 Y17.917 E109.98594
G1 X88.064 Y189.294 E117.55908
G0 F1285.7 X88.222 Y188.702
G1 F900 X87.497 Y187.977 E117.59832
G1 X87.435 Y187.915
G0 F1285.7 X88.403 Y188.388
G1 F900 X86.847 Y186.832 E117.68254
G1 X86.785 Y186.77
G0 F1285.7 X86.198 Y185.688
G1 F900 X88.585 Y188.075 E117.81172
G0 F1285.7 X88.766 Y187.761
G1 F900 X85.549 Y184.544 E117.98583
G1 X85.487 Y184.482
G0 F1285.7 X84.9 Y183.4
G1 F900 X88.947 Y187.447 E118.20486
G0 F1285.7 X89.128 Y187.133
G1 F900 X84.251 Y182.256 E118.46881
G1 X84.189 Y182.194
G0 F1285.7 X83.601 Y181.111
G1 F900 X89.309 Y186.819 E118.77773
G0 F1285.7 X89.491 Y186.506
G1 F900 X82.952 Y179.967 E119.13163
G1 X82.89 Y179.905
G0 F1285.7 X82.302 Y178.823
G1 F900 X89.672 Y186.192 E119.53048
G0 F1285.7 X89.853 Y185.878
G1 F900 X81.653 Y177.678 E119.97427
G1 X81.591 Y177.616
G0 F1285.7 X81.004 Y176.534
G1 F900 X90.034 Y185.564 E120.46299
G0 F1285.7 X90.216 Y185.251
G1 F900 X80.355 Y175.39 E120.99668
G1 X80.293 Y175.328
G0 F1285.7 X79.706 Y174.246
G1 F900 X90.397 Y184.937 E121.57529
G0 F1285.7 X90.578 Y184.623
G1 F900 X79.057 Y173.102 E122.19882
G1 X78.995 Y173.04
G0 F1285.7 X78.407 Y171.957
G1 F900 X90.759 Y184.309 E122.86733
G0 F1285.7 X90.94 Y183.995
G1 F900 X77.758 Y170.813 E123.58075
G1 X77.696 Y170.751
G0 F1285.7 X77.109 Y169.669
G1 F900 X91.122 Y183.682 E124.33915
G0 F1285.7 X91.303 Y183.368
G1 F900 X76.46 Y168.525 E125.14248
G1 X76.398 Y168.463
G0 F1285.7 X75.811 Y167.381
G1 F900 X91.484 Y183.054 E125.99072
G0 F1285.7 X91.665 Y182.74
G1 F900 X75.161 Y166.237 E126.88391
G1 X75.099 Y166.175
G0 F1285.7 X74.512 Y165.093
G1 F900 X91.846 Y182.427 E127.82205
G0 F1285.7 X92.027 Y182.113
G1 F900 X73.862 Y163.948 E128.80516
G1 X73.8 Y163.886
G0 F1285.7 X73.213 Y162.804
G1 F900 X92.208 Y181.799 E129.83319
G0 F1285.7 X92.389 Y181.485
G1 F900 X72.564 Y161.66 E130.90615
G1 X72.502 Y161.598
G0 F1285.7 X71.915 Y160.516
G1 F900 X92.57 Y181.171 E132.02402
G0 F1285.7 X92.752 Y180.858
G1 F900 X71.266 Y159.371 E133.1869
G1 X71.204 Y159.309
G0 F1285.7 X70.617 Y158.227
G1 F900 X92.933 Y180.544 E134.3947
G0 F1285.7 X93.114 Y180.23
G1 F900 X69.967 Y157.083 E135.64744
G1 X69.905 Y157.021
G0 F1285.7 X69.318 Y155.938
G1 F900 X93.295 Y179.916 E136.94514
G0 F1285.7 X93.477 Y179.603
G1 F900 X68.669 Y154.794 E138.2878
G1 X68.607 Y154.732
G0 F1285.7 X68.02 Y153.65
G1 F900 X93.658 Y179.289 E139.67539
G0 F1285.7 X93.839 Y178.975
G1 F900 X67.371 Y152.506 E141.1079
G1 X67.309 Y152.444
G0 F1285.7 X66.721 Y151.362
G1 F900 X94.02 Y178.661 E142.58536
G0 F1285.7 X94.201 Y178.347
G1 F900 X66.072 Y150.218 E144.10773
G1 X66.01 Y150.156
G0 F1285.7 X65.422 Y149.073
G1 F900 X94.383 Y178.033 E145.67511
G0 F1285.7 X94.564 Y177.719
G1 F900 X64.773 Y147.929 E147.28741
G1 X64.711 Y147.867
G0 F1285.7 X64.124 Y146.785
G1 F900 X94.745 Y177.406 E148.94466
G0 F1285.7 X94.926 Y177.092
G1 F900 X63.475 Y145.641 E150.64683
G1 X63.413 Y145.579
G0 F1285.7 X62.826 Y144.497
G1 F900 X95.107 Y176.778 E152.39392
G0 F1285.7 X95.289 Y176.464
G1 F900 X62.177 Y143.353 E154.18595
G1 X62.115 Y143.291
G0 F1285.7 X61.528 Y142.209
G1 F900 X95.47 Y176.15 E156.02291
G0 F1285.7 X95.651 Y175.836
G1 F900 X60.878 Y141.064 E157.90484
G1 X60.816 Y141.002
G0 F1285.7 X60.229 Y139.92
G1 F900 X95.832 Y175.522 E159.8317
G0 F1285.7 X96.013 Y175.209
G1 F900 X59.58 Y138.776 E161.8035
G1 X59.518 Y138.714
G0 F1285.7 X58.93 Y137.631
G1 F900 X96.194 Y174.895 E163.82027
G0 F1285.7 X96.375 Y174.581
G1 F900 X58.281 Y136.487 E165.88197
G1 X58.219 Y136.425
G0 F1285.7 X57.632 Y135.343
G1 F900 X96.556 Y174.267 E167.98858
G0 F1285.7 X96.738 Y173.954
G1 F900 X56.983 Y134.199 E170.14018
G1 X56.921 Y134.137
G0 F1285.7 X56.333 Y133.054
G1 F900 X96.919 Y173.64 E172.33674
G0 F1285.7 X97.1 Y173.326
G1 F900 X55.684 Y131.91 E174.57823
G1 X55.622 Y131.848
G0 F1285.7 X55.035 Y130.766
G1 F900 X97.281 Y173.012 E176.86464
G0 F1285.7 X97.462 Y172.698
G1 F900 X54.386 Y129.622 E179.19596
G1 X54.324 Y129.56
G0 F1285.7 X53.737 Y128.478
G1 F900 X97.644 Y172.385 E181.57227
G0 F1285.7 X97.825 Y172.071
G1 F900 X53.088 Y127.334 E183.99349
G1 X53.026 Y127.272
G0 F1285.7 X52.438 Y126.189
G1 F900 X98.006 Y171.757 E186.45969
G0 F1285.7 X98.187 Y171.443
G1 F900 X51.789 Y125.045 E188.97081
G1 X51.727 Y124.983
G0 F1285.7 X51.14 Y123.901
G1 F900 X98.369 Y171.13 E191.5269
G0 F1285.7 X98.55 Y170.816
G1 F900 X50.49 Y122.757 E194.12794
G1 X50.428 Y122.695
G0 F1285.7 X49.841 Y121.613
G1 F900 X98.731 Y170.502 E196.7739
G0 F1285.7 X98.912 Y170.188
G1 F900 X49.192 Y120.469 E199.46479
G1 X49.13 Y120.407
G0 F1285.7 X48.543 Y119.324
G1 F900 X99.093 Y169.874 E202.20062
G0 F1285.7 X99.274 Y169.561
G1 F900 X47.893 Y118.18 E204.98142
G1 X47.831 Y118.118
G0 F1285.7 X47.244 Y117.036
G1 F900 X99.455 Y169.247 E207.80715
G0 F1285.7 X99.637 Y168.933
G1 F900 X46.595 Y115.891 E210.67785
G1 X46.533 Y115.829
G0 F1285.7 X45.946 Y114.747
G1 F900 X99.818 Y168.619 E213.59347
G0 F1285.7 X99.999 Y168.305
G1 F900 X45.297 Y113.603 E216.55401
G1 X45.235 Y113.541
G0 F1285.7 X44.648 Y112.459
G1 F900 X100.18 Y167.992 E219.5595
G0 F1285.7 X100.361 Y167.678
G1 F900 X43.999 Y111.315 E222.60991
G1 X43.937 Y111.253
G0 F1285.7 X43.349 Y110.17
G1 F900 X100.542 Y167.364 E225.7053
G0 F1285.7 X100.723 Y167.05
G1 F900 X42.7 Y109.026 E228.8456
G1 X42.638 Y108.964
G0 F1285.7 X42.05 Y107.882
G1 F900 X100.905 Y166.737 E232.03091
G0 F1285.7 X101.086 Y166.423
G1 F900 X41.401 Y106.738 E235.26114
G1 X41.339 Y106.676
G0 F1285.7 X40.752 Y105.594
G1 F900 X101.267 Y166.109 E238.53629
G0 F1285.7 X101.448 Y165.795
G1 F900 X40.103 Y104.45 E241.85636
G1 X40.041 Y104.388
G0 F1285.7 X39.453 Y103.305
G1 F900 X101.629 Y165.481 E245.2214
G0 F1285.7 X101.811 Y165.168
G1 F900 X39.087 Y102.444 E248.6161
G0 F1285.7 X39.268 Y102.13
G1 F900 X101.992 Y164.854 E252.01081
G0 F1285.7 X102.173 Y164.54
G1 F900 X39.449 Y101.816 E255.40551
G0 F1285.7 X39.63 Y101.502
G1 F900 X102.354 Y164.226 E258.80021
G0 F1285.7 X102.536 Y163.913
G1 F900 X39.812 Y101.189 E262.19492
G0 F1285.7 X39.993 Y100.875
G1 F900 X102.717 Y163.599 E265.58962
G0 F1285.7 X102.898 Y163.285
G1 F900 X40.174 Y100.561 E268.98432
G0 F1285.7 X40.355 Y100.247
G1 F900 X103.079 Y162.971 E272.37902
G0 F1285.7 X103.26 Y162.657
G1 F900 X40.536 Y99.933 E275.77373
G0 F1285.7 X40.718 Y99.62
G1 F900 X103.441 Y162.343 E279.16838
G0 F1285.7 X103.622 Y162.029
G1 F900 X40.899 Y99.306 E282.56302
G0 F1285.7 X41.08 Y98.992
G1 F900 X103.803 Y161.716 E285.9577
G0 F1285.7 X103.985 Y161.402
G1 F900 X41.261 Y98.678 E289.3524
G0 F1285.7 X41.442 Y98.364
G1 F900 X104.166 Y161.088 E292.74711
G0 F1285.7 X104.347 Y160.774
G1 F900 X41.623 Y98.05 E296.14181
G0 F1285.7 X41.804 Y97.737
G1 F900 X104.528 Y160.46 E299.53648
G0 F1285.7 X104.709 Y160.146
G1 F900 X41.985 Y97.423 E302.93116
G0 F1285.7 X42.167 Y97.109
G1 F900 X104.89 Y159.833 E306.32584
G0 F1285.7 X105.072 Y159.519
G1 F900 X42.348 Y96.795 E309.72054
G0 F1285.7 X42.529 Y96.481
G1 F900 X105.253 Y159.205 E313.11524
G0 F1285.7 X105.434 Y158.891
G1 F900 X42.71 Y96.167 E316.50994
G0 F1285.7 X42.891 Y95.853
G1 F900 X105.615 Y158.577 E319.90465
G0 F1285.7 X105.797 Y158.264
G1 F900 X43.073 Y95.54 E323.29935
G0 F1285.7 X43.254 Y95.226
G1 F900 X105.978 Y157.95 E326.69405
G0 F1285.7 X106.159 Y157.636
G1 F900 X43.435 Y94.912 E330.08876
G0 F1285.7 X43.616 Y94.598
G1 F900 X106.34 Y157.322 E333.48346
G0 F1285.7 X106.521 Y157.008
G1 F900 X43.798 Y94.285 E336.87811
G0 F1285.7 X43.979 Y93.971
G1 F900 X106.703 Y156.695 E340.27281
G0 F1285.7 X106.884 Y156.381
G1 F900 X44.16 Y93.657 E343.66751
G0 F1285.7 X44.341 Y93.343
G1 F900 X107.065 Y156.067 E347.06222
G0 F1285.7 X107.246 Y155.753
G1 F900 X44.522 Y93.029 E350.45692
G0 F1285.7 X44.703 Y92.716
G1 F900 X107.427 Y155.44 E353.85162
G0 F1285.7 X107.608 Y155.126
G1 F900 X44.885 Y92.402 E357.2463
G0 F1285.7 X45.066 Y92.088
G1 F900 X107.789 Y154.812 E360.64097
G0 F1285.7 X107.97 Y154.498
G1 F900 X45.247 Y91.774 E364.03565
G0 F1285.7 X45.428 Y91.461
G1 F900 X108.151 Y154.184 E367.4303
G0 F1285.7 X108.333 Y153.871
G1 F900 X45.609 Y91.147 E370.825
G0 F1285.7 X45.79 Y90.833
G1 F900 X108.514 Y153.557 E374.2197
G0 F1285.7 X108.695 Y153.243
G1 F900 X45.971 Y90.519 E377.6144
G0 F1285.7 X46.153 Y90.206
G1 F900 X108.876 Y152.929 E381.00905
G0 F1285.7 X109.058 Y152.616
G1 F900 X46.334 Y89.892 E384.40376
G0 F1285.7 X46.515 Y89.578
G1 F900 X109.239 Y152.302 E387.79846
G0 F1285.7 X109.42 Y151.988
G1 F900 X46.696 Y89.264 E391.19316
G0 F1285.7 X46.877 Y88.95
G1 F900 X109.601 Y151.674 E394.58786
G0 F1285.7 X109.782 Y151.36
G1 F900 X47.059 Y88.637 E397.98251
G0 F1285.7 X47.24 Y88.323
G1 F900 X109.964 Y151.047 E401.37722
G0 F1285.7 X110.145 Y150.733
G1 F900 X47.421 Y88.009 E404.77192
G0 F1285.7 X47.602 Y87.695
G1 F900 X110.326 Y150.419 E408.16662
G0 F1285.7 X110.507 Y150.105
G1 F900 X47.784 Y87.382 E411.56127
G0 F1285.7 X47.965 Y87.068
G1 F900 X110.689 Y149.792 E414.95597
G0 F1285.7 X110.87 Y149.478
G1 F900 X48.146 Y86.754 E418.35068
G0 F1285.7 X48.327 Y86.44
G1 F900 X111.051 Y149.164 E421.74538
G0 F1285.7 X111.232 Y148.85
G1 F900 X48.508 Y86.127 E425.14005
G0 F1285.7 X48.689 Y85.813
G1 F900 X111.413 Y148.536 E428.53473
G0 F1285.7 X111.594 Y148.223
G1 F900 X48.87 Y85.499 E431.92943
G0 F1285.7 X49.051 Y85.185
G1 F900 X111.775 Y147.909 E435.32414
G0 F1285.7 X111.956 Y147.595
G1 F900 X49.233 Y84.871 E438.71881
G0 F1285.7 X49.414 Y84.557
G1 F900 X112.137 Y147.281 E442.11349
G0 F1285.7 X112.319 Y146.967
G1 F900 X49.595 Y84.243 E445.50819
G0 F1285.7 X49.776 Y83.93
G1 F900 X112.5 Y146.653 E448.90287
G0 F1285.7 X112.681 Y146.339
G1 F900 X49.957 Y83.616 E452.29754
G0 F1285.7 X50.139 Y83.302
G1 F900 X112.862 Y146.026 E455.69222
G0 F1285.7 X113.043 Y145.712
G1 F900 X50.32 Y82.988 E459.08689
G0 F1285.7 X50.501 Y82.674
G1 F900 X113.225 Y145.398 E462.4816
