;FLAVOR:Marlin
;TIME:12064
;Filament used: 14.5203m
;Layer height: 0.3
;MINX:29.842
;MINY:10.318
;MINZ:0.26
;MAXX:191.026
;MAXY:193.253
;MAXZ:7.76
;Generated with Cura_SteamEngine 4.9.1
M82 ;absolute extrusion mode
;Begin Start Gcode for Dagoma DiscoEasy 200
;Sliced: 07-07-2021 20:14:20
;Initial extruder: 0

G90 ;Absolute positioning
M106 S255 ;Fan on full
G28 X Y ;Home stop X Y
G1 X100 ;Centre back during cooldown in case of oozing
M109 R90 ;Cooldown in case too hot
G28 ;Centre
G29 ;Auto-level
M104 S205 ;Pre-heat
M107 ;Fan off
G0 X100 Y5 Z0.5 ;Front centre for degunk
M109 S205 ;Wait for initial temp
M83 ;E Relative
G1 E10 F200 ;Degunk
G1 E-3 F5000 ;Retract
G0 Z3 ;Withdraw
M82 ;E absolute
G92 E0 ;E reset
G1 F6000 ;Set feedrate

;Finish Start Gcode for Dagoma DiscoEasy 200

G92 E0
G92 E0
G1 F3000 E-3.5
;LAYER_COUNT:26
;LAYER:0
M107
G0 F1285.7 X81.764 Y13.778 Z0.26
;TYPE:SKIRT
G1 F3000 E0
G1 F900 X82.118 Y13.195 E0.0261
G1 X82.44 Y12.741 E0.0474
G1 X82.824 Y12.338 E0.06871
G1 X83.261 Y11.995 E0.08997
G1 X83.744 Y11.717 E0.11129
G1 X84.261 Y11.512 E0.13258
G1 X84.802 Y11.382 E0.15387
G1 X85.321 Y11.333 E0.17382
G1 X86.313 Y11.305 E0.2118
G1 X186.477 Y10.318 E4.04521
G1 X187.168 Y10.321 E4.07166
G1 X187.723 Y10.363 E4.09296
G1 X188.266 Y10.485 E4.11426
G1 X188.786 Y10.683 E4.13555
G1 X189.272 Y10.953 E4.15683
G1 X189.715 Y11.29 E4.17813
G1 X190.104 Y11.687 E4.1994
G1 X190.433 Y12.136 E4.2207
G1 X190.694 Y12.627 E4.24198
G1 X190.882 Y13.151 E4.26329
G1 X190.994 Y13.696 E4.28458
G1 X191.026 Y14.252 E4.30589
G1 X190.978 Y14.806 E4.32717
G1 X190.851 Y15.348 E4.34848
G1 X190.554 Y16.05 E4.37765
G1 X190.239 Y16.606 E4.4021
G1 X87.382 Y190.771 E12.14286
G1 X87.008 Y191.388 E12.17048
G1 X86.686 Y191.842 E12.19178
G1 X86.302 Y192.245 E12.21308
G1 X85.865 Y192.589 E12.23436
G1 X85.383 Y192.867 E12.25566
G1 X84.866 Y193.072 E12.27694
G1 X84.325 Y193.202 E12.29823
G1 X83.771 Y193.253 E12.31953
G1 X83.215 Y193.224 E12.34083
G1 X82.669 Y193.116 E12.36213
G1 X82.145 Y192.931 E12.3834
G1 X81.652 Y192.672 E12.40471
G1 X81.201 Y192.346 E12.42601
G1 X80.802 Y191.958 E12.44731
G1 X80.418 Y191.448 E12.47174
G1 X80.053 Y190.843 E12.49878
G1 X30.662 Y105.293 E16.27919
G1 X30.329 Y104.699 E16.30525
G1 X30.092 Y104.195 E16.32657
G1 X29.93 Y103.663 E16.34785
G1 X29.846 Y103.113 E16.36914
G1 X29.842 Y102.557 E16.39042
G1 X29.917 Y102.005 E16.41174
G1 X30.071 Y101.47 E16.43304
G1 X30.335 Y100.899 E16.45712
G1 X30.84 Y100.005 E16.49641
G1 X81.764 Y13.778 E20.32879
G0 F1285.7 X82.063 Y13.959
G1 F900 X82.417 Y13.376 E20.35489
G1 X82.726 Y12.945 E20.37518
G1 X83.096 Y12.565 E20.39548
G1 X83.519 Y12.244 E20.4158
G1 X83.985 Y11.991 E20.43609
G1 X84.484 Y11.81 E20.45641
G1 X85.005 Y11.707 E20.47673
G1 X85.331 Y11.682 E20.48925
G1 X86.316 Y11.655 E20.52695
G1 X186.475 Y10.668 E24.36018
G1 X187.166 Y10.671 E24.38662
G1 X187.695 Y10.713 E24.40693
G1 X188.212 Y10.834 E24.42725
G1 X188.705 Y11.032 E24.44758
G1 X189.162 Y11.301 E24.46788
G1 X189.574 Y11.636 E24.4882
G1 X189.931 Y12.028 E24.50849
G1 X190.225 Y12.47 E24.5288
G1 X190.449 Y12.951 E24.54911
G1 X190.598 Y13.46 E24.56941
G1 X190.67 Y13.986 E24.58972
G1 X190.661 Y14.517 E24.61005
G1 X190.573 Y15.04 E24.63034
G1 X190.408 Y15.544 E24.65064
G1 X190.173 Y16.016 E24.67082
G1 X189.916 Y16.465 E24.69062
G1 X87.082 Y190.589 E32.42958
G1 X86.708 Y191.206 E32.45719
G1 X86.4 Y191.638 E32.4775
G1 X86.03 Y192.019 E32.49782
G1 X85.607 Y192.339 E32.51812
G1 X85.141 Y192.593 E32.53843
G1 X84.643 Y192.774 E32.55871
G1 X84.122 Y192.878 E32.57904
G1 X83.592 Y192.903 E32.59934
G1 X83.064 Y192.847 E32.61966
G1 X82.551 Y192.713 E32.63995
G1 X82.063 Y192.504 E32.66027
G1 X81.613 Y192.224 E32.68055
G1 X81.209 Y191.879 E32.70088
G1 X80.714 Y191.261 E32.73119
G1 X80.355 Y190.665 E32.75781
G1 X30.967 Y105.122 E36.53794
G1 X30.634 Y104.528 E36.564
G1 X30.41 Y104.047 E36.58431
G1 X30.261 Y103.537 E36.60464
G1 X30.19 Y103.011 E36.62495
G1 X30.199 Y102.481 E36.64524
G1 X30.287 Y101.958 E36.66553
G1 X30.453 Y101.454 E36.68584
G1 X30.639 Y101.071 E36.70213
G1 X31.142 Y100.182 E36.74122
G1 X82.063 Y13.959 E40.57341
G0 F1285.7 X82.362 Y14.141
G1 F900 X82.716 Y13.558 E40.59951
G1 X83.011 Y13.15 E40.61878
G1 X83.366 Y12.793 E40.63804
G1 X83.774 Y12.497 E40.65733
G1 X84.223 Y12.269 E40.67661
G1 X84.702 Y12.115 E40.69586
G1 X85.34 Y12.032 E40.72048
G1 X86.32 Y12.005 E40.758
G1 X186.474 Y11.018 E44.59103
G1 X187.165 Y11.021 E44.61748
G1 X187.667 Y11.063 E44.63676
G1 X188.155 Y11.184 E44.656
G1 X188.619 Y11.381 E44.67529
G1 X189.046 Y11.648 E44.69456
G1 X189.425 Y11.98 E44.71384
G1 X189.746 Y12.367 E44.73308
G1 X190.003 Y12.801 E44.75239
G1 X190.188 Y13.269 E44.77165
G1 X190.296 Y13.761 E44.79092
G1 X190.325 Y14.264 E44.8102
G1 X190.275 Y14.765 E44.82947
G1 X190.145 Y15.251 E44.84873
G1 X189.939 Y15.715 E44.86815
G1 X189.632 Y16.257 E44.89199
G1 X86.783 Y190.408 E52.63214
G1 X86.409 Y191.025 E52.65975
G1 X86.115 Y191.433 E52.67899
G1 X85.759 Y191.79 E52.69829
G1 X85.352 Y192.087 E52.71757
G1 X84.903 Y192.315 E52.73684
G1 X84.424 Y192.469 E52.7561
G1 X83.926 Y192.545 E52.77538
G1 X83.423 Y192.542 E52.79463
G1 X82.926 Y192.46 E52.8139
G1 X82.448 Y192.299 E52.83321
G1 X82.002 Y192.066 E52.85246
G1 X81.599 Y191.765 E52.87171
G1 X81.248 Y191.403 E52.89101
G1 X80.926 Y190.941 E52.91256
G1 X80.656 Y190.488 E52.93274
G1 X31.273 Y104.951 E56.71257
G1 X30.94 Y104.357 E56.73863
G1 X30.729 Y103.899 E56.75793
G1 X30.593 Y103.414 E56.77721
G1 X30.536 Y102.914 E56.79647
G1 X30.558 Y102.411 E56.81574
G1 X30.66 Y101.918 E56.835
G1 X30.944 Y101.243 E56.86303
G1 X31.443 Y100.36 E56.90184
G1 X82.362 Y14.141 E60.73385
G1 F3000 E57.23385
;MESH:support_half_hex_25.stl
G0 F1285.7 X84.774 Y15.043
G0 X85.641 Y15.554
G0 X185.934 Y14.723
;TYPE:WALL-INNER
G1 F3000 E60.73385
G1 F900 X185.935 Y14.722 E60.73391
G1 X186.243 Y14.72 E60.74569
G1 X186.086 Y14.986 E60.75237
G1 X83.85 Y188.1 E68.44642
G1 X83.849 Y188.101 E68.44647
G1 X83.698 Y188.357 E68.45785
G1 X83.549 Y188.099 E68.46431
G1 X34.3 Y102.798 E72.23376
G1 X85.732 Y15.711 E76.10436
G1 X185.934 Y14.723 E79.93923
G0 F1285.7 X186.507 Y14.392
;TYPE:WALL-OUTER
G1 F900 X186.508 Y14.391 E79.93928
G1 X186.816 Y14.389 E79.95107
G1 X186.659 Y14.655 E79.95775
G1 X83.847 Y188.744 E87.69513
G1 X83.846 Y188.745 E87.69518
G1 X83.695 Y189.001 E87.70656
G1 X83.546 Y188.743 E87.71302
G1 X33.924 Y102.796 E91.51102
G1 X85.545 Y15.388 E95.39587
G1 X186.507 Y14.392 E99.25983
G0 F1285.7 X186.508 Y14.391
G0 X186.707 Y14.39
G0 X186.707 Y14.491
G0 X185.643 Y15.066
;TYPE:SKIN
G1 F900 X83.702 Y187.681 E106.93169
G1 X34.694 Y102.8 E110.6826
G1 X85.928 Y16.049 E114.53827
G1 X185.643 Y15.066 E118.3545
G0 F1285.7 X185.23 Y15.453
G1 F900 X185.006 Y15.229 E118.36663
G0 F1285.7 X184.515 Y15.234
G1 F900 X185.046 Y15.764 E118.39534
G0 F1285.7 X184.862 Y16.076
G1 F900 X184.025 Y15.239 E118.44064
G0 F1285.7 X183.535 Y15.244
G1 F900 X184.679 Y16.387 E118.50253
G0 F1285.7 X184.495 Y16.699
G1 F900 X183.045 Y15.249 E118.581
G0 F1285.7 X182.555 Y15.253
G1 F900 X184.311 Y17.01 E118.67607
G0 F1285.7 X184.127 Y17.321
G1 F900 X182.065 Y15.258 E118.78769
G0 F1285.7 X181.575 Y15.263
G1 F900 X183.943 Y17.632 E118.91588
G0 F1285.7 X183.76 Y17.943
G1 F900 X181.085 Y15.268 E119.06065
G0 F1285.7 X180.595 Y15.273
G1 F900 X183.576 Y18.254 E119.22199
G0 F1285.7 X183.392 Y18.565
G1 F900 X180.105 Y15.278 E119.39988
G0 F1285.7 X179.614 Y15.282
G1 F900 X183.208 Y18.876 E119.5944
G0 F1285.7 X183.024 Y19.188
G1 F900 X179.124 Y15.287 E119.8055
G0 F1285.7 X178.634 Y15.292
G1 F900 X182.841 Y19.499 E120.03318
G0 F1285.7 X182.657 Y19.811
G1 F900 X178.144 Y15.297 E120.27746
G0 F1285.7 X177.654 Y15.302
G1 F900 X182.473 Y20.122 E120.5383
G0 F1285.7 X182.29 Y20.433
G1 F900 X177.164 Y15.307 E120.81572
G0 F1285.7 X176.673 Y15.311
G1 F900 X182.106 Y20.744 E121.10976
G0 F1285.7 X181.922 Y21.055
G1 F900 X176.183 Y15.316 E121.42037
G0 F1285.7 X175.693 Y15.321
G1 F900 X181.738 Y21.366 E121.74753
G0 F1285.7 X181.554 Y21.677
G1 F900 X175.203 Y15.326 E122.09125
G0 F1285.7 X174.713 Y15.331
G1 F900 X181.37 Y21.988 E122.45154
G0 F1285.7 X181.186 Y22.3
G1 F900 X174.223 Y15.336 E122.82841
G0 F1285.7 X173.732 Y15.34
G1 F900 X181.003 Y22.611 E123.22193
G0 F1285.7 X180.819 Y22.922
G1 F900 X173.242 Y15.345 E123.632
G0 F1285.7 X172.752 Y15.35
G1 F900 X180.636 Y23.234 E124.0587
G0 F1285.7 X180.452 Y23.545
G1 F900 X172.262 Y15.355 E124.50195
G0 F1285.7 X171.772 Y15.36
G1 F900 X180.268 Y23.856 E124.96176
G0 F1285.7 X180.084 Y24.167
G1 F900 X171.282 Y15.365 E125.43814
G0 F1285.7 X170.791 Y15.369
G1 F900 X179.9 Y24.478 E125.93113
G0 F1285.7 X179.716 Y24.789
G1 F900 X170.301 Y15.374 E126.44068
G0 F1285.7 X169.811 Y15.379
G1 F900 X179.532 Y25.1 E126.9668
G0 F1285.7 X179.349 Y25.412
G1 F900 X169.321 Y15.384 E127.50952
G0 F1285.7 X168.831 Y15.389
G1 F900 X179.165 Y25.723 E128.06881
G0 F1285.7 X178.982 Y26.034
G1 F900 X168.341 Y15.394 E128.64469
G0 F1285.7 X167.85 Y15.398
G1 F900 X178.798 Y26.346 E129.23721
G0 F1285.7 X178.614 Y26.657
G1 F900 X167.36 Y15.403 E129.84629
G0 F1285.7 X166.87 Y15.408
G1 F900 X178.43 Y26.968 E130.47193
G0 F1285.7 X178.246 Y27.279
G1 F900 X166.38 Y15.413 E131.11414
G0 F1285.7 X165.89 Y15.418
G1 F900 X178.062 Y27.59 E131.7729
G0 F1285.7 X177.879 Y27.901
G1 F900 X165.4 Y15.423 E132.44825
G0 F1285.7 X164.91 Y15.427
G1 F900 X177.695 Y28.212 E133.14019
G0 F1285.7 X177.511 Y28.523
G1 F900 X164.42 Y15.432 E133.84869
G0 F1285.7 X163.929 Y15.437
G1 F900 X177.327 Y28.835 E134.57381
G0 F1285.7 X177.143 Y29.146
G1 F900 X163.439 Y15.442 E135.31549
G0 F1285.7 X162.949 Y15.447
G1 F900 X176.96 Y29.458 E136.07378
G0 F1285.7 X176.776 Y29.769
G1 F900 X162.459 Y15.452 E136.84864
G0 F1285.7 X161.969 Y15.456
G1 F900 X176.592 Y30.08 E137.64008
G0 F1285.7 X176.408 Y30.391
G1 F900 X161.479 Y15.461 E138.44808
G0 F1285.7 X160.989 Y15.466
G1 F900 X176.225 Y30.702 E139.27267
G0 F1285.7 X176.041 Y31.013
G1 F900 X160.499 Y15.471 E140.11383
G0 F1285.7 X160.009 Y15.476
G1 F900 X175.857 Y31.324 E140.97154
G0 F1285.7 X175.673 Y31.635
G1 F900 X159.519 Y15.481 E141.84582
G0 F1285.7 X159.028 Y15.485
G1 F900 X175.489 Y31.947 E142.73673
G0 F1285.7 X175.305 Y32.258
G1 F900 X158.538 Y15.49 E143.64421
G0 F1285.7 X158.048 Y15.495
G1 F900 X175.122 Y32.57 E144.56831
G0 F1285.7 X174.938 Y32.881
G1 F900 X157.558 Y15.5 E145.50896
G0 F1285.7 X157.068 Y15.505
G1 F900 X174.755 Y33.192 E146.4662
G0 F1285.7 X174.571 Y33.503
G1 F900 X156.578 Y15.51 E147.44001
G0 F1285.7 X156.087 Y15.514
G1 F900 X174.387 Y33.814 E148.43043
G0 F1285.7 X174.203 Y34.125
G1 F900 X155.597 Y15.519 E149.43741
G0 F1285.7 X155.107 Y15.524
G1 F900 X174.019 Y34.436 E150.46095
G0 F1285.7 X173.835 Y34.747
G1 F900 X154.617 Y15.529 E151.50105
G0 F1285.7 X154.127 Y15.534
G1 F900 X173.651 Y35.059 E152.55774
G0 F1285.7 X173.468 Y35.37
G1 F900 X153.637 Y15.539 E153.63102
G0 F1285.7 X153.146 Y15.543
G1 F900 X173.285 Y35.682 E154.72097
G0 F1285.7 X173.101 Y35.993
G1 F900 X152.656 Y15.548 E155.82748
G0 F1285.7 X152.166 Y15.553
G1 F900 X172.917 Y36.304 E156.95055
G0 F1285.7 X172.733 Y36.615
G1 F900 X151.676 Y15.558 E158.09018
G0 F1285.7 X151.186 Y15.563
G1 F900 X172.549 Y36.926 E159.24637
G0 F1285.7 X172.365 Y37.237
G1 F900 X150.696 Y15.568 E160.41913
G0 F1285.7 X150.205 Y15.572
G1 F900 X172.181 Y37.548 E161.6085
G0 F1285.7 X171.998 Y37.859
G1 F900 X149.715 Y15.577 E162.81445
G0 F1285.7 X149.225 Y15.582
G1 F900 X171.814 Y38.171 E164.037
G0 F1285.7 X171.63 Y38.482
G1 F900 X148.735 Y15.587 E165.27611
G0 F1285.7 X148.245 Y15.592
G1 F900 X171.446 Y38.793 E166.53177
G0 F1285.7 X171.263 Y39.105
G1 F900 X147.755 Y15.597 E167.80406
G0 F1285.7 X147.264 Y15.601
G1 F900 X171.079 Y39.416 E169.09296
G0 F1285.7 X170.895 Y39.727
G1 F900 X146.774 Y15.606 E170.39841
G0 F1285.7 X146.284 Y15.611
G1 F900 X170.711 Y40.038 E171.72043
G0 F1285.7 X170.527 Y40.349
G1 F900 X145.794 Y15.616 E173.05902
G0 F1285.7 X145.304 Y15.621
G1 F900 X170.344 Y40.66 E174.41419
G0 F1285.7 X170.16 Y40.971
G1 F900 X144.814 Y15.626 E175.78592
G0 F1285.7 X144.324 Y15.63
G1 F900 X169.976 Y41.283 E177.17426
G0 F1285.7 X169.792 Y41.594
G1 F900 X143.834 Y15.635 E178.57917
G0 F1285.7 X143.343 Y15.64
G1 F900 X169.608 Y41.905 E180.00067
G0 F1285.7 X169.425 Y42.217
G1 F900 X142.853 Y15.645 E181.43878
G0 F1285.7 X142.363 Y15.65
G1 F900 X169.241 Y42.528 E182.89345
G0 F1285.7 X169.057 Y42.839
G1 F900 X141.873 Y15.655 E184.36468
G0 F1285.7 X141.383 Y15.659
G1 F900 X168.874 Y43.15 E185.85253
G0 F1285.7 X168.69 Y43.461
G1 F900 X140.893 Y15.664 E187.35694
G0 F1285.7 X140.403 Y15.669
G1 F900 X168.506 Y43.772 E188.87791
G0 F1285.7 X168.322 Y44.083
G1 F900 X139.913 Y15.674 E190.41544
G0 F1285.7 X139.423 Y15.679
G1 F900 X168.138 Y44.394 E191.96953
G0 F1285.7 X167.954 Y44.706
G1 F900 X138.933 Y15.684 E193.54021
G0 F1285.7 X138.442 Y15.688
G1 F900 X167.77 Y45.017 E195.12751
G0 F1285.7 X167.587 Y45.328
G1 F900 X137.952 Y15.693 E196.73139
G0 F1285.7 X137.462 Y15.698
G1 F900 X167.403 Y45.64 E198.35186
G0 F1285.7 X167.22 Y45.951
G1 F900 X136.972 Y15.703 E199.98892
G0 F1285.7 X136.482 Y15.708
G1 F900 X167.036 Y46.262 E201.64254
G0 F1285.7 X166.852 Y46.573
G1 F900 X135.992 Y15.713 E203.31273
G0 F1285.7 X135.501 Y15.717
G1 F900 X166.668 Y46.884 E204.99953
G0 F1285.7 X166.484 Y47.195
G1 F900 X135.011 Y15.722 E206.70288
G0 F1285.7 X134.521 Y15.727
G1 F900 X166.3 Y47.506 E208.4228
G0 F1285.7 X166.117 Y47.818
G1 F900 X134.031 Y15.732 E210.15934
G0 F1285.7 X133.541 Y15.737
G1 F900 X165.933 Y48.129 E211.91244
G0 F1285.7 X165.749 Y48.44
G1 F900 X133.051 Y15.742 E213.68209
G0 F1285.7 X132.561 Y15.747
G1 F900 X165.566 Y48.752 E215.46837
G0 F1285.7 X165.382 Y49.063
G1 F900 X132.07 Y15.751 E217.27125
G0 F1285.7 X131.58 Y15.756
G1 F900 X165.198 Y49.374 E219.0907
G0 F1285.7 X165.014 Y49.685
G1 F900 X131.09 Y15.761 E220.92671
G0 F1285.7 X130.6 Y15.766
G1 F900 X164.83 Y49.996 E222.77928
G0 F1285.7 X164.646 Y50.307
G1 F900 X130.11 Y15.771 E224.64842
G0 F1285.7 X129.62 Y15.776
G1 F900 X164.463 Y50.618 E226.53414
G0 F1285.7 X164.279 Y50.93
G1 F900 X129.129 Y15.78 E228.4365
G0 F1285.7 X128.639 Y15.785
G1 F900 X164.095 Y51.241 E230.35542
G0 F1285.7 X163.911 Y51.552
G1 F900 X128.149 Y15.79 E232.29091
G0 F1285.7 X127.659 Y15.795
G1 F900 X163.728 Y51.864 E234.24301
G0 F1285.7 X163.544 Y52.175
G1 F900 X127.169 Y15.8 E236.21167
G0 F1285.7 X126.679 Y15.805
G1 F900 X163.36 Y52.486 E238.19689
G0 F1285.7 X163.176 Y52.797
G1 F900 X126.188 Y15.809 E240.19873
G0 F1285.7 X125.698 Y15.814
G1 F900 X162.993 Y53.108 E242.21716
G0 F1285.7 X162.809 Y53.419
G1 F900 X125.208 Y15.819 E244.25214
G0 F1285.7 X124.718 Y15.824
G1 F900 X162.625 Y53.73 E246.30369
G0 F1285.7 X162.441 Y54.042
G1 F900 X124.228 Y15.829 E248.37183
G0 F1285.7 X123.738 Y15.834
G1 F900 X162.257 Y54.353 E250.45652
G0 F1285.7 X162.073 Y54.664
G1 F900 X123.248 Y15.838 E252.55781
G0 F1285.7 X122.757 Y15.843
G1 F900 X161.889 Y54.975 E254.67568
G0 F1285.7 X161.706 Y55.287
G1 F900 X122.267 Y15.848 E256.81017
G0 F1285.7 X121.777 Y15.853
G1 F900 X161.522 Y55.598 E258.96122
G0 F1285.7 X161.339 Y55.909
G1 F900 X121.287 Y15.858 E261.12886
G0 F1285.7 X120.797 Y15.863
G1 F900 X161.155 Y56.22 E263.31306
G0 F1285.7 X160.971 Y56.531
G1 F900 X120.307 Y15.867 E265.51385
G0 F1285.7 X119.817 Y15.872
G1 F900 X160.787 Y56.842 E267.7312
G0 F1285.7 X160.603 Y57.154
G1 F900 X119.327 Y15.877 E269.96513
G0 F1285.7 X118.837 Y15.882
G1 F900 X160.419 Y57.465 E272.21563
G0 F1285.7 X160.236 Y57.776
G1 F900 X118.347 Y15.887 E274.48272
G0 F1285.7 X117.857 Y15.892
G1 F900 X160.052 Y58.087 E276.76636
G0 F1285.7 X159.869 Y58.399
G1 F900 X117.366 Y15.896 E279.06668
G0 F1285.7 X116.876 Y15.901
G1 F900 X159.685 Y58.71 E281.38356
G0 F1285.7 X159.501 Y59.021
G1 F900 X116.386 Y15.906 E283.717
G0 F1285.7 X115.896 Y15.911
G1 F900 X159.317 Y59.332 E286.067
G0 F1285.7 X159.133 Y59.643
G1 F900 X115.406 Y15.916 E288.43356
G0 F1285.7 X114.916 Y15.921
G1 F900 X158.949 Y59.954 E290.81668
G0 F1285.7 X158.765 Y60.266
G1 F900 X114.425 Y15.925 E293.21644
G0 F1285.7 X113.935 Y15.93
G1 F900 X158.582 Y60.577 E295.6328
G0 F1285.7 X158.398 Y60.888
G1 F900 X113.445 Y15.935 E298.06571
G0 F1285.7 X112.955 Y15.94
G1 F900 X158.214 Y61.199 E300.51519
