;FLAVOR:Marlin
;TIME:23316
;Filament used: 23.8725m
;Layer height: 0.3
;MINX:4.073
;MINY:25.216
;MINZ:0.26
;MAXX:199.345
;MAXY:176.936
;MAXZ:23.66
;Generated with Cura_SteamEngine 4.9.1
M82 ;absolute extrusion mode
;Begin Start Gcode for Dagoma DiscoEasy 200
;Sliced: 30-06-2021 18:17:36
;Initial extruder: 0

G90 ;Absolute positioning
M106 S255 ;Fan on full
G28 X Y ;Home stop X Y
G1 X100 ;Centre back during cooldown in case of oozing
M109 R90 ;Cooldown in case too hot
G28 ;Centre
G29 ;Auto-level
M104 S205 ;Pre-heat
M107 ;Fan off
G0 X100 Y5 Z0.5 ;Front centre for degunk
M109 S205 ;Wait for initial temp
M83 ;E Relative
G1 E10 F200 ;Degunk
G1 E-3 F5000 ;Retract
G0 Z3 ;Withdraw
M82 ;E absolute
G92 E0 ;E reset
G1 F6000 ;Set feedrate

;Finish Start Gcode for Dagoma DiscoEasy 200

G92 E0
G92 E0
G1 F3000 E-3.5
;LAYER_COUNT:79
;LAYER:0
M107
G0 F1285.7 X33.694 Y26.651 Z0.26
;TYPE:SKIRT
G1 F3000 E0
G1 F900 X34.077 Y26.247 E0.0213
G1 X34.514 Y25.903 E0.04259
G1 X34.996 Y25.624 E0.0639
G1 X35.512 Y25.418 E0.08516
G1 X36.053 Y25.287 E0.10647
G1 X36.613 Y25.236 E0.12799
G1 X37.653 Y25.216 E0.16779
G1 X136.796 Y25.216 E3.96195
G1 X137.498 Y25.226 E3.98882
G1 X138.053 Y25.274 E4.01014
G1 X138.594 Y25.401 E4.0314
G1 X139.112 Y25.604 E4.05269
G1 X139.596 Y25.879 E4.074
G1 X140.035 Y26.221 E4.09529
G1 X140.421 Y26.622 E4.11659
G1 X140.851 Y27.258 E4.14597
G1 X142.105 Y29.578 E4.2469
G1 X143.498 Y31.987 E4.35339
G1 X144.913 Y34.281 E4.45654
G1 X146.4 Y36.547 E4.56027
G1 X147.759 Y38.494 E4.65113
G1 X148.088 Y38.995 E4.67407
G1 X148.387 Y39.495 E4.69636
G1 X161.646 Y62.225 E5.70341
G1 X163.085 Y64.614 E5.81014
G1 X164.552 Y66.899 E5.91406
G1 X166.073 Y69.129 E6.01736
G1 X167.664 Y71.326 E6.12117
G1 X169.324 Y73.485 E6.22539
G1 X171.056 Y75.612 E6.33036
G1 X172.828 Y77.666 E6.43418
G1 X174.753 Y79.768 E6.54326
G1 X175.228 Y80.271 E6.56973
G1 X175.58 Y80.702 E6.59103
G1 X175.75 Y80.965 E6.60301
G1 X176.026 Y81.434 E6.62384
G1 X177.752 Y84.392 E6.7549
G1 X177.932 Y84.688 E6.76816
G1 X178.277 Y85.279 E6.79435
G1 X178.522 Y85.779 E6.81566
G1 X178.627 Y86.073 E6.8276
G1 X178.971 Y87.169 E6.87156
G1 X179.845 Y89.815 E6.97821
G1 X180.762 Y92.35 E7.08137
G1 X181.769 Y94.904 E7.18643
G1 X182.826 Y97.377 E7.28936
G1 X183.972 Y99.861 E7.39405
G1 X185.179 Y102.297 E7.49809
G1 X186.449 Y104.684 E7.60156
G1 X187.673 Y106.845 E7.69661
G1 X198.478 Y125.369 E8.5173
G1 X198.854 Y126.037 E8.54663
G1 X199.091 Y126.541 E8.56795
G1 X199.254 Y127.073 E8.58924
G1 X199.339 Y127.622 E8.6105
G1 X199.345 Y128.179 E8.63182
G1 X199.27 Y128.73 E8.6531
G1 X199.118 Y129.265 E8.67438
G1 X198.89 Y129.773 E8.69569
G1 X198.592 Y130.243 E8.71699
G1 X198.23 Y130.665 E8.73827
G1 X197.811 Y131.031 E8.75956
G1 X197.344 Y131.334 E8.78086
G1 X196.838 Y131.566 E8.80216
G1 X196.304 Y131.724 E8.82348
G1 X195.535 Y131.813 E8.8531
G1 X194.524 Y131.827 E8.8918
G1 X191.044 Y131.811 E9.02498
G1 X188.276 Y131.838 E9.13091
G1 X185.595 Y131.94 E9.23359
G1 X182.854 Y132.122 E9.33871
G1 X180.144 Y132.379 E9.44289
G1 X177.46 Y132.71 E9.54638
G1 X174.769 Y133.12 E9.65055
G1 X172.083 Y133.607 E9.75502
G1 X169.466 Y134.157 E9.85736
G1 X166.767 Y134.806 E9.96359
G1 X164.178 Y135.507 E10.06624
G1 X161.556 Y136.296 E10.17103
G1 X158.977 Y137.153 E10.27503
G1 X156.418 Y138.085 E10.37926
G1 X153.919 Y139.076 E10.48214
G1 X151.402 Y140.156 E10.58696
G1 X148.923 Y141.306 E10.69154
G1 X146.489 Y142.517 E10.79558
G1 X144.112 Y143.787 E10.89871
G1 X141.72 Y145.152 E11.00411
G1 X139.452 Y146.536 E11.10579
G1 X137.126 Y148.043 E11.21185
G1 X134.887 Y149.587 E11.31594
G1 X132.712 Y151.179 E11.41909
G1 X130.552 Y152.856 E11.52374
G1 X128.459 Y154.577 E11.62744
G1 X126.407 Y156.368 E11.73167
G1 X124.426 Y158.194 E11.83478
G1 X122.48 Y160.092 E11.93881
G1 X120.568 Y162.068 E12.04403
G1 X118.742 Y164.063 E12.14753
G1 X116.95 Y166.138 E12.25246
G1 X115.243 Y168.23 E12.35579
G1 X113.589 Y170.379 E12.45957
G1 X112.186 Y172.305 E12.55076
G1 X111.871 Y172.75 E12.57162
G1 X111.518 Y173.18 E12.59291
G1 X111.106 Y173.555 E12.61423
G1 X110.646 Y173.867 E12.6355
G1 X110.145 Y174.11 E12.65681
G1 X109.615 Y174.278 E12.67809
G1 X109.066 Y174.369 E12.69939
G1 X108.764 Y174.386 E12.71096
G1 X107.728 Y174.4 E12.75061
G1 X86.394 Y174.305 E13.56706
G1 X83.626 Y174.332 E13.673
G1 X80.945 Y174.434 E13.77567
G1 X78.204 Y174.616 E13.8808
G1 X75.499 Y174.872 E13.98478
G1 X72.806 Y175.205 E14.08863
G1 X70.106 Y175.617 E14.19315
G1 X67.468 Y176.094 E14.29574
G1 X64.317 Y176.775 E14.41911
G1 X63.933 Y176.854 E14.43412
G1 X63.165 Y176.933 E14.46366
G1 X62.165 Y176.936 E14.50193
G1 X61.696 Y176.929 E14.51988
G1 X59.301 Y176.925 E14.61154
G1 X58.817 Y176.93 E14.63006
G1 X58.098 Y176.928 E14.65758
G1 X57.543 Y176.886 E14.67888
G1 X57.233 Y176.828 E14.69095
G1 X56.132 Y176.573 E14.7342
G1 X53.425 Y175.984 E14.84022
G1 X50.763 Y175.482 E14.94389
G1 X48.088 Y175.06 E15.04752
G1 X45.361 Y174.706 E15.15276
G1 X42.707 Y174.438 E15.25484
G1 X39.959 Y174.238 E15.36029
G1 X37.243 Y174.117 E15.46433
G1 X34.787 Y174.075 E15.55833
G1 X8.544 Y173.958 E16.56265
G1 X7.876 Y173.946 E16.58822
G1 X7.322 Y173.896 E16.60951
G1 X6.781 Y173.768 E16.63078
G1 X6.264 Y173.563 E16.65207
G1 X5.781 Y173.286 E16.67337
G1 X5.343 Y172.943 E16.69466
G1 X4.959 Y172.54 E16.71597
G1 X4.636 Y172.087 E16.73726
G1 X4.382 Y171.592 E16.75855
G1 X4.201 Y171.066 E16.77984
G1 X4.097 Y170.519 E16.80115
G1 X4.073 Y169.963 E16.82244
G1 X4.128 Y169.41 E16.84371
G1 X4.262 Y168.87 E16.865
G1 X4.456 Y168.387 E16.88492
G1 X4.581 Y168.146 E16.89531
G1 X4.91 Y167.56 E16.92103
G1 X30.856 Y122.621 E18.90689
G1 X32.187 Y120.238 E19.01135
G1 X33.439 Y117.84 E19.11487
G1 X34.629 Y115.395 E19.21893
G1 X35.751 Y112.912 E19.32321
G1 X36.8 Y110.406 E19.42717
G1 X37.79 Y107.841 E19.53239
G1 X38.68 Y105.318 E19.63478
G1 X39.518 Y102.71 E19.73961
G1 X40.272 Y100.124 E19.8427
G1 X40.963 Y97.469 E19.94769
G1 X41.576 Y94.812 E20.05204
G1 X42.109 Y92.166 E20.15534
G1 X42.569 Y89.475 E20.25981
G1 X42.953 Y86.789 E20.36365
G1 X43.259 Y84.1 E20.46722
G1 X43.491 Y81.39 E20.57131
G1 X43.647 Y78.643 E20.67661
G1 X43.724 Y75.965 E20.77913
G1 X43.724 Y73.214 E20.88441
G1 X43.649 Y70.535 E20.98698
G1 X43.494 Y67.785 E21.09239
G1 X43.267 Y65.089 E21.19593
G1 X42.963 Y62.412 E21.29903
G1 X42.574 Y59.669 E21.40506
G1 X42.124 Y57.04 E21.50713
G1 X41.592 Y54.381 E21.6109
G1 X40.972 Y51.684 E21.71681
G1 X40.295 Y49.083 E21.81967
G1 X39.529 Y46.44 E21.92497
G1 X38.704 Y43.873 E22.02816
G1 X37.799 Y41.307 E22.13229
G1 X36.834 Y38.799 E22.23513
G1 X35.772 Y36.255 E22.34063
G1 X34.661 Y33.792 E22.44403
G1 X33.636 Y31.671 E22.53418
G1 X33.221 Y30.838 E22.5698
G1 X33.009 Y30.324 E22.59108
G1 X32.873 Y29.784 E22.61239
G1 X32.816 Y29.231 E22.63366
G1 X32.839 Y28.675 E22.65496
G1 X32.941 Y28.128 E22.67625
G1 X33.12 Y27.601 E22.69755
G1 X33.373 Y27.105 E22.71886
G1 X33.694 Y26.651 E22.74014
G0 F1285.7 X34.094 Y26.725
G1 F900 X34.481 Y26.362 E22.76045
G1 X34.918 Y26.062 E22.78073
G1 X35.396 Y25.831 E22.80105
G1 X35.903 Y25.674 E22.82136
G1 X36.62 Y25.586 E22.849
G1 X37.653 Y25.566 E22.88854
G1 X136.791 Y25.566 E26.68251
G1 X137.493 Y25.576 E26.70938
G1 X138.022 Y25.624 E26.7297
G1 X138.537 Y25.75 E26.74999
G1 X139.028 Y25.952 E26.77031
G1 X139.482 Y26.226 E26.79061
G1 X139.891 Y26.565 E26.81094
G1 X140.244 Y26.961 E26.83124
G1 X140.544 Y27.424 E26.85235
G1 X141.824 Y29.791 E26.95533
G1 X143.185 Y32.145 E27.05939
G1 X144.63 Y34.487 E27.1647
G1 X146.1 Y36.729 E27.2673
G1 X147.469 Y38.691 E27.35886
G1 X147.788 Y39.174 E27.38101
G1 X148.085 Y39.671 E27.40317
G1 X161.362 Y62.433 E28.41162
G1 X162.787 Y64.799 E28.51732
G1 X164.248 Y67.075 E28.62082
G1 X165.78 Y69.321 E28.72486
G1 X167.4 Y71.557 E28.83053
G1 X169.055 Y73.709 E28.93443
G1 X170.768 Y75.813 E29.03826
G1 X172.569 Y77.9 E29.14375
G1 X174.499 Y80.009 E29.25316
G1 X174.974 Y80.512 E29.27964
G1 X175.448 Y81.143 E29.30984
G1 X175.724 Y81.611 E29.33063
G1 X177.451 Y84.57 E29.46175
G1 X177.629 Y84.865 E29.47493
G1 X177.974 Y85.456 E29.50112
G1 X178.293 Y86.178 E29.53133
G1 X178.644 Y87.298 E29.57625
G1 X179.504 Y89.901 E29.68116
G1 X180.439 Y92.486 E29.78636
G1 X181.446 Y95.04 E29.89142
G1 X182.503 Y97.513 E29.99434
G1 X183.66 Y100.022 E30.10008
G1 X184.862 Y102.447 E30.20366
G1 X186.139 Y104.848 E30.30773
G1 X187.346 Y106.979 E30.40146
G1 X198.173 Y125.541 E31.22382
G1 X198.549 Y126.209 E31.25316
G1 X198.774 Y126.69 E31.27348
G1 X198.924 Y127.199 E31.29379
G1 X198.996 Y127.724 E31.31407
G1 X198.988 Y128.255 E31.33439
G1 X198.9 Y128.778 E31.35469
G1 X198.735 Y129.283 E31.37502
G1 X198.497 Y129.757 E31.39532
G1 X198.189 Y130.189 E31.41562
G1 X197.821 Y130.571 E31.43592
G1 X197.399 Y130.893 E31.45623
G1 X196.933 Y131.148 E31.47656
G1 X196.435 Y131.33 E31.49686
G1 X195.915 Y131.436 E31.51716
G1 X195.53 Y131.463 E31.53193
G1 X194.526 Y131.477 E31.57036
G1 X191.043 Y131.461 E31.70365
G1 X188.26 Y131.488 E31.81016
G1 X185.558 Y131.591 E31.91364
G1 X182.833 Y131.772 E32.01816
G1 X180.138 Y132.027 E32.12175
G1 X177.399 Y132.365 E32.22737
G1 X174.688 Y132.778 E32.33232
G1 X172.058 Y133.255 E32.43461
G1 X169.348 Y133.825 E32.54059
G1 X166.728 Y134.455 E32.64371
G1 X164.072 Y135.174 E32.74901
G1 X161.435 Y135.967 E32.85439
G1 X158.858 Y136.824 E32.95832
G1 X156.312 Y137.751 E33.06202
G1 X153.764 Y138.761 E33.16691
G1 X151.246 Y139.842 E33.27178
G1 X148.804 Y140.974 E33.37478
G1 X146.338 Y142.202 E33.48021
G1 X143.932 Y143.488 E33.58461
G1 X141.56 Y144.841 E33.68912
G1 X139.222 Y146.267 E33.79392
G1 X136.947 Y147.742 E33.89768
G1 X134.709 Y149.285 E34.00171
G1 X132.484 Y150.913 E34.10722
G1 X130.342 Y152.576 E34.211
G1 X128.218 Y154.324 E34.31627
G1 X126.188 Y156.094 E34.41934
G1 X124.173 Y157.951 E34.52421
G1 X122.214 Y159.863 E34.62897
G1 X120.322 Y161.817 E34.73306
G1 X118.484 Y163.826 E34.83726
G1 X116.695 Y165.898 E34.94202
G1 X114.961 Y168.022 E35.04695
G1 X113.309 Y170.169 E35.15063
G1 X111.872 Y172.142 E35.24404
G1 X111.585 Y172.548 E35.26306
G1 X111.247 Y172.956 E35.28334
G1 X110.851 Y173.31 E35.30367
G1 X110.407 Y173.6 E35.32396
G1 X109.924 Y173.82 E35.34427
G1 X109.413 Y173.965 E35.3646
G1 X108.759 Y174.036 E35.38978
G1 X107.729 Y174.05 E35.4292
G1 X86.392 Y173.955 E36.24576
G1 X83.61 Y173.982 E36.35223
G1 X80.908 Y174.085 E36.45571
G1 X78.183 Y174.266 E36.56023
G1 X75.458 Y174.524 E36.66498
G1 X72.78 Y174.855 E36.76824
G1 X70.066 Y175.269 E36.87331
G1 X67.361 Y175.758 E36.97851
G1 X64.246 Y176.432 E37.10047
G1 X63.862 Y176.511 E37.11548
G1 X63.163 Y176.583 E37.14237
G1 X62.17 Y176.586 E37.18037
G1 X61.701 Y176.579 E37.19832
G1 X59.297 Y176.575 E37.29032
G1 X58.818 Y176.58 E37.30865
G1 X58.099 Y176.578 E37.33617
G1 X57.312 Y176.487 E37.36649
G1 X56.217 Y176.233 E37.40951
G1 X53.495 Y175.641 E37.51611
G1 X50.808 Y175.135 E37.62075
G1 X48.154 Y174.716 E37.72357
G1 X45.407 Y174.359 E37.82958
G1 X42.73 Y174.088 E37.93255
G1 X39.965 Y173.888 E38.03865
G1 X37.266 Y173.767 E38.14204
G1 X34.788 Y173.725 E38.23688
G1 X8.551 Y173.608 E39.24097
G1 X7.883 Y173.596 E39.26654
G1 X7.354 Y173.547 E39.28687
G1 X6.839 Y173.419 E39.30718
G1 X6.35 Y173.215 E39.32746
G1 X5.896 Y172.939 E39.34779
G1 X5.489 Y172.599 E39.36809
G1 X5.137 Y172.202 E39.38839
G1 X4.849 Y171.756 E39.40871
G1 X4.632 Y171.272 E39.42901
G1 X4.489 Y170.761 E39.44931
G1 X4.425 Y170.234 E39.46963
G1 X4.44 Y169.704 E39.48992
G1 X4.535 Y169.182 E39.51023
G1 X4.772 Y168.54 E39.53642
G1 X4.886 Y168.317 E39.546
G1 X5.213 Y167.735 E39.57155
G1 X31.159 Y122.796 E41.5574
G1 X32.497 Y120.4 E41.66243
G1 X33.758 Y117.984 E41.76672
G1 X34.943 Y115.55 E41.87032
G1 X36.079 Y113.036 E41.9759
G1 X37.112 Y110.568 E42.07829
G1 X38.126 Y107.942 E42.18601
G1 X39.007 Y105.442 E42.28746
G1 X39.855 Y102.805 E42.39346
G1 X40.614 Y100.201 E42.49726
G1 X41.298 Y97.576 E42.60107
G1 X41.918 Y94.883 E42.70683
G1 X42.454 Y92.225 E42.8106
G1 X42.911 Y89.549 E42.91449
G1 X43.303 Y86.808 E43.02045
G1 X43.608 Y84.131 E43.12356
G1 X43.841 Y81.405 E43.22827
G1 X43.995 Y78.708 E43.33165
G1 X44.074 Y75.94 E43.43762
G1 X44.074 Y73.24 E43.54095
G1 X43.997 Y70.47 E43.647
G1 X43.848 Y67.824 E43.74842
G1 X43.614 Y65.055 E43.85476
G1 X43.304 Y62.323 E43.95999
G1 X42.922 Y59.63 E44.06408
G1 X42.469 Y56.981 E44.16693
G1 X41.928 Y54.276 E44.2725
G1 X41.317 Y51.619 E44.37683
G1 X40.629 Y48.974 E44.48142
G1 X39.873 Y46.368 E44.58526
G1 X39.035 Y43.76 E44.6901
G1 X38.131 Y41.196 E44.79414
G1 X37.15 Y38.65 E44.89856
G1 X36.1 Y36.132 E45.00296
G1 X34.975 Y33.639 E45.10763
G1 X33.951 Y31.519 E45.19773
G1 X33.534 Y30.682 E45.23352
G1 X33.334 Y30.191 E45.25381
G1 X33.21 Y29.675 E45.27412
G1 X33.164 Y29.146 E45.29444
G1 X33.199 Y28.616 E45.31477
G1 X33.312 Y28.098 E45.33506
G1 X33.503 Y27.603 E45.35536
G1 X33.765 Y27.141 E45.37569
G1 X34.094 Y26.725 E45.39598
G0 F1285.7 X34.16 Y27.191
G1 F900 X34.495 Y26.815 E45.41526
G1 X34.886 Y26.497 E45.43454
G1 X35.321 Y26.245 E45.45378
G1 X35.792 Y26.064 E45.47309
G1 X36.284 Y25.961 E45.49233
G1 X36.626 Y25.936 E45.50545
G1 X37.653 Y25.916 E45.54476
G1 X136.786 Y25.916 E49.33853
G1 X137.488 Y25.926 E49.3654
G1 X137.99 Y25.973 E49.3847
G1 X138.477 Y26.099 E49.40395
G1 X138.939 Y26.3 E49.42323
G1 X139.363 Y26.572 E49.44251
G1 X139.739 Y26.908 E49.46181
G1 X140.056 Y27.298 E49.48104
G1 X140.236 Y27.591 E49.4942
G1 X141.511 Y29.948 E49.59675
G1 X142.89 Y32.334 E49.70222
G1 X144.32 Y34.652 E49.80645
G1 X145.817 Y36.934 E49.91089
G1 X147.18 Y38.888 E50.00207
G1 X147.488 Y39.354 E50.02344
G1 X147.783 Y39.847 E50.04543
G1 X161.069 Y62.624 E51.05455
G1 X162.483 Y64.973 E51.15947
G1 X163.961 Y67.275 E51.26417
G1 X165.504 Y69.537 E51.36895
G1 X167.115 Y71.76 E51.47402
G1 X168.773 Y73.917 E51.57813
G1 X170.512 Y76.052 E51.68351
G1 X172.294 Y78.118 E51.78792
G1 X174.278 Y80.285 E51.90036
G1 X174.719 Y80.752 E51.92494
G1 X175.147 Y81.321 E51.95219
G1 X175.421 Y81.787 E51.97288
G1 X177.129 Y84.715 E52.1026
G1 X177.327 Y85.041 E52.1172
G1 X177.672 Y85.632 E52.14339
G1 X177.959 Y86.283 E52.17062
G1 X178.306 Y87.388 E52.21494
G1 X179.179 Y90.03 E52.32143
G1 X180.12 Y92.634 E52.42739
G1 X181.098 Y95.113 E52.52937
G1 X182.198 Y97.688 E52.63653
G1 X183.335 Y100.152 E52.74038
G1 X184.56 Y102.624 E52.84596
G1 X185.847 Y105.043 E52.95082
G1 X187.044 Y107.155 E53.04373
G1 X197.868 Y125.713 E53.86591
G1 X198.244 Y126.381 E53.89524
G1 X198.455 Y126.838 E53.91451
G1 X198.592 Y127.322 E53.93376
G1 X198.65 Y127.823 E53.95306
G1 X198.628 Y128.326 E53.97233
G1 X198.527 Y128.819 E53.99158
G1 X198.35 Y129.29 E54.01084
G1 X198.1 Y129.728 E54.03014
G1 X197.784 Y130.12 E54.04941
G1 X197.41 Y130.457 E54.06868
G1 X196.987 Y130.731 E54.08796
G1 X196.527 Y130.934 E54.1072
G1 X196.04 Y131.063 E54.12648
G1 X195.525 Y131.113 E54.14629
G1 X194.528 Y131.127 E54.18444
G1 X191.041 Y131.111 E54.31789
G1 X188.278 Y131.138 E54.42364
G1 X185.523 Y131.243 E54.52914
G1 X182.812 Y131.422 E54.63312
G1 X180.062 Y131.683 E54.73883
G1 X177.372 Y132.015 E54.84256
G1 X174.647 Y132.43 E54.94805
G1 X171.958 Y132.918 E55.05263
G1 X169.296 Y133.478 E55.15674
G1 X166.631 Y134.119 E55.26163
G1 X163.948 Y134.845 E55.368
G1 X161.366 Y135.622 E55.47119
G1 X158.727 Y136.499 E55.57762
G1 X156.205 Y137.417 E55.68033
G1 X153.608 Y138.446 E55.78723
G1 X151.132 Y139.51 E55.89036
G1 X148.614 Y140.677 E55.99657
G1 X146.187 Y141.885 E56.10032
G1 X143.779 Y143.172 E56.20481
G1 X141.375 Y144.544 E56.31074
G1 X139.035 Y145.971 E56.41563
G1 X136.752 Y147.451 E56.51975
G1 X134.49 Y149.011 E56.62491
G1 X132.289 Y150.621 E56.72927
G1 X130.119 Y152.305 E56.83439
G1 X128.013 Y154.039 E56.93878
G1 X125.949 Y155.839 E57.04359
G1 X123.921 Y157.708 E57.14913
G1 X121.983 Y159.599 E57.25276
G1 X120.06 Y161.586 E57.35858
G1 X118.209 Y163.609 E57.46351
G1 X116.439 Y165.658 E57.56713
G1 X114.676 Y167.819 E57.67386
G1 X113.033 Y169.954 E57.77696
G1 X111.589 Y171.936 E57.87081
G1 X111.299 Y172.345 E57.89
G1 X110.977 Y172.732 E57.90926
G1 X110.597 Y173.063 E57.92855
G1 X110.17 Y173.329 E57.9478
G1 X109.706 Y173.525 E57.96708
G1 X109.217 Y173.645 E57.98635
G1 X108.754 Y173.686 E58.00413
G1 X107.731 Y173.7 E58.04329
G1 X86.39 Y173.605 E58.86001
G1 X83.628 Y173.632 E58.96571
G1 X80.873 Y173.737 E59.07122
G1 X78.162 Y173.916 E59.1752
