;FLAVOR:Marlin
;TIME:12907
;Filament used: 10.0795m
;Layer height: 0.2
;MINX:2.931
;MINY:22.55
;MINZ:0.26
;MAXX:182.433
;MAXY:192.667
;MAXZ:7.86
;Generated with Cura_SteamEngine 4.9.1
M82 ;absolute extrusion mode
;Begin Start Gcode for Dagoma DiscoEasy 200
;Sliced: 13-07-2021 17:26:16
;Initial extruder: 0

G90 ;Absolute positioning
M106 S255 ;Fan on full
G28 X Y ;Home stop X Y
G1 X100 ;Centre back during cooldown in case of oozing
M109 R90 ;Cooldown in case too hot
G28 ;Centre
G29 ;Auto-level
M104 S205 ;Pre-heat
M107 ;Fan off
G0 X100 Y5 Z0.5 ;Front centre for degunk
M109 S205 ;Wait for initial temp
M83 ;E Relative
G1 E10 F200 ;Degunk
G1 E-3 F5000 ;Retract
G0 Z3 ;Withdraw
M82 ;E absolute
G92 E0 ;E reset
G1 F6000 ;Set feedrate

;Finish Start Gcode for Dagoma DiscoEasy 200

G92 E0
G92 E0
G1 F3000 E-3.5
;LAYER_COUNT:39
;LAYER:0
M107
G0 F1285.7 X21.028 Y23.389 Z0.26
;TYPE:SKIRT
G1 F3000 E0
G1 F900 X21.487 Y23.074 E0.0213
G1 X21.987 Y22.829 E0.04261
G1 X22.516 Y22.658 E0.06389
G1 X23.065 Y22.564 E0.0852
G1 X23.621 Y22.55 E0.10649
G1 X24.174 Y22.616 E0.1278
G1 X24.711 Y22.76 E0.14908
G1 X25.222 Y22.98 E0.17037
G1 X25.855 Y23.39 E0.19923
G1 X26.379 Y23.808 E0.22488
G1 X100.934 Y85.122 E3.919
G1 X180.512 Y150.571 E7.86211
G1 X181.058 Y151.032 E7.88945
G1 X181.456 Y151.421 E7.91075
G1 X181.795 Y151.862 E7.93204
G1 X182.066 Y152.348 E7.95333
G1 X182.266 Y152.867 E7.97462
G1 X182.389 Y153.41 E7.99593
G1 X182.433 Y153.965 E8.01723
G1 X182.397 Y154.52 E8.03852
G1 X182.282 Y155.064 E8.0598
G1 X182.09 Y155.587 E8.08112
G1 X181.825 Y156.076 E8.1024
G1 X181.493 Y156.523 E8.12371
G1 X181.101 Y156.917 E8.14498
G1 X180.656 Y157.251 E8.16627
G1 X179.968 Y157.602 E8.19583
G1 X179.097 Y157.942 E8.23161
G1 X86.325 Y192.216 E12.0165
G1 X85.66 Y192.451 E12.04349
G1 X85.124 Y192.598 E12.06476
G1 X84.571 Y192.667 E12.08609
G1 X84.015 Y192.656 E12.10737
G1 X83.466 Y192.565 E12.12866
G1 X82.936 Y192.397 E12.14994
G1 X82.435 Y192.155 E12.17123
G1 X82.006 Y191.868 E12.19099
G1 X81.864 Y191.758 E12.19786
G1 X81.423 Y191.403 E12.21953
G1 X4.858 Y128.433 E16.01331
G1 X4.307 Y127.968 E16.0409
G1 X3.908 Y127.58 E16.0622
G1 X3.57 Y127.138 E16.0835
G1 X3.298 Y126.653 E16.10478
G1 X3.098 Y126.134 E16.12606
G1 X2.975 Y125.591 E16.14737
G1 X2.931 Y125.036 E16.16868
G1 X2.975 Y124.423 E16.1922
G1 X3.095 Y123.64 E16.22251
G1 X19.507 Y26.397 E19.99658
G1 X19.629 Y25.727 E20.02265
G1 X19.767 Y25.188 E20.04394
G1 X19.982 Y24.675 E20.06522
G1 X20.268 Y24.197 E20.08654
G1 X20.619 Y23.766 E20.10781
G1 X21.028 Y23.389 E20.1291
G0 F1285.7 X21.344 Y23.588
G1 F900 X21.793 Y23.305 E20.14941
G1 X22.279 Y23.093 E20.1697
G1 X22.792 Y22.956 E20.19002
G1 X23.319 Y22.898 E20.21031
G1 X23.85 Y22.92 E20.23065
G1 X24.371 Y23.021 E20.25096
G1 X24.87 Y23.199 E20.27124
G1 X25.338 Y23.45 E20.29156
G1 X25.637 Y23.664 E20.30563
G1 X26.157 Y24.078 E20.33107
G1 X100.712 Y85.392 E24.02519
G1 X180.286 Y150.839 E27.96813
G1 X180.832 Y151.3 E27.99547
G1 X181.211 Y151.672 E28.0158
G1 X181.529 Y152.096 E28.03608
G1 X181.78 Y152.564 E28.0564
G1 X181.958 Y153.063 E28.07668
G1 X182.059 Y153.584 E28.09699
G1 X182.081 Y154.115 E28.11732
G1 X182.023 Y154.642 E28.13761
G1 X181.886 Y155.155 E28.15794
G1 X181.674 Y155.641 E28.17823
G1 X181.391 Y156.09 E28.19854
G1 X181.044 Y156.492 E28.21886
G1 X180.641 Y156.837 E28.23916
G1 X180.19 Y157.117 E28.25948
G1 X179.84 Y157.276 E28.27419
G1 X178.976 Y157.614 E28.3097
G1 X86.208 Y191.886 E32.09441
G1 X85.543 Y192.121 E32.1214
G1 X85.031 Y192.259 E32.14169
G1 X84.504 Y192.319 E32.16199
G1 X83.974 Y192.3 E32.18229
G1 X83.452 Y192.201 E32.20262
G1 X82.952 Y192.025 E32.22291
G1 X82.483 Y191.775 E32.24324
G1 X82.083 Y191.485 E32.26215
G1 X81.645 Y191.133 E32.28366
G1 X5.084 Y128.166 E36.07725
G1 X4.533 Y127.701 E36.10484
G1 X4.154 Y127.329 E36.12517
G1 X3.835 Y126.905 E36.14547
G1 X3.584 Y126.437 E36.1658
G1 X3.406 Y125.937 E36.18611
G1 X3.305 Y125.416 E36.20642
G1 X3.283 Y124.886 E36.22672
G1 X3.321 Y124.476 E36.24247
G1 X3.44 Y123.698 E36.27259
G1 X19.851 Y26.46 E40.04647
G1 X19.973 Y25.79 E40.07253
G1 X20.107 Y25.276 E40.09286
G1 X20.317 Y24.789 E40.11316
G1 X20.597 Y24.338 E40.13347
G1 X20.942 Y23.935 E40.15377
G1 X21.344 Y23.588 E40.1741
G0 F1285.7 X21.657 Y23.795
G1 F900 X22.094 Y23.546 E40.19335
G1 X22.566 Y23.369 E40.21264
G1 X23.059 Y23.269 E40.23189
G1 X23.563 Y23.248 E40.25119
G1 X24.063 Y23.307 E40.27046
G1 X24.547 Y23.445 E40.28972
G1 X25.004 Y23.657 E40.309
G1 X25.419 Y23.938 E40.32818
G1 X25.935 Y24.349 E40.35343
G1 X100.49 Y85.663 E44.04755
G1 X180.06 Y151.106 E47.99027
G1 X180.606 Y151.567 E48.01761
G1 X180.964 Y151.921 E48.03688
G1 X181.261 Y152.328 E48.05616
G1 X181.491 Y152.776 E48.07544
G1 X181.646 Y153.255 E48.0947
G1 X181.724 Y153.753 E48.11399
G1 X181.722 Y154.256 E48.13324
G1 X181.641 Y154.753 E48.15251
G1 X181.482 Y155.231 E48.17179
G1 X181.249 Y155.678 E48.19108
G1 X180.949 Y156.082 E48.21034
G1 X180.588 Y156.434 E48.22964
G1 X180.177 Y156.724 E48.24889
G1 X179.713 Y156.95 E48.26864
G1 X178.854 Y157.285 E48.30392
G1 X86.092 Y191.556 E52.08841
G1 X85.427 Y191.791 E52.1154
G1 X84.94 Y191.92 E52.13468
G1 X84.439 Y191.971 E52.15395
G1 X83.937 Y191.942 E52.17319
G1 X83.445 Y191.834 E52.19247
G1 X82.976 Y191.65 E52.21175
G1 X82.433 Y191.314 E52.23619
G1 X82.302 Y191.212 E52.24254
G1 X81.867 Y190.862 E52.26391
G1 X5.309 Y127.898 E56.05734
G1 X4.758 Y127.433 E56.08493
G1 X4.4 Y127.079 E56.1042
G1 X4.103 Y126.673 E56.12345
G1 X3.874 Y126.224 E56.14274
G1 X3.718 Y125.745 E56.16202
G1 X3.64 Y125.248 E56.18127
G1 X3.667 Y124.529 E56.20881
G1 X3.785 Y123.757 E56.23869
G1 X20.195 Y26.522 E60.01245
G1 X20.317 Y25.852 E60.03851
G1 X20.447 Y25.365 E60.0578
G1 X20.651 Y24.905 E60.07706
G1 X20.926 Y24.483 E60.09634
G1 X21.264 Y24.11 E60.1156
G1 X21.657 Y23.795 E60.13488
G1 F3000 E56.63488
;MESH:support_half_hex_04.stl
G0 F1285.7 X22.701 Y26.91
G0 X23.687 Y27.075
G0 X28.657 Y40.375
;TYPE:WALL-INNER
G1 F3000 E60.13488
G1 F900 X28.607 Y40.672 E60.1464
G1 X28.114 Y43.603 E60.26015
G1 X16.364 Y113.225 E62.96222
G1 X16.314 Y113.522 E62.97375
G1 X16.597 Y113.418 E62.9803
G1 X19.392 Y112.387 E63.0943
G1 X85.629 Y87.915 E65.79664
G1 X85.731 Y87.315 E65.81993
G1 X28.89 Y40.566 E68.63641
G1 X28.657 Y40.375 E68.64295
G0 F1285.7 X106.23 Y104.174
G1 F900 X106.18 Y104.471 E68.65448
G1 X105.687 Y107.402 E68.76822
G1 X93.937 Y177.024 E71.4703
G1 X93.887 Y177.321 E71.48183
G1 X94.17 Y177.217 E71.48837
G1 X96.965 Y176.186 E71.60238
G1 X163.202 Y151.713 E74.30472
G1 X163.304 Y151.113 E74.32802
G1 X106.463 Y104.365 E77.14447
G1 X106.23 Y104.174 E77.15101
G0 F1285.7 X177.257 Y153.93
G1 F900 X84.468 Y188.211 E80.9366
G1 X7.361 Y124.797 E84.7572
G1 X23.752 Y27.681 E88.52635
G1 X23.802 Y27.384 E88.53787
G1 X24.035 Y27.575 E88.54441
G1 X98.14 Y88.52 E92.21626
G1 X177.308 Y153.632 E96.13905
G1 X177.542 Y153.825 E96.15066
G1 X177.257 Y153.93 E96.15724
G0 F1285.7 X177.901 Y154.039
;TYPE:WALL-OUTER
G1 F900 X84.406 Y188.581 E99.97163
G1 X7.01 Y124.928 E103.80658
G1 X23.525 Y27.074 E107.60437
G1 X23.575 Y26.777 E107.61589
G1 X23.808 Y26.968 E107.62243
G1 X98.346 Y88.269 E111.31574
G1 X177.952 Y153.741 E115.26023
G1 X178.186 Y153.934 E115.27183
G1 X177.901 Y154.039 E115.27841
G0 F1285.7 X177.714 Y154.108
G0 X177.867 Y153.999
G0 X106.339 Y104.464
G0 X106.457 Y104.782
G1 F900 X106.407 Y105.079 E115.28994
G1 X106.008 Y107.456 E115.38218
G1 X94.35 Y176.526 E118.06284
G1 X94.3 Y176.822 E118.07433
G1 X94.582 Y176.718 E118.08086
G1 X96.853 Y175.881 E118.17348
G1 X162.818 Y151.508 E120.86474
G1 X162.913 Y151.473 E120.86861
G1 X162.952 Y151.244 E120.8775
G1 X162.874 Y151.18 E120.88136
G1 X106.69 Y104.973 E123.66525
G1 X106.457 Y104.782 E123.67179
G0 F1285.7 X106.424 Y104.979
G0 X106.179 Y104.938
G0 X85.578 Y87.371
G0 X28.766 Y40.665
G0 X28.884 Y40.983
G1 F900 X28.834 Y41.28 E123.68332
G1 X28.435 Y43.657 E123.77556
G1 X16.777 Y112.727 E126.45622
G1 X16.727 Y113.023 E126.46771
G1 X17.009 Y112.919 E126.47424
G1 X19.28 Y112.082 E126.56686
G1 X85.245 Y87.71 E129.2581
G1 X85.34 Y87.675 E129.26198
G1 X85.379 Y87.446 E129.27087
G1 X85.301 Y87.382 E129.27473
G1 X29.117 Y41.174 E132.05864
G1 X28.884 Y40.983 E132.06518
G0 F1285.7 X28.851 Y41.18
G0 X28.606 Y41.139
G0 X28.42 Y39.739
;TYPE:SKIN
G1 F900 X15.881 Y114.044 E134.949
G1 X19.51 Y112.706 E135.09702
G1 X85.932 Y88.166 E137.8069
G1 X86.1 Y87.177 E137.84529
G1 X28.42 Y39.739 E140.70332
G0 F1285.7 X24.041 Y28.019
G1 F900 X176.869 Y153.711 E148.27593
G1 X84.532 Y187.824 E152.04306
G1 X7.73 Y124.661 E155.84855
G1 X24.041 Y28.019 E159.5993
G0 F1285.7 X105.993 Y103.538
G1 F900 X93.454 Y177.843 E162.48312
G1 X97.083 Y176.505 E162.63114
G1 X163.505 Y151.964 E165.34102
G1 X163.673 Y150.975 E165.37941
G1 X105.993 Y103.538 E168.23742
G0 F1285.7 X176.461 Y153.692
G1 F900 X175.824 Y153.056 E168.27187
G1 X175.762 Y152.994
G0 F1285.7 X176.099 Y153.826
G1 F900 X173.036 Y150.762 E168.43767
G1 X172.974 Y150.7
G0 F1285.7 X170.249 Y148.47
G1 F900 X175.738 Y153.959 E168.73474
G0 F1285.7 X175.377 Y154.093
G1 F900 X167.461 Y146.177 E169.16316
G1 X167.399 Y146.115
G0 F1285.7 X164.673 Y143.884
G1 F900 X175.015 Y154.227 E169.72291
G0 F1285.7 X174.654 Y154.36
G1 F900 X161.885 Y141.591 E170.41399
G1 X161.823 Y141.529
G0 F1285.7 X159.097 Y139.298
G1 F900 X174.292 Y154.493 E171.23636
G0 F1285.7 X173.931 Y154.627
G1 F900 X156.31 Y137.006 E172.19003
G1 X156.248 Y136.944
G0 F1285.7 X153.522 Y134.713
G1 F900 X173.569 Y154.76 E173.275
G0 F1285.7 X173.208 Y154.894
G1 F900 X150.733 Y132.419 E174.49138
G1 X150.671 Y132.357
G0 F1285.7 X147.946 Y130.127
G1 F900 X172.847 Y155.028 E175.83905
G0 F1285.7 X172.485 Y155.161
G1 F900 X145.158 Y127.834 E177.31802
G1 X145.096 Y127.772
G0 F1285.7 X142.371 Y125.541
G1 F900 X172.124 Y155.295 E178.92832
G0 F1285.7 X171.762 Y155.428
G1 F900 X139.582 Y123.248 E180.66994
G1 X139.52 Y123.186
G0 F1285.7 X136.794 Y120.955
G1 F900 X171.401 Y155.562 E182.54292
G0 F1285.7 X171.039 Y155.695
G1 F900 X134.007 Y118.663 E184.54714
G1 X133.945 Y118.601
G0 F1285.7 X131.219 Y116.369
G1 F900 X170.678 Y155.829 E186.68274
G0 F1285.7 X170.317 Y155.963
G1 F900 X128.431 Y114.077 E188.94966
G1 X128.369 Y114.015
G0 F1285.7 X125.643 Y111.784
G1 F900 X169.955 Y156.096 E191.34788
G0 F1285.7 X169.593 Y156.229
G1 F900 X122.856 Y109.491 E193.87737
G1 X122.794 Y109.429
G0 F1285.7 X120.068 Y107.198
G1 F900 X163.491 Y150.622 E196.22751
G0 F1285.7 X163.833 Y150.963
G1 F900 X169.232 Y156.363 E196.51974
G0 F1285.7 X168.871 Y156.496
G1 F900 X163.76 Y151.386 E196.79632
G0 F1285.7 X163.689 Y151.81
G1 F900 X168.509 Y156.63 E197.05719
G0 F1285.7 X168.148 Y156.764
G1 F900 X163.513 Y152.129 E197.30804
G0 F1285.7 X163.152 Y152.262
G1 F900 X167.787 Y156.897 E197.55889
G0 F1285.7 X167.425 Y157.03
G1 F900 X162.79 Y152.396 E197.80972
G0 F1285.7 X162.429 Y152.53
G1 F900 X167.063 Y157.164 E198.06052
G0 F1285.7 X166.702 Y157.298
G1 F900 X162.067 Y152.662 E198.31139
G0 F1285.7 X161.706 Y152.796
G1 F900 X166.341 Y157.431 E198.56225
G0 F1285.7 X165.979 Y157.565
G1 F900 X161.344 Y152.93 E198.8131
G0 F1285.7 X160.983 Y153.063
G1 F900 X165.618 Y157.698 E199.06395
G0 F1285.7 X165.256 Y157.831
G1 F900 X160.622 Y153.197 E199.31475
G0 F1285.7 X160.26 Y153.331
G1 F900 X164.895 Y157.965 E199.56557
G0 F1285.7 X164.533 Y158.099
G1 F900 X159.898 Y153.464 E199.81643
G0 F1285.7 X159.537 Y153.597
G1 F900 X164.172 Y158.232 E200.06728
G0 F1285.7 X163.811 Y158.366
G1 F900 X159.176 Y153.731 E200.31813
G0 F1285.7 X158.814 Y153.865
G1 F900 X163.449 Y158.5 E200.56898
G0 F1285.7 X163.088 Y158.633
G1 F900 X158.453 Y153.998 E200.81983
G0 F1285.7 X158.092 Y154.132
G1 F900 X162.726 Y158.766 E201.07063
G0 F1285.7 X162.365 Y158.9
G1 F900 X157.73 Y154.265 E201.32148
G0 F1285.7 X157.368 Y154.398
G1 F900 X162.003 Y159.033 E201.57234
G0 F1285.7 X161.642 Y159.167
G1 F900 X157.007 Y154.532 E201.82319
G0 F1285.7 X156.646 Y154.666
G1 F900 X161.281 Y159.301 E202.07404
G0 F1285.7 X160.919 Y159.434
G1 F900 X156.284 Y154.799 E202.32489
G0 F1285.7 X155.923 Y154.933
G1 F900 X160.557 Y159.567 E202.57569
G0 F1285.7 X160.196 Y159.701
G1 F900 X155.562 Y155.067 E202.82649
G0 F1285.7 X155.2 Y155.2
G1 F900 X159.835 Y159.835 E203.07734
G0 F1285.7 X159.473 Y159.968
G1 F900 X154.838 Y155.333 E203.32819
G0 F1285.7 X154.477 Y155.467
G1 F900 X159.112 Y160.102 E203.57905
G0 F1285.7 X158.751 Y160.236
G1 F900 X154.116 Y155.6 E203.82992
G0 F1285.7 X153.754 Y155.734
G1 F900 X158.389 Y160.368 E204.08075
G0 F1285.7 X158.027 Y160.502
G1 F900 X153.393 Y155.868 E204.33155
G0 F1285.7 X153.032 Y156.001
G1 F900 X157.666 Y160.636 E204.58237
G0 F1285.7 X157.305 Y160.769
G1 F900 X152.67 Y156.134 E204.83322
G0 F1285.7 X152.308 Y156.268
G1 F900 X156.943 Y160.903 E205.08408
G0 F1285.7 X156.582 Y161.037
G1 F900 X151.947 Y156.402 E205.33493
G0 F1285.7 X151.586 Y156.535
G1 F900 X156.221 Y161.17 E205.58578
G0 F1285.7 X155.859 Y161.303
G1 F900 X151.224 Y156.669 E205.83661
G0 F1285.7 X150.863 Y156.803
G1 F900 X155.497 Y161.437 E206.0874
G0 F1285.7 X155.136 Y161.571
G1 F900 X150.501 Y156.935 E206.33828
G0 F1285.7 X150.139 Y157.069
G1 F900 X154.775 Y161.704 E206.58916
G0 F1285.7 X154.413 Y161.838
G1 F900 X149.778 Y157.203 E206.84001
G0 F1285.7 X149.417 Y157.336
G1 F900 X154.052 Y161.972 E207.09089
G0 F1285.7 X153.69 Y162.104
G1 F900 X149.055 Y157.47 E207.34172
G0 F1285.7 X148.694 Y157.604
G1 F900 X153.329 Y162.238 E207.59254
G0 F1285.7 X152.967 Y162.372
G1 F900 X148.333 Y157.737 E207.84337
G0 F1285.7 X147.971 Y157.87
G1 F900 X152.606 Y162.505 E208.09422
G0 F1285.7 X152.245 Y162.639
G1 F900 X147.609 Y158.004 E208.3451
G0 F1285.7 X147.248 Y158.138
G1 F900 X151.883 Y162.773 E208.59595
G0 F1285.7 X151.521 Y162.906
G1 F900 X146.887 Y158.271 E208.84678
G0 F1285.7 X146.525 Y158.405
G1 F900 X151.16 Y163.039 E209.0976
G0 F1285.7 X150.799 Y163.173
G1 F900 X146.164 Y158.538 E209.34845
G0 F1285.7 X145.802 Y158.671
G1 F900 X150.437 Y163.307 E209.59933
G0 F1285.7 X150.076 Y163.44
G1 F900 X145.441 Y158.805 E209.85019
G0 F1285.7 X145.079 Y158.939
G1 F900 X149.715 Y163.574 E210.10107
G0 F1285.7 X149.352 Y163.707
G1 F900 X144.718 Y159.072 E210.35189
G0 F1285.7 X144.357 Y159.206
G1 F900 X148.991 Y163.84 E210.60269
G0 F1285.7 X148.63 Y163.974
G1 F900 X143.995 Y159.34 E210.85351
G0 F1285.7 X143.633 Y159.473
G1 F900 X148.268 Y164.108 E211.10437
G0 F1285.7 X147.907 Y164.241
G1 F900 X143.272 Y159.606 E211.35522
G0 F1285.7 X142.911 Y159.74
G1 F900 X147.546 Y164.375 E211.60607
G0 F1285.7 X147.184 Y164.509
G1 F900 X142.549 Y159.874 E211.85692
G0 F1285.7 X142.188 Y160.007
G1 F900 X146.822 Y164.642 E212.10775
G0 F1285.7 X146.461 Y164.775
G1 F900 X141.827 Y160.141 E212.35854
G0 F1285.7 X141.465 Y160.274
G1 F900 X146.1 Y164.909 E212.6094
G0 F1285.7 X145.738 Y165.042
G1 F900 X141.103 Y160.407 E212.86025
G0 F1285.7 X140.742 Y160.541
G1 F900 X145.377 Y165.176 E213.1111
G0 F1285.7 X145.016 Y165.31
G1 F900 X140.381 Y160.675 E213.36195
G0 F1285.7 X140.019 Y160.808
G1 F900 X144.654 Y165.443 E213.61281
G0 F1285.7 X144.292 Y165.576
G1 F900 X139.658 Y160.942 E213.8636
G0 F1285.7 X139.297 Y161.076
G1 F900 X143.931 Y165.71 E214.1144
G0 F1285.7 X143.57 Y165.844
G1 F900 X138.935 Y161.209 E214.36525
G0 F1285.7 X138.573 Y161.342
G1 F900 X143.208 Y165.977 E214.61611
G0 F1285.7 X142.847 Y166.111
G1 F900 X138.212 Y161.476 E214.86696
G0 F1285.7 X137.851 Y161.609
G1 F900 X142.485 Y166.244 E215.11778
G0 F1285.7 X142.124 Y166.377
G1 F900 X137.489 Y161.743 E215.36861
G0 F1285.7 X137.128 Y161.877
G1 F900 X141.762 Y166.511 E215.61941
G0 F1285.7 X141.401 Y166.645
G1 F900 X136.767 Y162.01 E215.87023
G0 F1285.7 X136.405 Y162.143
G1 F900 X141.04 Y166.778 E216.12108
G0 F1285.7 X140.678 Y166.912
G1 F900 X136.043 Y162.277 E216.37193
G0 F1285.7 X135.682 Y162.411
G1 F900 X140.316 Y167.045 E216.62273
G0 F1285.7 X139.955 Y167.179
G1 F900 X135.321 Y162.544 E216.87356
G0 F1285.7 X134.959 Y162.678
G1 F900 X139.594 Y167.312 E217.12438
G0 F1285.7 X139.232 Y167.446
G1 F900 X134.598 Y162.812 E217.37518
G0 F1285.7 X134.236 Y162.944
G1 F900 X138.871 Y167.58 E217.62606
G0 F1285.7 X138.51 Y167.713
G1 F900 X133.875 Y163.078 E217.87691
G0 F1285.7 X133.513 Y163.212
G1 F900 X138.148 Y167.847 E218.12776
G0 F1285.7 X137.786 Y167.98
