;FLAVOR:Marlin
;TIME:24292
;Filament used: 26.0505m
;Layer height: 0.3
;MINX:12.281
;MINY:9.847
;MINZ:0.26
;MAXX:187.856
;MAXY:185.898
;MAXZ:29.36
;Generated with Cura_SteamEngine 4.9.1
M82 ;absolute extrusion mode
;Begin Start Gcode for Dagoma DiscoEasy 200
;Sliced: 26-07-2021 02:02:07
;Initial extruder: 0

G90 ;Absolute positioning
M106 S255 ;Fan on full
G28 X Y ;Home stop X Y
G1 X100 ;Centre back during cooldown in case of oozing
M109 R90 ;Cooldown in case too hot
G28 ;Centre
G29 ;Auto-level
M104 S205 ;Pre-heat
M107 ;Fan off
G0 X100 Y5 Z0.5 ;Front centre for degunk
M109 S205 ;Wait for initial temp
M83 ;E Relative
G1 E10 F200 ;Degunk
G1 E-3 F5000 ;Retract
G0 Z3 ;Withdraw
M82 ;E absolute
G92 E0 ;E reset
G1 F6000 ;Set feedrate

;Finish Start Gcode for Dagoma DiscoEasy 200

G92 E0
G92 E0
G1 F3000 E-3.5
;LAYER_COUNT:98
;LAYER:0
M107
G0 F1285.7 X38.01 Y11.945 Z0.26
;TYPE:SKIRT
G1 F3000 E0
G1 F900 X38.178 Y11.496 E0.01835
G1 X38.417 Y11.081 E0.03667
G1 X38.722 Y10.711 E0.05502
G1 X39.084 Y10.398 E0.07334
G1 X39.494 Y10.148 E0.09172
G1 X39.938 Y9.971 E0.11001
G1 X40.407 Y9.869 E0.12838
G1 X40.885 Y9.847 E0.14669
G1 X41.361 Y9.905 E0.16504
G1 X41.821 Y10.04 E0.18339
G1 X42.251 Y10.251 E0.20172
G1 X42.783 Y10.659 E0.22737
G1 X43.431 Y11.289 E0.26196
G1 X107.256 Y75.595 E3.72929
G1 X109.204 Y77.503 E3.83364
G1 X111.231 Y79.38 E3.93936
G1 X113.299 Y81.186 E4.04444
G1 X115.428 Y82.944 E4.1501
G1 X117.576 Y84.617 E4.25429
G1 X119.82 Y86.267 E4.36089
G1 X122.06 Y87.817 E4.46513
G1 X124.351 Y89.308 E4.56974
G1 X126.708 Y90.749 E4.67546
G1 X129.097 Y92.118 E4.78084
G1 X131.521 Y93.418 E4.8861
G1 X133.948 Y94.632 E4.98995
G1 X135.373 Y95.283 E5.04991
G1 X135.9 Y95.533 E5.07223
G1 X137.547 Y96.291 E5.14162
G1 X138.058 Y96.593 E5.16433
G1 X138.344 Y96.808 E5.17802
G1 X138.735 Y97.121 E5.19719
G1 X138.962 Y97.323 E5.20882
G1 X140.279 Y98.628 E5.27977
G1 X140.555 Y98.897 E5.29452
G1 X140.927 Y99.342 E5.31672
G1 X141.504 Y100.193 E5.35607
G1 X142.035 Y101.018 E5.39361
G1 X142.554 Y101.809 E5.42982
G1 X143.169 Y102.774 E5.47361
G1 X144.708 Y105.046 E5.57863
G1 X146.306 Y107.266 E5.68331
G1 X147.986 Y109.465 E5.78921
G1 X149.699 Y111.582 E5.89343
G1 X151.494 Y113.675 E5.99895
G1 X153.338 Y115.707 E6.10396
G1 X155.236 Y117.683 E6.20882
G1 X157.218 Y119.633 E6.31522
G1 X159.197 Y121.471 E6.41858
G1 X161.28 Y123.3 E6.52467
G1 X163.405 Y125.062 E6.63031
G1 X165.564 Y126.752 E6.73524
G1 X167.764 Y128.376 E6.83988
G1 X170.021 Y129.944 E6.94506
G1 X171.904 Y131.183 E7.03132
G1 X173.065 Y131.927 E7.08409
G1 X173.274 Y132.075 E7.09389
G1 X173.783 Y132.47 E7.11855
G1 X174.174 Y132.806 E7.13827
G1 X175.207 Y133.815 E7.19354
G1 X175.912 Y134.518 E7.23164
G1 X176.374 Y135.138 E7.26123
G1 X177.281 Y136.538 E7.32507
G1 X177.562 Y137.095 E7.34894
G1 X177.59 Y137.171 E7.35204
G1 X178.898 Y140.522 E7.48971
G1 X179.179 Y141.205 E7.51797
G1 X180.255 Y143.719 E7.62262
G1 X181.419 Y146.238 E7.72882
G1 X182.633 Y148.683 E7.83328
G1 X183.931 Y151.12 E7.93895
G1 X185.277 Y153.485 E8.04309
G1 X185.841 Y154.405 E8.08439
G1 X185.895 Y154.512 E8.08897
G1 X186.569 Y155.631 E8.13897
G1 X186.781 Y156.06 E8.15728
G1 X186.919 Y156.519 E8.17562
G1 X186.979 Y156.995 E8.19398
G1 X186.958 Y157.473 E8.21229
G1 X186.859 Y157.942 E8.23064
G1 X186.683 Y158.388 E8.24899
G1 X186.436 Y158.798 E8.2673
G1 X186.124 Y159.162 E8.28565
G1 X185.756 Y159.469 E8.30399
G1 X185.117 Y159.806 E8.33164
G1 X184.832 Y159.912 E8.34327
G1 X182.279 Y160.908 E8.44815
G1 X179.744 Y161.983 E8.55352
G1 X177.245 Y163.125 E8.65867
G1 X174.768 Y164.344 E8.76432
G1 X172.355 Y165.616 E8.86871
G1 X169.949 Y166.974 E8.97444
G1 X168.341 Y167.931 E9.04605
G1 X168.108 Y168.072 E9.05648
G1 X167.453 Y168.365 E9.08394
G1 X167.005 Y168.5 E9.10184
G1 X166.321 Y168.691 E9.12902
G1 X165.808 Y168.84 E9.14946
G1 X165.223 Y168.995 E9.17262
G1 X165.145 Y169.022 E9.17578
G1 X164.439 Y169.206 E9.2037
G1 X162.053 Y169.859 E9.29837
G1 X160.609 Y170.229 E9.35542
G1 X159.859 Y170.41 E9.38495
G1 X159.296 Y170.488 E9.4067
G1 X159.014 Y170.499 E9.4175
G1 X156.283 Y170.642 E9.52215
G1 X153.515 Y170.866 E9.62843
G1 X150.798 Y171.163 E9.73303
G1 X148.089 Y171.537 E9.83768
G1 X145.344 Y171.995 E9.94419
G1 X142.667 Y172.52 E10.04858
G1 X140.001 Y173.122 E10.15318
G1 X137.325 Y173.807 E10.25889
G1 X134.706 Y174.556 E10.36314
G1 X132.069 Y175.391 E10.46899
G1 X129.466 Y176.298 E10.57448
G1 X126.958 Y177.252 E10.67717
G1 X124.36 Y178.324 E10.78473
G1 X121.873 Y179.436 E10.88898
G1 X120.726 Y179.993 E10.93778
G1 X119.418 Y180.608 E10.99309
G1 X119.047 Y180.752 E11.00832
G1 X118.217 Y181.009 E11.04158
G1 X117.252 Y181.285 E11.07999
G1 X116.353 Y181.515 E11.1155
G1 X114.131 Y182.111 E11.20354
G1 X113.391 Y182.317 E11.23294
G1 X112.087 Y182.654 E11.28448
G1 X111.446 Y182.81 E11.30973
G1 X110.728 Y182.892 E11.33738
G1 X110.005 Y182.882 E11.36505
G1 X108.538 Y182.838 E11.42122
G1 X105.801 Y182.834 E11.52596
G1 X103.069 Y182.907 E11.63055
G1 X100.297 Y183.06 E11.7368
G1 X97.567 Y183.287 E11.84163
G1 X94.856 Y183.59 E11.94603
G1 X92.104 Y183.978 E12.05239
G1 X89.448 Y184.429 E12.15549
G1 X87.741 Y184.765 E12.22207
G1 X86.856 Y184.885 E12.25625
G1 X86.378 Y184.851 E12.27458
G1 X85.912 Y184.738 E12.29294
G1 X85.304 Y184.453 E12.31863
G1 X84.497 Y183.952 E12.35498
G1 X82.099 Y182.51 E12.46207
G1 X79.709 Y181.163 E12.56706
G1 X77.279 Y179.882 E12.67218
G1 X74.818 Y178.672 E12.77713
G1 X72.335 Y177.538 E12.8816
G1 X69.768 Y176.453 E12.98825
G1 X67.379 Y175.519 E13.08641
G1 X66.84 Y175.316 E13.10846
G1 X66.272 Y175.026 E13.13286
G1 X65.136 Y174.277 E13.18494
G1 X64.496 Y173.804 E13.21539
G1 X64.188 Y173.533 E13.23109
G1 X63.207 Y172.537 E13.28459
G1 X63.167 Y172.503 E13.2866
G1 X62.681 Y171.991 E13.31362
G1 X62.559 Y171.855 E13.32061
G1 X62.052 Y171.248 E13.35088
G1 X61.812 Y170.917 E13.36652
G1 X60.376 Y168.629 E13.4699
G1 X58.87 Y166.375 E13.57364
G1 X57.261 Y164.11 E13.67997
G1 X55.618 Y161.929 E13.78447
G1 X53.894 Y159.768 E13.89026
G1 X52.123 Y157.675 E13.99518
G1 X50.28 Y155.62 E14.10082
G1 X48.391 Y153.627 E14.20591
G1 X46.483 Y151.725 E14.30901
G1 X44.424 Y149.785 E14.41727
G1 X42.409 Y147.993 E14.52047
G1 X40.308 Y146.228 E14.62548
G1 X38.146 Y144.512 E14.73111
G1 X35.942 Y142.864 E14.83643
G1 X33.72 Y141.297 E14.94049
G1 X32.166 Y140.277 E15.01162
G1 X30.944 Y139.464 E15.06779
G1 X29.883 Y138.768 E15.11635
G1 X29.272 Y138.314 E15.14548
G1 X28.966 Y138.044 E15.1611
G1 X28.198 Y137.26 E15.2031
G1 X27.732 Y136.793 E15.22835
G1 X27.367 Y136.414 E15.24849
G1 X26.98 Y135.955 E15.27146
G1 X26.497 Y135.273 E15.30344
G1 X26.198 Y134.687 E15.32862
G1 X25.93 Y134.069 E15.3544
G1 X24.83 Y131.506 E15.46114
G1 X23.683 Y129.034 E15.56543
G1 X22.445 Y126.548 E15.67171
G1 X21.15 Y124.125 E15.77685
G1 X19.792 Y121.746 E15.88168
G1 X18.36 Y119.397 E15.98696
G1 X16.872 Y117.102 E16.09164
G1 X15.309 Y114.838 E16.19692
G1 X13.211 Y111.995 E16.33214
G1 X12.876 Y111.559 E16.35318
G1 X12.617 Y111.156 E16.37151
G1 X12.428 Y110.715 E16.38987
G1 X12.315 Y110.25 E16.40819
G1 X12.281 Y109.772 E16.42653
G1 X12.35 Y109.18 E16.44934
G1 X12.487 Y108.613 E16.47166
G1 X37.844 Y12.538 E20.27431
G1 X38.01 Y11.945 E20.29787
G0 F1285.7 X38.347 Y12.039
G1 F900 X38.506 Y11.619 E20.31506
G1 X38.737 Y11.234 E20.33224
G1 X39.033 Y10.896 E20.34944
G1 X39.383 Y10.616 E20.36659
G1 X39.778 Y10.402 E20.38378
G1 X40.205 Y10.261 E20.40099
G1 X40.649 Y10.198 E20.41815
G1 X41.098 Y10.215 E20.43535
G1 X41.536 Y10.311 E20.45251
G1 X41.951 Y10.484 E20.46971
G1 X42.329 Y10.726 E20.48689
G1 X42.539 Y10.91 E20.49758
G1 X43.182 Y11.535 E20.53189
G1 X106.982 Y75.816 E23.99787
G1 X108.987 Y77.779 E24.10525
G1 X111.01 Y79.652 E24.21076
G1 X113.049 Y81.434 E24.31439
G1 X115.2 Y83.21 E24.42114
G1 X117.38 Y84.908 E24.52689
G1 X119.6 Y86.54 E24.63233
G1 X121.864 Y88.106 E24.73768
G1 X124.188 Y89.619 E24.84381
G1 X126.521 Y91.045 E24.94845
G1 X128.915 Y92.417 E25.05405
G1 X131.368 Y93.734 E25.1606
G1 X133.79 Y94.945 E25.26422
G1 X135.222 Y95.599 E25.32447
G1 X135.751 Y95.85 E25.34688
G1 X137.401 Y96.609 E25.41638
G1 X137.85 Y96.875 E25.43636
G1 X138.125 Y97.081 E25.44951
G1 X138.516 Y97.394 E25.46867
G1 X138.715 Y97.572 E25.47889
G1 X140.332 Y99.174 E25.566
G1 X140.638 Y99.538 E25.5842
G1 X141.209 Y100.382 E25.6232
G1 X141.728 Y101.188 E25.65988
G1 X142.259 Y101.997 E25.69692
G1 X142.891 Y102.989 E25.74193
G1 X144.414 Y105.237 E25.84584
G1 X146.007 Y107.45 E25.95019
G1 X147.716 Y109.687 E26.05793
G1 X149.441 Y111.82 E26.16291
G1 X151.217 Y113.89 E26.26729
G1 X153.091 Y115.955 E26.374
G1 X154.986 Y117.928 E26.4787
G1 X156.964 Y119.874 E26.58489
G1 X158.975 Y121.742 E26.68993
G1 X161.074 Y123.584 E26.7968
G1 X163.175 Y125.327 E26.90127
G1 X165.315 Y127.002 E27.00527
G1 X167.568 Y128.665 E27.11244
G1 X169.851 Y130.251 E27.21882
G1 X171.715 Y131.478 E27.30422
G1 X172.876 Y132.222 E27.35699
G1 X173.06 Y132.351 E27.36559
G1 X173.503 Y132.694 E27.38703
G1 X173.93 Y133.056 E27.40846
G1 X174.959 Y134.062 E27.46353
G1 X175.536 Y134.633 E27.49459
G1 X175.885 Y135.044 E27.51523
G1 X176.124 Y135.394 E27.53145
G1 X176.987 Y136.728 E27.59225
G1 X177.234 Y137.217 E27.61322
G1 X177.264 Y137.298 E27.61652
G1 X178.574 Y140.655 E27.75443
G1 X178.841 Y141.305 E27.78132
G1 X179.941 Y143.875 E27.8883
G1 X181.081 Y146.343 E27.99234
G1 X182.324 Y148.847 E28.09932
G1 X183.631 Y151.3 E28.20569
G1 X184.975 Y153.661 E28.30966
G1 X185.543 Y154.588 E28.35127
G1 X185.594 Y154.69 E28.35563
G1 X186.269 Y155.811 E28.40571
G1 X186.465 Y156.215 E28.42289
G1 X186.587 Y156.647 E28.44007
G1 X186.631 Y157.094 E28.45726
G1 X186.595 Y157.541 E28.47442
G1 X186.48 Y157.975 E28.49161
G1 X186.289 Y158.382 E28.50881
G1 X186.03 Y158.749 E28.526
G1 X185.71 Y159.064 E28.54319
G1 X185.34 Y159.317 E28.56034
G1 X184.708 Y159.585 E28.58661
G1 X182.145 Y160.585 E28.6919
G1 X179.617 Y161.656 E28.79697
G1 X177.088 Y162.812 E28.90338
G1 X174.622 Y164.026 E29.00857
G1 X172.163 Y165.322 E29.11494
G1 X169.772 Y166.672 E29.22002
G1 X168.162 Y167.63 E29.29172
G1 X167.926 Y167.773 E29.30228
G1 X167.351 Y168.03 E29.32638
G1 X166.911 Y168.163 E29.34398
G1 X166.208 Y168.359 E29.3719
G1 X165.718 Y168.501 E29.39143
G1 X165.108 Y168.663 E29.41558
G1 X165.057 Y168.683 E29.41768
G1 X164.344 Y168.869 E29.44588
G1 X161.966 Y169.52 E29.54023
G1 X160.527 Y169.889 E29.59708
G1 X159.777 Y170.07 E29.62661
G1 X159.032 Y170.148 E29.65528
G1 X156.237 Y170.294 E29.76238
G1 X153.484 Y170.517 E29.86809
G1 X150.747 Y170.816 E29.97345
G1 X148.018 Y171.193 E30.07888
G1 X145.328 Y171.642 E30.18325
G1 X142.591 Y172.179 E30.28999
G1 X139.906 Y172.785 E30.39533
G1 X137.252 Y173.465 E30.50018
G1 X134.572 Y174.231 E30.60685
G1 X131.959 Y175.059 E30.71175
G1 X129.369 Y175.961 E30.8167
G1 X126.8 Y176.938 E30.92189
G1 X124.226 Y178.001 E31.02846
G1 X121.733 Y179.115 E31.13296
G1 X120.577 Y179.676 E31.18213
G1 X119.269 Y180.291 E31.23745
G1 X118.944 Y180.417 E31.25079
G1 X118.12 Y180.673 E31.28381
G1 X117.237 Y180.927 E31.31897
G1 X116.263 Y181.177 E31.35745
G1 X114.037 Y181.774 E31.44565
G1 X113.303 Y181.978 E31.47481
G1 X112.004 Y182.314 E31.52615
G1 X111.363 Y182.47 E31.5514
G1 X110.732 Y182.542 E31.57571
G1 X110.015 Y182.532 E31.60315
G1 X108.548 Y182.488 E31.65931
G1 X105.793 Y182.484 E31.76475
G1 X103.039 Y182.557 E31.87018
G1 X100.286 Y182.709 E31.97569
G1 X97.534 Y182.939 E32.08138
G1 X94.808 Y183.243 E32.18635
G1 X92.061 Y183.631 E32.29252
G1 X89.361 Y184.089 E32.39732
G1 X87.679 Y184.42 E32.46293
G1 X86.823 Y184.535 E32.49598
G1 X86.376 Y184.496 E32.51315
G1 X85.943 Y184.378 E32.53033
G1 X85.488 Y184.155 E32.54972
G1 X84.678 Y183.652 E32.58621
G1 X82.297 Y182.22 E32.69254
G1 X79.858 Y180.846 E32.79967
G1 X77.44 Y179.571 E32.90428
G1 X74.989 Y178.366 E33.0088
G1 X72.461 Y177.212 E33.11515
G1 X69.902 Y176.13 E33.22148
G1 X67.502 Y175.191 E33.3201
G1 X66.963 Y174.988 E33.34214
G1 X66.465 Y174.734 E33.36354
G1 X65.337 Y173.991 E33.41523
G1 X64.708 Y173.526 E33.44516
G1 X64.437 Y173.288 E33.45897
G1 X63.264 Y172.096 E33.52297
G1 X62.935 Y171.75 E33.54124
G1 X62.828 Y171.631 E33.54736
G1 X62.321 Y171.024 E33.57763
G1 X62.108 Y170.731 E33.59149
G1 X60.667 Y168.435 E33.69523
G1 X59.154 Y166.171 E33.79944
G1 X57.541 Y163.901 E33.90601
G1 X55.879 Y161.693 E34.01177
G1 X54.169 Y159.551 E34.11666
G1 X52.388 Y157.446 E34.22219
G1 X50.571 Y155.419 E34.32636
G1 X48.645 Y153.386 E34.43353
G1 X46.708 Y151.456 E34.53818
G1 X44.683 Y149.547 E34.64468
G1 X42.618 Y147.711 E34.75043
G1 X40.523 Y145.952 E34.85511
G1 X38.363 Y144.238 E34.96064
G1 X36.144 Y142.578 E35.06669
G1 X33.913 Y141.005 E35.17116
G1 X32.36 Y139.986 E35.24224
G1 X31.147 Y139.179 E35.298
G1 X30.142 Y138.521 E35.34397
G1 X29.484 Y138.036 E35.37525
G1 X29.216 Y137.799 E35.38894
G1 X28.449 Y137.015 E35.43092
G1 X27.984 Y136.551 E35.45606
G1 X27.619 Y136.172 E35.47619
G1 X27.251 Y135.734 E35.49809
G1 X26.804 Y135.104 E35.52765
G1 X26.513 Y134.536 E35.55207
G1 X26.239 Y133.901 E35.57854
G1 X25.156 Y131.379 E35.68358
G1 X23.987 Y128.857 E35.78996
G1 X22.761 Y126.397 E35.89514
G1 X21.465 Y123.972 E36.00037
G1 X20.089 Y121.56 E36.10664
G1 X18.679 Y119.247 E36.21031
G1 X17.14 Y116.873 E36.31858
G1 X15.603 Y114.646 E36.42213
G1 X13.459 Y111.742 E36.56027
G1 X13.154 Y111.345 E36.57943
G1 X12.913 Y110.966 E36.59662
G1 X12.743 Y110.551 E36.61378
G1 X12.649 Y110.112 E36.63097
G1 X12.635 Y109.663 E36.64816
G1 X12.732 Y109.077 E36.67089
G1 X12.834 Y108.67 E36.68695
G1 X38.181 Y12.632 E40.48813
G1 X38.347 Y12.039 E40.51169
G0 F1285.7 X38.685 Y12.134
G1 F900 X38.835 Y11.745 E40.52765
G1 X39.056 Y11.392 E40.54359
G1 X39.341 Y11.088 E40.55953
G1 X39.679 Y10.844 E40.57549
G1 X40.057 Y10.668 E40.59144
G1 X40.461 Y10.568 E40.60737
G1 X40.877 Y10.547 E40.62331
G1 X41.29 Y10.606 E40.63928
G1 X41.683 Y10.742 E40.65519
G1 X42.044 Y10.951 E40.67116
G1 X42.295 Y11.161 E40.68368
G1 X42.934 Y11.782 E40.71778
G1 X106.737 Y76.066 E44.18392
G1 X108.734 Y78.022 E44.2909
G1 X110.771 Y79.907 E44.39711
G1 X112.851 Y81.724 E44.5028
G1 X114.972 Y83.476 E44.60808
G1 X117.16 Y85.181 E44.71424
G1 X119.403 Y86.83 E44.82078
G1 X121.659 Y88.39 E44.92574
G1 X123.985 Y89.904 E45.03196
G1 X126.375 Y91.366 E45.13918
G1 X128.746 Y92.724 E45.24374
G1 X131.19 Y94.035 E45.34988
G1 X133.657 Y95.269 E45.45544
G1 X135.071 Y95.915 E45.51493
G1 X135.583 Y96.158 E45.53662
G1 X137.255 Y96.927 E45.60705
G1 X137.842 Y97.305 E45.63377
G1 X137.906 Y97.354 E45.63686
G1 X138.297 Y97.667 E45.65602
G1 X138.469 Y97.82 E45.66483
G1 X139.79 Y99.129 E45.736
G1 X140.348 Y99.735 E45.76753
G1 X140.915 Y100.572 E45.80622
G1 X141.435 Y101.38 E45.84299
G1 X141.963 Y102.185 E45.87983
G1 X142.57 Y103.139 E45.92311
G1 X144.138 Y105.451 E46.03001
G1 X145.758 Y107.702 E46.13615
G1 X147.408 Y109.863 E46.2402
G1 X149.167 Y112.037 E46.34722
G1 X150.958 Y114.125 E46.4525
G1 X152.844 Y116.204 E46.55992
G1 X154.735 Y118.172 E46.66437
G1 X156.746 Y120.15 E46.77231
G1 X158.72 Y121.984 E46.87543
G1 X160.83 Y123.836 E46.98287
G1 X162.946 Y125.592 E47.0881
G1 X165.137 Y127.306 E47.19456
G1 X167.37 Y128.954 E47.30077
G1 X169.609 Y130.51 E47.40511
G1 X171.549 Y131.787 E47.494
G1 X172.688 Y132.517 E47.54577
G1 X172.846 Y132.628 E47.55316
G1 X173.289 Y132.971 E47.5746
G1 X173.685 Y133.306 E47.59445
G1 X174.711 Y134.309 E47.64936
G1 X175.292 Y134.884 E47.68064
G1 X175.596 Y135.242 E47.69862
G1 X175.83 Y135.584 E47.71448
G1 X176.694 Y136.919 E47.77533
G1 X176.949 Y137.452 E47.79794
G1 X178.261 Y140.814 E47.93606
G1 X178.519 Y141.443 E47.96207
G1 X179.621 Y144.017 E48.06923
G1 X180.775 Y146.516 E48.17457
G1 X181.997 Y148.977 E48.27972
G1 X183.323 Y151.467 E48.38768
G1 X184.686 Y153.86 E48.49307
G1 X185.244 Y154.771 E48.53396
G1 X185.289 Y154.863 E48.53788
G1 X185.969 Y155.992 E48.58831
G1 X186.149 Y156.368 E48.60427
G1 X186.254 Y156.771 E48.6202
G1 X186.28 Y157.187 E48.63616
G1 X186.226 Y157.6 E48.6521
G1 X186.094 Y157.995 E48.66803
G1 X185.89 Y158.358 E48.68397
G1 X185.62 Y158.676 E48.69993
G1 X185.294 Y158.936 E48.71589
G1 X184.612 Y159.247 E48.74458
G1 X182.024 Y160.257 E48.85089
G1 X179.43 Y161.356 E48.95871
G1 X176.93 Y162.499 E49.06391
G1 X174.474 Y163.707 E49.16865
G1 X172.012 Y165.005 E49.27516
