;FLAVOR:Marlin
;TIME:12121
;Filament used: 14.5277m
;Layer height: 0.3
;MINX:37.934
;MINY:10.789
;MINZ:0.26
;MAXX:199.983
;MAXY:192.703
;MAXZ:7.76
;Generated with Cura_SteamEngine 4.9.1
M82 ;absolute extrusion mode
;Begin Start Gcode for Dagoma DiscoEasy 200
;Sliced: 07-07-2021 20:14:56
;Initial extruder: 0

G90 ;Absolute positioning
M106 S255 ;Fan on full
G28 X Y ;Home stop X Y
G1 X100 ;Centre back during cooldown in case of oozing
M109 R90 ;Cooldown in case too hot
G28 ;Centre
G29 ;Auto-level
M104 S205 ;Pre-heat
M107 ;Fan off
G0 X100 Y5 Z0.5 ;Front centre for degunk
M109 S205 ;Wait for initial temp
M83 ;E Relative
G1 E10 F200 ;Degunk
G1 E-3 F5000 ;Retract
G0 Z3 ;Withdraw
M82 ;E absolute
G92 E0 ;E reset
G1 F6000 ;Set feedrate

;Finish Start Gcode for Dagoma DiscoEasy 200

G92 E0
G92 E0
G1 F3000 E-3.5
;LAYER_COUNT:26
;LAYER:0
M107
G0 F1285.7 X90.738 Y13.205 Z0.26
;TYPE:SKIRT
G1 F3000 E0
G1 F900 X91.096 Y12.631 E0.02589
G1 X91.424 Y12.182 E0.04717
G1 X91.812 Y11.783 E0.06847
G1 X92.254 Y11.445 E0.08976
G1 X92.74 Y11.173 E0.11108
G1 X93.259 Y10.974 E0.13235
G1 X93.802 Y10.851 E0.15365
G1 X94.311 Y10.808 E0.1732
G1 X95.338 Y10.789 E0.21251
G1 X195.474 Y10.789 E4.04467
G1 X196.165 Y10.799 E4.07112
G1 X196.719 Y10.847 E4.0924
G1 X197.261 Y10.974 E4.1137
G1 X197.779 Y11.177 E4.13499
G1 X198.263 Y11.453 E4.15631
G1 X198.702 Y11.794 E4.17759
G1 X199.088 Y12.195 E4.19889
G1 X199.412 Y12.648 E4.2202
G1 X199.668 Y13.141 E4.24146
G1 X199.851 Y13.667 E4.26277
G1 X199.957 Y14.213 E4.28406
G1 X199.983 Y14.769 E4.30536
G1 X199.929 Y15.323 E4.32666
G1 X199.797 Y15.863 E4.34794
G1 X199.499 Y16.551 E4.37663
G1 X199.211 Y17.049 E4.39865
G1 X94.576 Y190.299 E12.14423
G1 X94.215 Y190.878 E12.17035
G1 X93.888 Y191.328 E12.19163
G1 X93.499 Y191.726 E12.21293
G1 X93.058 Y192.065 E12.23422
G1 X92.572 Y192.337 E12.25553
G1 X92.053 Y192.536 E12.2768
G1 X91.51 Y192.659 E12.29811
G1 X90.955 Y192.703 E12.31942
G1 X90.4 Y192.667 E12.3407
G1 X89.856 Y192.552 E12.36198
G1 X89.333 Y192.36 E12.3833
G1 X88.844 Y192.095 E12.40459
G1 X88.397 Y191.763 E12.4259
G1 X88.003 Y191.371 E12.44717
G1 X87.614 Y190.838 E12.47242
G1 X87.325 Y190.347 E12.49422
G1 X38.753 Y104.269 E16.27665
G1 X38.399 Y103.62 E16.30494
G1 X38.168 Y103.114 E16.32623
G1 X38.012 Y102.58 E16.34752
G1 X37.934 Y102.029 E16.36881
G1 X37.936 Y101.473 E16.39009
G1 X38.018 Y100.922 E16.41141
G1 X38.177 Y100.389 E16.4327
G1 X38.445 Y99.826 E16.45656
G1 X38.955 Y98.944 E16.49555
G1 X90.738 Y13.205 E20.32874
G0 F1285.7 X91.035 Y13.391
G1 F900 X91.393 Y12.817 E20.35463
G1 X91.707 Y12.389 E20.37495
G1 X92.082 Y12.013 E20.39527
G1 X92.508 Y11.697 E20.41557
G1 X92.978 Y11.45 E20.43589
G1 X93.479 Y11.275 E20.4562
G1 X94 Y11.178 E20.47648
G1 X94.318 Y11.158 E20.48867
G1 X95.338 Y11.139 E20.52771
G1 X195.469 Y11.139 E24.35968
G1 X196.16 Y11.149 E24.38613
G1 X196.689 Y11.197 E24.40645
G1 X197.204 Y11.323 E24.42674
G1 X197.694 Y11.526 E24.44704
G1 X198.149 Y11.799 E24.46735
G1 X198.558 Y12.138 E24.48768
G1 X198.91 Y12.534 E24.50795
G1 X199.2 Y12.979 E24.52828
G1 X199.419 Y13.462 E24.54858
G1 X199.564 Y13.973 E24.5689
G1 X199.63 Y14.5 E24.58923
G1 X199.616 Y15.03 E24.60952
G1 X199.523 Y15.553 E24.62985
G1 X199.352 Y16.055 E24.65014
G1 X199.082 Y16.578 E24.67267
G1 X198.891 Y16.901 E24.68703
G1 X94.279 Y190.114 E32.43095
G1 X93.918 Y190.693 E32.45706
G1 X93.604 Y191.121 E32.47738
G1 X93.23 Y191.497 E32.49767
G1 X92.803 Y191.812 E32.51798
G1 X92.334 Y192.06 E32.53828
G1 X91.833 Y192.235 E32.55859
G1 X91.311 Y192.332 E32.57891
G1 X90.781 Y192.35 E32.5992
G1 X90.254 Y192.288 E32.61951
G1 X89.742 Y192.148 E32.63982
G1 X89.257 Y191.932 E32.66014
G1 X88.81 Y191.646 E32.68045
G1 X88.411 Y191.297 E32.70074
G1 X88.069 Y190.891 E32.72105
G1 X87.761 Y190.404 E32.74311
G1 X87.613 Y190.146 E32.75449
G1 X39.034 Y104.054 E36.53751
G1 X38.706 Y103.453 E36.56372
G1 X38.487 Y102.969 E36.58405
G1 X38.344 Y102.458 E36.60435
G1 X38.279 Y101.931 E36.62467
G1 X38.294 Y101.401 E36.64496
G1 X38.388 Y100.879 E36.66526
G1 X38.56 Y100.377 E36.68557
G1 X38.748 Y100.001 E36.70166
G1 X39.255 Y99.125 E36.74039
G1 X91.035 Y13.391 E40.57336
G0 F1285.7 X91.332 Y13.576
G1 F900 X91.69 Y13.002 E40.59925
G1 X91.99 Y12.597 E40.61854
G1 X92.349 Y12.245 E40.63778
G1 X92.76 Y11.954 E40.65705
G1 X93.212 Y11.731 E40.67634
G1 X93.693 Y11.583 E40.6956
G1 X94.324 Y11.508 E40.71992
G1 X95.338 Y11.489 E40.75873
G1 X195.464 Y11.489 E44.59051
G1 X196.155 Y11.499 E44.61695
G1 X196.656 Y11.547 E44.63621
G1 X197.144 Y11.672 E44.65549
G1 X197.605 Y11.874 E44.67475
G1 X198.029 Y12.146 E44.69403
G1 X198.405 Y12.481 E44.7133
G1 X198.723 Y12.872 E44.73259
G1 X198.975 Y13.308 E44.75186
G1 X199.155 Y13.778 E44.77112
G1 X199.258 Y14.271 E44.7904
G1 X199.282 Y14.774 E44.80967
G1 X199.227 Y15.274 E44.82892
G1 X199.093 Y15.76 E44.84821
G1 X198.825 Y16.324 E44.87211
G1 X198.592 Y16.72 E44.88969
G1 X93.982 Y189.929 E52.63344
G1 X93.621 Y190.508 E52.65956
G1 X93.322 Y190.913 E52.67882
G1 X92.962 Y191.265 E52.69809
G1 X92.551 Y191.556 E52.71736
G1 X92.099 Y191.779 E52.73665
G1 X91.618 Y191.927 E52.75591
G1 X91.119 Y191.997 E52.77519
G1 X90.616 Y191.988 E52.79445
G1 X90.12 Y191.899 E52.81373
G1 X89.645 Y191.733 E52.83299
G1 X89.202 Y191.493 E52.85227
G1 X88.802 Y191.187 E52.87154
G1 X88.456 Y190.821 E52.89082
G1 X88.101 Y190.292 E52.9152
G1 X87.918 Y189.974 E52.92924
G1 X39.341 Y103.886 E56.71209
G1 X39.013 Y103.285 E56.7383
G1 X38.808 Y102.825 E56.75757
G1 X38.677 Y102.339 E56.77683
G1 X38.626 Y101.838 E56.7961
G1 X38.654 Y101.335 E56.81538
G1 X38.762 Y100.843 E56.83466
G1 X39.051 Y100.176 E56.86248
G1 X39.554 Y99.306 E56.90094
G1 X91.332 Y13.576 E60.73374
G1 F3000 E57.23374
;MESH:support_half_hex_26.stl
G0 F1285.7 X93.5 Y14.888
G0 X94.365 Y15.409
G0 X90.798 Y187.548
;TYPE:WALL-INNER
G1 F3000 E60.73374
G1 F900 X90.797 Y187.547 E60.73379
G1 X42.391 Y101.763 E64.5033
G1 X94.678 Y15.189 E68.37382
G1 X194.885 Y15.189 E72.20869
G1 X194.886 Y15.189 E72.20873
G1 X195.195 Y15.189 E72.22056
G1 X195.035 Y15.454 E72.22725
G1 X91.097 Y187.552 E79.92131
G1 X90.943 Y187.807 E79.93271
G1 X90.798 Y187.548 E79.93914
G0 F1285.7 X90.788 Y188.192
;TYPE:WALL-OUTER
G1 F900 X90.787 Y188.191 E79.93919
G1 X42.015 Y101.758 E83.73721
G1 X94.495 Y14.864 E87.62203
G1 X195.461 Y14.864 E91.48595
G1 X195.462 Y14.864 E91.48599
G1 X195.771 Y14.864 E91.49782
G1 X195.611 Y15.129 E91.50451
G1 X91.087 Y188.196 E99.2419
G1 X90.933 Y188.451 E99.2533
G1 X90.788 Y188.192 E99.25973
G0 F1285.7 X90.787 Y188.191
G0 X90.69 Y188.018
G0 X90.953 Y187.133
;TYPE:SKIN
G1 F900 X42.784 Y101.768 E103.01082
G1 X94.87 Y15.529 E106.86638
G1 X194.593 Y15.529 E110.68274
G1 X90.953 Y187.133 E118.35472
G0 F1285.7 X91.083 Y186.613
G1 F900 X90.524 Y186.054 E118.38497
G1 X90.462 Y185.992
G0 F1285.7 X91.269 Y186.304
G1 F900 X89.883 Y184.919 E118.45996
G1 X89.821 Y184.857
G0 F1285.7 X89.242 Y183.782
G1 F900 X91.455 Y185.995 E118.57973
G0 F1285.7 X91.642 Y185.687
G1 F900 X88.601 Y182.647 E118.74428
G1 X88.539 Y182.585
G0 F1285.7 X87.96 Y181.51
G1 F900 X91.829 Y185.379 E118.95368
G0 F1285.7 X92.015 Y185.07
G1 F900 X87.319 Y180.374 E119.20783
G1 X87.257 Y180.312
G0 F1285.7 X86.678 Y179.238
G1 F900 X92.201 Y184.762 E119.50677
G0 F1285.7 X92.387 Y184.453
G1 F900 X86.037 Y178.102 E119.85047
G1 X85.975 Y178.04
G0 F1285.7 X85.396 Y176.966
G1 F900 X92.574 Y184.144 E120.23895
G0 F1285.7 X92.76 Y183.835
G1 F900 X84.755 Y175.83 E120.67219
G1 X84.693 Y175.768
G0 F1285.7 X84.114 Y174.694
G1 F900 X92.947 Y183.527 E121.15024
G0 F1285.7 X93.133 Y183.219
G1 F900 X83.473 Y173.558 E121.67308
G1 X83.411 Y173.496
G0 F1285.7 X82.832 Y172.423
G1 F900 X93.319 Y182.91 E122.24065
G0 F1285.7 X93.506 Y182.601
G1 F900 X82.191 Y171.286 E122.85304
G1 X82.129 Y171.224
G0 F1285.7 X81.55 Y170.151
G1 F900 X93.692 Y182.292 E123.51015
G0 F1285.7 X93.879 Y181.984
G1 F900 X80.909 Y169.014 E124.2121
G1 X80.847 Y168.952
G0 F1285.7 X80.267 Y167.878
G1 F900 X94.065 Y181.675 E124.95884
G0 F1285.7 X94.251 Y181.367
G1 F900 X79.627 Y166.742 E125.75034
G1 X79.565 Y166.68
G0 F1285.7 X78.985 Y165.606
G1 F900 X94.438 Y181.058 E126.58665
G0 F1285.7 X94.624 Y180.749
G1 F900 X78.345 Y164.47 E127.46769
G1 X78.283 Y164.408
G0 F1285.7 X77.703 Y163.334
G1 F900 X94.81 Y180.441 E128.39354
G0 F1285.7 X94.996 Y180.132
G1 F900 X77.063 Y162.198 E129.36412
G1 X77.001 Y162.136
G0 F1285.7 X76.421 Y161.062
G1 F900 X95.183 Y179.824 E130.37955
G0 F1285.7 X95.37 Y179.516
G1 F900 X75.781 Y159.927 E131.43973
G1 X75.719 Y159.865
G0 F1285.7 X75.139 Y158.79
G1 F900 X95.556 Y179.207 E132.54472
G0 F1285.7 X95.742 Y178.898
G1 F900 X74.499 Y157.655 E133.69442
G1 X74.437 Y157.593
G0 F1285.7 X73.858 Y156.518
G1 F900 X95.928 Y178.589 E134.8889
G0 F1285.7 X96.115 Y178.281
G1 F900 X73.216 Y155.382 E136.12823
G1 X73.154 Y155.32
G0 F1285.7 X72.576 Y154.246
G1 F900 X96.301 Y177.972 E137.41228
G0 F1285.7 X96.488 Y177.664
G1 F900 X71.934 Y153.11 E138.74117
G1 X71.872 Y153.048
G0 F1285.7 X71.294 Y151.974
G1 F900 X96.674 Y177.355 E140.1148
G0 F1285.7 X96.86 Y177.046
G1 F900 X70.652 Y150.838 E141.53321
G1 X70.59 Y150.776
G0 F1285.7 X70.012 Y149.702
G1 F900 X97.047 Y176.738 E142.99641
G0 F1285.7 X97.233 Y176.429
G1 F900 X69.37 Y148.566 E144.50439
G1 X69.308 Y148.504
G0 F1285.7 X68.73 Y147.431
G1 F900 X97.42 Y176.121 E146.05713
G0 F1285.7 X97.606 Y175.812
G1 F900 X68.088 Y146.294 E147.65468
G1 X68.026 Y146.232
G0 F1285.7 X67.447 Y145.158
G1 F900 X97.792 Y175.503 E149.29699
G0 F1285.7 X97.979 Y175.195
G1 F900 X66.806 Y144.022 E150.98411
G1 X66.744 Y143.96
G0 F1285.7 X66.165 Y142.886
G1 F900 X98.165 Y174.886 E152.71599
G0 F1285.7 X98.352 Y174.578
G1 F900 X65.524 Y141.75 E154.49268
G1 X65.462 Y141.688
G0 F1285.7 X64.883 Y140.614
G1 F900 X98.538 Y174.269 E156.31414
G0 F1285.7 X98.724 Y173.96
G1 F900 X64.242 Y139.478 E158.18035
G1 X64.18 Y139.416
G0 F1285.7 X63.601 Y138.342
G1 F900 X98.911 Y173.652 E160.09137
G0 F1285.7 X99.097 Y173.343
G1 F900 X62.96 Y137.206 E162.04715
G1 X62.898 Y137.144
G0 F1285.7 X62.319 Y136.07
G1 F900 X99.284 Y173.035 E164.04774
G0 F1285.7 X99.47 Y172.726
G1 F900 X61.678 Y134.935 E166.09307
G1 X61.616 Y134.873
G0 F1285.7 X61.037 Y133.798
G1 F900 X99.656 Y172.418 E168.1832
G0 F1285.7 X99.842 Y172.109
G1 F900 X60.396 Y132.662 E170.3181
G1 X60.334 Y132.6
G0 F1285.7 X59.755 Y131.526
G1 F900 X100.029 Y171.8 E172.49778
G0 F1285.7 X100.216 Y171.492
G1 F900 X59.114 Y130.39 E174.72227
G1 X59.052 Y130.328
G0 F1285.7 X58.473 Y129.254
G1 F900 X100.402 Y171.183 E176.99152
G0 F1285.7 X100.588 Y170.875
G1 F900 X57.832 Y128.118 E179.30556
G1 X57.77 Y128.056
G0 F1285.7 X57.191 Y126.982
G1 F900 X100.774 Y170.566 E181.66435
G0 F1285.7 X100.961 Y170.257
G1 F900 X56.55 Y125.846 E184.06793
G1 X56.488 Y125.784
G0 F1285.7 X55.909 Y124.711
G1 F900 X101.147 Y169.948 E186.51624
G0 F1285.7 X101.334 Y169.64
G1 F900 X55.268 Y123.574 E189.00939
G1 X55.206 Y123.512
G0 F1285.7 X54.627 Y122.439
G1 F900 X101.52 Y169.332 E191.5473
G0 F1285.7 X101.706 Y169.023
G1 F900 X53.986 Y121.302 E194.13
G1 X53.924 Y121.24
G0 F1285.7 X53.344 Y120.166
G1 F900 X101.893 Y168.714 E196.7575
G0 F1285.7 X102.079 Y168.405
G1 F900 X52.704 Y119.03 E199.42974
G1 X52.642 Y118.968
G0 F1285.7 X52.062 Y117.894
G1 F900 X102.266 Y168.097 E202.14682
G0 F1285.7 X102.451 Y167.788
G1 F900 X51.422 Y116.758 E204.9086
G1 X51.36 Y116.696
G0 F1285.7 X50.78 Y115.622
G1 F900 X102.638 Y167.48 E207.71522
G0 F1285.7 X102.825 Y167.172
G1 F900 X50.14 Y114.486 E210.56663
G1 X50.078 Y114.424
G0 F1285.7 X49.498 Y113.35
G1 F900 X103.011 Y166.863 E213.46282
G0 F1285.7 X103.197 Y166.554
G1 F900 X48.858 Y112.215 E216.40371
G1 X48.796 Y112.153
G0 F1285.7 X48.216 Y111.078
G1 F900 X103.383 Y166.245 E219.38942
G0 F1285.7 X103.57 Y165.937
G1 F900 X47.575 Y109.942 E222.41994
G1 X47.513 Y109.88
G0 F1285.7 X46.934 Y108.806
G1 F900 X103.757 Y165.629 E225.49528
G0 F1285.7 X103.943 Y165.32
G1 F900 X46.293 Y107.67 E228.61537
G1 X46.231 Y107.608
G0 F1285.7 X45.652 Y106.534
G1 F900 X104.129 Y165.011 E231.78022
G0 F1285.7 X104.315 Y164.702
G1 F900 X45.011 Y105.398 E234.98983
G1 X44.949 Y105.336
G0 F1285.7 X44.37 Y104.262
G1 F900 X104.502 Y164.394 E238.24425
G0 F1285.7 X104.688 Y164.085
G1 F900 X43.729 Y103.126 E241.54343
G1 X43.667 Y103.064
G0 F1285.7 X43.088 Y101.99
G1 F900 X104.875 Y163.777 E244.88742
G0 F1285.7 X105.061 Y163.468
G1 F900 X43.114 Y101.521 E248.24007
G0 F1285.7 X43.3 Y101.212
G1 F900 X105.247 Y163.159 E251.59272
G0 F1285.7 X105.434 Y162.851
G1 F900 X43.487 Y100.904 E254.94537
G0 F1285.7 X43.673 Y100.595
G1 F900 X105.62 Y162.542 E258.29802
G0 F1285.7 X105.807 Y162.234
G1 F900 X43.859 Y100.286 E261.65072
G0 F1285.7 X44.046 Y99.978
G1 F900 X105.993 Y161.925 E265.00337
G0 F1285.7 X106.179 Y161.617
G1 F900 X44.232 Y99.669 E268.35605
G0 F1285.7 X44.419 Y99.361
G1 F900 X106.366 Y161.308 E271.7087
G0 F1285.7 X106.552 Y160.999
G1 F900 X44.605 Y99.052 E275.06135
G0 F1285.7 X44.791 Y98.743
G1 F900 X106.739 Y160.691 E278.41406
G0 F1285.7 X106.925 Y160.382
G1 F900 X44.978 Y98.435 E281.76671
G0 F1285.7 X45.164 Y98.126
G1 F900 X107.111 Y160.074 E285.11939
G0 F1285.7 X107.298 Y159.765
G1 F900 X45.351 Y97.818 E288.47204
G0 F1285.7 X45.536 Y97.509
G1 F900 X107.484 Y159.456 E291.82471
G0 F1285.7 X107.671 Y159.148
G1 F900 X45.723 Y97.201 E295.17739
G0 F1285.7 X45.91 Y96.892
G1 F900 X107.857 Y158.839 E298.53004
G0 F1285.7 X108.043 Y158.531
G1 F900 X46.096 Y96.583 E301.88272
G0 F1285.7 X46.282 Y96.275
G1 F900 X108.229 Y158.222 E305.23537
G0 F1285.7 X108.416 Y157.913
G1 F900 X46.468 Y95.966 E308.58805
G0 F1285.7 X46.655 Y95.658
G1 F900 X108.603 Y157.605 E311.94073
G0 F1285.7 X108.789 Y157.296
G1 F900 X46.842 Y95.349 E315.29338
G0 F1285.7 X47.028 Y95.04
G1 F900 X108.975 Y156.988 E318.64605
G0 F1285.7 X109.161 Y156.679
G1 F900 X47.214 Y94.732 E321.9987
G0 F1285.7 X47.4 Y94.423
G1 F900 X109.348 Y156.371 E325.35141
G0 F1285.7 X109.534 Y156.062
G1 F900 X47.587 Y94.115 E328.70406
G0 F1285.7 X47.774 Y93.806
G1 F900 X109.721 Y155.753 E332.05671
G0 F1285.7 X109.907 Y155.445
G1 F900 X47.96 Y93.497 E335.40939
G0 F1285.7 X48.146 Y93.189
G1 F900 X110.093 Y155.136 E338.76204
G0 F1285.7 X110.28 Y154.828
G1 F900 X48.332 Y92.88 E342.11474
G0 F1285.7 X48.519 Y92.572
G1 F900 X110.466 Y154.519 E345.46739
G0 F1285.7 X110.653 Y154.21
G1 F900 X48.705 Y92.263 E348.82007
G0 F1285.7 X48.892 Y91.954
G1 F900 X110.838 Y153.901 E352.17269
G0 F1285.7 X111.025 Y153.593
G1 F900 X49.078 Y91.646 E355.52534
G0 F1285.7 X49.264 Y91.337
G1 F900 X111.212 Y153.285 E358.87805
G0 F1285.7 X111.398 Y152.976
G1 F900 X49.451 Y91.029 E362.2307
G0 F1285.7 X49.637 Y90.72
G1 F900 X111.584 Y152.667 E365.58335
G0 F1285.7 X111.77 Y152.358
G1 F900 X49.824 Y90.412 E368.93595
G0 F1285.7 X50.01 Y90.103
G1 F900 X111.957 Y152.05 E372.2886
G0 F1285.7 X112.144 Y151.742
G1 F900 X50.196 Y89.794 E375.6413
G0 F1285.7 X50.383 Y89.486
G1 F900 X112.33 Y151.433 E378.99395
G0 F1285.7 X112.516 Y151.124
G1 F900 X50.569 Y89.177 E382.3466
G0 F1285.7 X50.756 Y88.869
G1 F900 X112.702 Y150.815 E385.6992
G0 F1285.7 X112.889 Y150.507
G1 F900 X50.942 Y88.56 E389.05185
G0 F1285.7 X51.128 Y88.251
G1 F900 X113.075 Y150.198 E392.4045
G0 F1285.7 X113.262 Y149.89
G1 F900 X51.315 Y87.943 E395.75715
G0 F1285.7 X51.501 Y87.634
G1 F900 X113.448 Y149.582 E399.10983
G0 F1285.7 X113.634 Y149.273
G1 F900 X51.688 Y87.326 E402.46245
G0 F1285.7 X51.874 Y87.017
G1 F900 X113.821 Y148.964 E405.8151
G0 F1285.7 X114.007 Y148.655
G1 F900 X52.06 Y86.708 E409.16775
G0 F1285.7 X52.247 Y86.4
G1 F900 X114.194 Y148.347 E412.5204
G0 F1285.7 X114.38 Y148.038
G1 F900 X52.433 Y86.091 E415.87306
G0 F1285.7 X52.62 Y85.783
G1 F900 X114.566 Y147.73 E419.22568
G0 F1285.7 X114.753 Y147.421
G1 F900 X52.806 Y85.474 E422.57833
G0 F1285.7 X52.992 Y85.166
G1 F900 X114.939 Y147.112 E425.93095
G0 F1285.7 X115.126 Y146.804
G1 F900 X53.179 Y84.857 E429.2836
G0 F1285.7 X53.365 Y84.548
G1 F900 X115.312 Y146.495 E432.63625
G0 F1285.7 X115.498 Y146.187
G1 F900 X53.552 Y84.24 E435.98888
G0 F1285.7 X53.737 Y83.931
G1 F900 X115.685 Y145.878 E439.34156
G0 F1285.7 X115.871 Y145.569
G1 F900 X53.924 Y83.623 E442.69418
G0 F1285.7 X54.11 Y83.314
G1 F900 X116.058 Y145.261 E446.04686
G0 F1285.7 X116.244 Y144.952
