;FLAVOR:Marlin
;TIME:12935
;Filament used: 10.1566m
;Layer height: 0.2
;MINX:5.495
;MINY:24.892
;MINZ:0.26
;MAXX:182.351
;MAXY:201.752
;MAXZ:7.86
;Generated with Cura_SteamEngine 4.9.1
M82 ;absolute extrusion mode
;Begin Start Gcode for Dagoma DiscoEasy 200
;Sliced: 13-07-2021 17:08:53
;Initial extruder: 0

G90 ;Absolute positioning
M106 S255 ;Fan on full
G28 X Y ;Home stop X Y
G1 X100 ;Centre back during cooldown in case of oozing
M109 R90 ;Cooldown in case too hot
G28 ;Centre
G29 ;Auto-level
M104 S205 ;Pre-heat
M107 ;Fan off
G0 X100 Y5 Z0.5 ;Front centre for degunk
M109 S205 ;Wait for initial temp
M83 ;E Relative
G1 E10 F200 ;Degunk
G1 E-3 F5000 ;Retract
G0 Z3 ;Withdraw
M82 ;E absolute
G92 E0 ;E reset
G1 F6000 ;Set feedrate

;Finish Start Gcode for Dagoma DiscoEasy 200

G92 E0
G92 E0
G1 F3000 E-3.5
;LAYER_COUNT:39
;LAYER:0
M107
G0 F1285.7 X31.658 Y26.271 Z0.26
;TYPE:SKIRT
G1 F3000 E0
G1 F900 X32.046 Y25.872 E0.0213
G1 X32.487 Y25.533 E0.04259
G1 X32.972 Y25.261 E0.06387
G1 X33.492 Y25.061 E0.08519
G1 X34.034 Y24.937 E0.10647
G1 X34.589 Y24.892 E0.12777
G1 X35.144 Y24.927 E0.14906
G1 X35.689 Y25.042 E0.17037
G1 X36.211 Y25.233 E0.19164
G1 X36.701 Y25.497 E0.21295
G1 X37.311 Y25.977 E0.24265
G1 X38.002 Y26.644 E0.2794
G1 X180.805 Y169.448 E8.00811
G1 X181.262 Y169.919 E8.03323
G1 X181.62 Y170.345 E8.05452
G1 X181.913 Y170.818 E8.07582
G1 X182.135 Y171.328 E8.0971
G1 X182.282 Y171.864 E8.11837
G1 X182.351 Y172.417 E8.1397
G1 X182.34 Y172.973 E8.16098
G1 X182.249 Y173.522 E8.18228
G1 X182.08 Y174.052 E8.20357
G1 X181.838 Y174.553 E8.22486
G1 X181.526 Y175.014 E8.24616
G1 X181.151 Y175.425 E8.26745
G1 X180.722 Y175.779 E8.28874
G1 X180.246 Y176.067 E8.31003
G1 X179.523 Y176.349 E8.33973
G1 X178.625 Y176.599 E8.3754
G1 X82.897 Y201.479 E12.16058
G1 X82.225 Y201.644 E12.18706
G1 X81.677 Y201.738 E12.20834
G1 X81.12 Y201.752 E12.22966
G1 X80.568 Y201.686 E12.25093
G1 X80.03 Y201.542 E12.27225
G1 X79.519 Y201.322 E12.29354
G1 X79.045 Y201.031 E12.31483
G1 X78.543 Y200.609 E12.33992
G1 X78.189 Y200.265 E12.35881
G1 X7.102 Y129.18 E16.20608
G1 X6.587 Y128.651 E16.23433
G1 X6.229 Y128.226 E16.2556
G1 X5.935 Y127.753 E16.27691
G1 X5.712 Y127.243 E16.29821
G1 X5.564 Y126.707 E16.31949
G1 X5.495 Y126.155 E16.34078
G1 X5.505 Y125.599 E16.36206
G1 X5.611 Y124.972 E16.3864
G1 X5.737 Y124.458 E16.40665
G1 X30.71 Y28.377 E20.2058
G1 X30.886 Y27.738 E20.23116
G1 X31.072 Y27.214 E20.25244
G1 X31.331 Y26.721 E20.27375
G1 X31.658 Y26.271 E20.29504
G0 F1285.7 X31.974 Y26.44
G1 F900 X32.353 Y26.069 E20.31534
G1 X32.784 Y25.759 E20.33566
G1 X33.256 Y25.517 E20.35595
G1 X33.759 Y25.349 E20.37625
G1 X34.282 Y25.258 E20.39656
G1 X34.813 Y25.247 E20.41689
G1 X35.339 Y25.316 E20.43719
G1 X35.849 Y25.462 E20.45749
G1 X36.331 Y25.684 E20.4778
G1 X36.775 Y25.976 E20.49814
G1 X37.069 Y26.229 E20.51298
G1 X37.755 Y26.891 E20.54947
G1 X180.554 Y169.691 E28.27796
G1 X181.011 Y170.162 E28.30307
G1 X181.351 Y170.57 E28.3234
G1 X181.625 Y171.024 E28.34369
G1 X181.829 Y171.514 E28.364
G1 X181.957 Y172.029 E28.38431
G1 X182.005 Y172.557 E28.4046
G1 X181.974 Y173.087 E28.42492
G1 X181.864 Y173.606 E28.44522
G1 X181.677 Y174.103 E28.46554
G1 X181.418 Y174.566 E28.48585
G1 X181.092 Y174.985 E28.50616
G1 X180.707 Y175.35 E28.52647
G1 X180.272 Y175.653 E28.54675
G1 X179.796 Y175.888 E28.56707
G1 X179.429 Y176.012 E28.58189
G1 X178.537 Y176.261 E28.61733
G1 X82.814 Y201.139 E32.40231
G1 X82.142 Y201.304 E32.42879
G1 X81.618 Y201.392 E32.44912
G1 X81.088 Y201.4 E32.46941
G1 X80.562 Y201.328 E32.48972
G1 X80.053 Y201.178 E32.51003
G1 X79.572 Y200.953 E32.53035
G1 X79.13 Y200.659 E32.55067
G1 X78.699 Y200.275 E32.57276
G1 X78.436 Y200.018 E32.58683
G1 X7.353 Y128.936 E36.43391
G1 X6.838 Y128.407 E36.46216
G1 X6.498 Y128 E36.48246
G1 X6.222 Y127.546 E36.50279
G1 X6.018 Y127.057 E36.52307
G1 X5.889 Y126.542 E36.54338
G1 X5.84 Y126.013 E36.56372
G1 X5.87 Y125.484 E36.58399
G1 X5.975 Y124.953 E36.60471
G1 X6.086 Y124.504 E36.62241
G1 X31.048 Y28.47 E40.41971
G1 X31.224 Y27.831 E40.44507
G1 X31.403 Y27.331 E40.4654
G1 X31.655 Y26.864 E40.4857
G1 X31.974 Y26.44 E40.50601
G0 F1285.7 X32.288 Y26.614
G1 F900 X32.658 Y26.272 E40.52529
G1 X33.077 Y25.993 E40.54456
G1 X33.535 Y25.784 E40.56382
G1 X34.021 Y25.649 E40.58313
G1 X34.521 Y25.594 E40.60238
G1 X35.024 Y25.618 E40.62165
G1 X35.517 Y25.721 E40.64092
G1 X35.987 Y25.901 E40.66018
G1 X36.423 Y26.152 E40.67943
G1 X36.826 Y26.481 E40.69934
G1 X37.466 Y27.098 E40.73336
G1 X180.303 Y169.935 E48.46389
G1 X180.76 Y170.406 E48.489
G1 X181.081 Y170.794 E48.50827
G1 X181.336 Y171.228 E48.52754
G1 X181.52 Y171.697 E48.54682
G1 X181.627 Y172.189 E48.56608
G1 X181.655 Y172.692 E48.58536
G1 X181.603 Y173.193 E48.60464
G1 X181.473 Y173.679 E48.62389
G1 X181.267 Y174.139 E48.64318
G1 X180.992 Y174.56 E48.66243
G1 X180.653 Y174.933 E48.68171
G1 X180.259 Y175.247 E48.701
G1 X179.821 Y175.495 E48.72026
G1 X179.335 Y175.675 E48.74009
G1 X178.449 Y175.922 E48.77529
G1 X82.73 Y200.799 E52.5601
G1 X82.058 Y200.964 E52.58659
G1 X81.561 Y201.045 E52.60586
G1 X81.057 Y201.047 E52.62514
G1 X80.56 Y200.968 E52.6444
G1 X80.081 Y200.812 E52.66368
G1 X79.633 Y200.583 E52.68294
G1 X79.152 Y200.219 E52.70602
G1 X78.708 Y199.794 E52.72954
G1 X7.604 Y128.692 E56.57773
G1 X7.089 Y128.163 E56.60598
G1 X6.767 Y127.775 E56.62528
G1 X6.511 Y127.342 E56.64453
G1 X6.327 Y126.873 E56.66381
G1 X6.219 Y126.381 E56.68308
G1 X6.19 Y125.878 E56.70237
G1 X6.263 Y125.268 E56.72588
G1 X6.416 Y124.626 E56.75113
G1 X31.385 Y28.563 E60.54957
G1 X31.561 Y27.924 E60.57494
G1 X31.733 Y27.451 E60.5942
G1 X31.977 Y27.01 E60.61349
G1 X32.288 Y26.614 E60.63276
G1 F3000 E57.13276
;MESH:support_half_hex_20.stl
G0 F1285.7 X33.835 Y29.213
G0 X34.804 Y29.464
G0 X19.788 Y115.513
;TYPE:WALL-INNER
G1 F3000 E60.63276
G1 F900 X91.449 Y96.887 E63.46631
G1 X91.607 Y96.3 E63.48958
G1 X39.001 Y43.694 E66.33668
G1 X38.414 Y43.852 E66.35994
G1 X19.788 Y115.513 E69.1935
G0 F1285.7 X91.731 Y187.456
G1 F900 X163.391 Y168.83 E72.02701
G1 X163.549 Y168.243 E72.05028
G1 X110.944 Y115.637 E74.89736
G1 X110.357 Y115.795 E74.92062
G1 X91.731 Y187.456 E77.75417
G0 F1285.7 X177.19 Y172.425
G1 F900 X81.454 Y197.308 E81.53967
G1 X9.937 Y125.792 E85.41024
G1 X34.821 Y30.056 E89.19575
G1 X34.897 Y29.761 E89.20741
G1 X35.112 Y29.976 E89.21399
G1 X177.27 Y172.134 E96.90776
G1 X177.485 Y172.349 E96.9194
G1 X177.19 Y172.425 E96.92599
G0 F1285.7 X177.822 Y172.597
;TYPE:WALL-OUTER
G1 F900 X81.356 Y197.67 E100.74036
G1 X9.575 Y125.89 E104.62521
G1 X34.649 Y29.424 E108.43959
G1 X34.725 Y29.129 E108.45125
G1 X34.94 Y29.344 E108.45783
G1 X177.902 Y172.306 E116.19512
G1 X178.117 Y172.521 E116.20676
G1 X177.822 Y172.597 E116.21335
G0 F1285.7 X177.629 Y172.647
G0 X177.793 Y172.554
G0 X91.948 Y187.239
G0 X92.185 Y187.002
G1 F900 X163.026 Y168.589 E119.01448
G1 X163.126 Y168.563 E119.01844
G1 X163.186 Y168.34 E119.02728
G1 X163.113 Y168.267 E119.03123
G1 X110.92 Y116.073 E121.856
G1 X110.847 Y116 E121.85996
G1 X110.624 Y116.06 E121.86879
G1 X110.598 Y116.16 E121.87275
G1 X92.185 Y187.002 E124.67392
G0 F1285.7 X92.378 Y186.952
G0 X92.44 Y187.193
G0 X20.005 Y115.296
G0 X20.242 Y115.059
G1 F900 X91.084 Y96.646 E127.47509
G1 X91.184 Y96.62 E127.47904
G1 X91.244 Y96.397 E127.48788
G1 X91.171 Y96.324 E127.49183
G1 X38.977 Y44.13 E130.31663
G1 X38.904 Y44.057 E130.32058
G1 X38.681 Y44.117 E130.32942
G1 X38.655 Y44.217 E130.33338
G1 X20.242 Y115.059 E133.13454
G0 F1285.7 X20.435 Y115.009
G0 X20.497 Y115.25
G0 X19.314 Y115.987
;TYPE:SKIN
G1 F900 X91.726 Y97.167 E135.99778
G1 X91.986 Y96.199 E136.03614
G1 X39.102 Y43.315 E138.89829
G1 X38.134 Y43.575 E138.93665
G1 X19.314 Y115.987 E141.79989
G0 F1285.7 X10.315 Y125.688
G1 F900 X35.076 Y30.422 E145.5668
G1 X176.824 Y172.17 E153.23839
G1 X81.558 Y196.93 E157.00529
G1 X10.315 Y125.688 E160.86103
G0 F1285.7 X110.077 Y115.518
G1 F900 X91.257 Y187.93 E163.72427
G1 X163.668 Y169.11 E166.58747
G1 X163.928 Y168.142 E166.62583
G1 X111.045 Y115.258 E169.48795
G1 X110.077 Y115.518 E169.52631
G0 F1285.7 X10.554 Y125.388
G1 F900 X81.856 Y196.69 E173.38526
G0 F1285.7 X82.249 Y196.588
G1 F900 X10.656 Y124.995 E177.25997
G0 F1285.7 X10.757 Y124.602
G1 F900 X82.641 Y196.485 E181.15039
G0 F1285.7 X83.034 Y196.384
G1 F900 X10.86 Y124.209 E185.05657
G0 F1285.7 X10.962 Y123.816
G1 F900 X83.427 Y196.281 E188.97847
G0 F1285.7 X83.82 Y196.179
G1 F900 X11.064 Y123.424 E192.91609
G0 F1285.7 X11.166 Y123.03
G1 F900 X84.212 Y196.077 E196.86946
G0 F1285.7 X84.606 Y195.975
G1 F900 X11.268 Y122.637 E200.8386
G0 F1285.7 X11.37 Y122.245
G1 F900 X84.999 Y195.873 E204.82347
G0 F1285.7 X85.391 Y195.77
G1 F900 X11.472 Y121.852 E208.82403
G0 F1285.7 X11.575 Y121.459
G1 F900 X85.784 Y195.669 E212.84035
G0 F1285.7 X86.177 Y195.566
G1 F900 X11.677 Y121.066 E216.87238
G0 F1285.7 X11.778 Y120.673
G1 F900 X86.57 Y195.464 E220.92019
G0 F1285.7 X86.963 Y195.362
G1 F900 X11.881 Y120.28 E224.98373
G0 F1285.7 X11.983 Y119.887
G1 F900 X87.355 Y195.26 E229.06298
G0 F1285.7 X87.749 Y195.158
G1 F900 X12.085 Y119.495 E233.15799
G0 F1285.7 X12.187 Y119.102
G1 F900 X88.141 Y195.056 E237.26871
G0 F1285.7 X88.534 Y194.954
G1 F900 X12.289 Y118.709 E241.39519
G0 F1285.7 X12.392 Y118.316
G1 F900 X88.927 Y194.852 E245.53739
G0 F1285.7 X89.32 Y194.749
G1 F900 X12.493 Y117.923 E249.69534
G0 F1285.7 X12.596 Y117.531
G1 F900 X89.713 Y194.648 E253.86901
G0 F1285.7 X90.105 Y194.545
G1 F900 X12.698 Y117.137 E258.0584
G0 F1285.7 X12.8 Y116.744
G1 F900 X90.499 Y194.443 E262.26357
G0 F1285.7 X90.892 Y194.341
G1 F900 X12.902 Y116.352 E266.48446
G0 F1285.7 X13.004 Y115.959
G1 F900 X91.284 Y194.239 E270.72107
G0 F1285.7 X91.677 Y194.137
G1 F900 X13.106 Y115.566 E274.97344
G0 F1285.7 X13.208 Y115.173
G1 F900 X92.07 Y194.035 E279.24155
G0 F1285.7 X92.463 Y193.933
G1 F900 X13.31 Y114.78 E283.52541
G0 F1285.7 X13.413 Y114.387
G1 F900 X92.856 Y193.831 E287.82499
G0 F1285.7 X93.248 Y193.728
G1 F900 X13.514 Y113.994 E292.1403
G0 F1285.7 X13.617 Y113.602
G1 F900 X93.642 Y193.627 E296.47135
G0 F1285.7 X94.034 Y193.524
G1 F900 X13.719 Y113.209 E300.8181
G0 F1285.7 X13.821 Y112.816
G1 F900 X94.427 Y193.422 E305.1806
G0 F1285.7 X94.82 Y193.32
G1 F900 X13.923 Y112.423 E309.55885
G0 F1285.7 X14.025 Y112.03
G1 F900 X95.213 Y193.218 E313.95285
G0 F1285.7 X95.606 Y193.116
G1 F900 X14.127 Y111.638 E318.36257
G0 F1285.7 X14.229 Y111.244
G1 F900 X19.115 Y116.13 E318.62701
G0 F1285.7 X19.171 Y116.186
G1 F900 X91.058 Y188.073 E322.51762
G0 F1285.7 X91.114 Y188.129
G1 F900 X95.998 Y193.013 E322.78195
G0 F1285.7 X96.392 Y192.912
G1 F900 X91.506 Y188.026 E323.04639
G0 F1285.7 X91.899 Y187.924
G1 F900 X96.785 Y192.81 E323.31082
G0 F1285.7 X97.177 Y192.707
G1 F900 X92.292 Y187.823 E323.57518
G0 F1285.7 X92.685 Y187.72
G1 F900 X97.57 Y192.605 E323.83956
G0 F1285.7 X97.963 Y192.503
G1 F900 X93.078 Y187.618 E324.10395
G0 F1285.7 X93.471 Y187.516
G1 F900 X98.356 Y192.401 E324.36833
G0 F1285.7 X98.749 Y192.299
G1 F900 X93.864 Y187.414 E324.63271
G0 F1285.7 X94.257 Y187.312
G1 F900 X99.142 Y192.197 E324.89709
G0 F1285.7 X99.535 Y192.095
G1 F900 X94.649 Y187.21 E325.1615
G0 F1285.7 X95.042 Y187.108
G1 F900 X99.927 Y191.992 E325.42586
G0 F1285.7 X100.32 Y191.891
G1 F900 X95.435 Y187.005 E325.69027
G0 F1285.7 X95.828 Y186.903
G1 F900 X100.713 Y191.789 E325.95468
G0 F1285.7 X101.106 Y191.686
G1 F900 X96.221 Y186.802 E326.21903
G0 F1285.7 X96.614 Y186.699
G1 F900 X101.499 Y191.584 E326.48341
G0 F1285.7 X101.891 Y191.482
G1 F900 X97.007 Y186.597 E326.74777
G0 F1285.7 X97.399 Y186.495
G1 F900 X102.285 Y191.38 E327.01218
G0 F1285.7 X102.678 Y191.278
G1 F900 X97.792 Y186.393 E327.27659
G0 F1285.7 X98.186 Y186.291
G1 F900 X103.07 Y191.176 E327.54094
G0 F1285.7 X103.463 Y191.074
G1 F900 X98.578 Y186.188 E327.80535
G0 F1285.7 X98.971 Y186.087
G1 F900 X103.856 Y190.971 E328.06971
G0 F1285.7 X104.249 Y190.87
G1 F900 X99.364 Y185.985 E328.33409
G0 F1285.7 X99.757 Y185.882
G1 F900 X104.642 Y190.768 E328.5985
G0 F1285.7 X105.035 Y190.665
G1 F900 X100.15 Y185.78 E328.86288
G0 F1285.7 X100.542 Y185.678
G1 F900 X105.428 Y190.563 E329.12729
G0 F1285.7 X105.82 Y190.461
G1 F900 X100.935 Y185.576 E329.39167
G0 F1285.7 X101.329 Y185.474
G1 F900 X106.213 Y190.359 E329.65603
G0 F1285.7 X106.606 Y190.257
G1 F900 X101.721 Y185.372 E329.92041
G0 F1285.7 X102.114 Y185.27
G1 F900 X106.999 Y190.155 E330.18479
G0 F1285.7 X107.392 Y190.053
G1 F900 X102.507 Y185.167 E330.4492
G0 F1285.7 X102.9 Y185.066
G1 F900 X107.784 Y189.95 E330.71353
G0 F1285.7 X108.178 Y189.848
G1 F900 X103.293 Y184.964 E330.97789
G0 F1285.7 X103.685 Y184.861
G1 F900 X108.571 Y189.747 E331.24232
G0 F1285.7 X108.963 Y189.644
G1 F900 X104.079 Y184.759 E331.50668
G0 F1285.7 X104.471 Y184.657
G1 F900 X109.356 Y189.542 E331.77106
G0 F1285.7 X109.749 Y189.44
G1 F900 X104.864 Y184.555 E332.03544
G0 F1285.7 X105.257 Y184.453
G1 F900 X110.142 Y189.338 E332.29983
G0 F1285.7 X110.535 Y189.236
G1 F900 X105.65 Y184.351 E332.56421
G0 F1285.7 X106.043 Y184.249
G1 F900 X110.928 Y189.134 E332.82859
G0 F1285.7 X111.321 Y189.032
G1 F900 X106.435 Y184.146 E333.09303
G0 F1285.7 X106.828 Y184.045
G1 F900 X111.713 Y188.929 E333.35738
G0 F1285.7 X112.106 Y188.827
G1 F900 X107.222 Y183.943 E333.62171
G0 F1285.7 X107.614 Y183.84
G1 F900 X112.499 Y188.726 E333.88612
G0 F1285.7 X112.892 Y188.623
G1 F900 X108.007 Y183.738 E334.1505
G0 F1285.7 X108.4 Y183.636
G1 F900 X113.285 Y188.521 E334.41489
G0 F1285.7 X113.678 Y188.419
G1 F900 X108.793 Y183.534 E334.67927
G0 F1285.7 X109.186 Y183.432
G1 F900 X114.071 Y188.317 E334.94365
G0 F1285.7 X114.464 Y188.215
G1 F900 X109.578 Y183.33 E335.20806
G0 F1285.7 X109.972 Y183.228
G1 F900 X114.856 Y188.113 E335.47242
G0 F1285.7 X115.249 Y188.011
G1 F900 X110.364 Y183.125 E335.73683
G0 F1285.7 X110.757 Y183.023
G1 F900 X115.642 Y187.908 E336.00121
G0 F1285.7 X116.035 Y187.806
G1 F900 X111.15 Y182.922 E336.26556
G0 F1285.7 X111.543 Y182.819
G1 F900 X116.428 Y187.705 E336.52997
G0 F1285.7 X116.821 Y187.602
G1 F900 X111.936 Y182.717 E336.79436
G0 F1285.7 X112.328 Y182.615
G1 F900 X117.214 Y187.5 E337.05877
G0 F1285.7 X117.606 Y187.398
G1 F900 X112.722 Y182.513 E337.32312
G0 F1285.7 X113.115 Y182.411
G1 F900 X117.999 Y187.296 E337.58748
G0 F1285.7 X118.393 Y187.194
G1 F900 X113.507 Y182.309 E337.85189
G0 F1285.7 X113.9 Y182.207
G1 F900 X118.785 Y187.091 E338.11624
G0 F1285.7 X119.178 Y186.99
G1 F900 X114.293 Y182.104 E338.38065
G0 F1285.7 X114.686 Y182.002
G1 F900 X119.571 Y186.887 E338.64503
G0 F1285.7 X119.964 Y186.785
G1 F900 X115.079 Y181.901 E338.90939
G0 F1285.7 X115.471 Y181.798
G1 F900 X120.357 Y186.683 E339.1738
G0 F1285.7 X120.749 Y186.581
G1 F900 X115.865 Y181.696 E339.43815
G0 F1285.7 X116.257 Y181.594
G1 F900 X121.142 Y186.479 E339.70254
G0 F1285.7 X121.535 Y186.377
G1 F900 X116.65 Y181.492 E339.96692
G0 F1285.7 X117.043 Y181.39
G1 F900 X121.928 Y186.275 E340.2313
G0 F1285.7 X122.321 Y186.173
G1 F900 X117.436 Y181.288 E340.49568
G0 F1285.7 X117.829 Y181.186
G1 F900 X122.714 Y186.07 E340.76004
G0 F1285.7 X123.107 Y185.969
G1 F900 X118.221 Y181.083 E341.02447
G0 F1285.7 X118.615 Y180.981
G1 F900 X123.499 Y185.866 E341.28883
G0 F1285.7 X123.892 Y185.764
G1 F900 X119.008 Y180.88 E341.55316
G0 F1285.7 X119.4 Y180.777
G1 F900 X124.286 Y185.662 E341.81757
G0 F1285.7 X124.678 Y185.56
G1 F900 X119.793 Y180.675 E342.08195
G0 F1285.7 X120.186 Y180.573
G1 F900 X125.071 Y185.458 E342.34633
G0 F1285.7 X125.464 Y185.356
G1 F900 X120.579 Y180.471 E342.61071
G0 F1285.7 X120.972 Y180.369
G1 F900 X125.857 Y185.254 E342.8751
G0 F1285.7 X126.249 Y185.151
G1 F900 X121.364 Y180.266 E343.13948
G0 F1285.7 X121.758 Y180.165
G1 F900 X126.642 Y185.049 E343.40381
G0 F1285.7 X127.035 Y184.948
G1 F900 X122.15 Y180.062 E343.66822
G0 F1285.7 X122.543 Y179.96
G1 F900 X127.428 Y184.845 E343.9326
G0 F1285.7 X127.821 Y184.743
G1 F900 X122.936 Y179.858 E344.19698
G0 F1285.7 X123.329 Y179.756
G1 F900 X128.214 Y184.641 E344.46136
G0 F1285.7 X128.607 Y184.539
G1 F900 X123.722 Y179.654 E344.72575
G0 F1285.7 X124.114 Y179.552
G1 F900 X129 Y184.437 E344.99016
G0 F1285.7 X129.392 Y184.334
G1 F900 X124.508 Y179.45 E345.25448
G0 F1285.7 X124.901 Y179.348
