;FLAVOR:Marlin
;TIME:12864
;Filament used: 22.6793m
;Layer height: 0.3
;MINX:13.759
;MINY:19.366
;MINZ:0.26
;MAXX:191
;MAXY:192.337
;MAXZ:24.56
;Generated with Cura_SteamEngine 4.9.1
M82 ;absolute extrusion mode
;Begin Start Gcode for Dagoma DiscoEasy 200
;Sliced: 01-08-2021 01:35:52
;Initial extruder: 0

G90 ;Absolute positioning
M106 S255 ;Fan on full
G28 X Y ;Home stop X Y
G1 X100 ;Centre back during cooldown in case of oozing
M109 R90 ;Cooldown in case too hot
G28 ;Centre
G29 ;Auto-level
M104 S205 ;Pre-heat
M107 ;Fan off
G0 X100 Y5 Z0.5 ;Front centre for degunk
M109 S205 ;Wait for initial temp
M83 ;E Relative
G1 E10 F200 ;Degunk
G1 E-3 F5000 ;Retract
G0 Z3 ;Withdraw
M82 ;E absolute
G92 E0 ;E reset
G1 F6000 ;Set feedrate

;Finish Start Gcode for Dagoma DiscoEasy 200

G92 E0
G92 E0
G1 F3000 E-3.5
;LAYER_COUNT:82
;LAYER:0
M107
G0 F1285.7 X29.284 Y38.761 Z0.26
;TYPE:SKIRT
G1 F3000 E0
G1 F900 X31.429 Y37.053 E0.10493
G1 X33.508 Y35.298 E0.20905
G1 X33.799 Y35.041 E0.22391
G1 X34.256 Y34.652 E0.24688
G1 X34.646 Y34.373 E0.26523
G1 X35.317 Y34.081 E0.29323
G1 X36.018 Y33.878 E0.32116
G1 X36.625 Y33.72 E0.34517
G1 X37.264 Y33.628 E0.36987
G1 X37.709 Y33.615 E0.38691
G1 X39.786 Y33.583 E0.46641
G1 X42.487 Y33.466 E0.56987
G1 X45.25 Y33.268 E0.67588
G1 X48.004 Y32.992 E0.7818
G1 X50.69 Y32.645 E0.88545
G1 X53.422 Y32.214 E0.99129
G1 X56.123 Y31.709 E1.09645
G1 X58.805 Y31.129 E1.20146
G1 X61.443 Y30.48 E1.30543
G1 X64.138 Y29.735 E1.41243
G1 X66.74 Y28.936 E1.5166
G1 X69.33 Y28.059 E1.62124
G1 X71.933 Y27.096 E1.72746
G1 X74.49 Y26.067 E1.83294
G1 X76.991 Y24.976 E1.93736
G1 X79.476 Y23.808 E2.04244
G1 X81.911 Y22.579 E2.14683
G1 X84.355 Y21.256 E2.25318
G1 X85.566 Y20.567 E2.3065
G1 X86.419 Y20.074 E2.3442
G1 X87.01 Y19.816 E2.36888
G1 X87.591 Y19.644 E2.39207
G1 X88.339 Y19.45 E2.42164
G1 X88.811 Y19.369 E2.43997
G1 X89.272 Y19.366 E2.45761
G1 X89.707 Y19.42 E2.47439
G1 X92.484 Y19.781 E2.58156
G1 X95.208 Y20.057 E2.68634
G1 X97.939 Y20.257 E2.79113
G1 X100.669 Y20.377 E2.89571
G1 X103.443 Y20.422 E3.00188
G1 X106.179 Y20.389 E3.10659
G1 X108.949 Y20.277 E3.21269
G1 X111.663 Y20.09 E3.3168
G1 X114.705 Y19.79 E3.43378
G1 X115.748 Y19.671 E3.47395
G1 X116.227 Y19.656 E3.49229
G1 X116.702 Y19.721 E3.51064
G1 X117.159 Y19.865 E3.52898
G1 X117.586 Y20.082 E3.54731
G1 X118.01 Y20.401 E3.56761
G1 X118.469 Y20.832 E3.59171
G1 X189.685 Y89.939 E7.38937
G1 X190.18 Y90.435 E7.41618
G1 X190.489 Y90.801 E7.43452
G1 X190.733 Y91.214 E7.45287
G1 X190.905 Y91.661 E7.4712
G1 X191 Y92.131 E7.48955
G1 X190.989 Y92.886 E7.51845
G1 X190.956 Y93.111 E7.52715
G1 X190.56 Y95.541 E7.62137
G1 X190.202 Y98.214 E7.72458
G1 X189.916 Y100.935 E7.82929
G1 X189.704 Y103.698 E7.93534
G1 X189.569 Y106.481 E8.04197
G1 X189.516 Y109.166 E8.14474
G1 X189.539 Y111.939 E8.25086
G1 X189.637 Y114.647 E8.35457
G1 X189.768 Y116.786 E8.43658
G1 X189.757 Y117.265 E8.45491
G1 X189.687 Y117.658 E8.47019
G1 X189.472 Y118.513 E8.50393
G1 X189.328 Y119.017 E8.52399
G1 X189.086 Y119.607 E8.54839
G1 X188.86 Y120.02 E8.56641
G1 X187.93 Y121.657 E8.63846
G1 X186.666 Y124.033 E8.74146
G1 X185.414 Y126.557 E8.84928
G1 X184.28 Y129.019 E8.95301
G1 X183.208 Y131.531 E9.05753
G1 X182.191 Y134.11 E9.16363
G1 X181.254 Y136.699 E9.269
G1 X180.401 Y139.284 E9.37317
G1 X179.606 Y141.943 E9.47938
G1 X178.893 Y144.601 E9.5847
G1 X178.258 Y147.257 E9.6892
G1 X177.697 Y149.954 E9.79463
G1 X177.213 Y152.654 E9.8996
G1 X176.806 Y155.364 E10.00447
G1 X176.477 Y158.078 E10.1091
G1 X176.219 Y160.842 E10.21534
G1 X176.045 Y163.57 E10.31995
G1 X175.946 Y166.307 E10.42476
G1 X175.922 Y168.921 E10.5248
G1 X175.869 Y169.444 E10.54492
G1 X175.829 Y169.648 E10.55287
G1 X175.661 Y170.418 E10.58303
G1 X175.576 Y170.761 E10.59656
G1 X175.343 Y171.382 E10.62194
G1 X175.102 Y171.801 E10.64044
G1 X173.647 Y173.932 E10.73919
G1 X172.154 Y176.256 E10.8449
G1 X170.712 Y178.647 E10.95175
G1 X169.39 Y180.985 E11.05454
G1 X168.094 Y183.439 E11.16074
G1 X166.887 Y185.885 E11.26513
G1 X165.739 Y188.393 E11.37069
G1 X164.803 Y190.589 E11.46204
G1 X164.579 Y191.013 E11.48039
G1 X164.288 Y191.393 E11.49871
G1 X163.937 Y191.72 E11.51707
G1 X163.538 Y191.984 E11.53538
G1 X163.099 Y192.178 E11.55374
G1 X162.635 Y192.297 E11.57208
G1 X162.158 Y192.337 E11.5904
G1 X161.68 Y192.297 E11.60875
G1 X161.216 Y192.178 E11.62708
G1 X160.778 Y191.984 E11.64542
G1 X160.274 Y191.633 E11.66892
G1 X160.126 Y191.505 E11.67641
G1 X158.281 Y189.863 E11.77093
G1 X156.163 Y188.083 E11.87681
G1 X154.019 Y186.381 E11.98157
G1 X151.824 Y184.739 E12.08647
G1 X149.574 Y183.154 E12.1918
G1 X147.293 Y181.639 E12.29659
G1 X144.974 Y180.193 E12.40118
G1 X142.052 Y178.495 E12.53051
G1 X141.537 Y178.207 E12.55309
G1 X141.015 Y177.834 E12.57764
G1 X140.635 Y177.48 E12.59752
G1 X139.394 Y176.237 E12.66474
G1 X138.759 Y175.611 E12.69886
G1 X137.138 Y173.994 E12.78648
G1 X136.57 Y173.423 E12.81731
G1 X135.122 Y171.979 E12.89557
G1 X134.596 Y171.44 E12.92439
G1 X134.036 Y170.809 E12.95667
G1 X133.458 Y169.996 E12.99485
G1 X131.848 Y167.794 E13.09924
G1 X130.156 Y165.616 E13.20479
G1 X128.394 Y163.474 E13.31093
G1 X126.598 Y161.414 E13.41552
G1 X124.737 Y159.394 E13.52063
G1 X122.856 Y157.469 E13.62363
G1 X120.835 Y155.511 E13.73132
G1 X118.813 Y153.66 E13.83623
G1 X116.739 Y151.867 E13.94115
G1 X114.623 Y150.14 E14.04567
G1 X112.44 Y148.46 E14.15109
G1 X110.208 Y146.841 E14.25661
G1 X107.934 Y145.287 E14.36202
G1 X106.725 Y144.498 E14.41727
G1 X106.178 Y144.051 E14.4443
G1 X104.844 Y142.761 E14.51532
G1 X103.502 Y141.42 E14.58792
G1 X103.088 Y141.004 E14.61038
G1 X101.151 Y139.071 E14.71511
G1 X100.707 Y138.644 E14.73868
G1 X100.629 Y138.551 E14.74333
G1 X99.669 Y137.594 E14.7952
G1 X98.88 Y136.762 E14.83908
G1 X98.494 Y136.343 E14.86088
G1 X96.581 Y134.384 E14.96567
G1 X94.572 Y132.442 E15.0726
G1 X92.59 Y130.629 E15.1754
G1 X90.494 Y128.82 E15.28136
G1 X88.377 Y127.093 E15.38591
G1 X86.17 Y125.397 E15.49243
G1 X83.976 Y123.806 E15.59615
G1 X81.679 Y122.237 E15.7026
G1 X79.42 Y120.786 E15.80535
G1 X77.024 Y119.342 E15.91241
G1 X74.631 Y117.99 E16.01759
G1 X72.204 Y116.708 E16.12263
G1 X69.757 Y115.502 E16.22704
G1 X67.254 Y114.356 E16.33239
G1 X65.086 Y113.434 E16.42255
G1 X64.422 Y113.072 E16.45149
G1 X64.114 Y112.819 E16.46674
G1 X63.588 Y112.323 E16.49441
G1 X62.519 Y111.285 E16.55143
G1 X61.997 Y110.763 E16.57968
G1 X61.594 Y110.257 E16.60444
G1 X61.092 Y109.456 E16.64062
G1 X60.551 Y108.566 E16.68047
G1 X59.071 Y106.277 E16.78479
G1 X57.516 Y104.016 E16.88981
G1 X55.872 Y101.766 E16.99645
G1 X54.207 Y99.615 E17.10055
G1 X52.469 Y97.498 E17.20537
G1 X50.654 Y95.41 E17.31124
G1 X48.798 Y93.392 E17.41617
G1 X46.914 Y91.458 E17.51949
G1 X44.89 Y89.494 E17.62742
G1 X42.902 Y87.671 E17.73065
G1 X40.804 Y85.855 E17.83684
G1 X38.688 Y84.123 E17.94148
G1 X36.499 Y82.434 E18.04729
G1 X34.299 Y80.834 E18.1514
G1 X32.019 Y79.272 E18.25717
G1 X29.712 Y77.786 E18.36218
G1 X27.314 Y76.335 E18.46945
G1 X26.272 Y75.724 E18.51567
G1 X25.752 Y75.334 E18.54055
G1 X25.202 Y74.814 E18.56951
G1 X24.311 Y73.951 E18.61698
G1 X23.817 Y73.459 E18.64367
G1 X23.507 Y73.094 E18.66199
G1 X23.262 Y72.682 E18.68034
G1 X23.062 Y72.138 E18.70252
G1 X22.887 Y71.458 E18.72939
G1 X22.561 Y70.1 E18.78284
G1 X21.844 Y67.442 E18.88819
G1 X21.058 Y64.821 E18.99291
G1 X20.19 Y62.207 E19.09832
G1 X19.238 Y59.584 E19.20511
G1 X18.241 Y57.067 E19.30871
G1 X17.159 Y54.543 E19.4138
G1 X16.006 Y52.053 E19.51882
G1 X15.422 Y50.837 E19.57044
G1 X15.252 Y50.389 E19.58878
G1 X15.158 Y49.919 E19.60712
G1 X15.143 Y49.44 E19.62546
G1 X15.208 Y48.965 E19.64381
G1 X15.351 Y48.508 E19.66213
G1 X15.568 Y48.081 E19.68046
G1 X15.853 Y47.696 E19.6988
G1 X16.198 Y47.363 E19.71715
G1 X16.589 Y47.095 E19.73529
G1 X17.569 Y46.536 E19.77846
G1 X17.857 Y46.378 E19.79103
G1 X20.209 Y44.996 E19.89543
G1 X22.558 Y43.524 E20.00152
G1 X24.85 Y41.997 E20.10692
G1 X27.051 Y40.438 E20.21014
G1 X29.284 Y38.761 E20.31701
G0 F1285.7 X29.502 Y39.035
G1 F900 X31.625 Y37.345 E20.42085
G1 X33.761 Y35.542 E20.52783
G1 X34.026 Y35.307 E20.54138
G1 X34.483 Y34.918 E20.56435
G1 X34.85 Y34.659 E20.58154
G1 X35.414 Y34.417 E20.60503
G1 X36.106 Y34.216 E20.6326
G1 X36.713 Y34.058 E20.65661
G1 X37.274 Y33.978 E20.67829
G1 X37.714 Y33.965 E20.69514
G1 X39.771 Y33.934 E20.77387
G1 X42.528 Y33.814 E20.87948
G1 X45.307 Y33.615 E20.9861
G1 X48.018 Y33.343 E21.09037
G1 X50.75 Y32.99 E21.19579
G1 X53.478 Y32.56 E21.30148
G1 X56.186 Y32.053 E21.40691
G1 X58.886 Y31.469 E21.51263
G1 X61.528 Y30.82 E21.61675
G1 X64.224 Y30.074 E21.7238
G1 X66.845 Y29.269 E21.82873
G1 X69.485 Y28.375 E21.93539
G1 X72.055 Y27.425 E22.04025
G1 X74.62 Y26.392 E22.14607
G1 X77.123 Y25.3 E22.25058
G1 X79.625 Y24.125 E22.35636
G1 X82.093 Y22.878 E22.46218
G1 X84.501 Y21.575 E22.56696
G1 X85.739 Y20.871 E22.62147
G1 X86.594 Y20.377 E22.65926
G1 X87.114 Y20.15 E22.68097
G1 X87.686 Y19.981 E22.70379
G1 X88.427 Y19.789 E22.73309
G1 X88.87 Y19.715 E22.75028
G1 X89.448 Y19.736 E22.77241
G1 X89.662 Y19.767 E22.78069
G1 X92.442 Y20.129 E22.88797
G1 X95.178 Y20.406 E22.99322
G1 X97.899 Y20.604 E23.09762
G1 X100.685 Y20.728 E23.20435
G1 X103.442 Y20.772 E23.30987
G1 X106.197 Y20.738 E23.41531
G1 X108.952 Y20.627 E23.52083
G1 X111.686 Y20.439 E23.6257
G1 X114.717 Y20.14 E23.74226
G1 X115.788 Y20.018 E23.78351
G1 X116.237 Y20.007 E23.8007
G1 X116.68 Y20.076 E23.81786
G1 X117.105 Y20.222 E23.83506
G1 X117.497 Y20.441 E23.85224
G1 X117.886 Y20.762 E23.87154
G1 X118.246 Y21.104 E23.89054
G1 X189.437 Y90.186 E27.68685
G1 X189.932 Y90.682 E27.71367
G1 X190.22 Y91.027 E27.73087
G1 X190.442 Y91.417 E27.74804
G1 X190.591 Y91.841 E27.76524
G1 X190.663 Y92.284 E27.78241
G1 X190.643 Y92.835 E27.80351
G1 X190.61 Y93.055 E27.81203
G1 X190.225 Y95.415 E27.90354
G1 X189.849 Y98.219 E28.01181
G1 X189.568 Y100.89 E28.11459
G1 X189.354 Y103.689 E28.22202
G1 X189.222 Y106.392 E28.32558
G1 X189.166 Y109.197 E28.43295
G1 X189.189 Y111.955 E28.5385
G1 X189.289 Y114.699 E28.64358
G1 X189.418 Y116.808 E28.72444
G1 X189.406 Y117.256 E28.7416
G1 X189.348 Y117.574 E28.75397
G1 X189.136 Y118.417 E28.78723
G1 X188.992 Y118.921 E28.80729
G1 X188.779 Y119.439 E28.82873
G1 X188.555 Y119.847 E28.84654
G1 X187.637 Y121.462 E28.91763
G1 X186.338 Y123.906 E29.02355
G1 X185.108 Y126.384 E29.12942
G1 X183.96 Y128.877 E29.23446
G1 X182.88 Y131.407 E29.33973
G1 X181.86 Y133.992 E29.44608
G1 X180.938 Y136.542 E29.54985
G1 X180.051 Y139.228 E29.6581
G1 X179.276 Y141.82 E29.76164
G1 X178.559 Y144.493 E29.86755
G1 X177.909 Y147.213 E29.97457
G1 X177.353 Y149.889 E30.07917
G1 X176.871 Y152.575 E30.1836
G1 X176.461 Y155.305 E30.28925
G1 X176.123 Y158.091 E30.39665
G1 X175.872 Y160.788 E30.50031
G1 X175.693 Y163.588 E30.60768
G1 X175.596 Y166.274 E30.71054
G1 X175.572 Y168.918 E30.81173
G1 X175.498 Y169.521 E30.83498
G1 X175.338 Y170.261 E30.86395
G1 X175.236 Y170.676 E30.88031
G1 X175.031 Y171.222 E30.90263
G1 X174.813 Y171.604 E30.91946
G1 X173.344 Y173.756 E31.01917
G1 X171.855 Y176.073 E31.12458
G1 X170.436 Y178.426 E31.22973
G1 X169.074 Y180.834 E31.3356
G1 X167.77 Y183.303 E31.44246
G1 X166.575 Y185.727 E31.54589
G1 X165.418 Y188.252 E31.65218
G1 X164.481 Y190.452 E31.74369
G1 X164.269 Y190.848 E31.76088
G1 X163.99 Y191.2 E31.77807
G1 X163.653 Y191.497 E31.79526
G1 X163.269 Y191.729 E31.81243
G1 X162.85 Y191.89 E31.82961
G1 X162.409 Y191.974 E31.84679
G1 X161.96 Y191.979 E31.86397
G1 X161.517 Y191.904 E31.88116
G1 X161.095 Y191.752 E31.89833
G1 X160.503 Y191.369 E31.92531
G1 X160.358 Y191.243 E31.93267
G1 X158.511 Y189.599 E32.02729
G1 X156.396 Y187.821 E32.13303
G1 X154.236 Y186.107 E32.23856
G1 X152.009 Y184.44 E32.34502
G1 X149.784 Y182.873 E32.44917
G1 X147.461 Y181.332 E32.55585
G1 X145.155 Y179.893 E32.65987
G1 X142.266 Y178.214 E32.78775
G1 X141.707 Y177.902 E32.81225
G1 X141.249 Y177.574 E32.8338
G1 X140.876 Y177.226 E32.85333
G1 X139.642 Y175.99 E32.92017
G1 X139.006 Y175.364 E32.95432
G1 X137.389 Y173.75 E33.04175
G1 X136.815 Y173.174 E33.07287
G1 X135.345 Y171.707 E33.15235
G1 X134.849 Y171.198 E33.17955
G1 X134.321 Y170.606 E33.2099
G1 X133.743 Y169.793 E33.24808
G1 X132.11 Y167.561 E33.35392
G1 X130.423 Y165.389 E33.45916
G1 X128.666 Y163.252 E33.56504
G1 X126.872 Y161.195 E33.66949
G1 X124.996 Y159.16 E33.77541
G1 X123.06 Y157.179 E33.88142
G1 X121.111 Y155.289 E33.98532
G1 X119.024 Y153.379 E34.09358
G1 X116.979 Y151.612 E34.19701
G1 X114.826 Y149.854 E34.30338
G1 X112.655 Y148.184 E34.4082
G1 X110.417 Y146.56 E34.51403
G1 X108.129 Y144.996 E34.62009
G1 X106.916 Y144.205 E34.67551
G1 X106.413 Y143.791 E34.70044
G1 X105.091 Y142.513 E34.77081
G1 X103.754 Y141.176 E34.84317
G1 X103.334 Y140.755 E34.86592
G1 X101.453 Y138.879 E34.96759
G1 X100.956 Y138.398 E34.99406
G1 X100.882 Y138.309 E34.99849
G1 X99.923 Y137.353 E35.05031
G1 X99.138 Y136.524 E35.094
G1 X98.755 Y136.108 E35.11564
G1 X96.828 Y134.135 E35.22119
G1 X94.842 Y132.215 E35.3269
G1 X92.807 Y130.354 E35.43243
G1 X90.734 Y128.565 E35.53722
G1 X88.58 Y126.808 E35.6436
G1 X86.402 Y125.134 E35.74873
G1 X84.153 Y123.502 E35.85507
G1 X81.896 Y121.961 E35.95966
G1 X79.572 Y120.468 E36.06537
G1 X77.192 Y119.034 E36.1717
G1 X74.84 Y117.705 E36.27509
G1 X72.338 Y116.383 E36.38338
G1 X69.915 Y115.19 E36.48674
G1 X67.395 Y114.036 E36.59281
G1 X65.223 Y113.112 E36.68314
G1 X64.602 Y112.77 E36.71027
G1 X64.354 Y112.565 E36.72259
G1 X63.832 Y112.072 E36.75006
G1 X62.737 Y111.007 E36.80852
G1 X62.245 Y110.515 E36.83515
G1 X61.891 Y110.072 E36.85685
G1 X61.391 Y109.274 E36.89289
G1 X60.848 Y108.38 E36.93292
G1 X59.376 Y106.104 E37.03665
G1 X57.773 Y103.773 E37.14491
G1 X56.165 Y101.572 E37.24923
G1 X54.491 Y99.41 E37.35387
G1 X52.738 Y97.274 E37.45962
G1 X50.898 Y95.158 E37.56693
G1 X49.08 Y93.181 E37.66971
G1 X47.116 Y91.166 E37.7774
G1 X45.168 Y89.275 E37.88129
G1 X43.119 Y87.396 E37.98769
G1 X41.027 Y85.585 E38.09358
G1 X38.913 Y83.855 E38.19812
G1 X36.709 Y82.154 E38.30466
G1 X34.493 Y80.542 E38.40953
G1 X32.221 Y78.986 E38.51492
G1 X29.888 Y77.483 E38.62112
G1 X27.525 Y76.053 E38.72682
G1 X26.449 Y75.422 E38.77456
G1 X25.992 Y75.08 E38.7964
G1 X25.445 Y74.563 E38.82521
G1 X24.558 Y73.703 E38.87249
G1 X24.064 Y73.211 E38.89917
G1 X23.775 Y72.867 E38.91636
G1 X23.552 Y72.478 E38.93352
G1 X23.401 Y72.051 E38.95086
G1 X23.228 Y71.376 E38.97752
G1 X22.909 Y70.044 E39.02994
G1 X22.185 Y67.361 E39.13629
G1 X21.378 Y64.672 E39.24373
G1 X20.532 Y62.123 E39.34651
G1 X19.582 Y59.504 E39.45313
G1 X18.562 Y56.93 E39.55909
G1 X17.478 Y54.4 E39.66442
G1 X16.306 Y51.868 E39.7712
G1 X15.738 Y50.685 E39.82142
G1 X15.58 Y50.265 E39.83859
G1 X15.5 Y49.823 E39.85578
G1 X15.498 Y49.374 E39.87297
G1 X15.577 Y48.932 E39.89015
G1 X15.732 Y48.511 E39.90732
G1 X15.96 Y48.124 E39.92451
G1 X16.252 Y47.783 E39.94169
G1 X16.763 Y47.399 E39.96615
G1 X17.738 Y46.843 E40.0091
G1 X18.018 Y46.689 E40.02133
G1 X20.402 Y45.288 E40.12715
G1 X22.744 Y43.821 E40.23291
G1 X25.02 Y42.305 E40.33757
G1 X27.277 Y40.707 E40.4434
G1 X29.502 Y39.035 E40.54991
G0 F1285.7 X29.681 Y39.339
G1 F900 X31.879 Y37.589 E40.65743
G1 X33.992 Y35.806 E40.76324
G1 X34.253 Y35.574 E40.7766
G1 X34.71 Y35.185 E40.79957
G1 X35.052 Y34.946 E40.81554
G1 X35.512 Y34.753 E40.83463
G1 X36.194 Y34.555 E40.8618
G1 X36.801 Y34.397 E40.88581
G1 X37.688 Y34.316 E40.91989
G1 X39.791 Y34.283 E41.00039
G1 X42.568 Y34.162 E41.10676
G1 X45.297 Y33.967 E41.21146
G1 X48.063 Y33.69 E41.31785
G1 X50.815 Y33.335 E41.42404
G1 X53.522 Y32.908 E41.52891
G1 X56.256 Y32.396 E41.63536
G1 X58.976 Y31.808 E41.74186
G1 X61.628 Y31.156 E41.84637
G1 X64.319 Y30.411 E41.95323
G1 X66.96 Y29.601 E42.05895
G1 X69.576 Y28.715 E42.16465
G1 X72.184 Y27.751 E42.27105
G1 X74.716 Y26.73 E42.37553
G1 X77.283 Y25.611 E42.4827
G1 X79.804 Y24.427 E42.58929
G1 X82.246 Y23.193 E42.69399
G1 X84.702 Y21.864 E42.80086
G1 X85.899 Y21.183 E42.85357
G1 X86.769 Y20.68 E42.89202
G1 X87.486 Y20.402 E42.92145
G1 X87.824 Y20.306 E42.9349
G1 X88.515 Y20.127 E42.96222
G1 X88.926 Y20.062 E42.97814
G1 X89.64 Y20.117 E43.00555
G1 X92.397 Y20.476 E43.11195
G1 X95.156 Y20.755 E43.21807
G1 X97.892 Y20.955 E43.32306
G1 X100.663 Y21.077 E43.4292
