;FLAVOR:Marlin
;TIME:11969
;Filament used: 14.5209m
;Layer height: 0.3
;MINX:35.622
;MINY:9.564
;MINZ:0.26
;MAXX:195.068
;MAXY:191.494
;MAXZ:7.76
;Generated with Cura_SteamEngine 4.9.1
M82 ;absolute extrusion mode
;Begin Start Gcode for Dagoma DiscoEasy 200
;Sliced: 07-07-2021 20:11:22
;Initial extruder: 0

G90 ;Absolute positioning
M106 S255 ;Fan on full
G28 X Y ;Home stop X Y
G1 X100 ;Centre back during cooldown in case of oozing
M109 R90 ;Cooldown in case too hot
G28 ;Centre
G29 ;Auto-level
M104 S205 ;Pre-heat
M107 ;Fan off
G0 X100 Y5 Z0.5 ;Front centre for degunk
M109 S205 ;Wait for initial temp
M83 ;E Relative
G1 E10 F200 ;Degunk
G1 E-3 F5000 ;Retract
G0 Z3 ;Withdraw
M82 ;E absolute
G92 E0 ;E reset
G1 F6000 ;Set feedrate

;Finish Start Gcode for Dagoma DiscoEasy 200

G92 E0
G92 E0
G1 F3000 E-3.5
;LAYER_COUNT:26
;LAYER:0
M107
G0 F1285.7 X85.818 Y12.014 Z0.26
;TYPE:SKIRT
G1 F3000 E0
G1 F900 X86.145 Y11.465 E0.02445
G1 X86.463 Y11.009 E0.04573
G1 X86.844 Y10.603 E0.06704
G1 X87.278 Y10.255 E0.08833
G1 X87.758 Y9.974 E0.10961
G1 X88.273 Y9.764 E0.1309
G1 X88.813 Y9.63 E0.15219
G1 X89.437 Y9.573 E0.17617
G1 X90.465 Y9.564 E0.21551
G1 X190.587 Y10.553 E4.04732
G1 X191.284 Y10.569 E4.074
G1 X191.838 Y10.622 E4.0953
G1 X192.379 Y10.753 E4.1166
G1 X192.895 Y10.961 E4.13789
G1 X193.376 Y11.24 E4.15917
G1 X193.812 Y11.585 E4.18045
G1 X194.195 Y11.99 E4.20178
G1 X194.515 Y12.445 E4.22307
G1 X194.767 Y12.941 E4.24436
G1 X194.945 Y13.468 E4.26565
G1 X195.046 Y14.015 E4.28693
G1 X195.068 Y14.571 E4.30823
G1 X195.01 Y15.124 E4.32951
G1 X194.873 Y15.664 E4.35083
G1 X194.617 Y16.26 E4.37565
G1 X194.36 Y16.728 E4.39608
G1 X94.902 Y188.996 E12.00856
G1 X94.544 Y189.599 E12.0354
G1 X94.226 Y190.056 E12.0567
G1 X93.847 Y190.463 E12.07799
G1 X93.412 Y190.811 E12.09931
G1 X92.933 Y191.093 E12.12058
G1 X92.418 Y191.304 E12.14188
G1 X91.878 Y191.438 E12.16317
G1 X91.324 Y191.494 E12.18448
G1 X90.769 Y191.471 E12.20574
G1 X90.222 Y191.367 E12.22704
G1 X89.695 Y191.187 E12.24836
G1 X89.2 Y190.933 E12.26965
G1 X88.747 Y190.611 E12.29092
G1 X88.344 Y190.227 E12.31222
G1 X87.941 Y189.698 E12.33767
G1 X87.638 Y189.209 E12.35969
G1 X36.462 Y102.552 E16.21113
G1 X36.127 Y101.966 E16.23696
G1 X35.886 Y101.465 E16.25824
G1 X35.72 Y100.934 E16.27953
G1 X35.631 Y100.384 E16.30085
G1 X35.622 Y99.828 E16.32213
G1 X35.693 Y99.276 E16.34343
G1 X35.842 Y98.74 E16.36472
G1 X36.096 Y98.175 E16.38843
G1 X36.6 Y97.26 E16.42841
G1 X85.818 Y12.014 E20.19544
G0 F1285.7 X86.119 Y12.193
G1 F900 X86.446 Y11.644 E20.21989
G1 X86.751 Y11.21 E20.24019
G1 X87.117 Y10.827 E20.26046
G1 X87.538 Y10.502 E20.28082
G1 X88.002 Y10.245 E20.30112
G1 X88.499 Y10.06 E20.32141
G1 X89.019 Y9.953 E20.34173
G1 X89.441 Y9.923 E20.35792
G1 X90.462 Y9.914 E20.39699
G1 X190.579 Y10.903 E24.22861
G1 X191.276 Y10.919 E24.25529
G1 X191.804 Y10.971 E24.2756
G1 X192.318 Y11.102 E24.2959
G1 X192.807 Y11.308 E24.3162
G1 X193.259 Y11.586 E24.33651
G1 X193.665 Y11.928 E24.35682
G1 X194.014 Y12.327 E24.37711
G1 X194.3 Y12.775 E24.39745
G1 X194.515 Y13.26 E24.41775
G1 X194.655 Y13.771 E24.43803
G1 X194.717 Y14.299 E24.45838
G1 X194.699 Y14.829 E24.47867
G1 X194.601 Y15.35 E24.49896
G1 X194.426 Y15.851 E24.51927
G1 X194.191 Y16.315 E24.53917
G1 X194.035 Y16.592 E24.55134
G1 X94.601 Y188.818 E32.16196
G1 X94.243 Y189.421 E32.1888
G1 X93.939 Y189.855 E32.20908
G1 X93.572 Y190.239 E32.22941
G1 X93.153 Y190.564 E32.2497
G1 X92.689 Y190.822 E32.27002
G1 X92.192 Y191.007 E32.29031
G1 X91.672 Y191.116 E32.31064
G1 X91.142 Y191.145 E32.33096
G1 X90.614 Y191.095 E32.35125
G1 X90.099 Y190.966 E32.37157
G1 X89.61 Y190.761 E32.39186
G1 X89.157 Y190.485 E32.41216
G1 X88.75 Y190.144 E32.43248
G1 X88.399 Y189.746 E32.45279
G1 X88.102 Y189.3 E32.4733
G1 X87.926 Y189.008 E32.48635
G1 X36.766 Y102.378 E36.33659
G1 X36.431 Y101.792 E36.36242
G1 X36.203 Y101.313 E36.38272
G1 X36.049 Y100.805 E36.40304
G1 X35.974 Y100.28 E36.42333
G1 X35.978 Y99.749 E36.44366
G1 X36.062 Y99.225 E36.46397
G1 X36.224 Y98.72 E36.48426
G1 X36.403 Y98.344 E36.5002
G1 X36.903 Y97.435 E36.5399
G1 X86.119 Y12.193 E40.30676
G0 F1285.7 X86.419 Y12.372
G1 F900 X86.746 Y11.823 E40.33121
G1 X87.037 Y11.412 E40.35049
G1 X87.39 Y11.053 E40.36975
G1 X87.795 Y10.753 E40.38904
G1 X88.242 Y10.522 E40.4083
G1 X88.72 Y10.364 E40.42756
G1 X89.444 Y10.273 E40.45549
G1 X90.458 Y10.264 E40.4943
G1 X190.571 Y11.253 E44.32576
G1 X191.268 Y11.269 E44.35244
G1 X191.769 Y11.32 E44.37171
G1 X192.255 Y11.45 E44.39097
G1 X192.715 Y11.656 E44.41025
G1 X193.137 Y11.931 E44.42953
G1 X193.51 Y12.27 E44.44882
G1 X193.824 Y12.663 E44.46807
G1 X194.072 Y13.101 E44.48733
G1 X194.248 Y13.573 E44.50661
G1 X194.348 Y14.067 E44.5259
G1 X194.367 Y14.57 E44.54516
G1 X194.308 Y15.07 E44.56443
G1 X194.169 Y15.554 E44.5837
G1 X193.922 Y16.077 E44.60584
G1 X193.732 Y16.417 E44.62074
G1 X94.3 Y188.639 E52.2312
G1 X93.942 Y189.242 E52.25803
G1 X93.651 Y189.653 E52.2773
G1 X93.299 Y190.013 E52.29657
G1 X92.895 Y190.313 E52.31583
G1 X92.448 Y190.545 E52.3351
G1 X91.97 Y190.704 E52.35438
G1 X91.473 Y190.785 E52.37365
G1 X90.97 Y190.787 E52.3929
G1 X90.472 Y190.709 E52.41219
G1 X89.993 Y190.553 E52.43147
G1 X89.545 Y190.323 E52.45074
G1 X89.139 Y190.026 E52.47
G1 X88.785 Y189.668 E52.48926
G1 X88.398 Y189.112 E52.51519
G1 X88.227 Y188.83 E52.52781
G1 X37.07 Y102.205 E56.37783
G1 X36.735 Y101.619 E56.40366
G1 X36.52 Y101.163 E56.42296
G1 X36.38 Y100.679 E56.44224
G1 X36.319 Y100.179 E56.46151
G1 X36.337 Y99.676 E56.48078
G1 X36.435 Y99.182 E56.50005
G1 X36.709 Y98.512 E56.52775
G1 X37.206 Y97.61 E56.56716
G1 X86.419 Y12.372 E60.33383
G1 F3000 E56.83383
;MESH:support_half_hex_22.stl
G0 F1285.7 X88.762 Y13.385
G0 X89.784 Y13.975
G0 X190.01 Y15.047
G0 X190.01 Y14.95
;TYPE:WALL-INNER
G1 F3000 E60.33383
G1 F900 X190.307 Y14.951 E60.3452
G1 X190.158 Y15.209 E60.35167
G1 X91.355 Y186.341 E67.91396
G1 X91.206 Y186.599 E67.92536
G1 X91.055 Y186.343 E67.93182
G1 X91.054 Y186.342 E67.93187
G1 X40.081 Y100.03 E71.768
G1 X89.775 Y13.958 E75.57151
G1 X190.009 Y14.949 E79.4076
G1 X190.01 Y14.95 E79.40766
G0 F1285.7 X190.57 Y14.63
;TYPE:WALL-OUTER
G1 F900 X190.867 Y14.631 E79.41902
G1 X190.718 Y14.889 E79.42549
G1 X91.358 Y186.985 E87.03039
G1 X91.209 Y187.243 E87.0418
G1 X91.058 Y186.987 E87.04825
G1 X91.057 Y186.986 E87.0483
G1 X39.705 Y100.032 E90.91296
G1 X89.589 Y13.631 E94.73101
G1 X190.569 Y14.629 E98.59566
G1 X190.57 Y14.63 E98.59571
G0 F1285.7 X190.77 Y14.63
G0 X190.221 Y15
G0 X189.721 Y15.285
;TYPE:SKIN
G1 F900 X91.202 Y185.925 E106.13627
G1 X40.475 Y100.028 E109.95393
G1 X89.971 Y14.3 E113.74225
G1 X189.721 Y15.285 E117.55982
G0 F1285.7 X189.349 Y15.612
G1 F900 X189.172 Y15.436 E117.56938
G0 F1285.7 X189.168 Y15.926
G1 F900 X188.673 Y15.431 E117.59617
G0 F1285.7 X188.173 Y15.426
G1 F900 X188.987 Y16.24 E117.64022
G0 F1285.7 X188.805 Y16.554
G1 F900 X187.673 Y15.421 E117.70151
G0 F1285.7 X187.173 Y15.417
G1 F900 X188.624 Y16.868 E117.78004
G0 F1285.7 X188.443 Y17.181
G1 F900 X186.673 Y15.412 E117.87581
G0 F1285.7 X186.173 Y15.407
G1 F900 X188.262 Y17.495 E117.98884
G0 F1285.7 X188.081 Y17.809
G1 F900 X185.673 Y15.402 E118.11914
G0 F1285.7 X185.173 Y15.397
G1 F900 X187.9 Y18.123 E118.2667
G0 F1285.7 X187.719 Y18.437
G1 F900 X184.673 Y15.392 E118.43153
G0 F1285.7 X184.173 Y15.387
G1 F900 X187.537 Y18.751 E118.61359
G0 F1285.7 X187.356 Y19.065
G1 F900 X183.673 Y15.382 E118.81292
G0 F1285.7 X183.173 Y15.377
G1 F900 X187.175 Y19.378 E119.02949
G0 F1285.7 X186.994 Y19.692
G1 F900 X182.673 Y15.372 E119.26332
G0 F1285.7 X182.174 Y15.367
G1 F900 X186.812 Y20.006 E119.51436
G0 F1285.7 X186.631 Y20.32
G1 F900 X181.674 Y15.362 E119.78267
G0 F1285.7 X181.174 Y15.357
G1 F900 X186.45 Y20.634 E120.06824
G0 F1285.7 X186.269 Y20.948
G1 F900 X180.674 Y15.352 E120.37107
G0 F1285.7 X180.174 Y15.347
G1 F900 X186.088 Y21.261 E120.69115
G0 F1285.7 X185.906 Y21.575
G1 F900 X179.674 Y15.342 E121.02846
G0 F1285.7 X179.174 Y15.337
G1 F900 X185.725 Y21.889 E121.38303
G0 F1285.7 X185.544 Y22.203
G1 F900 X178.674 Y15.332 E121.75487
G0 F1285.7 X178.174 Y15.327
G1 F900 X185.363 Y22.517 E122.14398
G0 F1285.7 X185.182 Y22.831
G1 F900 X177.674 Y15.323 E122.55032
G0 F1285.7 X177.174 Y15.318
G1 F900 X185.001 Y23.144 E122.9739
G0 F1285.7 X184.82 Y23.458
G1 F900 X176.674 Y15.313 E123.41474
G0 F1285.7 X176.174 Y15.308
G1 F900 X184.639 Y23.772 E123.87285
G0 F1285.7 X184.457 Y24.086
G1 F900 X175.675 Y15.303 E124.34817
G0 F1285.7 X175.175 Y15.298
G1 F900 X184.276 Y24.399 E124.84073
G0 F1285.7 X184.095 Y24.713
G1 F900 X174.675 Y15.293 E125.35055
G0 F1285.7 X174.175 Y15.288
G1 F900 X183.914 Y25.027 E125.87764
G0 F1285.7 X183.733 Y25.341
G1 F900 X173.675 Y15.283 E126.42199
G0 F1285.7 X173.175 Y15.278
G1 F900 X183.552 Y25.655 E126.98361
G0 F1285.7 X183.37 Y25.968
G1 F900 X172.675 Y15.273 E127.56244
G0 F1285.7 X172.175 Y15.268
G1 F900 X183.189 Y26.282 E128.15853
G0 F1285.7 X183.008 Y26.596
G1 F900 X171.675 Y15.263 E128.77189
G0 F1285.7 X171.175 Y15.258
G1 F900 X182.827 Y26.91 E129.40251
G0 F1285.7 X182.646 Y27.224
G1 F900 X170.675 Y15.253 E130.05039
G0 F1285.7 X170.175 Y15.248
G1 F900 X182.464 Y27.537 E130.71549
G0 F1285.7 X182.283 Y27.851
G1 F900 X169.675 Y15.243 E131.39785
G0 F1285.7 X169.176 Y15.238
G1 F900 X182.102 Y28.165 E132.09745
G0 F1285.7 X181.921 Y28.479
G1 F900 X168.676 Y15.233 E132.81431
G0 F1285.7 X168.176 Y15.228
G1 F900 X181.739 Y28.792 E133.54839
G0 F1285.7 X181.558 Y29.106
G1 F900 X167.676 Y15.224 E134.2997
G0 F1285.7 X167.176 Y15.219
G1 F900 X181.377 Y29.42 E135.06827
G0 F1285.7 X181.196 Y29.734
G1 F900 X166.676 Y15.214 E135.85411
G0 F1285.7 X166.176 Y15.209
G1 F900 X181.015 Y30.048 E136.65722
G0 F1285.7 X180.834 Y30.361
G1 F900 X165.677 Y15.204 E137.47754
G0 F1285.7 X165.177 Y15.199
G1 F900 X180.653 Y30.675 E138.31512
G0 F1285.7 X180.472 Y30.989
G1 F900 X164.677 Y15.195 E139.16993
G0 F1285.7 X164.177 Y15.19
G1 F900 X180.291 Y31.303 E140.04202
G0 F1285.7 X180.109 Y31.616
G1 F900 X163.677 Y15.185 E140.93131
G0 F1285.7 X163.177 Y15.18
G1 F900 X179.928 Y31.93 E141.83787
G0 F1285.7 X179.747 Y32.244
G1 F900 X162.677 Y15.175 E142.76169
G0 F1285.7 X162.177 Y15.17
G1 F900 X179.566 Y32.558 E143.70278
G0 F1285.7 X179.385 Y32.872
G1 F900 X161.677 Y15.165 E144.66113
G0 F1285.7 X161.177 Y15.16
G1 F900 X179.203 Y33.185 E145.6367
G0 F1285.7 X179.022 Y33.499
G1 F900 X160.677 Y15.155 E146.62952
G0 F1285.7 X160.178 Y15.15
G1 F900 X178.841 Y33.813 E147.63959
G0 F1285.7 X178.66 Y34.127
G1 F900 X159.678 Y15.145 E148.66692
G0 F1285.7 X159.178 Y15.14
G1 F900 X178.479 Y34.441 E149.71151
G0 F1285.7 X178.297 Y34.755
G1 F900 X158.678 Y15.135 E150.77335
G0 F1285.7 X158.178 Y15.13
G1 F900 X178.116 Y35.068 E151.85242
G0 F1285.7 X177.935 Y35.382
G1 F900 X157.678 Y15.125 E152.94875
G0 F1285.7 X157.178 Y15.12
G1 F900 X177.754 Y35.696 E154.06235
G0 F1285.7 X177.572 Y36.01
G1 F900 X156.678 Y15.115 E155.19319
G0 F1285.7 X156.178 Y15.11
G1 F900 X177.391 Y36.324 E156.34129
G0 F1285.7 X177.21 Y36.638
G1 F900 X155.678 Y15.105 E157.50666
G0 F1285.7 X155.178 Y15.1
G1 F900 X177.029 Y36.951 E158.68926
G0 F1285.7 X176.848 Y37.265
G1 F900 X154.678 Y15.096 E159.8891
G0 F1285.7 X154.178 Y15.091
G1 F900 X176.667 Y37.579 E161.10621
G0 F1285.7 X176.486 Y37.893
G1 F900 X153.679 Y15.086 E162.34055
G0 F1285.7 X153.179 Y15.081
G1 F900 X176.305 Y38.207 E163.59216
G0 F1285.7 X176.124 Y38.521
G1 F900 X152.679 Y15.076 E164.86103
G0 F1285.7 X152.179 Y15.071
G1 F900 X175.943 Y38.835 E166.14717
G0 F1285.7 X175.761 Y39.148
G1 F900 X151.679 Y15.066 E167.45052
G0 F1285.7 X151.179 Y15.061
G1 F900 X175.58 Y39.462 E168.77113
G0 F1285.7 X175.399 Y39.776
G1 F900 X150.679 Y15.056 E170.10901
G0 F1285.7 X150.179 Y15.051
G1 F900 X175.218 Y40.09 E171.46415
G0 F1285.7 X175.036 Y40.403
G1 F900 X149.679 Y15.046 E172.83651
G0 F1285.7 X149.179 Y15.041
G1 F900 X174.855 Y40.717 E174.22612
G0 F1285.7 X174.674 Y41.031
G1 F900 X148.679 Y15.036 E175.63301
G0 F1285.7 X148.179 Y15.031
G1 F900 X174.493 Y41.345 E177.05715
G0 F1285.7 X174.312 Y41.659
G1 F900 X147.679 Y15.026 E178.49857
G0 F1285.7 X147.18 Y15.021
G1 F900 X174.13 Y41.972 E179.95716
G0 F1285.7 X173.949 Y42.286
G1 F900 X146.68 Y15.016 E181.43302
G0 F1285.7 X146.18 Y15.011
G1 F900 X173.768 Y42.6 E182.92615
G0 F1285.7 X173.587 Y42.914
G1 F900 X145.68 Y15.006 E184.43654
G0 F1285.7 X145.18 Y15.001
G1 F900 X173.406 Y43.228 E185.96419
G0 F1285.7 X173.224 Y43.541
G1 F900 X144.68 Y14.997 E187.50903
G0 F1285.7 X144.18 Y14.992
G1 F900 X173.043 Y43.855 E189.07113
G0 F1285.7 X172.862 Y44.169
G1 F900 X143.68 Y14.987 E190.6505
G0 F1285.7 X143.18 Y14.982
G1 F900 X172.681 Y44.483 E192.24713
G0 F1285.7 X172.5 Y44.796
G1 F900 X142.68 Y14.977 E193.861
G0 F1285.7 X142.18 Y14.972
G1 F900 X172.319 Y45.11 E195.49213
G0 F1285.7 X172.138 Y45.424
G1 F900 X141.68 Y14.967 E197.14053
G0 F1285.7 X141.18 Y14.962
G1 F900 X171.957 Y45.738 E198.80619
G0 F1285.7 X171.776 Y46.052
G1 F900 X140.681 Y14.957 E200.4891
G0 F1285.7 X140.181 Y14.952
G1 F900 X171.594 Y46.365 E202.18921
G0 F1285.7 X171.413 Y46.679
G1 F900 X139.681 Y14.947 E203.90658
G0 F1285.7 X139.181 Y14.942
G1 F900 X171.232 Y46.993 E205.64122
G0 F1285.7 X171.051 Y47.307
G1 F900 X138.681 Y14.937 E207.39313
G0 F1285.7 X138.182 Y14.933
G1 F900 X170.869 Y47.62 E209.16219
G0 F1285.7 X170.688 Y47.934
G1 F900 X137.682 Y14.928 E210.94852
G0 F1285.7 X137.182 Y14.923
G1 F900 X170.507 Y48.248 E212.75211
G0 F1285.7 X170.326 Y48.562
G1 F900 X136.682 Y14.918 E214.57297
G0 F1285.7 X136.182 Y14.913
G1 F900 X170.145 Y48.876 E216.41109
G0 F1285.7 X169.963 Y49.189
G1 F900 X135.682 Y14.908 E218.26642
G0 F1285.7 X135.182 Y14.903
G1 F900 X169.782 Y49.503 E220.13901
G0 F1285.7 X169.601 Y49.817
G1 F900 X134.682 Y14.898 E222.02888
G0 F1285.7 X134.182 Y14.893
G1 F900 X169.42 Y50.131 E223.936
G0 F1285.7 X169.239 Y50.445
G1 F900 X133.682 Y14.888 E225.86039
G0 F1285.7 X133.182 Y14.883
G1 F900 X169.057 Y50.758 E227.80199
G0 F1285.7 X168.876 Y51.072
G1 F900 X132.682 Y14.878 E229.76086
G0 F1285.7 X132.183 Y14.873
G1 F900 X168.695 Y51.386 E231.73696
G0 F1285.7 X168.514 Y51.7
G1 F900 X131.683 Y14.869 E233.7303
G0 F1285.7 X131.183 Y14.864
G1 F900 X168.333 Y52.014 E235.74091
G0 F1285.7 X168.152 Y52.328
G1 F900 X130.683 Y14.859 E237.76878
G0 F1285.7 X130.183 Y14.854
G1 F900 X167.971 Y52.641 E239.81388
G0 F1285.7 X167.79 Y52.955
G1 F900 X129.683 Y14.849 E241.87626
G0 F1285.7 X129.183 Y14.844
G1 F900 X167.609 Y53.269 E243.95589
G0 F1285.7 X167.427 Y53.583
G1 F900 X128.683 Y14.839 E246.05277
G0 F1285.7 X128.183 Y14.834
G1 F900 X167.246 Y53.897 E248.16691
G0 F1285.7 X167.065 Y54.211
G1 F900 X127.683 Y14.829 E250.29831
G0 F1285.7 X127.183 Y14.824
G1 F900 X166.884 Y54.525 E252.44698
G0 F1285.7 X166.703 Y54.838
G1 F900 X126.683 Y14.819 E254.61289
G0 F1285.7 X126.183 Y14.814
G1 F900 X166.521 Y55.152 E256.79603
G0 F1285.7 X166.34 Y55.466
G1 F900 X125.683 Y14.809 E258.99644
G0 F1285.7 X125.184 Y14.804
G1 F900 X166.159 Y55.78 E261.21408
G0 F1285.7 X165.978 Y56.094
G1 F900 X124.684 Y14.799 E263.449
G0 F1285.7 X124.184 Y14.794
G1 F900 X165.796 Y56.407 E265.70112
G0 F1285.7 X165.615 Y56.721
G1 F900 X123.684 Y14.789 E267.9705
G0 F1285.7 X123.184 Y14.784
G1 F900 X165.434 Y57.035 E270.25715
G0 F1285.7 X165.253 Y57.349
G1 F900 X122.684 Y14.779 E272.56107
G0 F1285.7 X122.184 Y14.774
G1 F900 X165.072 Y57.663 E274.88225
G0 F1285.7 X164.89 Y57.976
G1 F900 X121.684 Y14.77 E277.22061
G0 F1285.7 X121.184 Y14.765
G1 F900 X164.709 Y58.29 E279.57624
G0 F1285.7 X164.528 Y58.604
G1 F900 X120.684 Y14.76 E281.94914
G0 F1285.7 X120.184 Y14.755
G1 F900 X164.347 Y58.918 E284.33929
G0 F1285.7 X164.166 Y59.232
G1 F900 X119.684 Y14.75 E286.74672
G0 F1285.7 X119.184 Y14.745
G1 F900 X163.985 Y59.545 E289.17138
G0 F1285.7 X163.804 Y59.859
G1 F900 X118.685 Y14.74 E291.61327
G0 F1285.7 X118.185 Y14.735
G1 F900 X163.623 Y60.173 E294.07244
G0 F1285.7 X163.442 Y60.487
G1 F900 X117.685 Y14.73 E296.54886
G0 F1285.7 X117.185 Y14.725
G1 F900 X163.26 Y60.8 E299.0425
G0 F1285.7 X163.079 Y61.114
G1 F900 X116.685 Y14.72 E301.5534
G0 F1285.7 X116.185 Y14.715
G1 F900 X162.898 Y61.428 E304.08157
G0 F1285.7 X162.717 Y61.742
G1 F900 X115.685 Y14.71 E306.627
G0 F1285.7 X115.185 Y14.705
