;FLAVOR:Marlin
;TIME:12809
;Filament used: 22.5039m
;Layer height: 0.3
;MINX:17.831
;MINY:16.295
;MINZ:0.26
;MAXX:190.069
;MAXY:194.149
;MAXZ:24.56
;Generated with Cura_SteamEngine 4.9.1
M82 ;absolute extrusion mode
;Begin Start Gcode for Dagoma DiscoEasy 200
;Sliced: 01-08-2021 01:25:22
;Initial extruder: 0

G90 ;Absolute positioning
M106 S255 ;Fan on full
G28 X Y ;Home stop X Y
G1 X100 ;Centre back during cooldown in case of oozing
M109 R90 ;Cooldown in case too hot
G28 ;Centre
G29 ;Auto-level
M104 S205 ;Pre-heat
M107 ;Fan off
G0 X100 Y5 Z0.5 ;Front centre for degunk
M109 S205 ;Wait for initial temp
M83 ;E Relative
G1 E10 F200 ;Degunk
G1 E-3 F5000 ;Retract
G0 Z3 ;Withdraw
M82 ;E absolute
G92 E0 ;E reset
G1 F6000 ;Set feedrate

;Finish Start Gcode for Dagoma DiscoEasy 200

G92 E0
G92 E0
G1 F3000 E-3.5
;LAYER_COUNT:82
;LAYER:0
M107
G0 F1285.7 X21.514 Y40.826 Z0.26
;TYPE:SKIRT
G1 F3000 E0
G1 F900 X23.931 Y39.469 E0.10608
G1 X26.248 Y38.078 E0.2095
G1 X28.587 Y36.585 E0.31569
G1 X30.849 Y35.048 E0.42035
G1 X33.08 Y33.438 E0.52564
G1 X35.265 Y31.765 E0.63096
G1 X37.502 Y29.933 E0.74161
G1 X37.961 Y29.563 E0.76417
G1 X38.358 Y29.294 E0.78253
G1 X39.065 Y29.013 E0.81164
G1 X40.006 Y28.778 E0.84876
G1 X40.418 Y28.689 E0.86489
G1 X41.065 Y28.624 E0.88977
G1 X42.254 Y28.641 E0.93528
G1 X42.973 Y28.661 E0.96281
G1 X45.708 Y28.659 E1.06748
G1 X48.476 Y28.579 E1.17345
G1 X51.179 Y28.424 E1.27706
G1 X53.973 Y28.185 E1.38438
G1 X56.651 Y27.879 E1.48753
G1 X59.402 Y27.485 E1.59388
G1 X62.078 Y27.024 E1.6978
G1 X64.784 Y26.481 E1.80342
G1 X67.452 Y25.864 E1.90822
G1 X70.139 Y25.163 E2.01449
G1 X72.754 Y24.402 E2.11872
G1 X75.364 Y23.56 E2.22367
G1 X77.97 Y22.638 E2.32946
G1 X80.509 Y21.658 E2.43361
G1 X83.06 Y20.59 E2.53945
G1 X85.574 Y19.452 E2.64506
G1 X88.041 Y18.251 E2.75006
G1 X89.477 Y17.512 E2.81187
G1 X90.278 Y17.092 E2.84648
G1 X90.872 Y16.86 E2.87088
G1 X91.444 Y16.718 E2.89344
G1 X92.407 Y16.501 E2.93122
G1 X93.1 Y16.355 E2.95832
G1 X93.576 Y16.295 E2.97668
G1 X94.055 Y16.316 E2.99503
G1 X94.382 Y16.377 E3.00776
G1 X95.091 Y16.552 E3.0357
G1 X97.825 Y17.193 E3.14317
G1 X100.476 Y17.737 E3.24674
G1 X103.193 Y18.212 E3.35229
G1 X105.949 Y18.616 E3.45889
G1 X108.624 Y18.93 E3.56196
G1 X111.388 Y19.177 E3.66816
G1 X114.12 Y19.342 E3.77291
G1 X116.89 Y19.431 E3.87897
G1 X117.697 Y19.434 E3.90985
G1 X118.696 Y19.452 E3.94809
G1 X119.172 Y19.501 E3.9664
G1 X119.635 Y19.628 E3.98477
G1 X120.069 Y19.83 E4.00309
G1 X120.653 Y20.271 E4.0311
G1 X121.098 Y20.727 E4.05548
G1 X188.896 Y93.306 E7.85638
G1 X189.33 Y93.784 E7.88108
G1 X189.621 Y94.165 E7.89943
G1 X189.845 Y94.588 E7.91775
G1 X189.996 Y95.043 E7.9361
G1 X190.069 Y95.517 E7.95445
G1 X190.048 Y96.118 E7.97746
G1 X189.894 Y97.208 E8.01959
G1 X189.837 Y97.57 E8.03362
G1 X189.486 Y100.314 E8.13948
G1 X189.216 Y103.033 E8.24405
G1 X189.022 Y105.796 E8.35005
G1 X188.907 Y108.481 E8.4529
G1 X188.869 Y111.267 E8.55953
G1 X188.909 Y114.041 E8.6657
G1 X189.024 Y116.757 E8.76973
G1 X189.076 Y117.463 E8.79682
G1 X189.155 Y118.782 E8.84739
G1 X189.144 Y119.261 E8.86572
G1 X189.046 Y119.755 E8.885
G1 X188.808 Y120.571 E8.91753
G1 X188.643 Y121.076 E8.93786
G1 X188.379 Y121.657 E8.96228
G1 X188.071 Y122.171 E8.98521
G1 X187.153 Y123.652 E9.0519
G1 X185.763 Y126.048 E9.1579
G1 X184.466 Y128.435 E9.26187
G1 X183.212 Y130.909 E9.36801
G1 X182.04 Y133.39 E9.47302
G1 X180.924 Y135.94 E9.57954
G1 X179.912 Y138.436 E9.68262
G1 X178.949 Y141.032 E9.78858
G1 X178.067 Y143.625 E9.8934
G1 X177.254 Y146.255 E9.99874
G1 X176.515 Y148.913 E10.10432
G1 X175.867 Y151.525 E10.20731
G1 X175.264 Y154.278 E10.31517
G1 X174.762 Y156.957 E10.41947
G1 X174.332 Y159.65 E10.52384
G1 X173.974 Y162.392 E10.62967
G1 X173.696 Y165.118 E10.73453
G1 X173.495 Y167.843 E10.8391
G1 X173.437 Y169.064 E10.88588
G1 X173.428 Y169.134 E10.88858
G1 X173.367 Y170.416 E10.93769
G1 X173.259 Y171.072 E10.96314
G1 X173.019 Y171.91 E10.9965
G1 X172.864 Y172.393 E11.01591
G1 X172.733 Y172.727 E11.02964
G1 X172.389 Y173.304 E11.05535
G1 X171.935 Y173.895 E11.08387
G1 X171.175 Y174.859 E11.13085
G1 X169.501 Y177.111 E11.23823
G1 X167.937 Y179.344 E11.34256
G1 X166.421 Y181.644 E11.44798
G1 X164.967 Y183.99 E11.55361
G1 X163.6 Y186.345 E11.65782
G1 X162.293 Y188.747 E11.76247
G1 X160.964 Y191.372 E11.87507
G1 X160.395 Y192.539 E11.92475
G1 X160.15 Y192.95 E11.94306
G1 X159.839 Y193.316 E11.96144
G1 X159.473 Y193.624 E11.97975
G1 X159.06 Y193.868 E11.99811
G1 X158.612 Y194.039 E12.01646
G1 X158.143 Y194.134 E12.03477
G1 X157.664 Y194.149 E12.05311
G1 X157.189 Y194.085 E12.07145
G1 X156.731 Y193.943 E12.0898
G1 X156.304 Y193.726 E12.10813
G1 X155.738 Y193.27 E12.13595
G1 X155.213 Y192.723 E12.16497
G1 X152.012 Y189.296 E12.34443
G1 X150.086 Y187.291 E12.45082
G1 X148.114 Y185.352 E12.55666
G1 X146.108 Y183.488 E12.66146
G1 X144.061 Y181.692 E12.76567
G1 X141.898 Y179.898 E12.87322
G1 X140.241 Y178.602 E12.95372
G1 X140.184 Y178.549 E12.9567
G1 X139.123 Y177.731 E13.00797
G1 X138.507 Y177.13 E13.04091
G1 X132.429 Y170.587 E13.38267
G1 X132.02 Y170.118 E13.40648
G1 X131.7 Y169.679 E13.42727
G1 X130.135 Y167.356 E13.53447
G1 X128.542 Y165.13 E13.63922
G1 X126.884 Y162.945 E13.74419
G1 X125.165 Y160.808 E13.84915
G1 X123.383 Y158.718 E13.95426
G1 X121.314 Y156.433 E14.07222
G1 X119.306 Y154.283 E14.18481
G1 X117.381 Y152.279 E14.29115
G1 X115.399 Y150.33 E14.39753
G1 X113.419 Y148.491 E14.50094
G1 X111.337 Y146.663 E14.60697
G1 X109.208 Y144.897 E14.71283
G1 X106.624 Y142.887 E14.83811
G1 X106.127 Y142.485 E14.86258
G1 X105.978 Y142.337 E14.87061
G1 X105.558 Y141.894 E14.89398
G1 X104.783 Y141.061 E14.93752
G1 X104.704 Y140.972 E14.94207
G1 X103.923 Y140.12 E14.9863
G1 X101.86 Y137.892 E15.10251
G1 X101.216 Y137.19 E15.13896
G1 X99.53 Y135.383 E15.23354
G1 X99.021 Y134.82 E15.26259
G1 X98.192 Y133.853 E15.31133
G1 X96.382 Y131.802 E15.41602
G1 X94.494 Y129.779 E15.52192
G1 X92.567 Y127.827 E15.62689
G1 X90.588 Y125.934 E15.73169
G1 X88.534 Y124.077 E15.83766
G1 X86.469 Y122.314 E15.94157
G1 X84.305 Y120.569 E16.04796
G1 X82.127 Y118.914 E16.15264
G1 X79.909 Y117.323 E16.2571
G1 X77.635 Y115.789 E16.36208
G1 X75.292 Y114.303 E16.46825
G1 X72.957 Y112.912 E16.57227
G1 X70.524 Y111.557 E16.67884
G1 X68.121 Y110.304 E16.78256
G1 X66.673 Y109.606 E16.84407
G1 X65.577 Y109.064 E16.89086
G1 X65.166 Y108.817 E16.90922
G1 X64.786 Y108.487 E16.92848
G1 X64.133 Y107.812 E16.96442
G1 X63.731 Y107.382 E16.98694
G1 X63.258 Y106.861 E17.01387
G1 X62.843 Y106.266 E17.04164
G1 X62.762 Y106.112 E17.04829
G1 X61.462 Y103.715 E17.15265
G1 X60.071 Y101.313 E17.25887
G1 X58.619 Y98.963 E17.36459
G1 X57.143 Y96.717 E17.46744
G1 X55.542 Y94.427 E17.57437
G1 X53.904 Y92.216 E17.67968
G1 X52.227 Y90.082 E17.78354
G1 X50.441 Y87.939 E17.8903
G1 X48.647 Y85.908 E17.99401
G1 X46.756 Y83.881 E18.1001
G1 X44.812 Y81.917 E18.20585
G1 X42.85 Y80.038 E18.30981
G1 X40.815 Y78.2 E18.41476
G1 X38.73 Y76.421 E18.51965
G1 X36.576 Y74.685 E18.62552
G1 X34.376 Y73.013 E18.73127
G1 X32.186 Y71.444 E18.83437
G1 X29.024 Y69.335 E18.97982
G1 X28.68 Y69.114 E18.99547
G1 X28.175 Y68.701 E19.02043
G1 X27.583 Y68.092 E19.05294
G1 X27.214 Y67.688 E19.07388
G1 X26.922 Y67.308 E19.09222
G1 X26.696 Y66.885 E19.11057
G1 X26.573 Y66.547 E19.12433
G1 X26.244 Y65.432 E19.16882
G1 X26.108 Y64.948 E19.18806
G1 X25.266 Y62.247 E19.29634
G1 X24.394 Y59.708 E19.39907
G1 X23.414 Y57.096 E19.50584
G1 X22.388 Y54.579 E19.60986
G1 X21.281 Y52.072 E19.71474
G1 X20.095 Y49.577 E19.82046
G1 X18.839 Y47.117 E19.92616
G1 X18.51 Y46.51 E19.95258
G1 X18.159 Y45.84 E19.98153
G1 X17.973 Y45.399 E19.99985
G1 X17.863 Y44.932 E20.01821
G1 X17.831 Y44.454 E20.03654
G1 X17.88 Y43.978 E20.05485
G1 X18.007 Y43.515 E20.07323
G1 X18.209 Y43.081 E20.09155
G1 X18.48 Y42.686 E20.10988
G1 X18.814 Y42.342 E20.12823
G1 X19.33 Y41.982 E20.15231
G1 X19.678 Y41.792 E20.16748
G1 X21.514 Y40.826 E20.24687
G0 F1285.7 X21.679 Y41.136
G1 F900 X24.098 Y39.777 E20.35306
G1 X26.448 Y38.367 E20.45794
G1 X28.762 Y36.889 E20.56301
G1 X31.064 Y35.325 E20.66952
G1 X33.288 Y33.72 E20.77448
G1 X35.485 Y32.038 E20.88037
G1 X37.721 Y30.205 E20.99102
G1 X38.18 Y29.835 E21.01358
G1 X38.554 Y29.586 E21.03077
G1 X39.15 Y29.352 E21.05528
G1 X40.08 Y29.12 E21.09196
G1 X40.492 Y29.031 E21.10809
G1 X41.06 Y28.974 E21.12994
G1 X42.244 Y28.991 E21.17525
G1 X42.963 Y29.011 E21.20278
G1 X45.719 Y29.009 E21.30825
G1 X48.471 Y28.929 E21.41361
G1 X51.229 Y28.771 E21.51933
G1 X53.969 Y28.537 E21.62457
G1 X56.744 Y28.22 E21.73146
G1 X59.437 Y27.834 E21.83557
G1 X62.137 Y27.369 E21.94042
G1 X64.864 Y26.822 E22.04686
G1 X67.543 Y26.203 E22.15209
G1 X70.224 Y25.503 E22.25813
G1 X72.859 Y24.736 E22.36315
G1 X75.467 Y23.895 E22.46802
G1 X78.113 Y22.959 E22.57543
G1 X80.628 Y21.987 E22.67862
G1 X83.21 Y20.907 E22.78572
G1 X85.712 Y19.774 E22.89083
G1 X88.18 Y18.573 E22.99587
G1 X89.637 Y17.823 E23.05859
G1 X90.44 Y17.402 E23.09328
G1 X90.962 Y17.198 E23.11473
G1 X91.525 Y17.059 E23.13692
G1 X92.479 Y16.843 E23.17436
G1 X93.172 Y16.697 E23.20146
G1 X93.618 Y16.644 E23.21865
G1 X94.298 Y16.717 E23.24482
G1 X95.011 Y16.893 E23.27293
G1 X97.709 Y17.526 E23.37898
G1 X100.454 Y18.088 E23.48621
G1 X103.151 Y18.561 E23.591
G1 X105.854 Y18.957 E23.69555
G1 X108.626 Y19.282 E23.80236
G1 X111.37 Y19.527 E23.90778
G1 X114.089 Y19.691 E24.01203
G1 X116.876 Y19.781 E24.11874
G1 X117.69 Y19.784 E24.14989
G1 X118.689 Y19.802 E24.18813
G1 X119.136 Y19.85 E24.20534
G1 X119.567 Y19.977 E24.22253
G1 X119.968 Y20.177 E24.23968
G1 X120.409 Y20.521 E24.26108
G1 X120.845 Y20.969 E24.28501
G1 X188.636 Y93.542 E28.08555
G1 X189.07 Y94.02 E28.11026
G1 X189.341 Y94.378 E28.12744
G1 X189.545 Y94.778 E28.14463
G1 X189.674 Y95.208 E28.16181
G1 X189.725 Y95.654 E28.17899
G1 X189.701 Y96.069 E28.19489
G1 X189.548 Y97.154 E28.23683
G1 X189.494 Y97.495 E28.25004
G1 X189.139 Y100.27 E28.3571
G1 X188.867 Y103.009 E28.46244
G1 X188.673 Y105.758 E28.5679
G1 X188.556 Y108.513 E28.67343
G1 X188.519 Y111.267 E28.77883
G1 X188.558 Y114.025 E28.88439
G1 X188.676 Y116.796 E28.99053
G1 X188.726 Y117.484 E29.01693
G1 X188.805 Y118.803 E29.0675
G1 X188.792 Y119.252 E29.08469
G1 X188.71 Y119.657 E29.1005
G1 X188.475 Y120.462 E29.1326
G1 X188.31 Y120.967 E29.15293
G1 X188.078 Y121.477 E29.17437
G1 X187.773 Y121.987 E29.19711
G1 X186.85 Y123.477 E29.26419
G1 X185.458 Y125.875 E29.3703
G1 X184.144 Y128.293 E29.47562
G1 X182.902 Y130.743 E29.58073
G1 X181.722 Y133.242 E29.6865
G1 X180.623 Y135.754 E29.79143
G1 X179.564 Y138.366 E29.89929
G1 X178.634 Y140.872 E30.00158
G1 X177.723 Y143.551 E30.10987
G1 X176.924 Y146.136 E30.21342
G1 X176.182 Y148.803 E30.31936
G1 X175.518 Y151.48 E30.42491
G1 X174.923 Y154.201 E30.5315
G1 X174.413 Y156.918 E30.6373
G1 X173.989 Y159.573 E30.74019
G1 X173.626 Y162.35 E30.84737
G1 X173.347 Y165.091 E30.95281
G1 X173.144 Y167.837 E31.05818
G1 X173.087 Y169.048 E31.10458
G1 X173.078 Y169.115 E31.10717
G1 X173.017 Y170.399 E31.15636
G1 X172.922 Y170.975 E31.1787
G1 X172.657 Y171.896 E31.21538
G1 X172.434 Y172.537 E31.24135
G1 X172.413 Y172.584 E31.24332
G1 X172.112 Y173.091 E31.26588
G1 X171.66 Y173.679 E31.29427
G1 X170.879 Y174.67 E31.34255
G1 X169.229 Y176.89 E31.44841
G1 X167.644 Y179.153 E31.55414
G1 X166.14 Y181.433 E31.65867
G1 X164.674 Y183.8 E31.76522
G1 X163.288 Y186.188 E31.87089
G1 X161.98 Y188.592 E31.97562
G1 X160.652 Y191.214 E32.0881
G1 X160.08 Y192.385 E32.13797
G1 X159.848 Y192.77 E32.15518
G1 X159.552 Y193.107 E32.17234
G1 X159.2 Y193.386 E32.18953
G1 X158.805 Y193.599 E32.20671
G1 X158.378 Y193.738 E32.22389
G1 X157.933 Y193.8 E32.24108
G1 X157.485 Y193.782 E32.25824
G1 X157.046 Y193.684 E32.27546
G1 X156.632 Y193.511 E32.29263
G1 X156.255 Y193.267 E32.30981
G1 X155.991 Y193.028 E32.32344
G1 X155.469 Y192.485 E32.35227
G1 X152.24 Y189.028 E32.5333
G1 X150.336 Y187.047 E32.63845
G1 X148.349 Y185.093 E32.7451
G1 X146.349 Y183.234 E32.8496
G1 X144.267 Y181.407 E32.9556
G1 X142.168 Y179.667 E33.05994
G1 X140.456 Y178.327 E33.14314
G1 X140.397 Y178.272 E33.14623
G1 X139.337 Y177.454 E33.19747
G1 X138.762 Y176.89 E33.22829
G1 X132.929 Y170.613 E33.55622
G1 X132.641 Y170.298 E33.57255
G1 X132.284 Y169.888 E33.59336
G1 X131.974 Y169.458 E33.61364
G1 X130.442 Y167.183 E33.71861
G1 X128.805 Y164.896 E33.82624
G1 X127.169 Y162.741 E33.92978
G1 X125.424 Y160.572 E34.03632
G1 X123.669 Y158.513 E34.13985
G1 X121.573 Y156.198 E34.25937
G1 X119.534 Y154.015 E34.37368
G1 X117.614 Y152.016 E34.47975
G1 X115.674 Y150.109 E34.58386
G1 X113.641 Y148.22 E34.69006
G1 X111.539 Y146.375 E34.7971
G1 X109.451 Y144.643 E34.90092
G1 X106.835 Y142.608 E35.02776
G1 X106.371 Y142.234 E35.05056
G1 X106.232 Y142.096 E35.05806
G1 X105.814 Y141.656 E35.08128
G1 X105.045 Y140.828 E35.12453
G1 X104.181 Y139.884 E35.1735
G1 X102.118 Y137.655 E35.28973
G1 X101.472 Y136.951 E35.3263
G1 X99.789 Y135.148 E35.42069
G1 X99.287 Y134.592 E35.44936
G1 X98.481 Y133.652 E35.49674
G1 X96.635 Y131.56 E35.60352
G1 X94.751 Y129.541 E35.7092
G1 X92.811 Y127.576 E35.81487
G1 X90.818 Y125.669 E35.92043
G1 X88.786 Y123.833 E36.02524
G1 X86.668 Y122.024 E36.13183
G1 X84.564 Y120.327 E36.23528
G1 X82.332 Y118.631 E36.34256
G1 X80.082 Y117.018 E36.4485
G1 X77.824 Y115.494 E36.55276
G1 X75.473 Y114.003 E36.6593
G1 X73.137 Y112.612 E36.76334
G1 X70.699 Y111.254 E36.87014
G1 X68.278 Y109.992 E36.97462
G1 X66.828 Y109.292 E37.03624
G1 X65.732 Y108.75 E37.08304
G1 X65.349 Y108.516 E37.10021
G1 X65.037 Y108.244 E37.11605
G1 X64.389 Y107.573 E37.15175
G1 X63.991 Y107.146 E37.17409
G1 X63.518 Y106.625 E37.20102
G1 X63.152 Y106.103 E37.22542
G1 X63.086 Y105.978 E37.23083
G1 X61.751 Y103.517 E37.33797
G1 X60.365 Y101.124 E37.4438
G1 X58.928 Y98.797 E37.54847
G1 X57.41 Y96.487 E37.65425
G1 X55.851 Y94.256 E37.75841
G1 X54.167 Y91.984 E37.86664
G1 X52.508 Y89.873 E37.96939
G1 X50.708 Y87.714 E38.07696
G1 X48.9 Y85.665 E38.18154
G1 X47.013 Y83.644 E38.28735
G1 X45.081 Y81.692 E38.39246
G1 X43.096 Y79.79 E38.49766
G1 X41.028 Y77.923 E38.60429
G1 X38.928 Y76.13 E38.70996
G1 X36.797 Y74.413 E38.81469
G1 X34.604 Y72.746 E38.92011
G1 X32.349 Y71.131 E39.02626
G1 X29.255 Y69.067 E39.16859
G1 X28.869 Y68.819 E39.18615
G1 X28.425 Y68.457 E39.20807
G1 X27.897 Y67.915 E39.23703
G1 X27.473 Y67.452 E39.26106
G1 X27.2 Y67.095 E39.27826
G1 X26.908 Y66.448 E39.30542
G1 X26.581 Y65.338 E39.34971
G1 X26.442 Y64.843 E39.36938
G1 X25.607 Y62.164 E39.47677
G1 X24.717 Y59.572 E39.58165
G1 X23.746 Y56.983 E39.68747
G1 X22.712 Y54.448 E39.79224
G1 X21.579 Y51.881 E39.89962
G1 X20.418 Y49.439 E40.0031
G1 X19.14 Y46.936 E40.11065
G1 X18.82 Y46.348 E40.13627
G1 X18.469 Y45.678 E40.16522
G1 X18.297 Y45.263 E40.18241
G1 X18.201 Y44.824 E40.19961
G1 X18.184 Y44.376 E40.21676
G1 X18.247 Y43.931 E40.23396
G1 X18.388 Y43.505 E40.25114
G1 X18.602 Y43.11 E40.26833
G1 X18.882 Y42.759 E40.28551
G1 X19.221 Y42.464 E40.30271
G1 X19.807 Y42.12 E40.32871
G1 X21.679 Y41.136 E40.40965
G0 F1285.7 X21.856 Y41.438
G1 F900 X24.253 Y40.092 E40.51485
G1 X26.631 Y38.665 E40.62099
G1 X28.977 Y37.166 E40.72753
G1 X31.238 Y35.63 E40.83214
G1 X33.512 Y33.99 E40.93943
G1 X35.705 Y32.311 E41.04513
G1 X37.941 Y30.478 E41.15578
G1 X38.4 Y30.108 E41.17834
G1 X38.748 Y29.878 E41.1943
G1 X39.235 Y29.692 E41.21425
G1 X40.154 Y29.462 E41.25051
G1 X40.566 Y29.373 E41.26664
G1 X41.055 Y29.324 E41.28545
G1 X42.234 Y29.341 E41.33057
G1 X42.953 Y29.361 E41.3581
G1 X45.729 Y29.359 E41.46433
G1 X48.501 Y29.279 E41.57046
G1 X51.244 Y29.121 E41.67561
G1 X54.004 Y28.885 E41.78162
G1 X56.765 Y28.57 E41.88797
G1 X59.512 Y28.176 E41.99417
G1 X62.225 Y27.709 E42.09952
G1 X64.902 Y27.172 E42.20401
G1 X67.616 Y26.545 E42.31061
G1 X70.334 Y25.836 E42.4181
G1 X72.954 Y25.073 E42.52254
G1 X75.591 Y24.222 E42.62858
G1 X78.214 Y23.295 E42.73504
G1 X80.778 Y22.304 E42.84024
G1 X83.348 Y21.229 E42.94685
G1 X85.838 Y20.102 E43.05145
G1 X88.378 Y18.865 E43.15957
G1 X89.798 Y18.134 E43.22069
G1 X90.603 Y17.712 E43.25547
G1 X91.218 Y17.492 E43.28047
G1 X91.631 Y17.393 E43.29672
G1 X92.552 Y17.186 E43.33285
G1 X93.245 Y17.04 E43.35995
G1 X93.659 Y16.993 E43.37589
G1 X94.214 Y17.056 E43.39727
