;FLAVOR:Marlin
;TIME:24378
;Filament used: 25.9182m
;Layer height: 0.3
;MINX:14.218
;MINY:9.374
;MINZ:0.26
;MAXX:190.156
;MAXY:185.193
;MAXZ:29.06
;Generated with Cura_SteamEngine 4.9.1
M82 ;absolute extrusion mode
;Begin Start Gcode for Dagoma DiscoEasy 200
;Sliced: 26-07-2021 01:54:52
;Initial extruder: 0

G90 ;Absolute positioning
M106 S255 ;Fan on full
G28 X Y ;Home stop X Y
G1 X100 ;Centre back during cooldown in case of oozing
M109 R90 ;Cooldown in case too hot
G28 ;Centre
G29 ;Auto-level
M104 S205 ;Pre-heat
M107 ;Fan off
G0 X100 Y5 Z0.5 ;Front centre for degunk
M109 S205 ;Wait for initial temp
M83 ;E Relative
G1 E10 F200 ;Degunk
G1 E-3 F5000 ;Retract
G0 Z3 ;Withdraw
M82 ;E absolute
G92 E0 ;E reset
G1 F6000 ;Set feedrate

;Finish Start Gcode for Dagoma DiscoEasy 200

G92 E0
G92 E0
G1 F3000 E-3.5
;LAYER_COUNT:97
;LAYER:0
M107
G0 F1285.7 X42.927 Y12.119 Z0.26
;TYPE:SKIRT
G1 F3000 E0
G1 F900 X43.129 Y11.433 E0.02737
G1 X43.302 Y10.986 E0.04571
G1 X43.547 Y10.574 E0.06405
G1 X43.857 Y10.209 E0.08238
G1 X44.224 Y9.9 E0.10074
G1 X44.636 Y9.656 E0.11907
G1 X45.083 Y9.485 E0.13738
G1 X45.553 Y9.389 E0.15574
G1 X46.032 Y9.374 E0.17408
G1 X46.507 Y9.438 E0.19242
G1 X46.965 Y9.58 E0.21077
G1 X47.392 Y9.796 E0.22909
G1 X47.83 Y10.126 E0.25007
G1 X48.053 Y10.334 E0.26174
G1 X115.745 Y78.024 E3.92527
G1 X117.758 Y79.981 E4.03271
G1 X119.755 Y81.816 E4.1365
G1 X121.852 Y83.634 E4.24271
G1 X123.961 Y85.362 E4.34705
G1 X126.135 Y87.043 E4.45222
G1 X128.377 Y88.676 E4.55836
G1 X130.617 Y90.214 E4.66235
G1 X132.927 Y91.706 E4.76759
G1 X135.301 Y93.145 E4.87383
G1 X137.139 Y94.197 E4.95487
G1 X137.618 Y94.53 E4.9772
G1 X138.029 Y94.869 E4.99759
G1 X138.215 Y95.037 E5.00718
G1 X139.132 Y95.944 E5.05654
G1 X139.779 Y96.585 E5.09139
G1 X140.186 Y97.062 E5.11539
G1 X140.538 Y97.526 E5.13768
G1 X140.675 Y97.723 E5.14686
G1 X141.358 Y98.798 E5.1956
G1 X141.409 Y98.864 E5.19879
G1 X142.391 Y100.395 E5.2684
G1 X143.941 Y102.67 E5.37375
G1 X145.549 Y104.891 E5.47869
G1 X147.223 Y107.07 E5.58384
G1 X148.978 Y109.227 E5.69026
G1 X150.73 Y111.261 E5.793
G1 X152.615 Y113.326 E5.9
G1 X154.515 Y115.293 E6.00466
G1 X156.464 Y117.2 E6.10901
G1 X158.505 Y119.089 E6.21544
G1 X160.559 Y120.88 E6.31973
G1 X162.672 Y122.623 E6.42455
G1 X164.855 Y124.322 E6.53042
G1 X167.083 Y125.957 E6.63618
G1 X169.308 Y127.495 E6.73969
G1 X171.644 Y129.014 E6.84632
G1 X171.83 Y129.128 E6.85467
G1 X172.529 Y129.573 E6.88638
G1 X172.734 Y129.716 E6.89595
G1 X173.162 Y130.044 E6.91658
G1 X173.565 Y130.386 E6.93681
G1 X173.792 Y130.608 E6.94896
G1 X175.114 Y131.932 E7.02057
G1 X175.571 Y132.451 E7.04703
G1 X175.888 Y132.861 E7.06686
G1 X176.079 Y133.152 E7.08018
G1 X176.708 Y134.256 E7.12881
G1 X178.124 Y136.659 E7.23555
G1 X179.584 Y138.983 E7.34058
G1 X181.124 Y141.29 E7.44673
G1 X182.676 Y143.476 E7.54933
G1 X184.36 Y145.712 E7.65646
G1 X186.07 Y147.854 E7.76135
G1 X187.838 Y149.944 E7.86611
G1 X189.32 Y151.6 E7.95116
G1 X189.777 Y152.216 E7.98051
G1 X189.979 Y152.65 E7.99883
G1 X190.107 Y153.112 E8.01718
G1 X190.156 Y153.589 E8.03553
G1 X190.126 Y154.067 E8.05386
G1 X190.016 Y154.533 E8.07218
G1 X189.831 Y154.975 E8.09052
G1 X189.574 Y155.38 E8.10887
G1 X189.254 Y155.737 E8.12722
G1 X188.88 Y156.035 E8.14552
G1 X188.46 Y156.267 E8.16388
G1 X187.98 Y156.439 E8.1834
G1 X187.597 Y156.551 E8.19867
G1 X185.075 Y157.252 E8.29884
G1 X182.466 Y158.019 E8.40291
G1 X179.813 Y158.88 E8.50965
G1 X177.249 Y159.794 E8.61383
G1 X174.672 Y160.795 E8.71962
G1 X172.16 Y161.854 E8.82395
G1 X169.631 Y163.004 E8.93027
G1 X167.181 Y164.204 E9.03467
G1 X164.755 Y165.478 E9.13954
G1 X163.862 Y165.963 E9.17843
G1 X163.321 Y166.189 E9.20087
G1 X162.514 Y166.432 E9.23312
G1 X160.79 Y166.894 E9.30142
G1 X158.186 Y167.563 E9.40431
G1 X155.723 Y168.179 E9.50148
G1 X155.243 Y168.264 E9.52013
G1 X154.939 Y168.289 E9.5318
G1 X152.762 Y168.448 E9.61534
G1 X150.038 Y168.724 E9.72012
G1 X147.295 Y169.08 E9.82597
G1 X144.594 Y169.509 E9.93063
G1 X141.893 Y170.017 E10.03581
G1 X139.212 Y170.601 E10.14082
G1 X136.564 Y171.254 E10.24519
G1 X133.889 Y171.997 E10.35144
G1 X131.3 Y172.795 E10.45512
G1 X128.636 Y173.699 E10.56278
G1 X126.118 Y174.633 E10.66556
G1 X123.532 Y175.678 E10.7723
G1 X121.032 Y176.771 E10.87671
G1 X118.526 Y177.951 E10.98272
G1 X116.677 Y178.88 E11.06191
G1 X115.601 Y179.434 E11.10822
G1 X115.003 Y179.666 E11.13277
G1 X114.488 Y179.815 E11.15329
G1 X112.447 Y180.347 E11.234
G1 X111.93 Y180.477 E11.25441
G1 X111.471 Y180.598 E11.27257
G1 X110.42 Y180.859 E11.31401
G1 X108.796 Y181.272 E11.37814
G1 X107.582 Y181.591 E11.42618
G1 X106.982 Y181.683 E11.44941
G1 X104.281 Y181.807 E11.55288
G1 X101.557 Y182.007 E11.65741
G1 X98.83 Y182.287 E11.76232
G1 X96.09 Y182.645 E11.86807
G1 X93.374 Y183.08 E11.97333
G1 X90.686 Y183.588 E12.07802
G1 X89.863 Y183.755 E12.11016
G1 X89.387 Y183.81 E12.1285
G1 X88.908 Y183.786 E12.14685
G1 X88.267 Y183.623 E12.17217
G1 X87.301 Y183.255 E12.21173
G1 X86.476 Y182.926 E12.24572
G1 X83.912 Y181.989 E12.35019
G1 X81.318 Y181.123 E12.45484
G1 X78.652 Y180.316 E12.56144
G1 X76.022 Y179.601 E12.66574
G1 X73.362 Y178.958 E12.77047
G1 X70.636 Y178.378 E12.87713
G1 X67.964 Y177.891 E12.98107
G1 X65.907 Y177.569 E13.06075
G1 X65.048 Y177.443 E13.09397
G1 X64.501 Y177.308 E13.11554
G1 X63.487 Y176.949 E13.1567
G1 X62.882 Y176.697 E13.18178
G1 X62.221 Y176.319 E13.21092
G1 X61.87 Y176.06 E13.22762
G1 X61.432 Y175.661 E13.25029
G1 X60.727 Y174.869 E13.29087
G1 X60.317 Y174.38 E13.31529
G1 X60.004 Y173.931 E13.33624
G1 X58.675 Y171.731 E13.4346
G1 X57.216 Y169.464 E13.53777
G1 X55.619 Y167.13 E13.646
G1 X54.034 Y164.948 E13.74921
G1 X52.364 Y162.782 E13.85388
G1 X50.598 Y160.619 E13.96074
G1 X48.822 Y158.567 E14.0646
G1 X46.953 Y156.526 E14.17051
G1 X45.072 Y154.584 E14.27397
G1 X43.065 Y152.626 E14.38128
G1 X41.07 Y150.788 E14.48509
G1 X38.998 Y148.986 E14.59017
G1 X36.865 Y147.232 E14.69586
G1 X34.697 Y145.552 E14.80082
G1 X32.458 Y143.915 E14.90697
G1 X30.23 Y142.38 E15.01051
G1 X27.914 Y140.88 E15.11611
G1 X25.541 Y139.437 E15.22239
G1 X24.311 Y138.725 E15.27678
G1 X23.935 Y138.466 E15.29425
G1 X23.587 Y138.137 E15.31258
G1 X23.109 Y137.459 E15.34433
G1 X23.046 Y137.356 E15.34895
G1 X22.665 Y136.704 E15.37785
G1 X22.409 Y136.169 E15.40054
G1 X22.366 Y136.066 E15.40482
G1 X22.055 Y135.277 E15.43727
G1 X21.795 Y134.567 E15.46621
G1 X21.655 Y134.023 E15.4877
G1 X21.63 Y133.866 E15.49379
G1 X21.265 Y131.287 E15.59347
G1 X20.814 Y128.637 E15.69634
G1 X20.274 Y125.922 E15.80228
G1 X19.663 Y123.256 E15.90695
G1 X18.975 Y120.601 E16.01191
G1 X18.206 Y117.941 E16.11788
G1 X17.367 Y115.322 E16.22312
G1 X16.461 Y112.746 E16.32762
G1 X16.044 Y111.648 E16.37257
G1 X15.763 Y110.749 E16.40862
G1 X15.717 Y110.272 E16.42696
G1 X15.769 Y109.693 E16.4492
G1 X15.816 Y109.451 E16.45864
G1 X16.306 Y107.095 E16.55073
G1 X16.787 Y104.401 E16.65546
G1 X17.191 Y101.694 E16.7602
G1 X17.52 Y98.971 E16.86517
G1 X17.772 Y96.234 E16.97036
G1 X17.981 Y92.745 E17.10412
G1 X18.002 Y92.534 E17.11223
G1 X18.166 Y91.325 E17.15892
G1 X18.271 Y90.701 E17.18314
G1 X18.318 Y90.478 E17.19186
G1 X18.742 Y88.788 E17.25854
G1 X18.993 Y87.852 E17.29563
G1 X19.272 Y86.789 E17.33769
G1 X19.633 Y85.364 E17.39394
G1 X19.711 Y85.083 E17.4051
G1 X19.899 Y84.444 E17.43059
G1 X20.12 Y83.897 E17.45317
G1 X20.382 Y83.399 E17.47471
G1 X21.643 Y80.919 E17.58118
G1 X22.817 Y78.438 E17.68622
G1 X23.931 Y75.9 E17.79229
G1 X24.966 Y73.356 E17.8974
G1 X25.932 Y70.761 E18.00336
G1 X26.803 Y68.204 E18.10674
G1 X27.623 Y65.564 E18.21253
G1 X28.358 Y62.932 E18.31711
G1 X29.021 Y60.267 E18.42221
G1 X29.62 Y57.543 E18.52895
G1 X30.119 Y54.901 E18.63184
G1 X30.565 Y52.126 E18.7394
G1 X30.917 Y49.452 E18.84262
G1 X31.288 Y45.642 E18.98911
G1 X31.383 Y44.43 E19.03564
G1 X31.425 Y44.093 E19.04864
G1 X31.519 Y43.517 E19.07097
G1 X31.619 Y42.947 E19.09312
G1 X31.737 Y42.331 E19.11712
G1 X31.778 Y42.152 E19.12415
G1 X32.129 Y40.793 E19.17786
G1 X32.366 Y39.828 E19.21589
G1 X32.501 Y39.32 E19.23601
G1 X32.889 Y37.783 E19.29667
G1 X33.127 Y36.895 E19.33185
G1 X33.31 Y36.266 E19.35692
G1 X33.525 Y35.734 E19.37888
G1 X33.727 Y35.349 E19.39552
G1 X34.703 Y33.553 E19.47375
G1 X35.93 Y31.134 E19.57755
G1 X37.123 Y28.608 E19.68446
G1 X38.22 Y26.105 E19.78904
G1 X39.249 Y23.567 E19.89385
G1 X40.207 Y20.983 E19.99931
G1 X41.084 Y18.405 E20.10353
G1 X42.276 Y14.453 E20.2615
G1 X42.927 Y12.119 E20.35423
G0 F1285.7 X43.263 Y12.218
G1 F900 X43.465 Y11.532 E20.3816
G1 X43.629 Y11.114 E20.39878
G1 X43.865 Y10.732 E20.41596
G1 X44.165 Y10.398 E20.43314
G1 X44.52 Y10.122 E20.45035
G1 X44.917 Y9.914 E20.4675
G1 X45.346 Y9.779 E20.48472
G1 X45.791 Y9.722 E20.50188
G1 X46.239 Y9.745 E20.51905
G1 X46.677 Y9.847 E20.53626
G1 X47.089 Y10.024 E20.55342
G1 X47.594 Y10.384 E20.57716
G1 X47.805 Y10.582 E20.58823
G1 X115.501 Y78.275 E24.25194
G1 X117.525 Y80.242 E24.35995
G1 X119.517 Y82.072 E24.46347
G1 X121.61 Y83.888 E24.56952
G1 X123.756 Y85.647 E24.67571
G1 X125.925 Y87.323 E24.78061
G1 X128.159 Y88.95 E24.88637
G1 X130.439 Y90.516 E24.99222
G1 X132.751 Y92.009 E25.09755
G1 X135.12 Y93.445 E25.20356
G1 X136.965 Y94.501 E25.28492
G1 X137.406 Y94.809 E25.3055
G1 X137.806 Y95.138 E25.32532
G1 X137.969 Y95.286 E25.33375
G1 X138.886 Y96.193 E25.38311
G1 X139.53 Y96.831 E25.4178
G1 X139.908 Y97.274 E25.44009
G1 X140.26 Y97.738 E25.46238
G1 X140.38 Y97.911 E25.47043
G1 X141.026 Y98.928 E25.51654
G1 X141.115 Y99.053 E25.52241
G1 X142.104 Y100.595 E25.59252
G1 X143.665 Y102.885 E25.69858
G1 X145.268 Y105.1 E25.80322
G1 X146.943 Y107.28 E25.90843
G1 X148.707 Y109.448 E26.01539
G1 X150.487 Y111.514 E26.11975
G1 X152.352 Y113.557 E26.22562
G1 X154.255 Y115.527 E26.33044
G1 X156.248 Y117.477 E26.43714
G1 X158.249 Y119.329 E26.54149
G1 X160.337 Y121.15 E26.64751
G1 X162.462 Y122.903 E26.75294
G1 X164.643 Y124.6 E26.85869
G1 X166.887 Y126.247 E26.96522
G1 X169.129 Y127.796 E27.0695
G1 X171.428 Y129.292 E27.17447
G1 X171.642 Y129.423 E27.18407
G1 X172.341 Y129.868 E27.21579
G1 X172.521 Y129.994 E27.22419
G1 X173.015 Y130.374 E27.24805
G1 X173.521 Y130.832 E27.27416
G1 X174.86 Y132.173 E27.34669
G1 X175.3 Y132.672 E27.37215
G1 X175.606 Y133.068 E27.3913
G1 X175.774 Y133.325 E27.40305
G1 X176.406 Y134.434 E27.4519
G1 X177.822 Y136.837 E27.55864
G1 X179.28 Y139.159 E27.66357
G1 X180.817 Y141.46 E27.76946
G1 X182.423 Y143.723 E27.87566
G1 X184.073 Y145.914 E27.98062
G1 X185.792 Y148.067 E28.08606
G1 X187.575 Y150.175 E28.19172
G1 X189.059 Y151.833 E28.27687
G1 X189.487 Y152.415 E28.30452
G1 X189.67 Y152.825 E28.3217
G1 X189.778 Y153.261 E28.33889
G1 X189.806 Y153.709 E28.35607
G1 X189.755 Y154.155 E28.37325
G1 X189.626 Y154.585 E28.39043
G1 X189.422 Y154.985 E28.40761
G1 X189.151 Y155.343 E28.4248
G1 X188.821 Y155.647 E28.44197
G1 X188.442 Y155.888 E28.45916
G1 X187.875 Y156.105 E28.48239
G1 X187.503 Y156.214 E28.49723
G1 X184.999 Y156.911 E28.5967
G1 X182.327 Y157.696 E28.70327
G1 X179.699 Y158.549 E28.80901
G1 X177.135 Y159.463 E28.91318
G1 X174.552 Y160.466 E29.01922
G1 X171.991 Y161.546 E29.12559
G1 X169.503 Y162.678 E29.2302
G1 X167.006 Y163.9 E29.33658
G1 X164.623 Y165.152 E29.4396
G1 X163.695 Y165.656 E29.48002
G1 X163.22 Y165.854 E29.49971
G1 X162.423 Y166.094 E29.53156
G1 X160.703 Y166.555 E29.59971
G1 X158.106 Y167.223 E29.70233
G1 X157.912 Y167.269 E29.70996
G1 X155.782 Y167.803 E29.794
G1 X155.214 Y167.915 E29.81615
G1 X154.913 Y167.94 E29.82771
G1 X152.736 Y168.099 E29.91125
G1 X149.996 Y168.377 E30.01664
G1 X147.264 Y168.731 E30.12207
G1 X144.509 Y169.169 E30.22883
G1 X141.83 Y169.673 E30.33315
G1 X139.122 Y170.262 E30.43921
G1 X136.487 Y170.913 E30.54308
G1 X133.802 Y171.658 E30.64971
G1 X131.152 Y172.475 E30.75584
G1 X128.555 Y173.356 E30.86079
G1 X125.966 Y174.317 E30.96647
G1 X123.42 Y175.346 E31.07156
G1 X120.868 Y176.461 E31.17814
G1 X118.414 Y177.617 E31.28195
G1 X116.494 Y178.581 E31.36417
G1 X115.441 Y179.123 E31.4095
G1 X114.898 Y179.332 E31.43176
G1 X114.4 Y179.476 E31.4516
G1 X112.362 Y180.008 E31.53221
G1 X111.845 Y180.138 E31.55261
G1 X111.387 Y180.259 E31.57074
G1 X110.319 Y180.524 E31.61285
G1 X108.729 Y180.928 E31.67563
G1 X107.493 Y181.253 E31.72454
G1 X106.966 Y181.333 E31.74494
G1 X104.277 Y181.456 E31.84795
G1 X101.527 Y181.659 E31.95348
G1 X98.783 Y181.94 E32.05904
G1 X96.024 Y182.301 E32.16553
G1 X93.329 Y182.732 E32.26997
G1 X90.616 Y183.245 E32.37564
G1 X89.793 Y183.412 E32.40778
G1 X89.347 Y183.461 E32.42495
G1 X88.899 Y183.431 E32.44213
G1 X88.392 Y183.296 E32.46221
G1 X87.431 Y182.93 E32.50156
G1 X86.595 Y182.597 E32.536
G1 X84.042 Y181.664 E32.64002
G1 X81.41 Y180.785 E32.74622
G1 X78.777 Y179.988 E32.8515
G1 X76.094 Y179.259 E32.9579
G1 X73.441 Y178.617 E33.06236
G1 X70.703 Y178.035 E33.16948
G1 X67.998 Y177.542 E33.2747
G1 X65.958 Y177.222 E33.35373
G1 X65.099 Y177.096 E33.38695
G1 X64.608 Y176.975 E33.40631
G1 X63.604 Y176.619 E33.44707
G1 X63.039 Y176.384 E33.47049
G1 X62.429 Y176.038 E33.49733
G1 X62.078 Y175.779 E33.51402
G1 X61.693 Y175.428 E33.53396
G1 X60.995 Y174.644 E33.57413
G1 X60.585 Y174.155 E33.59855
G1 X60.282 Y173.716 E33.61897
G1 X58.972 Y171.546 E33.71597
G1 X57.488 Y169.241 E33.82088
G1 X55.926 Y166.959 E33.92671
G1 X54.315 Y164.739 E34.03168
G1 X52.603 Y162.519 E34.13897
G1 X50.886 Y160.417 E34.24284
G1 X49.081 Y158.331 E34.34841
G1 X47.239 Y156.319 E34.4528
G1 X45.303 Y154.32 E34.5593
G1 X43.317 Y152.384 E34.66544
G1 X41.289 Y150.514 E34.77101
G1 X39.223 Y148.717 E34.87579
G1 X37.07 Y146.948 E34.98243
G1 X34.909 Y145.272 E35.08709
G1 X32.694 Y143.653 E35.19209
G1 X30.408 Y142.078 E35.29833
G1 X28.116 Y140.593 E35.40284
G1 X25.736 Y139.146 E35.50943
G1 X24.486 Y138.423 E35.5647
G1 X24.154 Y138.193 E35.58015
G1 X23.829 Y137.882 E35.59737
G1 X23.404 Y137.27 E35.62588
G1 X23.348 Y137.179 E35.62997
G1 X22.967 Y136.527 E35.65887
G1 X22.729 Y136.028 E35.68003
G1 X22.691 Y135.937 E35.6838
G1 X22.384 Y135.156 E35.71592
G1 X22.124 Y134.446 E35.74485
G1 X21.982 Y133.853 E35.76819
G1 X21.616 Y131.264 E35.86825
G1 X21.161 Y128.588 E35.97213
G1 X20.614 Y125.837 E36.07947
G1 X20 Y123.158 E36.18466
G1 X19.319 Y120.529 E36.28859
G1 X18.543 Y117.846 E36.39547
G1 X17.697 Y115.204 E36.50164
G1 X16.798 Y112.647 E36.60536
G1 X16.373 Y111.529 E36.65114
G1 X16.102 Y110.659 E36.68601
G1 X16.067 Y110.212 E36.70317
G1 X16.152 Y109.557 E36.72844
G1 X16.643 Y107.192 E36.82088
G1 X17.137 Y104.426 E36.92841
G1 X17.536 Y101.753 E37.03184
G1 X17.873 Y98.962 E37.13942
G1 X18.122 Y96.255 E37.24346
G1 X18.331 Y92.766 E37.37722
G1 X18.349 Y92.58 E37.38437
G1 X18.511 Y91.383 E37.4306
G1 X18.616 Y90.759 E37.45481
G1 X18.657 Y90.563 E37.46248
G1 X19.08 Y88.879 E37.52892
G1 X19.331 Y87.943 E37.56601
G1 X19.611 Y86.878 E37.60815
G1 X19.893 Y85.765 E37.65209
G1 X20.036 Y85.219 E37.67369
G1 X20.235 Y84.542 E37.7007
G1 X20.429 Y84.06 E37.72058
G1 X20.71 Y83.526 E37.74367
G1 X21.976 Y81.036 E37.85057
G1 X23.135 Y78.587 E37.95426
G1 X24.243 Y76.062 E38.05979
G1 X25.305 Y73.452 E38.16762
G1 X26.243 Y70.931 E38.27056
G1 X27.137 Y68.31 E38.37654
G1 X27.959 Y65.661 E38.48268
G1 X28.699 Y63.009 E38.58805
G1 X29.363 Y60.343 E38.69319
G1 X29.962 Y57.621 E38.79986
G1 X30.466 Y54.952 E38.9038
G1 X30.907 Y52.203 E39.01035
G1 X31.263 Y49.499 E39.11472
G1 X31.64 Y45.64 E39.26311
G1 X31.732 Y44.458 E39.30848
G1 X31.77 Y44.149 E39.3204
G1 X31.863 Y43.578 E39.34254
G1 X31.963 Y43.013 E39.36449
G1 X32.081 Y42.397 E39.3885
G1 X32.117 Y42.239 E39.3947
G1 X32.469 Y40.877 E39.44853
G1 X32.705 Y39.917 E39.48637
G1 X32.84 Y39.409 E39.50648
G1 X33.228 Y37.873 E39.56711
G1 X33.464 Y36.993 E39.60198
G1 X33.647 Y36.364 E39.62705
G1 X33.835 Y35.896 E39.64635
G1 X34.035 Y35.516 E39.66278
G1 X35.003 Y33.735 E39.74036
G1 X36.26 Y31.257 E39.84669
G1 X37.427 Y28.786 E39.95127
G1 X38.539 Y26.248 E40.05731
G1 X39.592 Y23.65 E40.16459
G1 X40.535 Y21.107 E40.26839
G1 X41.419 Y18.508 E40.37345
G1 X42.613 Y14.551 E40.53162
G1 X43.263 Y12.218 E40.62431
G0 F1285.7 X43.599 Y12.317
G1 F900 X43.801 Y11.631 E40.65167
G1 X43.956 Y11.244 E40.66763
G1 X44.182 Y10.894 E40.68357
G1 X44.471 Y10.594 E40.69951
G1 X44.812 Y10.354 E40.71547
G1 X45.192 Y10.184 E40.7314
