;FLAVOR:Marlin
;TIME:11650
;Filament used: 14.1773m
;Layer height: 0.3
;MINX:36.146
;MINY:10.196
;MINZ:0.26
;MAXX:193.858
;MAXY:192.137
;MAXZ:7.76
;Generated with Cura_SteamEngine 4.9.1
M82 ;absolute extrusion mode
;Begin Start Gcode for Dagoma DiscoEasy 200
;Sliced: 07-07-2021 20:00:24
;Initial extruder: 0

G90 ;Absolute positioning
M106 S255 ;Fan on full
G28 X Y ;Home stop X Y
G1 X100 ;Centre back during cooldown in case of oozing
M109 R90 ;Cooldown in case too hot
G28 ;Centre
G29 ;Auto-level
M104 S205 ;Pre-heat
M107 ;Fan off
G0 X100 Y5 Z0.5 ;Front centre for degunk
M109 S205 ;Wait for initial temp
M83 ;E Relative
G1 E10 F200 ;Degunk
G1 E-3 F5000 ;Retract
G0 Z3 ;Withdraw
M82 ;E absolute
G92 E0 ;E reset
G1 F6000 ;Set feedrate

;Finish Start Gcode for Dagoma DiscoEasy 200

G92 E0
G92 E0
G1 F3000 E-3.5
;LAYER_COUNT:26
;LAYER:0
M107
G0 F1285.7 X86.317 Y12.702 Z0.26
;TYPE:SKIRT
G1 F3000 E0
G1 F900 X86.669 Y12.108 E0.02642
G1 X86.987 Y11.65 E0.04776
G1 X87.366 Y11.244 E0.06902
G1 X87.8 Y10.895 E0.09033
G1 X88.279 Y10.612 E0.11162
G1 X88.794 Y10.401 E0.13292
G1 X89.334 Y10.266 E0.15422
G1 X89.942 Y10.208 E0.1776
G1 X90.71 Y10.196 E0.20699
G1 X189.349 Y10.196 E3.98186
G1 X190.04 Y10.206 E4.0083
G1 X190.594 Y10.254 E4.02958
G1 X191.136 Y10.381 E4.05089
G1 X191.654 Y10.584 E4.07218
G1 X192.138 Y10.86 E4.0935
G1 X192.577 Y11.201 E4.11478
G1 X192.963 Y11.602 E4.13608
G1 X193.287 Y12.055 E4.15739
G1 X193.543 Y12.548 E4.17865
G1 X193.726 Y13.074 E4.19996
G1 X193.832 Y13.62 E4.22125
G1 X193.858 Y14.176 E4.24255
G1 X193.804 Y14.73 E4.26385
G1 X193.672 Y15.27 E4.28512
G1 X193.371 Y15.964 E4.31407
G1 X193.027 Y16.582 E4.34114
G1 X93.707 Y189.613 E11.97629
G1 X93.337 Y190.238 E12.00408
G1 X93.02 Y190.695 E12.02537
G1 X92.641 Y191.102 E12.04665
G1 X92.207 Y191.451 E12.06797
G1 X91.728 Y191.734 E12.08926
G1 X91.213 Y191.945 E12.11056
G1 X90.674 Y192.08 E12.13182
G1 X90.12 Y192.137 E12.15313
G1 X89.564 Y192.114 E12.17443
G1 X89.017 Y192.012 E12.19572
G1 X88.491 Y191.832 E12.217
G1 X87.995 Y191.578 E12.23833
G1 X87.541 Y191.257 E12.2596
G1 X87.138 Y190.873 E12.28091
G1 X86.675 Y190.25 E12.31061
G1 X86.201 Y189.454 E12.34607
G1 X36.987 Y103.712 E16.12947
G1 X36.626 Y103.063 E16.15789
G1 X36.391 Y102.558 E16.17921
G1 X36.231 Y102.025 E16.2005
G1 X36.148 Y101.475 E16.22179
G1 X36.146 Y100.919 E16.24307
G1 X36.223 Y100.368 E16.26436
G1 X36.378 Y99.833 E16.28568
G1 X36.61 Y99.321 E16.30719
G1 X36.917 Y98.767 E16.33143
G1 X86.317 Y12.702 E20.12909
G0 F1285.7 X86.618 Y12.88
G1 F900 X86.97 Y12.286 E20.15552
G1 X87.275 Y11.851 E20.17585
G1 X87.641 Y11.467 E20.19615
G1 X88.06 Y11.142 E20.21644
G1 X88.524 Y10.883 E20.23678
G1 X89.021 Y10.698 E20.25708
G1 X89.54 Y10.589 E20.27737
G1 X89.948 Y10.558 E20.29303
G1 X90.716 Y10.546 E20.32242
G1 X189.344 Y10.546 E24.09687
G1 X190.035 Y10.556 E24.12332
G1 X190.564 Y10.604 E24.14364
G1 X191.079 Y10.73 E24.16393
G1 X191.569 Y10.933 E24.18423
G1 X192.024 Y11.206 E24.20454
G1 X192.433 Y11.545 E24.22487
G1 X192.785 Y11.941 E24.24515
G1 X193.075 Y12.386 E24.26547
G1 X193.294 Y12.869 E24.28577
G1 X193.439 Y13.38 E24.3061
G1 X193.505 Y13.907 E24.32642
G1 X193.491 Y14.437 E24.34671
G1 X193.398 Y14.96 E24.36704
G1 X193.227 Y15.462 E24.38734
G1 X193.065 Y15.794 E24.40147
G1 X192.723 Y16.408 E24.42837
G1 X93.406 Y189.435 E32.06333
G1 X93.036 Y190.06 E32.09112
G1 X92.732 Y190.495 E32.11143
G1 X92.367 Y190.879 E32.13171
G1 X91.947 Y191.204 E32.15203
G1 X91.484 Y191.463 E32.17233
G1 X90.987 Y191.649 E32.19264
G1 X90.468 Y191.758 E32.21294
G1 X89.938 Y191.788 E32.23325
G1 X89.409 Y191.739 E32.25358
G1 X88.895 Y191.61 E32.27386
G1 X88.405 Y191.406 E32.29418
G1 X87.951 Y191.13 E32.31451
G1 X87.544 Y190.79 E32.3348
G1 X87.193 Y190.392 E32.35511
G1 X86.976 Y190.07 E32.36997
G1 X86.505 Y189.28 E32.40517
G1 X37.292 Y103.542 E36.18842
G1 X36.931 Y102.893 E36.21684
G1 X36.709 Y102.411 E36.23715
G1 X36.562 Y101.901 E36.25746
G1 X36.492 Y101.375 E36.27777
G1 X36.503 Y100.844 E36.2981
G1 X36.593 Y100.321 E36.31841
G1 X36.76 Y99.818 E36.33869
G1 X36.986 Y99.359 E36.35827
G1 X37.24 Y98.907 E36.37811
G1 X86.618 Y12.88 E40.1741
G0 F1285.7 X86.92 Y13.058
G1 F900 X87.272 Y12.464 E40.20052
G1 X87.562 Y12.053 E40.21977
G1 X87.914 Y11.692 E40.23907
G1 X88.318 Y11.392 E40.25832
G1 X88.764 Y11.16 E40.27756
G1 X89.242 Y11 E40.29685
G1 X89.953 Y10.908 E40.32429
G1 X90.721 Y10.896 E40.35368
G1 X189.339 Y10.896 E44.12775
G1 X190.03 Y10.906 E44.1542
G1 X190.531 Y10.954 E44.17346
G1 X191.019 Y11.079 E44.19273
G1 X191.48 Y11.281 E44.212
G1 X191.904 Y11.553 E44.23127
G1 X192.28 Y11.888 E44.25055
G1 X192.598 Y12.279 E44.26983
G1 X192.85 Y12.715 E44.28911
G1 X193.03 Y13.185 E44.30837
G1 X193.133 Y13.678 E44.32764
G1 X193.157 Y14.181 E44.34691
G1 X193.102 Y14.681 E44.36616
G1 X192.968 Y15.167 E44.38546
G1 X192.759 Y15.624 E44.40469
G1 X192.42 Y16.234 E44.43139
G1 X93.105 Y189.256 E52.06615
G1 X92.735 Y189.881 E52.09394
G1 X92.445 Y190.293 E52.11322
G1 X92.094 Y190.654 E52.13249
G1 X91.689 Y190.954 E52.15178
G1 X91.243 Y191.187 E52.17104
G1 X90.765 Y191.346 E52.19032
G1 X90.268 Y191.428 E52.20959
G1 X89.765 Y191.43 E52.22884
G1 X89.267 Y191.353 E52.24813
G1 X88.788 Y191.197 E52.26741
G1 X88.339 Y190.968 E52.2867
G1 X87.933 Y190.671 E52.30595
G1 X87.578 Y190.314 E52.32521
G1 X87.277 Y189.891 E52.34508
G1 X86.808 Y189.106 E52.38008
G1 X37.598 Y103.371 E56.16317
G1 X37.237 Y102.722 E56.19159
G1 X37.028 Y102.264 E56.21086
G1 X36.894 Y101.779 E56.23011
G1 X36.839 Y101.278 E56.2494
G1 X36.863 Y100.775 E56.26867
G1 X36.966 Y100.282 E56.28795
G1 X37.184 Y99.736 E56.31045
G1 X37.527 Y99.109 E56.3378
G1 X86.92 Y13.058 E60.13487
G1 F3000 E56.63487
;MESH:support_half_hex_9.stl
G0 F1285.7 X89.119 Y14.322
G0 X89.977 Y14.813
G0 X90.151 Y186.971
;TYPE:WALL-INNER
G1 F3000 E60.13487
G1 F900 X90 Y187.234 E60.14647
G1 X89.849 Y186.971 E60.15304
G1 X40.605 Y101.179 E63.93868
G1 X90.304 Y14.596 E67.75924
G1 X188.791 Y14.596 E71.52829
G1 X188.792 Y14.596 E71.52832
G1 X189.093 Y14.596 E71.53984
G1 X188.943 Y14.857 E71.54638
G1 X90.151 Y186.971 E79.14103
G0 F1285.7 X90.151 Y187.624
;TYPE:WALL-OUTER
G1 F900 X90 Y187.887 E79.15264
G1 X89.849 Y187.624 E79.15921
G1 X40.23 Y101.179 E82.97366
G1 X90.116 Y14.271 E86.80856
G1 X189.353 Y14.271 E90.60632
G1 X189.354 Y14.271 E90.60635
G1 X189.655 Y14.271 E90.61787
G1 X189.505 Y14.532 E90.62441
G1 X90.151 Y187.624 E98.26223
G0 F1285.7 X90.052 Y187.797
G0 X89.966 Y187.747
G0 X90 Y186.551
;TYPE:SKIN
G1 F900 X40.997 Y101.179 E102.02933
G1 X90.5 Y14.936 E105.83487
G1 X188.506 Y14.936 E109.58551
G1 X90 Y186.551 E117.15815
G0 F1285.7 X90.076 Y186.101
G1 F900 X89.719 Y185.744 E117.17748
G0 F1285.7 X90.256 Y185.786
G1 F900 X89.052 Y184.582 E117.24264
G1 X88.99 Y184.52
G0 F1285.7 X88.384 Y183.419
G1 F900 X90.436 Y185.471 E117.35369
G0 F1285.7 X90.617 Y185.158
G1 F900 X87.718 Y182.258 E117.51062
G1 X87.656 Y182.196
G0 F1285.7 X87.051 Y181.096
G1 F900 X90.798 Y184.843 E117.71341
G0 F1285.7 X90.978 Y184.528
G1 F900 X86.384 Y179.934 E117.96204
G1 X86.322 Y179.872
G0 F1285.7 X85.716 Y178.772
G1 F900 X91.158 Y184.214 E118.25657
G0 F1285.7 X91.339 Y183.9
G1 F900 X85.05 Y177.61 E118.59697
G1 X84.988 Y177.548
G0 F1285.7 X84.383 Y176.448
G1 F900 X91.52 Y183.585 E118.98323
G0 F1285.7 X91.7 Y183.27
G1 F900 X83.716 Y175.286 E119.41534
G1 X83.654 Y175.224
G0 F1285.7 X83.049 Y174.125
G1 F900 X91.881 Y182.956 E119.89331
G0 F1285.7 X92.061 Y182.642
G1 F900 X82.382 Y172.962 E120.41718
G1 X82.32 Y172.9
G0 F1285.7 X81.715 Y171.8
G1 F900 X92.242 Y182.327 E120.98691
G0 F1285.7 X92.422 Y182.012
G1 F900 X81.048 Y170.639 E121.60246
G1 X80.986 Y170.577
G0 F1285.7 X80.381 Y169.477
G1 F900 X92.603 Y181.698 E122.2639
G0 F1285.7 X92.783 Y181.384
G1 F900 X79.714 Y168.314 E122.97124
G1 X79.652 Y168.252
G0 F1285.7 X79.047 Y167.152
G1 F900 X92.964 Y181.069 E123.72445
G0 F1285.7 X93.144 Y180.754
G1 F900 X78.38 Y165.991 E124.52346
G1 X78.318 Y165.929
G0 F1285.7 X77.713 Y164.829
G1 F900 X93.325 Y180.44 E125.36838
G0 F1285.7 X93.505 Y180.126
G1 F900 X77.046 Y163.666 E126.25919
G1 X76.984 Y163.604
G0 F1285.7 X76.379 Y162.505
G1 F900 X93.685 Y179.811 E127.19581
G0 F1285.7 X93.867 Y179.497
G1 F900 X75.712 Y161.343 E128.17836
G1 X75.65 Y161.281
G0 F1285.7 X75.045 Y160.181
G1 F900 X94.047 Y179.182 E129.20674
G0 F1285.7 X94.227 Y178.868
G1 F900 X74.379 Y159.019 E130.28097
G1 X74.317 Y158.957
G0 F1285.7 X73.711 Y157.857
G1 F900 X94.407 Y178.553 E131.40106
G0 F1285.7 X94.588 Y178.239
G1 F900 X73.044 Y156.695 E132.56705
G1 X72.982 Y156.633
G0 F1285.7 X72.378 Y155.533
G1 F900 X94.769 Y177.925 E133.77891
G0 F1285.7 X94.949 Y177.61
G1 F900 X71.711 Y154.372 E135.03658
G1 X71.649 Y154.31
G0 F1285.7 X71.043 Y153.209
G1 F900 X95.129 Y177.295 E136.34014
G0 F1285.7 X95.31 Y176.981
G1 F900 X70.376 Y152.047 E137.6896
G1 X70.314 Y151.985
G0 F1285.7 X69.71 Y150.885
G1 F900 X95.491 Y176.667 E139.08493
G0 F1285.7 X95.671 Y176.352
G1 F900 X69.043 Y149.724 E140.52607
G1 X68.981 Y149.662
G0 F1285.7 X68.375 Y148.561
G1 F900 X95.852 Y176.038 E142.01316
G0 F1285.7 X96.032 Y175.723
G1 F900 X67.709 Y147.399 E143.54606
G1 X67.647 Y147.337
G0 F1285.7 X67.042 Y146.238
G1 F900 X96.213 Y175.409 E145.12484
G0 F1285.7 X96.393 Y175.094
G1 F900 X66.375 Y145.076 E146.74945
G1 X66.313 Y145.014
G0 F1285.7 X65.708 Y143.914
G1 F900 X96.574 Y174.78 E148.41996
G0 F1285.7 X96.754 Y174.465
G1 F900 X65.041 Y142.752 E150.1363
G1 X64.979 Y142.69
G0 F1285.7 X64.374 Y141.59
G1 F900 X96.935 Y174.151 E151.89855
G0 F1285.7 X97.115 Y173.836
G1 F900 X63.707 Y140.428 E153.70663
G1 X63.645 Y140.366
G0 F1285.7 X63.04 Y139.266
G1 F900 X97.296 Y173.522 E155.56061
G0 F1285.7 X97.476 Y173.207
G1 F900 X62.373 Y138.104 E157.46043
G1 X62.311 Y138.042
G0 F1285.7 X61.706 Y136.942
G1 F900 X97.657 Y172.893 E159.40614
G0 F1285.7 X97.838 Y172.579
G1 F900 X61.039 Y135.78 E161.39775
G1 X60.977 Y135.718
G0 F1285.7 X60.372 Y134.618
G1 F900 X98.018 Y172.264 E163.4352
G0 F1285.7 X98.198 Y171.949
G1 F900 X59.705 Y133.456 E165.51849
G1 X59.643 Y133.394
G0 F1285.7 X59.038 Y132.294
G1 F900 X98.379 Y171.635 E167.64767
G0 F1285.7 X98.56 Y171.321
G1 F900 X58.371 Y131.132 E169.82275
G1 X58.309 Y131.07
G0 F1285.7 X57.704 Y129.971
G1 F900 X98.74 Y171.006 E172.04365
G0 F1285.7 X98.92 Y170.692
G1 F900 X57.038 Y128.809 E174.31038
G1 X56.976 Y128.747
G0 F1285.7 X56.37 Y127.646
G1 F900 X99.101 Y170.377 E176.62304
G0 F1285.7 X99.282 Y170.063
G1 F900 X55.703 Y126.485 E178.98156
G1 X55.641 Y126.423
G0 F1285.7 X55.036 Y125.323
G1 F900 X99.462 Y169.748 E181.38593
G0 F1285.7 X99.642 Y169.434
G1 F900 X54.37 Y124.161 E183.83613
G1 X54.308 Y124.099
G0 F1285.7 X53.702 Y122.999
G1 F900 X99.823 Y169.12 E186.33226
G0 F1285.7 X100.003 Y168.805
G1 F900 X53.035 Y121.837 E188.87423
G1 X52.973 Y121.775
G0 F1285.7 X52.369 Y120.675
G1 F900 X100.184 Y168.49 E191.46204
G0 F1285.7 X100.364 Y168.176
G1 F900 X51.702 Y119.513 E194.09571
G1 X51.64 Y119.451
G0 F1285.7 X51.034 Y118.351
G1 F900 X100.545 Y167.862 E196.77531
G0 F1285.7 X100.725 Y167.547
G1 F900 X50.367 Y117.189 E199.50075
G1 X50.305 Y117.127
G0 F1285.7 X49.701 Y116.027
G1 F900 X100.906 Y167.232 E202.27203
G0 F1285.7 X101.087 Y166.918
G1 F900 X49.034 Y114.865 E205.0892
G1 X48.972 Y114.803
G0 F1285.7 X48.367 Y113.704
G1 F900 X101.267 Y166.604 E207.95222
G0 F1285.7 X101.447 Y166.289
G1 F900 X47.7 Y112.541 E210.8611
G1 X47.638 Y112.479
G0 F1285.7 X47.033 Y111.379
G1 F900 X101.628 Y165.974 E213.81585
G0 F1285.7 X101.809 Y165.66
G1 F900 X46.366 Y110.218 E216.81647
G1 X46.304 Y110.156
G0 F1285.7 X45.699 Y109.056
G1 F900 X101.989 Y165.346 E219.86296
G0 F1285.7 X102.169 Y165.031
G1 F900 X45.032 Y107.893 E222.95531
G1 X44.97 Y107.831
G0 F1285.7 X44.365 Y106.732
G1 F900 X102.35 Y164.716 E226.09351
G0 F1285.7 X102.531 Y164.403
G1 F900 X43.698 Y105.57 E229.27763
G1 X43.636 Y105.508
G0 F1285.7 X43.031 Y104.408
G1 F900 X102.711 Y164.088 E232.50758
G0 F1285.7 X102.891 Y163.773
G1 F900 X42.364 Y103.246 E235.78338
G1 X42.302 Y103.184
G0 F1285.7 X41.697 Y102.084
G1 F900 X103.072 Y163.459 E239.10508
G0 F1285.7 X103.253 Y163.145
G1 F900 X41.217 Y101.109 E242.46254
G0 F1285.7 X41.397 Y100.794
G1 F900 X103.433 Y162.83 E245.82001
G0 F1285.7 X103.613 Y162.515
G1 F900 X41.577 Y100.479 E249.17748
G0 F1285.7 X41.758 Y100.165
G1 F900 X103.794 Y162.201 E252.53494
G0 F1285.7 X103.975 Y161.887
G1 F900 X41.939 Y99.851 E255.89241
G0 F1285.7 X42.119 Y99.536
G1 F900 X104.155 Y161.572 E259.24988
G0 F1285.7 X104.335 Y161.257
G1 F900 X42.299 Y99.221 E262.60735
G0 F1285.7 X42.48 Y98.907
G1 F900 X104.516 Y160.943 E265.96481
G0 F1285.7 X104.697 Y160.629
G1 F900 X42.661 Y98.593 E269.32228
G0 F1285.7 X42.841 Y98.278
G1 F900 X104.877 Y160.314 E272.67975
G0 F1285.7 X105.058 Y160
G1 F900 X43.021 Y97.963 E276.03727
G0 F1285.7 X43.202 Y97.65
G1 F900 X105.238 Y159.685 E279.39471
G0 F1285.7 X105.419 Y159.371
G1 F900 X43.383 Y97.335 E282.75218
G0 F1285.7 X43.563 Y97.02
G1 F900 X105.599 Y159.056 E286.10965
G0 F1285.7 X105.78 Y158.742
G1 F900 X43.743 Y96.706 E289.46714
G0 F1285.7 X43.924 Y96.392
G1 F900 X105.96 Y158.427 E292.82458
G0 F1285.7 X106.14 Y158.113
G1 F900 X44.105 Y96.077 E296.18202
G0 F1285.7 X44.285 Y95.762
G1 F900 X106.321 Y157.798 E299.53949
G0 F1285.7 X106.502 Y157.484
G1 F900 X44.466 Y95.448 E302.89696
G0 F1285.7 X44.646 Y95.134
G1 F900 X106.682 Y157.17 E306.25442
G0 F1285.7 X106.862 Y156.855
G1 F900 X44.827 Y94.819 E309.61186
G0 F1285.7 X45.007 Y94.504
G1 F900 X107.043 Y156.541 E312.96936
G0 F1285.7 X107.224 Y156.226
G1 F900 X45.188 Y94.19 E316.32682
G0 F1285.7 X45.368 Y93.876
G1 F900 X107.404 Y155.912 E319.68429
G0 F1285.7 X107.584 Y155.597
G1 F900 X45.548 Y93.561 E323.04176
G0 F1285.7 X45.729 Y93.246
G1 F900 X107.765 Y155.283 E326.39925
G0 F1285.7 X107.946 Y154.968
G1 F900 X45.91 Y92.932 E329.75672
G0 F1285.7 X46.09 Y92.618
G1 F900 X108.126 Y154.654 E333.11419
G0 F1285.7 X108.306 Y154.339
G1 F900 X46.27 Y92.303 E336.47166
G0 F1285.7 X46.451 Y91.989
G1 F900 X108.487 Y154.025 E339.82912
G0 F1285.7 X108.668 Y153.71
G1 F900 X46.632 Y91.674 E343.18659
G0 F1285.7 X46.812 Y91.36
G1 F900 X108.848 Y153.396 E346.54406
G0 F1285.7 X109.029 Y153.082
G1 F900 X46.992 Y91.045 E349.90158
G0 F1285.7 X47.173 Y90.731
G1 F900 X109.209 Y152.767 E353.25905
G0 F1285.7 X109.39 Y152.452
G1 F900 X47.354 Y90.417 E356.61649
G0 F1285.7 X47.534 Y90.102
G1 F900 X109.57 Y152.138 E359.97395
G0 F1285.7 X109.751 Y151.824
G1 F900 X47.714 Y89.787 E363.33148
G0 F1285.7 X47.895 Y89.473
G1 F900 X109.931 Y151.509 E366.68894
G0 F1285.7 X110.112 Y151.194
G1 F900 X48.076 Y89.159 E370.04638
G0 F1285.7 X48.256 Y88.844
G1 F900 X110.292 Y150.88 E373.40385
G0 F1285.7 X110.473 Y150.566
G1 F900 X48.436 Y88.529 E376.76137
G0 F1285.7 X48.617 Y88.215
G1 F900 X110.653 Y150.251 E380.11884
G0 F1285.7 X110.834 Y149.937
G1 F900 X48.798 Y87.901 E383.47631
G0 F1285.7 X48.978 Y87.586
G1 F900 X111.015 Y149.623 E386.83383
G0 F1285.7 X111.195 Y149.308
G1 F900 X49.159 Y87.272 E390.1913
G0 F1285.7 X49.339 Y86.957
G1 F900 X111.375 Y148.993 E393.54876
G0 F1285.7 X111.555 Y148.679
G1 F900 X49.52 Y86.643 E396.9062
G0 F1285.7 X49.7 Y86.328
G1 F900 X111.737 Y148.365 E400.26373
G0 F1285.7 X111.917 Y148.05
G1 F900 X49.881 Y86.014 E403.62119
G0 F1285.7 X50.061 Y85.699
G1 F900 X112.097 Y147.735 E406.97866
G0 F1285.7 X112.277 Y147.421
G1 F900 X50.242 Y85.385 E410.3361
G0 F1285.7 X50.422 Y85.07
G1 F900 X112.458 Y147.107 E413.69359
G0 F1285.7 X112.639 Y146.792
G1 F900 X50.603 Y84.756 E417.05106
G0 F1285.7 X50.783 Y84.441
G1 F900 X112.819 Y146.477 E420.40853
G0 F1285.7 X113 Y146.163
G1 F900 X50.964 Y84.127 E423.766
G0 F1285.7 X51.145 Y83.813
G1 F900 X113.18 Y145.849 E427.12344
G0 F1285.7 X113.361 Y145.534
G1 F900 X51.325 Y83.498 E430.4809
G0 F1285.7 X51.505 Y83.184
G1 F900 X113.541 Y145.219 E433.83834
G0 F1285.7 X113.722 Y144.905
G1 F900 X51.685 Y82.869 E437.19584
G0 F1285.7 X51.866 Y82.555
G1 F900 X113.902 Y144.591 E440.55331
G0 F1285.7 X114.083 Y144.276
G1 F900 X52.047 Y82.24 E443.91077
G0 F1285.7 X52.227 Y81.926
G1 F900 X114.263 Y143.961 E447.26821
G0 F1285.7 X114.444 Y143.648
G1 F900 X52.407 Y81.611 E450.62574
G0 F1285.7 X52.588 Y81.297
G1 F900 X114.624 Y143.333 E453.9832
G0 F1285.7 X114.805 Y143.018
