;FLAVOR:Marlin
;TIME:13177
;Filament used: 10.2528m
;Layer height: 0.2
;MINX:0.928
;MINY:20.408
;MINZ:0.26
;MAXX:174.171
;MAXY:200.08
;MAXZ:7.86
;Generated with Cura_SteamEngine 4.9.1
M82 ;absolute extrusion mode
;Begin Start Gcode for Dagoma DiscoEasy 200
;Sliced: 13-07-2021 17:15:03
;Initial extruder: 0

G90 ;Absolute positioning
M106 S255 ;Fan on full
G28 X Y ;Home stop X Y
G1 X100 ;Centre back during cooldown in case of oozing
M109 R90 ;Cooldown in case too hot
G28 ;Centre
G29 ;Auto-level
M104 S205 ;Pre-heat
M107 ;Fan off
G0 X100 Y5 Z0.5 ;Front centre for degunk
M109 S205 ;Wait for initial temp
M83 ;E Relative
G1 E10 F200 ;Degunk
G1 E-3 F5000 ;Retract
G0 Z3 ;Withdraw
M82 ;E absolute
G92 E0 ;E reset
G1 F6000 ;Set feedrate

;Finish Start Gcode for Dagoma DiscoEasy 200

G92 E0
G92 E0
G1 F3000 E-3.5
;LAYER_COUNT:39
;LAYER:0
M107
G0 F1285.7 X33.56 Y22.007 Z0.26
;TYPE:SKIRT
G1 F3000 E0
G1 F900 X33.918 Y21.58 E0.02132
G1 X34.332 Y21.209 E0.0426
G1 X34.796 Y20.902 E0.06389
G1 X35.299 Y20.664 E0.08519
G1 X35.831 Y20.5 E0.10649
G1 X36.38 Y20.414 E0.12776
G1 X36.937 Y20.408 E0.14907
G1 X37.488 Y20.482 E0.17035
G1 X38.024 Y20.634 E0.19167
G1 X38.532 Y20.861 E0.21297
G1 X39.002 Y21.158 E0.23424
G1 X39.576 Y21.678 E0.26388
G1 X40.213 Y22.384 E0.30027
G1 X172.802 Y174.668 E8.02752
G1 X173.249 Y175.194 E8.05394
G1 X173.578 Y175.642 E8.07521
G1 X173.839 Y176.134 E8.09652
G1 X174.027 Y176.657 E8.11779
G1 X174.139 Y177.203 E8.13912
G1 X174.171 Y177.758 E8.1604
G1 X174.123 Y178.312 E8.18168
G1 X173.996 Y178.854 E8.20298
G1 X173.793 Y179.372 E8.22427
G1 X173.518 Y179.856 E8.24557
G1 X173.176 Y180.295 E8.26687
G1 X172.775 Y180.681 E8.28817
G1 X172.323 Y181.005 E8.30946
G1 X171.83 Y181.262 E8.33073
G1 X171.085 Y181.497 E8.36063
G1 X170.106 Y181.7 E8.39889
G1 X72.935 Y199.91 E12.18231
G1 X72.254 Y200.026 E12.20875
G1 X71.7 Y200.08 E12.23005
G1 X71.144 Y200.054 E12.25135
G1 X70.598 Y199.948 E12.27264
G1 X70.072 Y199.766 E12.29394
G1 X69.578 Y199.51 E12.31523
G1 X69.126 Y199.186 E12.33651
G1 X68.68 Y198.756 E12.36022
G1 X68.292 Y198.321 E12.38253
G1 X2.303 Y122.528 E16.2284
G1 X1.843 Y121.984 E16.25567
G1 X1.515 Y121.534 E16.27698
G1 X1.255 Y121.043 E16.29824
G1 X1.068 Y120.519 E16.31953
G1 X0.958 Y119.973 E16.34085
G1 X0.928 Y119.417 E16.36216
G1 X0.977 Y118.863 E16.38344
G1 X1.13 Y118.235 E16.40818
G1 X1.295 Y117.723 E16.42876
G1 X32.849 Y23.55 E20.22964
G1 X33.046 Y22.99 E20.25236
G1 X33.267 Y22.48 E20.27363
G1 X33.56 Y22.007 E20.29492
G0 F1285.7 X33.873 Y22.172
G1 F900 X34.221 Y21.771 E20.31524
G1 X34.625 Y21.427 E20.33555
G1 X35.076 Y21.148 E20.35585
G1 X35.564 Y20.939 E20.37616
G1 X36.078 Y20.807 E20.39647
G1 X36.606 Y20.752 E20.41679
G1 X37.136 Y20.778 E20.43709
G1 X37.656 Y20.883 E20.4574
G1 X38.154 Y21.065 E20.47769
G1 X38.62 Y21.319 E20.498
G1 X39.042 Y21.641 E20.51831
G1 X39.317 Y21.913 E20.53311
G1 X39.95 Y22.614 E20.56926
G1 X172.535 Y174.894 E28.29629
G1 X172.982 Y175.42 E28.32271
G1 X173.294 Y175.849 E28.34301
G1 X173.539 Y176.321 E28.36336
G1 X173.709 Y176.823 E28.38364
G1 X173.803 Y177.345 E28.40394
G1 X173.817 Y177.876 E28.42427
G1 X173.751 Y178.402 E28.44455
G1 X173.607 Y178.913 E28.46487
G1 X173.388 Y179.396 E28.48517
G1 X173.098 Y179.841 E28.50549
G1 X172.746 Y180.238 E28.5258
G1 X172.337 Y180.577 E28.54613
G1 X171.883 Y180.851 E28.56642
G1 X171.392 Y181.053 E28.58674
G1 X171.014 Y181.154 E28.60171
G1 X170.041 Y181.356 E28.63974
G1 X72.876 Y199.565 E32.42294
G1 X72.195 Y199.681 E32.44937
G1 X71.667 Y199.73 E32.46967
G1 X71.137 Y199.7 E32.48998
G1 X70.618 Y199.59 E32.51028
G1 X70.121 Y199.404 E32.53059
G1 X69.657 Y199.145 E32.55093
G1 X69.238 Y198.82 E32.57122
G1 X68.851 Y198.424 E32.59241
G1 X68.556 Y198.091 E32.60944
G1 X2.57 Y122.302 E36.45512
G1 X2.11 Y121.758 E36.48238
G1 X1.799 Y121.328 E36.50269
G1 X1.556 Y120.857 E36.52297
G1 X1.386 Y120.354 E36.54329
G1 X1.294 Y119.831 E36.56362
G1 X1.282 Y119.301 E36.5839
G1 X1.349 Y118.774 E36.60423
G1 X1.49 Y118.258 E36.6247
G1 X1.627 Y117.834 E36.64176
G1 X33.179 Y23.666 E40.44243
G1 X33.376 Y23.106 E40.46515
G1 X33.589 Y22.62 E40.48546
G1 X33.873 Y22.172 E40.50576
G0 F1285.7 X34.185 Y22.34
G1 F900 X34.522 Y21.966 E40.52502
G1 X34.915 Y21.651 E40.5443
G1 X35.353 Y21.402 E40.56358
G1 X35.824 Y21.225 E40.58283
G1 X36.317 Y21.124 E40.60209
G1 X36.821 Y21.103 E40.6214
G1 X37.321 Y21.162 E40.64066
G1 X37.805 Y21.299 E40.65991
G1 X38.262 Y21.511 E40.67919
G1 X38.68 Y21.793 E40.69849
G1 X39.057 Y22.147 E40.71828
G1 X39.686 Y22.844 E40.75421
G1 X172.268 Y175.121 E48.48108
G1 X172.715 Y175.647 E48.5075
G1 X173.01 Y176.055 E48.52676
G1 X173.236 Y176.505 E48.54604
G1 X173.389 Y176.985 E48.56532
G1 X173.463 Y177.483 E48.58458
G1 X173.458 Y177.987 E48.60387
G1 X173.374 Y178.483 E48.62312
G1 X173.212 Y178.96 E48.6424
G1 X172.976 Y179.405 E48.66168
G1 X172.673 Y179.808 E48.68097
G1 X172.311 Y180.157 E48.70022
G1 X171.897 Y180.445 E48.71952
G1 X171.444 Y180.663 E48.73876
G1 X170.942 Y180.811 E48.75879
G1 X169.977 Y181.012 E48.79651
G1 X72.817 Y199.22 E52.5795
G1 X72.136 Y199.336 E52.60594
G1 X71.635 Y199.381 E52.62519
G1 X71.132 Y199.346 E52.64449
G1 X70.642 Y199.232 E52.66374
G1 X70.175 Y199.042 E52.68303
G1 X69.745 Y198.78 E52.7023
G1 X69.3 Y198.392 E52.7249
G1 X68.837 Y197.88 E52.75132
G1 X2.867 Y122.111 E56.59602
G1 X2.378 Y121.532 E56.62502
G1 X2.084 Y121.123 E56.6443
G1 X1.859 Y120.673 E56.66355
G1 X1.707 Y120.192 E56.68286
G1 X1.634 Y119.694 E56.70212
G1 X1.64 Y119.19 E56.72141
G1 X1.759 Y118.576 E56.74534
G1 X1.948 Y117.978 E56.76934
G1 X33.493 Y23.827 E60.56932
G1 X33.706 Y23.222 E60.59386
G1 X33.91 Y22.762 E60.61312
G1 X34.185 Y22.34 E60.6324
G1 F3000 E57.1324
;MESH:support_half_hex_28.stl
G0 F1285.7 X35.886 Y24.67
G0 X36.833 Y24.986
G0 X15.922 Y109.794
;TYPE:WALL-INNER
G1 F3000 E60.6324
G1 F900 X88.695 Y96.156 E63.46587
G1 X88.895 Y95.581 E63.48916
G1 X40.043 Y39.472 E66.33626
G1 X39.445 Y39.59 E66.35958
G1 X15.922 Y109.794 E69.19306
G0 F1285.7 X82.732 Y186.527
G1 F900 X155.505 Y172.89 E72.02652
G1 X155.705 Y172.315 E72.04982
G1 X106.853 Y116.205 E74.89694
G1 X106.255 Y116.323 E74.92027
G1 X82.732 Y186.527 E77.75375
G0 F1285.7 X169.023 Y177.425
G1 F900 X71.798 Y195.647 E81.53929
G1 X5.384 Y119.368 E85.40987
G1 X36.811 Y25.575 E89.19541
G1 X36.907 Y25.286 E89.20707
G1 X37.107 Y25.516 E89.21366
G1 X169.122 Y177.139 E96.9074
G1 X169.322 Y177.369 E96.91907
G1 X169.023 Y177.425 E96.92565
G0 F1285.7 X169.64 Y177.64
;TYPE:WALL-OUTER
G1 F900 X71.675 Y196 E100.74
G1 X5.017 Y119.441 E104.62479
G1 X36.683 Y24.934 E108.43915
G1 X36.779 Y24.645 E108.45081
G1 X36.979 Y24.875 E108.4574
G1 X169.739 Y177.354 E116.19457
G1 X169.939 Y177.584 E116.20624
G1 X169.64 Y177.64 E116.21282
G0 F1285.7 X169.444 Y177.676
G0 X169.614 Y177.594
G0 X83.261 Y186.351
G0 X83.216 Y186.106
G1 F900 X155.159 Y172.623 E119.01398
G1 X155.26 Y172.605 E119.01791
G1 X155.336 Y172.386 E119.02678
G1 X155.269 Y172.309 E119.03068
G1 X106.798 Y116.637 E121.85559
G1 X106.731 Y116.56 E121.85949
G1 X106.503 Y116.605 E121.86839
G1 X106.471 Y116.702 E121.8723
G1 X83.216 Y186.106 E124.67349
G0 F1285.7 X83.412 Y186.07
G0 X83.457 Y186.315
G0 X16.451 Y109.618
G0 X16.406 Y109.373
G1 F900 X88.349 Y95.889 E127.47465
G1 X88.45 Y95.871 E127.47858
G1 X88.526 Y95.652 E127.48745
G1 X88.459 Y95.575 E127.49136
G1 X39.988 Y39.904 E130.31623
G1 X39.921 Y39.827 E130.32014
G1 X39.693 Y39.872 E130.32903
G1 X39.661 Y39.969 E130.33294
G1 X16.406 Y109.373 E133.13413
G0 F1285.7 X16.602 Y109.337
G0 X16.647 Y109.582
G0 X15.415 Y110.235
;TYPE:SKIN
G1 F900 X88.951 Y96.454 E135.99731
G1 X89.281 Y95.507 E136.03569
G1 X40.17 Y39.101 E138.89786
G1 X39.185 Y39.295 E138.93628
G1 X15.415 Y110.235 E141.79947
G0 F1285.7 X5.768 Y119.292
G1 F900 X37.041 Y25.957 E145.56652
G1 X168.676 Y177.144 E153.23814
G1 X71.926 Y195.278 E157.00519
G1 X5.768 Y119.292 E160.86088
G0 F1285.7 X105.995 Y116.028
G1 F900 X82.225 Y186.968 E163.72407
G1 X155.761 Y173.188 E166.58724
G1 X156.091 Y172.241 E166.62562
G1 X106.98 Y115.834 E169.48782
G1 X105.995 Y116.028 E169.52624
G0 F1285.7 X72.295 Y195.049
G1 F900 X69.5 Y192.254 E169.67751
G1 X69.438 Y192.192
G0 F1285.7 X72.712 Y194.971
G1 F900 X66.169 Y188.428 E170.03162
G1 X66.107 Y188.366
G0 F1285.7 X62.838 Y184.602
G1 F900 X73.128 Y194.892 E170.58853
G0 F1285.7 X73.546 Y194.814
G1 F900 X59.507 Y180.776 E171.34831
G1 X59.445 Y180.714
G0 F1285.7 X56.176 Y176.95
G1 F900 X73.962 Y194.736 E172.31091
G0 F1285.7 X74.379 Y194.658
G1 F900 X52.845 Y173.124 E173.47636
G1 X52.783 Y173.062
G0 F1285.7 X49.514 Y169.298
G1 F900 X74.796 Y194.58 E174.84465
G0 F1285.7 X75.213 Y194.502
G1 F900 X46.183 Y165.472 E176.41579
G1 X46.121 Y165.41
G0 F1285.7 X42.852 Y161.646
G1 F900 X75.63 Y194.423 E178.18975
G0 F1285.7 X76.047 Y194.346
G1 F900 X39.521 Y157.82 E180.16659
G1 X39.459 Y157.758
G0 F1285.7 X36.191 Y153.995
G1 F900 X76.463 Y194.267 E182.34616
G0 F1285.7 X76.88 Y194.189
G1 F900 X32.859 Y150.168 E184.72863
G1 X32.797 Y150.106
G0 F1285.7 X29.528 Y146.342
G1 F900 X77.297 Y194.111 E187.31395
G0 F1285.7 X77.714 Y194.033
G1 F900 X26.198 Y142.517 E190.10206
G1 X26.136 Y142.455
G0 F1285.7 X22.867 Y138.691
G1 F900 X78.131 Y193.955 E193.09302
G0 F1285.7 X78.548 Y193.877
G1 F900 X19.535 Y134.865 E196.28685
G1 X19.473 Y134.803
G0 F1285.7 X16.204 Y131.038
G1 F900 X78.964 Y193.798 E199.6835
G0 F1285.7 X79.381 Y193.721
G1 F900 X12.874 Y127.213 E203.28297
G1 X12.812 Y127.151
G0 F1285.7 X9.543 Y123.387
G1 F900 X79.798 Y193.642 E207.08527
G0 F1285.7 X80.215 Y193.564
G1 F900 X6.211 Y119.561 E211.09043
G0 F1285.7 X6.059 Y118.914
G1 F900 X80.632 Y193.486 E215.12639
G0 F1285.7 X81.049 Y193.408
G1 F900 X6.184 Y118.543 E219.17818
G0 F1285.7 X6.308 Y118.172
G1 F900 X81.465 Y193.33 E223.2458
G0 F1285.7 X81.882 Y193.252
G1 F900 X6.432 Y117.801 E227.32927
G0 F1285.7 X6.557 Y117.431
G1 F900 X82.299 Y193.173 E231.42853
G0 F1285.7 X82.716 Y193.096
G1 F900 X6.681 Y117.06 E235.54367
G0 F1285.7 X6.805 Y116.689
G1 F900 X83.133 Y193.017 E239.67463
G0 F1285.7 X83.55 Y192.939
G1 F900 X6.929 Y116.319 E243.82143
G0 F1285.7 X7.054 Y115.948
G1 F900 X83.966 Y192.861 E247.98404
G0 F1285.7 X84.384 Y192.783
G1 F900 X7.177 Y115.577 E252.16255
G0 F1285.7 X7.302 Y115.206
G1 F900 X84.8 Y192.704 E256.35684
G0 F1285.7 X85.217 Y192.627
G1 F900 X7.426 Y114.836 E260.56699
G0 F1285.7 X7.55 Y114.465
G1 F900 X85.634 Y192.548 E264.79297
G0 F1285.7 X86.051 Y192.47
G1 F900 X7.674 Y114.094 E269.0348
G0 F1285.7 X7.799 Y113.723
G1 F900 X86.467 Y192.392 E273.29244
G0 F1285.7 X86.885 Y192.314
G1 F900 X7.923 Y113.352 E277.56597
G0 F1285.7 X8.047 Y112.982
G1 F900 X82.052 Y186.987 E281.57121
G0 F1285.7 X82.197 Y187.132
G1 F900 X87.301 Y192.236 E281.84745
G0 F1285.7 X87.718 Y192.158
G1 F900 X82.614 Y187.053 E282.12371
G0 F1285.7 X83.031 Y186.976
G1 F900 X88.135 Y192.079 E282.39992
G0 F1285.7 X88.552 Y192.002
G1 F900 X83.447 Y186.897 E282.67621
G0 F1285.7 X83.864 Y186.819
G1 F900 X88.968 Y191.923 E282.95244
G0 F1285.7 X89.386 Y191.845
G1 F900 X84.282 Y186.741 E283.22868
G0 F1285.7 X84.698 Y186.663
G1 F900 X89.802 Y191.767 E283.50491
G0 F1285.7 X90.219 Y191.689
G1 F900 X85.115 Y186.585 E283.78115
G0 F1285.7 X85.532 Y186.507
G1 F900 X90.636 Y191.611 E284.05738
G0 F1285.7 X91.053 Y191.533
G1 F900 X85.949 Y186.429 E284.33362
G0 F1285.7 X86.366 Y186.35
G1 F900 X91.469 Y191.454 E284.60982
G0 F1285.7 X91.887 Y191.377
G1 F900 X86.783 Y186.273 E284.88606
G0 F1285.7 X87.199 Y186.194
G1 F900 X92.303 Y191.298 E285.16229
G0 F1285.7 X92.72 Y191.22
G1 F900 X87.616 Y186.116 E285.43853
G0 F1285.7 X88.033 Y186.038
G1 F900 X93.137 Y191.142 E285.71476
G0 F1285.7 X93.554 Y191.064
G1 F900 X88.45 Y185.96 E285.991
G0 F1285.7 X88.867 Y185.882
G1 F900 X93.97 Y190.986 E286.26721
G0 F1285.7 X94.388 Y190.908
G1 F900 X89.284 Y185.804 E286.54344
G0 F1285.7 X89.7 Y185.725
G1 F900 X94.804 Y190.829 E286.81968
G0 F1285.7 X95.221 Y190.751
G1 F900 X90.117 Y185.648 E287.09588
G0 F1285.7 X90.534 Y185.569
G1 F900 X95.638 Y190.673 E287.37212
G0 F1285.7 X96.055 Y190.595
G1 F900 X90.951 Y185.491 E287.64835
G0 F1285.7 X91.368 Y185.414
G1 F900 X96.471 Y190.517 E287.92453
G0 F1285.7 X96.889 Y190.439
G1 F900 X91.785 Y185.335 E288.20077
G0 F1285.7 X92.202 Y185.257
G1 F900 X97.305 Y190.36 E288.47695
G0 F1285.7 X97.722 Y190.283
G1 F900 X92.618 Y185.179 E288.75319
G0 F1285.7 X93.036 Y185.101
G1 F900 X98.139 Y190.204 E289.02937
G0 F1285.7 X98.556 Y190.126
G1 F900 X93.452 Y185.022 E289.3056
G0 F1285.7 X93.869 Y184.945
G1 F900 X98.973 Y190.048 E289.58181
G0 F1285.7 X99.39 Y189.97
G1 F900 X94.286 Y184.866 E289.85804
G0 F1285.7 X94.703 Y184.788
G1 F900 X99.806 Y189.892 E290.13425
G0 F1285.7 X100.223 Y189.814
G1 F900 X95.12 Y184.71 E290.41046
G0 F1285.7 X95.537 Y184.632
G1 F900 X100.64 Y189.735 E290.68664
G0 F1285.7 X101.057 Y189.658
G1 F900 X95.953 Y184.554 E290.96288
G0 F1285.7 X96.37 Y184.476
G1 F900 X101.474 Y189.579 E291.23908
G0 F1285.7 X101.891 Y189.501
G1 F900 X96.787 Y184.397 E291.51532
G0 F1285.7 X97.204 Y184.32
G1 F900 X102.307 Y189.423 E291.7915
G0 F1285.7 X102.724 Y189.345
G1 F900 X97.621 Y184.241 E292.06771
G0 F1285.7 X98.038 Y184.163
G1 F900 X103.141 Y189.267 E292.34392
G0 F1285.7 X103.558 Y189.189
G1 F900 X98.454 Y184.085 E292.62015
G0 F1285.7 X98.871 Y184.007
G1 F900 X103.975 Y189.11 E292.89636
G0 F1285.7 X104.392 Y189.032
G1 F900 X99.289 Y183.929 E293.17254
G0 F1285.7 X99.705 Y183.851
G1 F900 X104.808 Y188.954 E293.44872
G0 F1285.7 X105.225 Y188.876
G1 F900 X100.122 Y183.773 E293.7249
G0 F1285.7 X100.539 Y183.695
G1 F900 X105.642 Y188.798 E294.00108
G0 F1285.7 X106.059 Y188.72
G1 F900 X100.956 Y183.617 E294.27726
G0 F1285.7 X101.372 Y183.538
G1 F900 X106.476 Y188.641 E294.55347
G0 F1285.7 X106.893 Y188.564
G1 F900 X101.79 Y183.46 E294.82968
G0 F1285.7 X102.206 Y183.382
G1 F900 X107.309 Y188.485 E295.10586
G0 F1285.7 X107.727 Y188.407
G1 F900 X102.623 Y183.304 E295.38207
G0 F1285.7 X103.04 Y183.226
G1 F900 X108.143 Y188.329 E295.65825
G0 F1285.7 X108.56 Y188.251
G1 F900 X103.457 Y183.148 E295.93443
G0 F1285.7 X103.873 Y183.069
G1 F900 X108.977 Y188.173 E296.21066
G0 F1285.7 X109.394 Y188.095
G1 F900 X104.291 Y182.992 E296.48684
G0 F1285.7 X104.707 Y182.913
G1 F900 X109.81 Y188.016 E296.76303
G0 F1285.7 X110.228 Y187.939
G1 F900 X105.124 Y182.835 E297.03926
G0 F1285.7 X105.541 Y182.757
G1 F900 X110.644 Y187.86 E297.31544
G0 F1285.7 X111.061 Y187.782
G1 F900 X105.958 Y182.679 E297.59162
G0 F1285.7 X106.375 Y182.601
G1 F900 X111.478 Y187.704 E297.8678
G0 F1285.7 X111.895 Y187.626
G1 F900 X106.792 Y182.523 E298.14398
G0 F1285.7 X107.209 Y182.445
G1 F900 X112.311 Y187.548 E298.42014
G0 F1285.7 X112.729 Y187.47
G1 F900 X107.625 Y182.367 E298.69635
G0 F1285.7 X108.043 Y182.289
G1 F900 X113.145 Y187.391 E298.97247
G0 F1285.7 X113.562 Y187.314
G1 F900 X108.459 Y182.21 E299.24868
G0 F1285.7 X108.876 Y182.133
G1 F900 X113.979 Y187.235 E299.52483
G0 F1285.7 X114.396 Y187.157
G1 F900 X109.293 Y182.054 E299.80102
G0 F1285.7 X109.71 Y181.976
G1 F900 X114.812 Y187.079 E300.07717
G0 F1285.7 X115.23 Y187.001
G1 F900 X110.126 Y181.898 E300.35338
G0 F1285.7 X110.544 Y181.82
G1 F900 X115.646 Y186.922 E300.6295
G0 F1285.7 X116.063 Y186.845
G1 F900 X110.96 Y181.741 E300.90571
G0 F1285.7 X111.377 Y181.664
G1 F900 X116.48 Y186.766 E301.18187
G0 F1285.7 X116.897 Y186.688
G1 F900 X111.794 Y181.585 E301.45805
G0 F1285.7 X112.211 Y181.507
G1 F900 X117.313 Y186.61 E301.7342
G0 F1285.7 X117.731 Y186.532
G1 F900 X112.627 Y181.429 E302.01041
G0 F1285.7 X113.045 Y181.351
G1 F900 X118.147 Y186.454 E302.28656
G0 F1285.7 X118.564 Y186.376
G1 F900 X113.461 Y181.273 E302.56274
G0 F1285.7 X113.878 Y181.195
G1 F900 X118.981 Y186.297 E302.8389
G0 F1285.7 X119.398 Y186.22
G1 F900 X114.296 Y181.117 E303.11505
G0 F1285.7 X114.712 Y181.039
G1 F900 X119.815 Y186.141 E303.3912
G0 F1285.7 X120.232 Y186.063
G1 F900 X115.129 Y180.961 E303.66736
G0 F1285.7 X115.546 Y180.882
G1 F900 X120.648 Y185.985 E303.94351
G0 F1285.7 X121.065 Y185.907
G1 F900 X115.963 Y180.805 E304.21964
G0 F1285.7 X116.379 Y180.726
G1 F900 X121.482 Y185.829 E304.49582
G0 F1285.7 X121.899 Y185.751
G1 F900 X116.797 Y180.648 E304.77197
G0 F1285.7 X117.213 Y180.57
G1 F900 X122.316 Y185.672 E305.04813
