;FLAVOR:Marlin
;TIME:11880
;Filament used: 14.4115m
;Layer height: 0.3
;MINX:33.781
;MINY:11.306
;MINZ:0.26
;MAXX:193.455
;MAXY:194.482
;MAXZ:7.76
;Generated with Cura_SteamEngine 4.9.1
M82 ;absolute extrusion mode
;Begin Start Gcode for Dagoma DiscoEasy 200
;Sliced: 07-07-2021 20:08:35
;Initial extruder: 0

G90 ;Absolute positioning
M106 S255 ;Fan on full
G28 X Y ;Home stop X Y
G1 X100 ;Centre back during cooldown in case of oozing
M109 R90 ;Cooldown in case too hot
G28 ;Centre
G29 ;Auto-level
M104 S205 ;Pre-heat
M107 ;Fan off
G0 X100 Y5 Z0.5 ;Front centre for degunk
M109 S205 ;Wait for initial temp
M83 ;E Relative
G1 E10 F200 ;Degunk
G1 E-3 F5000 ;Retract
G0 Z3 ;Withdraw
M82 ;E absolute
G92 E0 ;E reset
G1 F6000 ;Set feedrate

;Finish Start Gcode for Dagoma DiscoEasy 200

G92 E0
G92 E0
G1 F3000 E-3.5
;LAYER_COUNT:26
;LAYER:0
M107
G0 F1285.7 X85.505 Y13.766 Z0.26
;TYPE:SKIRT
G1 F3000 E0
G1 F900 X85.865 Y13.175 E0.02648
G1 X86.187 Y12.722 E0.04775
G1 X86.572 Y12.32 E0.06905
G1 X87.01 Y11.977 E0.09034
G1 X87.493 Y11.7 E0.11165
G1 X88.01 Y11.495 E0.13294
G1 X88.551 Y11.366 E0.15422
G1 X89.216 Y11.312 E0.17975
G1 X89.635 Y11.306 E0.19579
G1 X188.956 Y11.306 E3.99676
G1 X189.638 Y11.316 E4.02286
G1 X190.192 Y11.364 E4.04414
G1 X190.734 Y11.491 E4.06544
G1 X191.252 Y11.695 E4.08675
G1 X191.735 Y11.97 E4.10802
G1 X192.174 Y12.312 E4.12932
G1 X192.56 Y12.713 E4.15062
G1 X192.884 Y13.165 E4.1719
G1 X193.14 Y13.659 E4.19319
G1 X193.323 Y14.185 E4.21451
G1 X193.429 Y14.731 E4.23579
G1 X193.455 Y15.287 E4.25709
G1 X193.401 Y15.841 E4.27839
G1 X193.269 Y16.381 E4.29967
G1 X192.958 Y17.091 E4.32933
G1 X192.491 Y17.92 E4.36575
G1 X90.222 Y192.02 E12.09294
G1 X89.861 Y192.616 E12.11961
G1 X89.54 Y193.07 E12.14089
G1 X89.156 Y193.473 E12.16219
G1 X88.719 Y193.817 E12.18348
G1 X88.237 Y194.095 E12.20477
G1 X87.72 Y194.301 E12.22607
G1 X87.179 Y194.431 E12.24736
G1 X86.625 Y194.482 E12.26865
G1 X86.07 Y194.453 E12.28992
G1 X85.524 Y194.345 E12.31122
G1 X84.999 Y194.16 E12.33252
G1 X84.506 Y193.902 E12.35382
G1 X84.055 Y193.576 E12.37511
G1 X83.656 Y193.188 E12.39641
G1 X83.198 Y192.557 E12.42625
G1 X82.686 Y191.677 E12.46521
G1 X34.58 Y105.384 E16.24609
G1 X34.236 Y104.745 E16.27387
G1 X34.008 Y104.237 E16.29517
G1 X33.855 Y103.702 E16.31647
G1 X33.781 Y103.151 E16.33775
G1 X33.786 Y102.594 E16.35906
G1 X33.87 Y102.044 E16.38035
G1 X34.033 Y101.512 E16.40165
G1 X34.32 Y100.915 E16.427
G1 X34.577 Y100.464 E16.44686
G1 X85.505 Y13.766 E20.29484
G0 F1285.7 X85.804 Y13.948
G1 F900 X86.164 Y13.357 E20.32133
G1 X86.473 Y12.926 E20.34162
G1 X86.844 Y12.546 E20.36195
G1 X87.267 Y12.226 E20.38225
G1 X87.734 Y11.974 E20.40255
G1 X88.233 Y11.794 E20.42285
G1 X88.753 Y11.691 E20.44314
G1 X89.307 Y11.66 E20.46438
G1 X89.64 Y11.656 E20.47712
G1 X188.951 Y11.656 E24.2777
G1 X189.633 Y11.666 E24.30381
G1 X190.161 Y11.714 E24.3241
G1 X190.677 Y11.841 E24.34443
G1 X191.167 Y12.043 E24.36472
G1 X191.622 Y12.317 E24.38504
G1 X192.03 Y12.656 E24.40534
G1 X192.383 Y13.052 E24.42564
G1 X192.672 Y13.497 E24.44595
G1 X192.891 Y13.98 E24.46625
G1 X193.036 Y14.491 E24.48657
G1 X193.102 Y15.017 E24.50686
G1 X193.088 Y15.548 E24.52719
G1 X192.995 Y16.07 E24.54748
G1 X192.824 Y16.573 E24.56781
G1 X192.653 Y16.92 E24.58262
G1 X192.189 Y17.742 E24.61874
G1 X89.923 Y191.838 E32.34575
G1 X89.562 Y192.434 E32.37242
G1 X89.254 Y192.866 E32.39272
G1 X88.884 Y193.247 E32.41304
G1 X88.461 Y193.568 E32.43337
G1 X87.995 Y193.822 E32.45368
G1 X87.497 Y194.003 E32.47395
G1 X86.976 Y194.107 E32.49429
G1 X86.446 Y194.132 E32.51459
G1 X85.918 Y194.077 E32.53491
G1 X85.405 Y193.943 E32.5552
G1 X84.917 Y193.734 E32.57551
G1 X84.466 Y193.454 E32.59583
G1 X84.063 Y193.109 E32.61613
G1 X83.716 Y192.708 E32.63643
G1 X83.5 Y192.381 E32.65142
G1 X82.992 Y191.506 E32.69014
G1 X34.888 Y105.218 E36.47082
G1 X34.544 Y104.579 E36.49859
G1 X34.329 Y104.094 E36.51889
G1 X34.188 Y103.582 E36.53922
G1 X34.126 Y103.055 E36.55952
G1 X34.144 Y102.525 E36.57982
G1 X34.241 Y102.003 E36.60014
G1 X34.416 Y101.502 E36.62045
G1 X34.673 Y101.001 E36.64199
G1 X34.879 Y100.642 E36.65783
G1 X85.804 Y13.948 E40.50563
G0 F1285.7 X86.102 Y14.13
G1 F900 X86.462 Y13.539 E40.53211
G1 X86.758 Y13.131 E40.5514
G1 X87.114 Y12.775 E40.57067
G1 X87.522 Y12.48 E40.58993
G1 X87.971 Y12.253 E40.60919
G1 X88.451 Y12.099 E40.62848
G1 X89.065 Y12.018 E40.65218
G1 X89.644 Y12.006 E40.67434
G1 X188.946 Y12.006 E44.47458
G1 X189.628 Y12.016 E44.50069
G1 X190.129 Y12.064 E44.51995
G1 X190.616 Y12.19 E44.5392
G1 X191.078 Y12.391 E44.55848
G1 X191.502 Y12.663 E44.57776
G1 X191.877 Y12.999 E44.59703
G1 X192.195 Y13.389 E44.61628
G1 X192.447 Y13.825 E44.63556
G1 X192.627 Y14.296 E44.65485
G1 X192.73 Y14.788 E44.67409
G1 X192.754 Y15.291 E44.69336
G1 X192.699 Y15.792 E44.71265
G1 X192.564 Y16.277 E44.73192
G1 X192.348 Y16.748 E44.75175
G1 X191.888 Y17.565 E44.78763
G1 X89.624 Y191.657 E52.51447
G1 X89.263 Y192.253 E52.54113
G1 X88.968 Y192.662 E52.56043
G1 X88.613 Y193.019 E52.5797
G1 X88.206 Y193.315 E52.59896
G1 X87.757 Y193.543 E52.61823
G1 X87.278 Y193.698 E52.6375
G1 X86.78 Y193.774 E52.65677
G1 X86.277 Y193.771 E52.67602
G1 X85.78 Y193.689 E52.6953
G1 X85.302 Y193.529 E52.71459
G1 X84.856 Y193.295 E52.73387
G1 X84.453 Y192.994 E52.75312
G1 X84.102 Y192.633 E52.77239
G1 X83.803 Y192.205 E52.79237
G1 X83.298 Y191.336 E52.83083
G1 X35.196 Y105.052 E56.61133
G1 X34.852 Y104.413 E56.63911
G1 X34.65 Y103.952 E56.65837
G1 X34.522 Y103.465 E56.67764
G1 X34.473 Y102.964 E56.6969
G1 X34.505 Y102.461 E56.71619
G1 X34.615 Y101.97 E56.73545
G1 X34.853 Y101.403 E56.75898
G1 X35.162 Y100.85 E56.78322
G1 X86.102 Y14.13 E60.63216
G1 F3000 E57.13216
;MESH:support_half_hex_19.stl
G0 F1285.7 X88.288 Y15.417
G0 X89.158 Y15.927
G0 X86.407 Y189.314
;TYPE:WALL-INNER
G1 F3000 E60.63216
G1 F900 X86.406 Y189.313 E60.63222
G1 X38.24 Y102.914 E64.41776
G1 X89.468 Y15.706 E68.28838
G1 X188.384 Y15.706 E72.07385
G1 X188.386 Y15.706 E72.07393
G1 X188.689 Y15.706 E72.08552
G1 X188.535 Y15.968 E72.09211
G1 X86.708 Y189.317 E79.78596
G1 X86.554 Y189.579 E79.79759
G1 X86.407 Y189.314 E79.80414
G0 F1285.7 X86.4 Y189.968
;TYPE:WALL-OUTER
G1 F900 X86.399 Y189.967 E79.80419
G1 X37.866 Y102.91 E83.61857
G1 X89.282 Y15.381 E87.50343
G1 X188.952 Y15.381 E91.31775
G1 X188.954 Y15.381 E91.31783
G1 X189.257 Y15.381 E91.32943
G1 X189.103 Y15.643 E91.33601
G1 X86.701 Y189.971 E99.07331
G1 X86.547 Y190.233 E99.08494
G1 X86.4 Y189.968 E99.09149
G0 F1285.7 X86.399 Y189.967
G0 X86.303 Y189.794
G0 X86.562 Y188.894
;TYPE:SKIN
G1 F900 X38.632 Y102.919 E102.85846
G1 X89.662 Y16.046 E106.7142
G1 X188.095 Y16.046 E110.48118
G1 X86.562 Y188.894 E118.1528
G0 F1285.7 X86.582 Y188.547
G1 F900 X86.506 Y188.47 E118.15694
G0 F1285.7 X86.765 Y188.235
G1 F900 X85.883 Y187.352 E118.2047
G1 X85.821 Y187.29
G0 F1285.7 X86.948 Y187.923
G1 F900 X85.259 Y186.234 E118.29611
G1 X85.197 Y186.172
G0 F1285.7 X84.635 Y185.115
G1 F900 X87.131 Y187.611 E118.4312
G0 F1285.7 X87.315 Y187.3
G1 F900 X84.012 Y183.996 E118.60999
G1 X83.95 Y183.934
G0 F1285.7 X83.388 Y182.878
G1 F900 X87.498 Y186.988 E118.83243
G0 F1285.7 X87.681 Y186.676
G1 F900 X82.764 Y181.759 E119.09854
G1 X82.702 Y181.697
G0 F1285.7 X82.141 Y180.641
G1 F900 X87.865 Y186.365 E119.40833
G0 F1285.7 X88.048 Y186.053
G1 F900 X81.517 Y179.522 E119.7618
G1 X81.455 Y179.46
G0 F1285.7 X80.894 Y178.404
G1 F900 X88.231 Y185.741 E120.15889
G0 F1285.7 X88.414 Y185.429
G1 F900 X80.27 Y177.285 E120.59965
G1 X80.208 Y177.223
G0 F1285.7 X79.647 Y176.167
G1 F900 X88.597 Y185.117 E121.08404
G0 F1285.7 X88.78 Y184.805
G1 F900 X79.023 Y175.048 E121.6121
G1 X78.961 Y174.986
G0 F1285.7 X78.399 Y173.929
G1 F900 X88.963 Y184.494 E122.18386
G0 F1285.7 X89.147 Y184.182
G1 F900 X77.776 Y172.811 E122.79927
G1 X77.714 Y172.749
G0 F1285.7 X77.152 Y171.692
G1 F900 X89.33 Y183.87 E123.45836
G0 F1285.7 X89.513 Y183.558
G1 F900 X76.528 Y170.573 E124.16113
G1 X76.466 Y170.511
G0 F1285.7 X75.905 Y169.455
G1 F900 X89.696 Y183.246 E124.90751
G0 F1285.7 X89.879 Y182.934
G1 F900 X75.282 Y168.337 E125.69752
G1 X75.22 Y168.275
G0 F1285.7 X74.658 Y167.218
G1 F900 X90.062 Y182.623 E126.53123
G0 F1285.7 X90.245 Y182.311
G1 F900 X74.034 Y166.1 E127.40859
G1 X73.972 Y166.038
G0 F1285.7 X73.411 Y164.981
G1 F900 X90.429 Y181.999 E128.32963
G0 F1285.7 X90.612 Y181.687
G1 F900 X72.787 Y163.862 E129.29434
G1 X72.725 Y163.8
G0 F1285.7 X72.163 Y162.744
G1 F900 X90.795 Y181.375 E130.3027
G0 F1285.7 X90.978 Y181.063
G1 F900 X71.54 Y161.625 E131.35471
G1 X71.478 Y161.563
G0 F1285.7 X70.916 Y160.506
G1 F900 X91.161 Y180.752 E132.45042
G0 F1285.7 X91.344 Y180.44
G1 F900 X70.292 Y159.388 E133.58978
G1 X70.23 Y159.326
G0 F1285.7 X69.669 Y158.27
G1 F900 X91.527 Y180.128 E134.77277
G0 F1285.7 X91.711 Y179.816
G1 F900 X69.046 Y157.151 E135.99943
G1 X68.984 Y157.089
G0 F1285.7 X68.422 Y156.033
G1 F900 X91.894 Y179.504 E137.26973
G0 F1285.7 X92.077 Y179.192
G1 F900 X67.798 Y154.914 E138.58372
G1 X67.736 Y154.852
G0 F1285.7 X67.175 Y153.795
G1 F900 X92.26 Y178.881 E139.94138
G0 F1285.7 X92.443 Y178.569
G1 F900 X66.551 Y152.677 E141.34268
G1 X66.489 Y152.615
G0 F1285.7 X65.927 Y151.558
G1 F900 X92.626 Y178.257 E142.78767
G0 F1285.7 X92.809 Y177.945
G1 F900 X65.304 Y150.439 E144.2763
G1 X65.242 Y150.377
G0 F1285.7 X64.681 Y149.321
G1 F900 X92.993 Y177.633 E145.80858
G0 F1285.7 X93.176 Y177.322
G1 F900 X64.057 Y148.203 E147.38454
G1 X63.995 Y148.141
G0 F1285.7 X63.433 Y147.084
G1 F900 X93.36 Y177.01 E149.0042
G0 F1285.7 X93.543 Y176.698
G1 F900 X62.81 Y145.965 E150.66751
G1 X62.748 Y145.903
G0 F1285.7 X62.186 Y144.847
G1 F900 X93.726 Y176.387 E152.37449
G0 F1285.7 X93.909 Y176.075
G1 F900 X61.562 Y143.728 E154.12515
G1 X61.5 Y143.666
G0 F1285.7 X60.939 Y142.61
G1 F900 X94.092 Y175.763 E155.91944
G0 F1285.7 X94.275 Y175.451
G1 F900 X60.315 Y141.491 E157.7574
G1 X60.253 Y141.429
G0 F1285.7 X59.691 Y140.372
G1 F900 X94.458 Y175.139 E159.63903
G0 F1285.7 X94.642 Y174.827
G1 F900 X59.068 Y139.254 E161.56431
G1 X59.006 Y139.192
G0 F1285.7 X58.445 Y138.136
G1 F900 X94.825 Y174.516 E163.53324
G0 F1285.7 X95.008 Y174.204
G1 F900 X57.821 Y137.017 E165.54585
G1 X57.759 Y136.955
G0 F1285.7 X57.197 Y135.898
G1 F900 X95.191 Y173.892 E167.60214
G0 F1285.7 X95.374 Y173.58
G1 F900 X56.574 Y134.78 E169.70204
G1 X56.512 Y134.718
G0 F1285.7 X55.95 Y133.661
G1 F900 X95.557 Y173.268 E171.84562
G0 F1285.7 X95.74 Y172.956
G1 F900 X55.326 Y132.542 E174.03288
G1 X55.264 Y132.48
G0 F1285.7 X54.703 Y131.424
G1 F900 X95.923 Y172.645 E176.26379
G0 F1285.7 X96.107 Y172.333
G1 F900 X54.08 Y130.306 E178.53834
G1 X54.018 Y130.244
G0 F1285.7 X53.456 Y129.187
G1 F900 X96.29 Y172.021 E180.85657
G0 F1285.7 X96.473 Y171.709
G1 F900 X52.832 Y128.069 E183.21845
G1 X52.77 Y128.007
G0 F1285.7 X52.209 Y126.95
G1 F900 X96.656 Y171.397 E185.62398
G0 F1285.7 X96.839 Y171.085
G1 F900 X51.585 Y125.831 E188.07318
G1 X51.523 Y125.769
G0 F1285.7 X50.961 Y124.713
G1 F900 X97.022 Y170.774 E190.56606
G0 F1285.7 X97.205 Y170.462
G1 F900 X50.338 Y123.594 E193.10259
G1 X50.276 Y123.532
G0 F1285.7 X49.714 Y122.475
G1 F900 X97.389 Y170.15 E195.68282
G0 F1285.7 X97.572 Y169.838
G1 F900 X49.09 Y121.357 E198.3067
G1 X49.028 Y121.295
G0 F1285.7 X48.467 Y120.239
G1 F900 X97.755 Y169.526 E200.97421
G0 F1285.7 X97.938 Y169.214
G1 F900 X47.844 Y119.12 E203.68536
G1 X47.782 Y119.058
G0 F1285.7 X47.22 Y118.001
G1 F900 X98.121 Y168.903 E206.44021
G0 F1285.7 X98.304 Y168.591
G1 F900 X46.596 Y116.883 E209.23872
G1 X46.534 Y116.821
G0 F1285.7 X45.973 Y115.764
G1 F900 X98.487 Y168.279 E212.08087
G0 F1285.7 X98.671 Y167.967
G1 F900 X45.349 Y114.646 E214.96669
G1 X45.287 Y114.584
G0 F1285.7 X44.725 Y113.527
G1 F900 X98.854 Y167.655 E217.8962
G0 F1285.7 X99.037 Y167.343
G1 F900 X44.102 Y112.408 E220.86935
G1 X44.04 Y112.346
G0 F1285.7 X43.479 Y111.29
G1 F900 X99.221 Y167.032 E223.88618
G0 F1285.7 X99.404 Y166.72
G1 F900 X42.855 Y110.172 E226.94665
G1 X42.793 Y110.11
G0 F1285.7 X42.231 Y109.053
G1 F900 X99.587 Y166.409 E230.05083
G0 F1285.7 X99.77 Y166.097
G1 F900 X41.608 Y107.934 E233.19866
G1 X41.546 Y107.872
G0 F1285.7 X40.984 Y106.816
G1 F900 X99.953 Y165.785 E236.39014
G0 F1285.7 X100.136 Y165.473
G1 F900 X40.36 Y105.697 E239.62529
G1 X40.298 Y105.635
G0 F1285.7 X39.737 Y104.578
G1 F900 X100.32 Y165.161 E242.90412
G0 F1285.7 X100.503 Y164.849
G1 F900 X39.113 Y103.46 E246.2266
G1 X39.051 Y103.398
G0 F1285.7 X38.907 Y102.758
G1 F900 X100.686 Y164.538 E249.57019
G0 F1285.7 X100.869 Y164.226
G1 F900 X39.09 Y102.447 E252.91374
G0 F1285.7 X39.274 Y102.135
G1 F900 X101.052 Y163.914 E256.25728
G0 F1285.7 X101.235 Y163.602
G1 F900 X39.457 Y101.824 E259.60078
G0 F1285.7 X39.64 Y101.512
G1 F900 X101.418 Y163.29 E262.94428
G0 F1285.7 X101.602 Y162.978
G1 F900 X39.823 Y101.2 E266.28781
G0 F1285.7 X40.006 Y100.888
G1 F900 X101.785 Y162.667 E269.63137
G0 F1285.7 X101.968 Y162.355
G1 F900 X40.189 Y100.576 E272.97493
G0 F1285.7 X40.372 Y100.264
G1 F900 X102.151 Y162.043 E276.31849
G0 F1285.7 X102.334 Y161.731
G1 F900 X40.556 Y99.953 E279.66199
G0 F1285.7 X40.739 Y99.641
G1 F900 X102.517 Y161.419 E283.0055
G0 F1285.7 X102.7 Y161.107
G1 F900 X40.922 Y99.329 E286.349
G0 F1285.7 X41.105 Y99.017
G1 F900 X102.884 Y160.796 E289.69256
G0 F1285.7 X103.067 Y160.484
G1 F900 X41.288 Y98.705 E293.03612
G0 F1285.7 X41.471 Y98.393
G1 F900 X103.25 Y160.172 E296.37968
G0 F1285.7 X103.433 Y159.86
G1 F900 X41.654 Y98.082 E299.72321
G0 F1285.7 X41.838 Y97.77
G1 F900 X103.616 Y159.548 E303.06671
G0 F1285.7 X103.799 Y159.236
G1 F900 X42.021 Y97.458 E306.41022
G0 F1285.7 X42.204 Y97.146
G1 F900 X103.982 Y158.925 E309.75375
G0 F1285.7 X104.166 Y158.613
G1 F900 X42.387 Y96.834 E313.0973
G0 F1285.7 X42.57 Y96.522
G1 F900 X104.349 Y158.301 E316.44086
G0 F1285.7 X104.532 Y157.989
G1 F900 X42.753 Y96.211 E319.78439
G0 F1285.7 X42.936 Y95.899
G1 F900 X104.715 Y157.677 E323.12793
G0 F1285.7 X104.898 Y157.365
G1 F900 X43.12 Y95.587 E326.47143
G0 F1285.7 X43.303 Y95.275
G1 F900 X105.082 Y157.054 E329.81499
G0 F1285.7 X105.265 Y156.742
G1 F900 X43.486 Y94.963 E333.15855
G0 F1285.7 X43.669 Y94.651
G1 F900 X105.448 Y156.431 E336.50213
G0 F1285.7 X105.631 Y156.119
G1 F900 X43.852 Y94.34 E339.84569
G0 F1285.7 X44.035 Y94.028
G1 F900 X105.814 Y155.807 E343.18925
G0 F1285.7 X105.998 Y155.495
G1 F900 X44.218 Y93.716 E346.53283
G0 F1285.7 X44.402 Y93.404
G1 F900 X106.181 Y155.183 E349.87639
G0 F1285.7 X106.364 Y154.871
G1 F900 X44.585 Y93.092 E353.21995
G0 F1285.7 X44.768 Y92.78
G1 F900 X106.547 Y154.56 E356.56353
G0 F1285.7 X106.73 Y154.248
G1 F900 X44.951 Y92.469 E359.90709
G0 F1285.7 X45.134 Y92.157
G1 F900 X106.913 Y153.936 E363.25065
G0 F1285.7 X107.096 Y153.624
G1 F900 X45.317 Y91.845 E366.59421
G0 F1285.7 X45.5 Y91.533
G1 F900 X107.28 Y153.312 E369.93779
G0 F1285.7 X107.463 Y153
G1 F900 X45.684 Y91.221 E373.28135
G0 F1285.7 X45.867 Y90.909
G1 F900 X107.646 Y152.689 E376.62494
G0 F1285.7 X107.829 Y152.377
G1 F900 X46.051 Y90.598 E379.96847
G0 F1285.7 X46.234 Y90.286
G1 F900 X108.012 Y152.065 E383.312
G0 F1285.7 X108.195 Y151.753
G1 F900 X46.417 Y89.975 E386.6555
G0 F1285.7 X46.6 Y89.663
G1 F900 X108.378 Y151.441 E389.99901
G0 F1285.7 X108.562 Y151.129
G1 F900 X46.783 Y89.351 E393.34254
G0 F1285.7 X46.966 Y89.039
G1 F900 X108.745 Y150.818 E396.6861
G0 F1285.7 X108.928 Y150.506
G1 F900 X47.149 Y88.727 E400.02966
G0 F1285.7 X47.333 Y88.415
G1 F900 X109.111 Y150.194 E403.37319
G0 F1285.7 X109.294 Y149.882
G1 F900 X47.516 Y88.104 E406.71669
G0 F1285.7 X47.699 Y87.792
G1 F900 X109.477 Y149.57 E410.06019
G0 F1285.7 X109.66 Y149.258
G1 F900 X47.882 Y87.48 E413.4037
G0 F1285.7 X48.065 Y87.168
G1 F900 X109.844 Y148.947 E416.74726
G0 F1285.7 X110.027 Y148.635
G1 F900 X48.248 Y86.856 E420.09082
G0 F1285.7 X48.431 Y86.544
G1 F900 X110.21 Y148.323 E423.43437
G0 F1285.7 X110.393 Y148.011
G1 F900 X48.615 Y86.233 E426.77788
G0 F1285.7 X48.798 Y85.921
G1 F900 X110.576 Y147.699 E430.12138
G0 F1285.7 X110.759 Y147.387
G1 F900 X48.981 Y85.609 E433.46489
G0 F1285.7 X49.164 Y85.297
G1 F900 X110.943 Y147.076 E436.80844
G0 F1285.7 X111.126 Y146.764
G1 F900 X49.347 Y84.985 E440.152
G0 F1285.7 X49.53 Y84.673
