;FLAVOR:Marlin
;TIME:12979
;Filament used: 22.6815m
;Layer height: 0.3
;MINX:14.567
;MINY:16.042
;MINZ:0.26
;MAXX:189.799
;MAXY:195.104
;MAXZ:24.56
;Generated with Cura_SteamEngine 4.9.1
M82 ;absolute extrusion mode
;Begin Start Gcode for Dagoma DiscoEasy 200
;Sliced: 01-08-2021 01:37:21
;Initial extruder: 0

G90 ;Absolute positioning
M106 S255 ;Fan on full
G28 X Y ;Home stop X Y
G1 X100 ;Centre back during cooldown in case of oozing
M109 R90 ;Cooldown in case too hot
G28 ;Centre
G29 ;Auto-level
M104 S205 ;Pre-heat
M107 ;Fan off
G0 X100 Y5 Z0.5 ;Front centre for degunk
M109 S205 ;Wait for initial temp
M83 ;E Relative
G1 E10 F200 ;Degunk
G1 E-3 F5000 ;Retract
G0 Z3 ;Withdraw
M82 ;E absolute
G92 E0 ;E reset
G1 F6000 ;Set feedrate

;Finish Start Gcode for Dagoma DiscoEasy 200

G92 E0
G92 E0
G1 F3000 E-3.5
;LAYER_COUNT:82
;LAYER:0
M107
G0 F1285.7 X33.153 Y31.44 Z0.26
;TYPE:SKIRT
G1 F3000 E0
G1 F900 X33.702 Y30.933 E0.0286
G1 X34.111 Y30.683 E0.04694
G1 X34.593 Y30.493 E0.06677
G1 X34.705 Y30.46 E0.07124
G1 X35.272 Y30.305 E0.09373
G1 X36.6 Y29.959 E0.14625
G1 X37.255 Y29.798 E0.17207
G1 X37.9 Y29.715 E0.19695
G1 X39.22 Y29.696 E0.24747
G1 X41.994 Y29.617 E0.35368
G1 X44.691 Y29.463 E0.45706
G1 X47.488 Y29.224 E0.56449
G1 X50.181 Y28.916 E0.66822
G1 X52.91 Y28.527 E0.77371
G1 X55.579 Y28.068 E0.87735
G1 X58.312 Y27.519 E0.98403
G1 X60.971 Y26.906 E1.08846
G1 X63.647 Y26.209 E1.19429
G1 X66.259 Y25.448 E1.2984
G1 X68.913 Y24.593 E1.40511
G1 X71.479 Y23.686 E1.50926
G1 X74.028 Y22.702 E1.61383
G1 X76.587 Y21.63 E1.72001
G1 X79.091 Y20.499 E1.82516
G1 X81.529 Y19.312 E1.92893
G1 X84.012 Y18.016 E2.03612
G1 X84.423 Y17.788 E2.0541
G1 X85.655 Y17.117 E2.10779
G1 X86.262 Y16.871 E2.13285
G1 X87.068 Y16.648 E2.16486
G1 X88.46 Y16.285 E2.21991
G1 X89.095 Y16.13 E2.24493
G1 X89.789 Y16.042 E2.2717
G1 X90.266 Y16.078 E2.29
G1 X90.864 Y16.225 E2.31357
G1 X92.978 Y16.838 E2.3978
G1 X95.641 Y17.529 E2.50309
G1 X98.348 Y18.152 E2.6094
G1 X101.024 Y18.684 E2.71381
G1 X103.71 Y19.142 E2.81808
G1 X106.46 Y19.532 E2.92438
G1 X109.171 Y19.838 E3.02879
G1 X111.936 Y20.072 E3.13498
G1 X114.549 Y20.219 E3.23514
G1 X115.131 Y20.245 E3.25743
G1 X115.607 Y20.306 E3.2758
G1 X116.065 Y20.445 E3.29411
G1 X116.494 Y20.659 E3.31246
G1 X116.956 Y21.007 E3.33459
G1 X117.358 Y21.391 E3.35587
G1 X119.317 Y23.35 E3.46189
G1 X121.311 Y25.288 E3.56831
G1 X123.346 Y27.157 E3.67405
G1 X125.424 Y28.959 E3.77931
G1 X127.527 Y30.683 E3.88338
G1 X129.705 Y32.367 E3.98874
G1 X131.038 Y33.35 E4.05212
G1 X131.574 Y33.739 E4.07746
G1 X131.889 Y34.004 E4.09322
G1 X132.457 Y34.555 E4.1235
G1 X135.364 Y37.462 E4.28083
G1 X135.844 Y37.957 E4.30722
G1 X136.054 Y38.198 E4.31945
G1 X136.451 Y38.711 E4.34428
G1 X136.91 Y39.337 E4.37398
G1 X138.594 Y41.566 E4.48089
G1 X140.308 Y43.706 E4.58582
G1 X142.079 Y45.793 E4.69057
G1 X143.917 Y47.842 E4.79591
G1 X146.591 Y50.624 E4.94358
G1 X188.53 Y92.563 E7.21337
G1 X189 Y93.046 E7.23917
G1 X189.305 Y93.416 E7.25752
G1 X189.544 Y93.832 E7.27588
G1 X189.71 Y94.281 E7.2942
G1 X189.799 Y94.752 E7.31254
G1 X189.799 Y95.355 E7.33562
G1 X189.699 Y96.296 E7.37183
G1 X189.574 Y97.343 E7.41218
G1 X189.325 Y100.066 E7.51683
G1 X189.153 Y102.802 E7.62174
G1 X189.059 Y105.534 E7.72635
G1 X189.041 Y108.308 E7.83251
G1 X189.101 Y111.041 E7.93713
G1 X189.24 Y113.786 E8.04231
G1 X189.442 Y116.378 E8.14181
G1 X189.49 Y117.334 E8.17844
G1 X189.373 Y117.986 E8.20379
G1 X189.299 Y118.252 E8.21436
G1 X189.078 Y118.984 E8.24362
G1 X188.997 Y119.228 E8.25346
G1 X188.781 Y119.719 E8.27399
G1 X187.466 Y122.085 E8.37758
G1 X186.228 Y124.467 E8.48031
G1 X185.005 Y126.992 E8.58768
G1 X183.89 Y129.47 E8.69167
G1 X182.818 Y132.042 E8.79831
G1 X181.834 Y134.617 E8.9038
G1 X180.949 Y137.135 E9.00594
G1 X180.096 Y139.804 E9.11317
G1 X179.334 Y142.442 E9.21826
G1 X178.649 Y145.09 E9.32293
G1 X178.033 Y147.783 E9.42865
G1 X177.509 Y150.422 E9.53162
G1 X177.04 Y153.185 E9.63887
G1 X176.659 Y155.899 E9.74375
G1 X176.354 Y158.619 E9.8485
G1 X176.127 Y161.342 E9.95306
G1 X175.974 Y164.115 E10.05935
G1 X175.901 Y166.85 E10.16405
G1 X175.9 Y168.926 E10.2435
G1 X175.885 Y169.264 E10.25645
G1 X175.807 Y169.79 E10.2768
G1 X175.668 Y170.355 E10.29906
G1 X175.47 Y171.071 E10.32749
G1 X175.304 Y171.52 E10.34581
G1 X175.103 Y171.88 E10.36159
G1 X174.707 Y172.483 E10.3892
G1 X173.219 Y174.824 E10.49536
G1 X171.795 Y177.208 E10.60163
G1 X170.461 Y179.59 E10.70611
G1 X169.182 Y182.036 E10.81174
G1 X167.987 Y184.489 E10.91616
G1 X166.847 Y187.007 E11.02194
G1 X165.797 Y189.512 E11.12588
G1 X164.744 Y192.243 E11.2379
G1 X164.38 Y193.228 E11.27809
G1 X164.177 Y193.663 E11.29646
G1 X163.905 Y194.057 E11.31478
G1 X163.571 Y194.4 E11.3331
G1 X163.184 Y194.684 E11.35147
G1 X162.756 Y194.899 E11.3698
G1 X162.298 Y195.04 E11.38814
G1 X161.823 Y195.104 E11.40648
G1 X161.344 Y195.087 E11.42482
G1 X160.875 Y194.991 E11.44315
G1 X160.428 Y194.819 E11.46147
G1 X160.016 Y194.574 E11.47982
G1 X159.687 Y194.301 E11.49618
G1 X159.023 Y193.66 E11.5315
G1 X117.298 Y151.936 E13.78968
G1 X115.285 Y149.979 E13.89712
G1 X113.287 Y148.143 E14.00097
G1 X111.196 Y146.33 E14.10688
G1 X109.091 Y144.606 E14.21101
G1 X107.222 Y143.154 E14.30158
G1 X106.992 Y142.954 E14.31324
G1 X106.194 Y142.185 E14.35566
G1 X100.181 Y136.166 E14.68125
G1 X99.702 Y135.673 E14.70755
G1 X99.285 Y135.198 E14.73174
G1 X97.447 Y133.136 E14.83745
G1 X95.516 Y131.091 E14.94509
G1 X93.613 Y129.187 E15.04811
G1 X91.624 Y127.305 E15.1529
G1 X89.557 Y125.459 E15.25896
G1 X87.449 Y123.679 E15.36455
G1 X85.3 Y121.967 E15.46969
G1 X83.112 Y120.323 E15.57443
G1 X80.872 Y118.737 E15.67947
G1 X78.605 Y117.226 E15.78373
G1 X76.257 Y115.755 E15.88976
G1 X73.896 Y114.369 E15.99453
G1 X71.475 Y113.036 E16.1003
G1 X69.047 Y111.788 E16.20477
G1 X66.566 Y110.6 E16.31005
G1 X66.048 Y110.37 E16.33174
G1 X64.906 Y109.844 E16.37985
G1 X64.489 Y109.608 E16.39819
G1 X64.108 Y109.298 E16.41699
G1 X63.595 Y108.799 E16.44437
G1 X63.166 Y108.358 E16.46792
G1 X62.773 Y107.851 E16.49247
G1 X62.572 Y107.521 E16.50726
G1 X61.492 Y105.686 E16.58874
G1 X60.023 Y103.34 E16.69467
G1 X58.507 Y101.065 E16.79929
G1 X56.909 Y98.81 E16.90506
G1 X55.274 Y96.634 E17.00922
G1 X53.553 Y94.475 E17.11489
G1 X51.781 Y92.375 E17.22004
G1 X49.958 Y90.336 E17.32471
G1 X48.055 Y88.323 E17.43072
G1 X46.151 Y86.422 E17.53369
G1 X44.122 Y84.507 E17.64046
G1 X42.06 Y82.667 E17.74622
G1 X39.983 Y80.918 E17.85014
G1 X37.813 Y79.194 E17.9562
G1 X35.624 Y77.552 E18.06092
G1 X33.384 Y75.969 E18.16589
G1 X31.083 Y74.439 E18.27164
G1 X28.764 Y72.99 E18.37628
G1 X27.012 Y71.954 E18.45418
G1 X26.748 Y71.802 E18.46583
G1 X26.218 Y71.409 E18.49109
G1 X25.722 Y70.93 E18.51747
G1 X25.204 Y70.397 E18.54592
G1 X24.9 Y70.027 E18.56424
G1 X24.563 Y69.374 E18.59236
G1 X24.11 Y68.124 E18.64325
G1 X23.922 Y67.583 E18.66516
G1 X22.962 Y65.058 E18.76854
G1 X21.906 Y62.496 E18.87459
G1 X20.784 Y59.981 E18.97998
G1 X19.601 Y57.52 E19.08448
G1 X18.336 Y55.067 E19.1901
G1 X17.005 Y52.655 E19.29553
G1 X15.733 Y50.492 E19.39156
G1 X15.353 Y49.865 E19.41962
G1 X15.14 Y49.436 E19.43795
G1 X15.001 Y48.978 E19.45627
G1 X14.94 Y48.502 E19.47463
G1 X14.959 Y48.023 E19.49298
G1 X15.057 Y47.554 E19.51131
G1 X15.231 Y47.108 E19.52963
G1 X15.477 Y46.697 E19.54796
G1 X15.788 Y46.333 E19.56629
G1 X16.148 Y46.031 E19.58427
G1 X16.65 Y45.674 E19.60784
G1 X18.119 Y44.662 E19.67611
G1 X20.286 Y43.076 E19.77888
G1 X22.465 Y41.385 E19.88443
G1 X24.607 Y39.623 E19.99058
G1 X26.646 Y37.846 E20.09408
G1 X28.706 Y35.948 E20.20128
G1 X30.621 Y34.081 E20.30363
G1 X32.59 Y32.047 E20.41197
G1 X33.153 Y31.44 E20.44365
G0 F1285.7 X33.403 Y31.684
G1 F900 X33.932 Y31.199 E20.47112
G1 X34.319 Y30.971 E20.48831
G1 X34.797 Y30.797 E20.50777
G1 X35.36 Y30.644 E20.5301
G1 X36.683 Y30.299 E20.58242
G1 X37.338 Y30.138 E20.60824
G1 X37.905 Y30.065 E20.63011
G1 X39.235 Y30.046 E20.68102
G1 X41.989 Y29.967 E20.78646
G1 X44.741 Y29.81 E20.89194
G1 X47.484 Y29.576 E20.9973
G1 X50.235 Y29.261 E21.10327
G1 X52.983 Y28.87 E21.20949
G1 X55.673 Y28.407 E21.31395
G1 X58.349 Y27.869 E21.41841
G1 X61.069 Y27.243 E21.52522
G1 X63.732 Y26.548 E21.63055
G1 X66.386 Y25.776 E21.73632
G1 X69.006 Y24.932 E21.84166
G1 X71.579 Y24.021 E21.94612
G1 X74.19 Y23.014 E22.05322
G1 X76.712 Y21.958 E22.15785
G1 X79.246 Y20.813 E22.26427
G1 X81.711 Y19.613 E22.36919
G1 X84.139 Y18.345 E22.47401
G1 X84.59 Y18.096 E22.49373
G1 X85.822 Y17.425 E22.54742
G1 X86.356 Y17.209 E22.56946
G1 X87.157 Y16.987 E22.60127
G1 X88.543 Y16.625 E22.65609
G1 X89.178 Y16.47 E22.6811
G1 X89.82 Y16.392 E22.70585
G1 X90.48 Y16.482 E22.73135
G1 X90.805 Y16.572 E22.74425
G1 X92.893 Y17.178 E22.82746
G1 X95.551 Y17.867 E22.93254
G1 X98.295 Y18.498 E23.04029
G1 X100.937 Y19.024 E23.14338
G1 X103.671 Y19.491 E23.24953
G1 X106.407 Y19.879 E23.35528
G1 X109.141 Y20.187 E23.46057
G1 X111.886 Y20.419 E23.566
G1 X114.563 Y20.57 E23.66861
G1 X115.116 Y20.595 E23.68979
G1 X115.561 Y20.654 E23.70697
G1 X115.988 Y20.792 E23.72414
G1 X116.384 Y21.003 E23.74131
G1 X116.854 Y21.389 E23.76459
G1 X117.14 Y21.667 E23.77985
G1 X119.073 Y23.601 E23.8845
G1 X121.078 Y25.549 E23.99148
G1 X123.108 Y27.414 E24.09697
G1 X125.182 Y29.213 E24.20204
G1 X127.327 Y30.971 E24.30818
G1 X129.507 Y32.656 E24.41362
G1 X130.83 Y33.632 E24.47654
G1 X131.369 Y34.023 E24.50202
G1 X131.645 Y34.255 E24.51582
G1 X132.209 Y34.802 E24.54589
G1 X135.113 Y37.705 E24.70303
G1 X135.593 Y38.2 E24.72942
G1 X135.777 Y38.413 E24.74019
G1 X136.214 Y38.978 E24.76752
G1 X136.653 Y39.577 E24.79595
G1 X138.309 Y41.769 E24.90108
G1 X140.049 Y43.941 E25.00758
G1 X141.832 Y46.043 E25.11307
G1 X143.638 Y48.055 E25.21654
G1 X146.363 Y50.892 E25.36708
G1 X188.28 Y92.807 E27.63563
G1 X188.75 Y93.29 E27.66142
G1 X189.033 Y93.638 E27.67858
G1 X189.25 Y94.031 E27.69576
G1 X189.394 Y94.457 E27.71297
G1 X189.461 Y94.901 E27.73016
G1 X189.451 Y95.318 E27.74612
G1 X189.351 Y96.254 E27.78214
G1 X189.229 Y97.269 E27.82127
G1 X188.976 Y100.047 E27.92802
G1 X188.804 Y102.768 E28.03236
G1 X188.709 Y105.555 E28.13908
G1 X188.691 Y108.313 E28.24463
G1 X188.75 Y111.016 E28.34809
G1 X188.892 Y113.831 E28.45596
G1 X189.093 Y116.41 E28.55496
G1 X189.139 Y117.336 E28.59044
G1 X189.036 Y117.892 E28.61208
G1 X188.963 Y118.151 E28.62238
G1 X188.745 Y118.874 E28.65127
G1 X188.475 Y119.549 E28.6791
G1 X187.17 Y121.896 E28.78187
G1 X185.903 Y124.336 E28.88708
G1 X184.691 Y126.839 E28.99351
G1 X183.568 Y129.335 E29.09825
G1 X182.488 Y131.924 E29.20561
G1 X181.513 Y134.475 E29.31012
G1 X180.606 Y137.057 E29.41485
G1 X179.768 Y139.679 E29.5202
G1 X179.001 Y142.334 E29.62596
G1 X178.301 Y145.041 E29.73296
G1 X177.691 Y147.705 E29.83755
G1 X177.151 Y150.432 E29.94393
G1 X176.697 Y153.112 E30.04796
G1 X176.312 Y155.846 E30.15362
G1 X176.005 Y158.585 E30.2591
G1 X175.776 Y161.331 E30.36455
G1 X175.624 Y164.085 E30.4701
G1 X175.551 Y166.841 E30.57561
G1 X175.55 Y168.926 E30.6554
G1 X175.467 Y169.706 E30.68542
G1 X175.309 Y170.343 E30.71054
G1 X175.133 Y170.977 E30.73572
G1 X174.975 Y171.398 E30.75293
G1 X174.811 Y171.688 E30.76568
G1 X174.392 Y172.326 E30.79489
G1 X172.904 Y174.667 E30.90104
G1 X171.495 Y177.027 E31.00623
G1 X170.17 Y179.393 E31.11001
G1 X168.871 Y181.877 E31.21728
G1 X167.66 Y184.361 E31.32304
G1 X166.544 Y186.826 E31.42659
G1 X165.461 Y189.41 E31.53382
G1 X164.417 Y192.117 E31.64485
G1 X164.051 Y193.107 E31.68524
G1 X163.859 Y193.513 E31.70243
G1 X163.598 Y193.878 E31.7196
G1 X163.276 Y194.191 E31.73679
G1 X162.904 Y194.442 E31.75396
G1 X162.493 Y194.624 E31.77116
G1 X162.057 Y194.729 E31.78832
G1 X161.608 Y194.756 E31.80554
G1 X161.163 Y194.703 E31.82269
G1 X160.733 Y194.572 E31.83989
G1 X160.334 Y194.366 E31.85708
G1 X159.93 Y194.049 E31.87673
G1 X159.271 Y193.412 E31.9118
G1 X117.542 Y151.685 E34.17018
G1 X115.514 Y149.714 E34.2784
G1 X113.522 Y147.884 E34.38192
G1 X111.42 Y146.06 E34.48843
G1 X109.3 Y144.324 E34.59329
G1 X107.437 Y142.877 E34.68356
G1 X107.234 Y142.702 E34.69382
G1 X106.442 Y141.938 E34.73593
G1 X100.432 Y135.923 E35.06134
G1 X99.953 Y135.43 E35.08764
G1 X99.854 Y135.322 E35.09325
G1 X99.521 Y134.937 E35.11273
G1 X97.682 Y132.874 E35.2185
G1 X95.805 Y130.886 E35.32313
G1 X93.853 Y128.933 E35.4288
G1 X91.85 Y127.038 E35.53432
G1 X89.762 Y125.173 E35.64146
G1 X87.683 Y123.418 E35.74558
G1 X85.541 Y121.711 E35.8504
G1 X83.314 Y120.038 E35.957
G1 X81.058 Y118.441 E36.06278
G1 X78.807 Y116.94 E36.16632
G1 X76.41 Y115.438 E36.27457
G1 X74.094 Y114.078 E36.37736
G1 X71.646 Y112.731 E36.48429
G1 X69.174 Y111.46 E36.59066
G1 X66.745 Y110.297 E36.69372
G1 X66.195 Y110.052 E36.71676
G1 X65.053 Y109.526 E36.76488
G1 X64.663 Y109.303 E36.78207
G1 X64.352 Y109.046 E36.79751
G1 X63.846 Y108.555 E36.8245
G1 X63.417 Y108.114 E36.84804
G1 X63.072 Y107.668 E36.86962
G1 X62.874 Y107.343 E36.88418
G1 X61.792 Y105.504 E36.96584
G1 X60.32 Y103.154 E37.07196
G1 X58.799 Y100.871 E37.17694
G1 X57.211 Y98.631 E37.28202
G1 X55.547 Y96.415 E37.38808
G1 X53.814 Y94.241 E37.49447
G1 X52.044 Y92.143 E37.59952
G1 X50.226 Y90.11 E37.70389
G1 X48.309 Y88.083 E37.81066
G1 X46.357 Y86.134 E37.91622
G1 X44.366 Y84.254 E38.02102
G1 X42.311 Y82.421 E38.1264
G1 X40.195 Y80.64 E38.23225
G1 X38.031 Y78.92 E38.33803
G1 X35.826 Y77.266 E38.44352
G1 X33.594 Y75.688 E38.54813
G1 X31.268 Y74.141 E38.65503
G1 X28.953 Y72.695 E38.75949
G1 X27.161 Y71.635 E38.83917
G1 X26.923 Y71.498 E38.84968
G1 X26.458 Y71.154 E38.87181
G1 X25.967 Y70.68 E38.89793
G1 X25.455 Y70.153 E38.92605
G1 X25.172 Y69.804 E38.94325
G1 X24.892 Y69.254 E38.96686
G1 X24.441 Y68.009 E39.01754
G1 X24.255 Y67.474 E39.03922
G1 X23.301 Y64.964 E39.14198
G1 X22.224 Y62.349 E39.25021
G1 X21.099 Y59.829 E39.35582
G1 X19.915 Y57.364 E39.46047
G1 X18.647 Y54.908 E39.56625
G1 X17.315 Y52.494 E39.67176
G1 X16.015 Y50.282 E39.76995
G1 X15.653 Y49.684 E39.7967
G1 X15.455 Y49.281 E39.81389
G1 X15.332 Y48.849 E39.83108
G1 X15.287 Y48.402 E39.84827
G1 X15.322 Y47.954 E39.86547
G1 X15.436 Y47.52 E39.88264
G1 X15.625 Y47.113 E39.89981
G1 X15.883 Y46.745 E39.91701
G1 X16.35 Y46.316 E39.94128
G1 X16.849 Y45.963 E39.96467
G1 X18.267 Y44.986 E40.03057
G1 X20.514 Y43.342 E40.13712
G1 X22.696 Y41.649 E40.24281
G1 X24.829 Y39.895 E40.3485
G1 X26.885 Y38.102 E40.45289
G1 X28.921 Y36.226 E40.55884
G1 X30.904 Y34.292 E40.66485
G1 X32.818 Y32.316 E40.77013
G1 X33.403 Y31.684 E40.80309
G0 F1285.7 X33.654 Y31.928
G1 F900 X34.16 Y31.466 E40.82931
G1 X34.742 Y31.18 E40.85412
G1 X34.889 Y31.135 E40.86001
G1 X35.448 Y30.982 E40.88219
G1 X36.767 Y30.639 E40.93434
G1 X37.422 Y30.478 E40.96016
G1 X37.91 Y30.415 E40.97899
G1 X39.242 Y30.396 E41.02997
G1 X42.019 Y30.317 E41.13628
G1 X44.756 Y30.16 E41.2412
G1 X47.519 Y29.924 E41.34732
G1 X50.285 Y29.608 E41.45387
G1 X52.989 Y29.223 E41.55839
G1 X55.769 Y28.745 E41.66634
G1 X58.429 Y28.21 E41.77018
G1 X61.126 Y27.589 E41.87609
G1 X63.85 Y26.879 E41.98382
G1 X66.481 Y26.112 E42.0887
G1 X69.098 Y25.269 E42.19392
G1 X71.742 Y24.334 E42.30124
G1 X74.309 Y23.344 E42.40653
G1 X76.849 Y22.281 E42.51191
G1 X79.375 Y21.139 E42.61799
G1 X81.875 Y19.922 E42.7244
G1 X84.314 Y18.648 E42.82971
G1 X84.758 Y18.403 E42.84912
G1 X85.99 Y17.732 E42.9028
G1 X86.449 Y17.546 E42.92176
G1 X87.245 Y17.326 E42.95336
G1 X88.626 Y16.965 E43.00799
G1 X89.261 Y16.81 E43.033
G1 X89.848 Y16.742 E43.05562
G1 X90.388 Y16.82 E43.0765
G1 X90.708 Y16.908 E43.0892
G1 X92.818 Y17.52 E43.17327
G1 X95.451 Y18.203 E43.27737
G1 X98.223 Y18.841 E43.38623
G1 X100.878 Y19.369 E43.48982
G1 X103.637 Y19.84 E43.59694
G1 X106.348 Y20.225 E43.70173
G1 X109.107 Y20.536 E43.80798
G1 X111.836 Y20.766 E43.91279
G1 X114.544 Y20.919 E44.01659
G1 X115.1 Y20.944 E44.03789
G1 X115.513 Y21.003 E44.05385
G1 X115.906 Y21.139 E44.06977
G1 X116.267 Y21.347 E44.08571
G1 X116.654 Y21.683 E44.10533
G1 X116.892 Y21.914 E44.11802
G1 X118.829 Y23.852 E44.22288
G1 X120.844 Y25.811 E44.33043
G1 X122.872 Y27.673 E44.43579
G1 X124.959 Y29.482 E44.54149
G1 X127.102 Y31.239 E44.64754
G1 X129.303 Y32.941 E44.75402
G1 X130.607 Y33.903 E44.81603
G1 X131.163 Y34.306 E44.84231
G1 X131.402 Y34.506 E44.85424
G1 X131.962 Y35.05 E44.88411
G1 X134.861 Y37.949 E45.04101
