;FLAVOR:Marlin
;TIME:12740
;Filament used: 10.074m
;Layer height: 0.2
;MINX:5.011
;MINY:22.723
;MINZ:0.26
;MAXX:180.382
;MAXY:198.1
;MAXZ:7.86
;Generated with Cura_SteamEngine 4.9.1
M82 ;absolute extrusion mode
;Begin Start Gcode for Dagoma DiscoEasy 200
;Sliced: 13-07-2021 17:02:33
;Initial extruder: 0

G90 ;Absolute positioning
M106 S255 ;Fan on full
G28 X Y ;Home stop X Y
G1 X100 ;Centre back during cooldown in case of oozing
M109 R90 ;Cooldown in case too hot
G28 ;Centre
G29 ;Auto-level
M104 S205 ;Pre-heat
M107 ;Fan off
G0 X100 Y5 Z0.5 ;Front centre for degunk
M109 S205 ;Wait for initial temp
M83 ;E Relative
G1 E10 F200 ;Degunk
G1 E-3 F5000 ;Retract
G0 Z3 ;Withdraw
M82 ;E absolute
G92 E0 ;E reset
G1 F6000 ;Set feedrate

;Finish Start Gcode for Dagoma DiscoEasy 200

G92 E0
G92 E0
G1 F3000 E-3.5
;LAYER_COUNT:39
;LAYER:0
M107
G0 F1285.7 X32.169 Y24.077 Z0.26
;TYPE:SKIRT
G1 F3000 E0
G1 F900 X32.561 Y23.681 E0.02132
G1 X33.005 Y23.346 E0.04261
G1 X33.492 Y23.078 E0.06388
G1 X34.013 Y22.882 E0.08519
G1 X34.557 Y22.763 E0.1065
G1 X35.112 Y22.723 E0.12779
G1 X35.667 Y22.763 E0.14909
G1 X36.21 Y22.882 E0.17036
G1 X36.731 Y23.077 E0.19165
G1 X37.219 Y23.346 E0.21297
G1 X37.809 Y23.815 E0.24182
G1 X38.264 Y24.256 E0.26607
G1 X178.826 Y164.818 E7.87346
G1 X179.29 Y165.295 E7.89893
G1 X179.648 Y165.721 E7.92022
G1 X179.942 Y166.193 E7.9415
G1 X180.165 Y166.703 E7.9628
G1 X180.312 Y167.24 E7.98411
G1 X180.382 Y167.792 E8.00541
G1 X180.371 Y168.348 E8.02669
G1 X180.281 Y168.897 E8.04798
G1 X180.113 Y169.428 E8.06929
G1 X179.871 Y169.929 E8.09058
G1 X179.56 Y170.39 E8.11187
G1 X179.186 Y170.802 E8.13316
G1 X178.757 Y171.156 E8.15445
G1 X178.281 Y171.445 E8.17576
G1 X177.577 Y171.723 E8.20472
G1 X176.919 Y171.91 E8.2309
G1 X81.213 Y197.812 E12.02529
G1 X80.542 Y197.983 E12.05179
G1 X79.994 Y198.081 E12.0731
G1 X79.438 Y198.1 E12.09439
G1 X78.885 Y198.039 E12.11568
G1 X78.346 Y197.9 E12.13698
G1 X77.833 Y197.685 E12.15827
G1 X77.356 Y197.398 E12.17957
G1 X76.889 Y197.011 E12.20278
G1 X76.266 Y196.407 E12.23599
G1 X6.615 Y126.756 E16.00559
G1 X6.102 Y126.228 E16.03376
G1 X5.744 Y125.802 E16.05506
G1 X5.45 Y125.33 E16.07634
G1 X5.228 Y124.82 E16.09762
G1 X5.08 Y124.283 E16.11894
G1 X5.011 Y123.731 E16.14023
G1 X5.022 Y123.175 E16.16151
G1 X5.125 Y122.574 E16.18485
G1 X5.331 Y121.768 E16.21668
G1 X31.208 Y26.159 E20.00724
G1 X31.385 Y25.537 E20.03199
G1 X31.575 Y25.015 E20.05325
G1 X31.839 Y24.524 E20.07458
G1 X32.169 Y24.077 E20.09585
G0 F1285.7 X32.484 Y24.249
G1 F900 X32.866 Y23.881 E20.11615
G1 X33.299 Y23.575 E20.13644
G1 X33.774 Y23.337 E20.15677
G1 X34.278 Y23.173 E20.17705
G1 X34.802 Y23.087 E20.19737
G1 X35.333 Y23.08 E20.2177
G1 X35.858 Y23.153 E20.23798
G1 X36.367 Y23.304 E20.2583
G1 X36.847 Y23.53 E20.2786
G1 X37.288 Y23.825 E20.29891
G1 X37.565 Y24.067 E20.31298
G1 X38.06 Y24.546 E20.33934
G1 X178.575 Y165.062 E27.94422
G1 X179.039 Y165.539 E27.96969
G1 X179.379 Y165.946 E27.98998
G1 X179.654 Y166.4 E28.0103
G1 X179.859 Y166.89 E28.03063
G1 X179.987 Y167.405 E28.05093
G1 X180.036 Y167.933 E28.07123
G1 X180.006 Y168.463 E28.09154
G1 X179.897 Y168.982 E28.11184
G1 X179.71 Y169.479 E28.13216
G1 X179.452 Y169.942 E28.15244
G1 X179.126 Y170.361 E28.17276
G1 X178.742 Y170.727 E28.19306
G1 X178.307 Y171.031 E28.21337
G1 X177.831 Y171.266 E28.23369
G1 X177.481 Y171.386 E28.24785
G1 X176.828 Y171.573 E28.27384
G1 X81.127 Y197.473 E32.06803
G1 X80.456 Y197.644 E32.09452
G1 X79.933 Y197.736 E32.11485
G1 X79.402 Y197.748 E32.13517
G1 X78.876 Y197.681 E32.15547
G1 X78.366 Y197.535 E32.17577
G1 X77.883 Y197.315 E32.19608
G1 X77.439 Y197.024 E32.21639
G1 X77.132 Y196.76 E32.23189
G1 X76.513 Y196.16 E32.26488
G1 X6.866 Y126.512 E36.03429
G1 X6.353 Y125.984 E36.06247
G1 X6.013 Y125.577 E36.08276
G1 X5.738 Y125.123 E36.10307
G1 X5.534 Y124.633 E36.12339
G1 X5.406 Y124.118 E36.14369
G1 X5.357 Y123.59 E36.16399
G1 X5.387 Y123.06 E36.1843
G1 X5.464 Y122.66 E36.19989
G1 X5.668 Y121.859 E36.23152
G1 X31.545 Y26.255 E40.0219
G1 X31.722 Y25.633 E40.04665
G1 X31.905 Y25.135 E40.06695
G1 X32.161 Y24.67 E40.08726
G1 X32.484 Y24.249 E40.10757
G0 F1285.7 X32.797 Y24.426
G1 F900 X33.169 Y24.087 E40.12683
G1 X33.591 Y23.811 E40.14613
G1 X34.05 Y23.606 E40.16537
G1 X34.537 Y23.476 E40.18466
G1 X35.038 Y23.424 E40.20393
G1 X35.541 Y23.452 E40.22321
G1 X36.033 Y23.559 E40.24248
G1 X36.502 Y23.743 E40.26176
G1 X36.935 Y23.999 E40.28101
G1 X37.322 Y24.318 E40.3002
G1 X37.777 Y24.759 E40.32445
G1 X178.324 Y165.306 E47.93104
G1 X178.788 Y165.783 E47.9565
G1 X179.109 Y166.171 E47.97577
G1 X179.365 Y166.604 E47.99502
G1 X179.55 Y167.073 E48.01432
G1 X179.657 Y167.565 E48.03359
G1 X179.686 Y168.068 E48.05287
G1 X179.635 Y168.569 E48.07214
G1 X179.505 Y169.055 E48.09139
G1 X179.3 Y169.515 E48.11067
G1 X179.025 Y169.937 E48.12994
G1 X178.687 Y170.31 E48.14921
G1 X178.294 Y170.625 E48.16848
G1 X177.856 Y170.874 E48.18776
G1 X177.385 Y171.05 E48.207
G1 X176.736 Y171.235 E48.23283
G1 X81.04 Y197.134 E52.02682
G1 X80.369 Y197.305 E52.05332
G1 X79.873 Y197.39 E52.07258
G1 X79.369 Y197.396 E52.09187
G1 X78.871 Y197.322 E52.11114
G1 X78.391 Y197.17 E52.1304
G1 X77.941 Y196.944 E52.14968
G1 X77.376 Y196.508 E52.17699
G1 X76.761 Y195.912 E52.20976
G1 X7.117 Y126.268 E55.97898
G1 X6.604 Y125.74 E56.00716
G1 X6.283 Y125.353 E56.0264
G1 X6.027 Y124.919 E56.04568
G1 X5.843 Y124.45 E56.06496
G1 X5.735 Y123.958 E56.08424
G1 X5.707 Y123.455 E56.10352
G1 X5.804 Y122.746 E56.1309
G1 X6.006 Y121.951 E56.1623
G1 X31.881 Y26.351 E59.9525
G1 X32.058 Y25.729 E59.97725
G1 X32.234 Y25.257 E59.99653
G1 X32.482 Y24.819 E60.01579
G1 X32.797 Y24.426 E60.03506
G1 F3000 E56.53506
;MESH:support_half_hex_12.stl
G0 F1285.7 X34.249 Y27.305
G0 X35.383 Y27.611
G0 X38.926 Y40.897
G0 X38.951 Y40.993
;TYPE:WALL-INNER
G1 F3000 E60.03506
G1 F900 X19.646 Y112.323 E62.86304
G1 X20.075 Y112.752 E62.88626
G1 X91.406 Y93.446 E65.71427
G1 X38.951 Y40.993 E68.55315
G0 F1285.7 X38.926 Y40.897
G0 X109.637 Y111.609
G0 X109.662 Y111.705
G1 F900 X90.357 Y183.033 E71.38105
G1 X90.786 Y183.462 E71.40427
G1 X161.826 Y164.235 E74.22075
G1 X162.117 Y164.157 E74.23228
G1 X161.904 Y163.944 E74.23882
G1 X159.801 Y161.844 E74.35255
G1 X109.662 Y111.705 E77.06614
G0 F1285.7 X109.637 Y111.609
G0 X175.201 Y167.713
G0 X175.226 Y167.809
G1 F900 X79.735 Y193.654 E80.85202
G1 X9.454 Y123.374 E84.65569
G1 X35.3 Y27.883 E88.44158
G1 X35.378 Y27.592 E88.45311
G1 X35.591 Y27.805 E88.45965
G1 X175.304 Y167.518 E96.02109
G1 X175.517 Y167.731 E96.03262
G1 X175.226 Y167.809 E96.03916
G0 F1285.7 X175.853 Y167.976
;TYPE:WALL-OUTER
G1 F900 X79.638 Y194.017 E99.85374
G1 X9.091 Y123.471 E103.67181
G1 X35.133 Y27.256 E107.4864
G1 X35.211 Y26.965 E107.49793
G1 X35.424 Y27.178 E107.50447
G1 X175.931 Y167.685 E115.10889
G1 X176.144 Y167.898 E115.12042
G1 X175.853 Y167.976 E115.12696
G0 F1285.7 X175.66 Y168.028
G0 X175.421 Y167.706
G0 X109.652 Y111.667
G0 X109.829 Y112.331
G1 F900 X90.747 Y182.836 E117.92222
G1 X90.72 Y182.936 E117.92619
G1 X90.883 Y183.099 E117.93501
G1 X90.983 Y183.072 E117.93897
G1 X161.199 Y164.068 E120.72279
G1 X161.49 Y163.99 E120.73432
G1 X161.277 Y163.777 E120.74086
G1 X159.571 Y162.074 E120.83311
G1 X109.829 Y112.331 E123.52523
G0 F1285.7 X109.777 Y112.524
G0 X109.368 Y112.413
G0 X91.444 Y93.456
G0 X38.941 Y40.955
G0 X39.118 Y41.62
G1 F900 X20.036 Y112.126 E126.32054
G1 X20.009 Y112.226 E126.3245
G1 X20.172 Y112.389 E126.33332
G1 X20.272 Y112.362 E126.33729
G1 X90.779 Y93.279 E129.13264
G1 X39.118 Y41.62 E131.92854
G0 F1285.7 X39.066 Y41.813
G0 X38.657 Y41.702
G0 X38.776 Y40.338
;TYPE:SKIN
G1 F900 X19.267 Y112.424 E134.78648
G1 X19.974 Y113.131 E134.82475
G1 X92.061 Y93.621 E137.68273
G1 X38.776 Y40.338 E140.56653
G0 F1285.7 X35.552 Y28.248
G1 F900 X174.861 Y167.557 E148.10611
G1 X79.837 Y193.274 E151.87346
G1 X9.834 Y123.272 E155.66208
G1 X35.552 Y28.248 E159.42944
G0 F1285.7 X109.487 Y111.05
G1 F900 X89.978 Y183.134 E162.28731
G1 X90.685 Y183.841 E162.32557
G1 X162.773 Y164.332 E165.18358
G1 X109.487 Y111.05 E168.06738
G0 F1285.7 X10.086 Y122.94
G1 F900 X80.166 Y193.02 E171.8602
G0 F1285.7 X80.555 Y192.914
G1 F900 X10.191 Y122.55 E175.66839
G0 F1285.7 X10.296 Y122.161
G1 F900 X80.945 Y192.809 E179.49198
G0 F1285.7 X81.334 Y192.704
G1 F900 X10.402 Y121.771 E183.33093
G0 F1285.7 X10.508 Y121.382
G1 F900 X81.724 Y192.598 E187.18523
G0 F1285.7 X82.114 Y192.493
G1 F900 X10.613 Y120.993 E191.05493
G0 F1285.7 X10.719 Y120.603
G1 F900 X82.503 Y192.388 E194.94
G0 F1285.7 X82.893 Y192.282
G1 F900 X10.824 Y120.213 E198.84047
G0 F1285.7 X10.929 Y119.824
G1 F900 X83.283 Y192.177 E202.75633
G0 F1285.7 X83.671 Y192.071
G1 F900 X11.035 Y119.434 E206.68751
G0 F1285.7 X11.14 Y119.044
G1 F900 X84.061 Y191.966 E210.63412
G0 F1285.7 X84.451 Y191.86
G1 F900 X11.245 Y118.655 E214.59609
G0 F1285.7 X11.351 Y118.265
G1 F900 X84.84 Y191.755 E218.57344
G0 F1285.7 X85.23 Y191.649
G1 F900 X11.456 Y117.876 E222.56615
G0 F1285.7 X11.561 Y117.486
G1 F900 X85.62 Y191.544 E226.57429
G0 F1285.7 X86.009 Y191.439
G1 F900 X11.667 Y117.097 E230.59778
G0 F1285.7 X11.773 Y116.707
G1 F900 X86.399 Y191.333 E234.63663
G0 F1285.7 X86.788 Y191.228
G1 F900 X11.878 Y116.318 E238.69085
G0 F1285.7 X11.984 Y115.928
G1 F900 X87.178 Y191.123 E242.76048
G0 F1285.7 X87.568 Y191.017
G1 F900 X12.089 Y115.539 E246.84547
G0 F1285.7 X12.194 Y115.149
G1 F900 X87.957 Y190.911 E250.94583
G0 F1285.7 X88.346 Y190.806
G1 F900 X12.3 Y114.759 E255.06157
G0 F1285.7 X12.405 Y114.37
G1 F900 X88.736 Y190.701 E259.1927
G0 F1285.7 X89.125 Y190.595
G1 F900 X12.51 Y113.98 E263.3392
G0 F1285.7 X12.616 Y113.591
G1 F900 X89.515 Y190.49 E267.50107
G0 F1285.7 X89.905 Y190.384
G1 F900 X12.721 Y113.201 E271.67834
G0 F1285.7 X12.827 Y112.812
G1 F900 X90.294 Y190.279 E275.87095
G0 F1285.7 X90.684 Y190.174
G1 F900 X12.932 Y112.422 E280.07899
G0 F1285.7 X13.038 Y112.033
G1 F900 X91.073 Y190.068 E284.30234
G0 F1285.7 X91.463 Y189.963
G1 F900 X13.143 Y111.643 E288.54112
G0 F1285.7 X13.249 Y111.254
G1 F900 X91.853 Y189.858 E292.79527
G0 F1285.7 X92.242 Y189.752
G1 F900 X13.354 Y110.864 E297.06479
G0 F1285.7 X13.459 Y110.474
G1 F900 X92.631 Y189.646 E301.34968
G0 F1285.7 X93.021 Y189.541
G1 F900 X13.565 Y110.085 E305.64994
G0 F1285.7 X13.67 Y109.695
G1 F900 X93.41 Y189.436 E309.9656
G0 F1285.7 X93.8 Y189.33
G1 F900 X13.775 Y109.305 E314.29665
G0 F1285.7 X13.881 Y108.917
G1 F900 X94.19 Y189.225 E318.64305
G0 F1285.7 X94.579 Y189.119
G1 F900 X13.987 Y108.527 E323.00479
G0 F1285.7 X14.092 Y108.137
G1 F900 X94.969 Y189.014 E327.38196
G0 F1285.7 X95.359 Y188.909
G1 F900 X14.197 Y107.748 E331.77452
G0 F1285.7 X14.303 Y107.358
G1 F900 X19.161 Y112.216 E332.03744
G0 F1285.7 X19.266 Y111.826
G1 F900 X14.408 Y106.968 E332.30036
G0 F1285.7 X14.514 Y106.579
G1 F900 X19.371 Y111.437 E332.56326
G0 F1285.7 X19.477 Y111.047
G1 F900 X14.619 Y106.189 E332.82618
G0 F1285.7 X14.724 Y105.8
G1 F900 X19.582 Y110.657 E333.08907
G0 F1285.7 X19.687 Y110.268
G1 F900 X14.83 Y105.41 E333.35197
G0 F1285.7 X14.935 Y105.02
G1 F900 X19.793 Y109.878 E333.61489
G0 F1285.7 X19.898 Y109.489
G1 F900 X15.041 Y104.632 E333.87775
G0 F1285.7 X15.146 Y104.242
G1 F900 X20.004 Y109.099 E334.14065
G0 F1285.7 X20.109 Y108.709
G1 F900 X15.252 Y103.852 E334.40352
G0 F1285.7 X15.357 Y103.463
G1 F900 X20.215 Y108.32 E334.66641
G0 F1285.7 X20.32 Y107.931
G1 F900 X15.463 Y103.073 E334.9293
G0 F1285.7 X15.568 Y102.683
G1 F900 X20.426 Y107.541 E335.19222
G0 F1285.7 X20.531 Y107.152
G1 F900 X15.673 Y102.294 E335.45515
G0 F1285.7 X15.779 Y101.904
G1 F900 X20.636 Y106.762 E335.71804
G0 F1285.7 X20.742 Y106.372
G1 F900 X15.884 Y101.515 E335.98093
G0 F1285.7 X15.989 Y101.125
G1 F900 X20.847 Y105.983 E336.24386
G0 F1285.7 X20.952 Y105.593
G1 F900 X16.095 Y100.735 E336.50675
G0 F1285.7 X16.201 Y100.346
G1 F900 X21.058 Y105.204 E336.76964
G0 F1285.7 X21.163 Y104.814
G1 F900 X16.306 Y99.957 E337.03251
G0 F1285.7 X16.411 Y99.567
G1 F900 X21.269 Y104.425 E337.29543
G0 F1285.7 X21.375 Y104.035
G1 F900 X16.517 Y99.178 E337.55833
G0 F1285.7 X16.622 Y98.788
G1 F900 X21.48 Y103.646 E337.82125
G0 F1285.7 X21.585 Y103.256
G1 F900 X16.728 Y98.398 E338.08414
G0 F1285.7 X16.833 Y98.009
G1 F900 X21.691 Y102.867 E338.34706
G0 F1285.7 X21.796 Y102.477
G1 F900 X16.938 Y97.619 E338.60998
G0 F1285.7 X17.044 Y97.23
G1 F900 X21.901 Y102.087 E338.87285
G0 F1285.7 X22.007 Y101.698
G1 F900 X17.149 Y96.84 E339.13577
G0 F1285.7 X17.255 Y96.451
G1 F900 X22.112 Y101.308 E339.39864
G0 F1285.7 X22.218 Y100.918
G1 F900 X17.36 Y96.061 E339.66153
G0 F1285.7 X17.466 Y95.672
G1 F900 X22.323 Y100.529 E339.9244
G0 F1285.7 X22.429 Y100.14
G1 F900 X17.571 Y95.282 E340.18732
G0 F1285.7 X17.676 Y94.893
G1 F900 X22.534 Y99.75 E340.45021
G0 F1285.7 X22.64 Y99.361
G1 F900 X17.782 Y94.503 E340.71314
G0 F1285.7 X17.887 Y94.113
G1 F900 X22.745 Y98.971 E340.97606
G0 F1285.7 X22.85 Y98.581
G1 F900 X17.993 Y93.724 E341.23892
G0 F1285.7 X18.098 Y93.334
G1 F900 X22.956 Y98.192 E341.50185
G0 F1285.7 X23.061 Y97.802
G1 F900 X18.203 Y92.944 E341.76477
G0 F1285.7 X18.309 Y92.555
G1 F900 X23.166 Y97.413 E342.02766
G0 F1285.7 X23.272 Y97.023
G1 F900 X18.415 Y92.166 E342.29053
G0 F1285.7 X18.52 Y91.776
G1 F900 X23.377 Y96.633 E342.55339
G0 F1285.7 X23.483 Y96.244
G1 F900 X18.625 Y91.387 E342.81629
G0 F1285.7 X18.731 Y90.997
G1 F900 X23.589 Y95.855 E343.07921
G0 F1285.7 X23.694 Y95.465
G1 F900 X18.836 Y90.607 E343.34213
G0 F1285.7 X18.941 Y90.218
G1 F900 X23.799 Y95.076 E343.60505
G0 F1285.7 X23.905 Y94.686
G1 F900 X19.047 Y89.828 E343.86797
G0 F1285.7 X19.152 Y89.439
G1 F900 X24.01 Y94.296 E344.13087
G0 F1285.7 X24.115 Y93.907
G1 F900 X19.258 Y89.049 E344.39376
G0 F1285.7 X19.363 Y88.659
G1 F900 X24.221 Y93.517 E344.65668
G0 F1285.7 X24.326 Y93.128
G1 F900 X19.469 Y88.27 E344.91958
G0 F1285.7 X19.574 Y87.881
G1 F900 X24.431 Y92.738 E345.18244
G0 F1285.7 X24.537 Y92.348
G1 F900 X19.68 Y87.491 E345.44531
G0 F1285.7 X19.785 Y87.102
G1 F900 X24.643 Y91.959 E345.7082
G0 F1285.7 X24.748 Y91.57
G1 F900 X19.89 Y86.712 E345.97113
G0 F1285.7 X19.996 Y86.322
G1 F900 X24.854 Y91.18 E346.23405
G0 F1285.7 X24.959 Y90.791
G1 F900 X20.101 Y85.933 E346.49697
G0 F1285.7 X20.206 Y85.543
G1 F900 X25.064 Y90.401 E346.75989
G0 F1285.7 X25.17 Y90.011
G1 F900 X20.312 Y85.154 E347.02278
G0 F1285.7 X20.417 Y84.764
G1 F900 X25.275 Y89.622 E347.2857
G0 F1285.7 X25.38 Y89.232
G1 F900 X20.523 Y84.374 E347.5486
G0 F1285.7 X20.629 Y83.985
G1 F900 X25.486 Y88.843 E347.81149
G0 F1285.7 X25.591 Y88.453
G1 F900 X20.734 Y83.596 E348.07436
G0 F1285.7 X20.839 Y83.206
G1 F900 X25.696 Y88.063 E348.33723
G0 F1285.7 X25.803 Y87.674
G1 F900 X20.945 Y82.817 E348.60012
G0 F1285.7 X21.05 Y82.427
G1 F900 X25.908 Y87.285 E348.86304
G0 F1285.7 X26.013 Y86.895
G1 F900 X21.155 Y82.037 E349.12596
G0 F1285.7 X21.261 Y81.648
G1 F900 X26.119 Y86.506 E349.38888
G0 F1285.7 X26.224 Y86.116
G1 F900 X21.366 Y81.258 E349.65181
G0 F1285.7 X21.472 Y80.868
G1 F900 X26.329 Y85.726 E349.9147
G0 F1285.7 X26.435 Y85.337
G1 F900 X21.577 Y80.479 E350.17762
G0 F1285.7 X21.682 Y80.089
G1 F900 X26.54 Y84.947 E350.44054
G0 F1285.7 X26.645 Y84.557
G1 F900 X21.788 Y79.7 E350.70341
G0 F1285.7 X21.894 Y79.311
G1 F900 X26.751 Y84.168 E350.96628
G0 F1285.7 X26.857 Y83.779
G1 F900 X21.999 Y78.921 E351.2292
G0 F1285.7 X22.104 Y78.531
G1 F900 X26.962 Y83.389 E351.49212
G0 F1285.7 X27.068 Y83
G1 F900 X22.21 Y78.142 E351.75504
G0 F1285.7 X22.315 Y77.752
G1 F900 X27.173 Y82.61 E352.01796
G0 F1285.7 X27.278 Y82.22
G1 F900 X22.42 Y77.363 E352.28085
G0 F1285.7 X22.526 Y76.973
G1 F900 X27.384 Y81.831 E352.54378
G0 F1285.7 X27.489 Y81.441
G1 F900 X22.631 Y76.583 E352.8067
G0 F1285.7 X22.737 Y76.194
G1 F900 X27.594 Y81.052 E353.06959
G0 F1285.7 X27.7 Y80.662
G1 F900 X22.843 Y75.805 E353.33246
G0 F1285.7 X22.948 Y75.415
G1 F900 X27.805 Y80.272 E353.59533
G0 F1285.7 X27.91 Y79.883
G1 F900 X23.053 Y75.026 E353.85819
G0 F1285.7 X23.159 Y74.636
G1 F900 X28.016 Y79.494 E354.12109
G0 F1285.7 X28.122 Y79.104
G1 F900 X23.264 Y74.246 E354.38401
G0 F1285.7 X23.369 Y73.857
G1 F900 X28.227 Y78.715 E354.64693
G0 F1285.7 X28.333 Y78.325
G1 F900 X23.475 Y73.467 E354.90985
G0 F1285.7 X23.58 Y73.078
