;FLAVOR:Marlin
;TIME:12766
;Filament used: 10.1501m
;Layer height: 0.2
;MINX:6.062
;MINY:19.821
;MINZ:0.26
;MAXX:181.128
;MAXY:199.161
;MAXZ:7.66
;Generated with Cura_SteamEngine 4.9.1
M82 ;absolute extrusion mode
;Begin Start Gcode for Dagoma DiscoEasy 200
;Sliced: 13-07-2021 17:12:44
;Initial extruder: 0

G90 ;Absolute positioning
M106 S255 ;Fan on full
G28 X Y ;Home stop X Y
G1 X100 ;Centre back during cooldown in case of oozing
M109 R90 ;Cooldown in case too hot
G28 ;Centre
G29 ;Auto-level
M104 S205 ;Pre-heat
M107 ;Fan off
G0 X100 Y5 Z0.5 ;Front centre for degunk
M109 S205 ;Wait for initial temp
M83 ;E Relative
G1 E10 F200 ;Degunk
G1 E-3 F5000 ;Retract
G0 Z3 ;Withdraw
M82 ;E absolute
G92 E0 ;E reset
G1 F6000 ;Set feedrate

;Finish Start Gcode for Dagoma DiscoEasy 200

G92 E0
G92 E0
G1 F3000 E-3.5
;LAYER_COUNT:38
;LAYER:0
M107
G0 F1285.7 X32.98 Y21.626 Z0.26
;TYPE:SKIRT
G1 F3000 E0
G1 F900 X33.31 Y21.179 E0.02126
G1 X33.701 Y20.783 E0.04256
G1 X34.145 Y20.447 E0.06387
G1 X34.632 Y20.178 E0.08516
G1 X35.152 Y19.981 E0.10644
G1 X35.696 Y19.862 E0.12775
G1 X36.251 Y19.821 E0.14905
G1 X36.806 Y19.86 E0.17034
G1 X37.349 Y19.978 E0.19161
G1 X37.871 Y20.173 E0.21293
G1 X38.358 Y20.441 E0.2342
G1 X38.956 Y20.917 E0.26345
G1 X39.413 Y21.376 E0.28824
G1 X179.61 Y167.215 E8.03006
G1 X180.083 Y167.72 E8.05654
G1 X180.433 Y168.152 E8.07782
G1 X180.718 Y168.63 E8.09912
G1 X180.931 Y169.144 E8.12041
G1 X181.069 Y169.684 E8.14174
G1 X181.128 Y170.237 E8.16302
G1 X181.107 Y170.793 E8.18432
G1 X181.006 Y171.34 E8.2056
G1 X180.829 Y171.867 E8.22688
G1 X180.577 Y172.364 E8.2482
G1 X180.257 Y172.819 E8.26949
G1 X179.875 Y173.224 E8.2908
G1 X179.439 Y173.57 E8.3121
G1 X178.959 Y173.849 E8.33335
G1 X178.345 Y174.087 E8.35855
G1 X177.792 Y174.241 E8.38052
G1 X82.02 Y198.894 E12.16515
G1 X81.36 Y199.055 E12.19114
G1 X80.812 Y199.147 E12.21241
G1 X80.255 Y199.161 E12.23373
G1 X79.703 Y199.094 E12.25501
G1 X79.166 Y198.949 E12.2763
G1 X78.655 Y198.728 E12.29761
G1 X78.181 Y198.437 E12.31889
G1 X77.698 Y198.026 E12.34316
G1 X76.977 Y197.303 E12.38224
G1 X7.628 Y125.165 E16.21171
G1 X7.102 Y124.6 E16.24125
G1 X6.752 Y124.167 E16.26256
G1 X6.468 Y123.689 E16.28384
G1 X6.256 Y123.174 E16.30515
G1 X6.12 Y122.635 E16.32642
G1 X6.062 Y122.082 E16.3477
G1 X6.084 Y121.526 E16.369
G1 X6.173 Y121.026 E16.38843
G1 X6.41 Y120.073 E16.42601
G1 X32.349 Y23.272 E20.26124
G1 X32.528 Y22.64 E20.28637
G1 X32.717 Y22.117 E20.30766
G1 X32.98 Y21.626 E20.32897
G0 F1285.7 X33.302 Y21.772
G1 F900 X33.625 Y21.35 E20.34931
G1 X34.007 Y20.982 E20.36961
G1 X34.44 Y20.675 E20.38992
G1 X34.914 Y20.437 E20.41022
G1 X35.418 Y20.272 E20.43051
G1 X35.942 Y20.185 E20.45084
G1 X36.472 Y20.178 E20.47113
G1 X36.998 Y20.25 E20.49144
G1 X37.507 Y20.4 E20.51175
G1 X37.987 Y20.625 E20.53204
G1 X38.429 Y20.92 E20.55238
G1 X38.819 Y21.271 E20.57246
G1 X39.185 Y21.644 E20.59245
G1 X179.355 Y167.454 E28.33276
G1 X179.828 Y167.959 E28.35924
G1 X180.16 Y168.373 E28.37955
G1 X180.427 Y168.832 E28.39987
G1 X180.622 Y169.325 E28.42016
G1 X180.74 Y169.842 E28.44045
G1 X180.78 Y170.372 E28.46079
G1 X180.74 Y170.901 E28.4811
G1 X180.62 Y171.418 E28.50141
G1 X180.425 Y171.911 E28.5217
G1 X180.157 Y172.369 E28.542
G1 X179.824 Y172.782 E28.56231
G1 X179.433 Y173.141 E28.58262
G1 X178.992 Y173.436 E28.60293
G1 X178.512 Y173.662 E28.62323
G1 X177.975 Y173.83 E28.64476
G1 X177.67 Y173.912 E28.65685
G1 X81.937 Y198.554 E32.43993
G1 X81.277 Y198.715 E32.46593
G1 X80.754 Y198.801 E32.48621
G1 X80.223 Y198.808 E32.50653
G1 X79.698 Y198.735 E32.52682
G1 X79.189 Y198.585 E32.54713
G1 X78.708 Y198.359 E32.56746
G1 X78.267 Y198.064 E32.58777
G1 X77.946 Y197.779 E32.6042
G1 X77.23 Y197.06 E32.64303
G1 X7.845 Y124.884 E36.4745
G1 X7.358 Y124.362 E36.50182
G1 X7.026 Y123.947 E36.52216
G1 X6.76 Y123.488 E36.54247
G1 X6.566 Y122.994 E36.56278
G1 X6.449 Y122.477 E36.58306
G1 X6.41 Y121.947 E36.6034
G1 X6.451 Y121.418 E36.62371
G1 X6.513 Y121.11 E36.63573
G1 X6.748 Y120.164 E36.67303
G1 X32.685 Y23.367 E40.50809
G1 X32.864 Y22.735 E40.53322
G1 X33.047 Y22.237 E40.55353
G1 X33.302 Y21.772 E40.57382
G0 F1285.7 X33.624 Y21.92
G1 F900 X33.938 Y21.526 E40.5931
G1 X34.31 Y21.187 E40.61236
G1 X34.731 Y20.911 E40.63163
G1 X35.191 Y20.705 E40.65092
G1 X35.677 Y20.574 E40.67018
G1 X36.178 Y20.522 E40.68946
G1 X36.681 Y20.55 E40.70874
G1 X37.173 Y20.656 E40.728
G1 X37.642 Y20.839 E40.74726
G1 X38.076 Y21.095 E40.76655
G1 X38.469 Y21.419 E40.78604
G1 X38.913 Y21.866 E40.81015
G1 X179.099 Y167.694 E48.55138
G1 X179.572 Y168.199 E48.57786
G1 X179.886 Y168.592 E48.59711
G1 X180.134 Y169.031 E48.6164
G1 X180.31 Y169.503 E48.63568
G1 X180.408 Y169.997 E48.65495
G1 X180.427 Y170.5 E48.67422
G1 X180.367 Y171 E48.69349
G1 X180.228 Y171.484 E48.71276
G1 X180.014 Y171.94 E48.73204
G1 X179.731 Y172.356 E48.75129
G1 X179.386 Y172.723 E48.77057
G1 X178.987 Y173.03 E48.78984
G1 X178.544 Y173.27 E48.80912
G1 X177.957 Y173.472 E48.83287
G1 X177.582 Y173.573 E48.84774
G1 X81.854 Y198.214 E52.63062
G1 X81.194 Y198.375 E52.65662
G1 X80.697 Y198.455 E52.67589
G1 X80.194 Y198.455 E52.69514
G1 X79.696 Y198.376 E52.71443
G1 X79.218 Y198.219 E52.73369
G1 X78.77 Y197.989 E52.75296
G1 X78.194 Y197.532 E52.7811
G1 X77.482 Y196.817 E52.81971
G1 X8.1 Y124.645 E56.651
G1 X7.613 Y124.123 E56.67832
G1 X7.3 Y123.729 E56.69758
G1 X7.053 Y123.29 E56.71685
G1 X6.879 Y122.817 E56.73614
G1 X6.781 Y122.323 E56.75541
G1 X6.763 Y121.82 E56.77468
G1 X6.853 Y121.194 E56.79888
G1 X7.086 Y120.254 E56.83594
G1 X33.022 Y23.463 E60.67076
G1 X33.201 Y22.831 E60.6959
G1 X33.376 Y22.359 E60.71516
G1 X33.624 Y21.92 E60.73446
G1 F3000 E57.23446
;MESH:support_half_hex_25.stl
G0 F1285.7 X35.485 Y24.062
G0 X36.602 Y24.36
G0 X92.501 Y92.977
;TYPE:WALL-INNER
G1 F3000 E60.73446
G1 F900 X40.474 Y38.857 E63.60742
G1 X39.88 Y39.009 E63.63089
G1 X20.451 Y111.523 E66.50385
G1 X92.501 Y92.977 E69.35105
G0 F1285.7 X163.011 Y166.324
G1 F900 X110.984 Y112.205 E72.22398
G1 X110.39 Y112.357 E72.24745
G1 X90.961 Y184.87 E75.12037
G1 X163.011 Y166.324 E77.96757
G0 F1285.7 X175.981 Y170.163
G1 F900 X80.594 Y194.717 E81.73699
G1 X10.501 Y121.803 E85.6076
G1 X36.437 Y25.011 E89.44246
G1 X36.517 Y24.712 E89.45431
G1 X36.731 Y24.935 E89.46099
G1 X176.063 Y169.874 E97.15504
G1 X176.27 Y170.089 E97.16646
G1 X175.981 Y170.163 E97.17294
G0 F1285.7 X176.601 Y170.339
;TYPE:WALL-OUTER
G1 F900 X80.492 Y195.079 E100.97089
G1 X10.14 Y121.896 E104.8558
G1 X36.272 Y24.371 E108.71969
G1 X36.352 Y24.072 E108.73154
G1 X36.566 Y24.295 E108.73822
G1 X176.683 Y170.05 E116.4756
G1 X176.89 Y170.265 E116.48702
G1 X176.601 Y170.339 E116.49351
G0 F1285.7 X176.408 Y170.388
G0 X176.347 Y170.148
G0 X162.572 Y165.976
G0 X162.391 Y166.148
G1 F900 X110.952 Y112.641 E119.33396
G1 X110.881 Y112.567 E119.33789
G1 X110.655 Y112.625 E119.34682
G1 X110.629 Y112.724 E119.35073
G1 X91.419 Y184.417 E122.19118
G1 X162.391 Y166.148 E124.99578
G0 F1285.7 X162.253 Y166.004
G0 X162.433 Y165.832
G0 X92.062 Y92.629
G0 X91.881 Y92.801
G1 F900 X40.442 Y39.293 E127.83627
G1 X40.371 Y39.219 E127.84019
G1 X40.145 Y39.277 E127.84912
G1 X40.119 Y39.376 E127.85304
G1 X20.909 Y111.07 E130.69352
G1 X91.881 Y92.801 E133.49812
G0 F1285.7 X91.743 Y92.657
G0 X91.923 Y92.485
G0 X93.15 Y93.161
;TYPE:SKIN
G1 F900 X40.581 Y38.478 E136.40099
G1 X39.603 Y38.729 E136.43963
G1 X19.971 Y111.997 E139.34247
G1 X93.15 Y93.161 E142.23428
G0 F1285.7 X110.113 Y112.077
G1 F900 X90.481 Y185.344 E145.13709
G1 X163.66 Y166.508 E148.0289
G1 X111.091 Y111.826 E150.93174
G1 X110.113 Y112.077 E150.97038
G0 F1285.7 X10.878 Y121.706
G1 F900 X36.69 Y25.381 E154.78675
G1 X175.622 Y169.904 E162.45871
G1 X80.701 Y194.338 E166.20972
G1 X10.878 Y121.706 E170.06539
G0 F1285.7 X36.727 Y25.838
G1 F900 X41.493 Y30.603 E170.3233
G1 X41.555 Y30.665
G0 F1285.7 X36.1 Y28.181
G1 F900 X115.276 Y107.357 E174.60841
G1 X115.338 Y107.419
G0 F1285.7 X110.758 Y111.748
G1 F900 X92.501 Y93.491 E175.5965
G0 F1285.7 X92.894 Y93.389
G1 F900 X170.552 Y171.047 E179.79945
G0 F1285.7 X170.945 Y170.945
G1 F900 X93.288 Y93.288 E184.00235
G1 X93.226 Y93.226
G0 F1285.7 X92.107 Y93.592
G1 F900 X110.363 Y111.848 E184.99039
G0 F1285.7 X109.981 Y111.961
G1 F900 X91.713 Y93.693 E185.97907
G0 F1285.7 X91.32 Y93.795
G1 F900 X109.876 Y112.351 E186.98335
G0 F1285.7 X109.771 Y112.741
G1 F900 X90.926 Y93.896 E188.00326
G0 F1285.7 X90.533 Y93.997
G1 F900 X109.667 Y113.132 E189.03885
G0 F1285.7 X109.562 Y113.522
G1 F900 X90.139 Y94.098 E190.09007
G0 F1285.7 X89.745 Y94.2
G1 F900 X109.458 Y113.912 E191.15694
G0 F1285.7 X109.353 Y114.303
G1 F900 X89.352 Y94.301 E192.23944
G0 F1285.7 X88.958 Y94.402
G1 F900 X109.249 Y114.694 E193.33765
G0 F1285.7 X109.144 Y115.084
G1 F900 X88.565 Y94.504 E194.45143
G0 F1285.7 X88.171 Y94.605
G1 F900 X109.04 Y115.474 E195.58089
G0 F1285.7 X108.935 Y115.865
G1 F900 X87.777 Y94.707 E196.72599
G0 F1285.7 X87.383 Y94.808
G1 F900 X108.83 Y116.255 E197.88673
G0 F1285.7 X108.726 Y116.645
G1 F900 X86.99 Y94.909 E199.06311
G0 F1285.7 X86.596 Y95.011
G1 F900 X108.621 Y117.036 E200.25513
G0 F1285.7 X108.516 Y117.426
G1 F900 X86.202 Y95.112 E201.46279
G0 F1285.7 X85.809 Y95.214
G1 F900 X108.412 Y117.816 E202.68607
G0 F1285.7 X108.307 Y118.207
G1 F900 X85.415 Y95.315 E203.92501
G0 F1285.7 X85.021 Y95.416
G1 F900 X108.202 Y118.597 E205.1796
G0 F1285.7 X108.098 Y118.987
G1 F900 X84.627 Y95.517 E206.44985
G0 F1285.7 X84.234 Y95.619
G1 F900 X107.993 Y119.378 E207.73572
G0 F1285.7 X107.888 Y119.768
G1 F900 X83.84 Y95.72 E209.03723
G0 F1285.7 X83.447 Y95.821
G1 F900 X107.784 Y120.159 E210.3544
G0 F1285.7 X107.68 Y120.549
G1 F900 X83.053 Y95.923 E211.68722
G0 F1285.7 X82.66 Y96.024
G1 F900 X107.575 Y120.94 E213.03568
G0 F1285.7 X107.471 Y121.33
G1 F900 X82.266 Y96.125 E214.3998
G0 F1285.7 X81.872 Y96.226
G1 F900 X107.366 Y121.72 E215.77957
G0 F1285.7 X107.261 Y122.11
G1 F900 X81.479 Y96.328 E217.17493
G0 F1285.7 X81.085 Y96.429
G1 F900 X107.157 Y122.501 E218.58598
G0 F1285.7 X107.052 Y122.891
G1 F900 X80.691 Y96.53 E220.01267
G0 F1285.7 X80.298 Y96.632
G1 F900 X106.947 Y123.281 E221.45495
G0 F1285.7 X106.843 Y123.672
G1 F900 X79.904 Y96.733 E222.91292
G0 F1285.7 X79.51 Y96.834
G1 F900 X106.738 Y124.062 E224.38653
G0 F1285.7 X106.633 Y124.452
G1 F900 X79.117 Y96.936 E225.87573
G0 F1285.7 X78.723 Y97.037
G1 F900 X106.529 Y124.843 E227.38063
G0 F1285.7 X106.425 Y125.234
G1 F900 X78.329 Y97.138 E228.90122
G0 F1285.7 X77.935 Y97.239
G1 F900 X106.32 Y125.624 E230.43745
G0 F1285.7 X106.215 Y126.014
G1 F900 X77.542 Y97.341 E231.98927
G0 F1285.7 X77.148 Y97.442
G1 F900 X106.111 Y126.405 E233.55679
G0 F1285.7 X106.006 Y126.795
G1 F900 X76.755 Y97.543 E235.13992
G0 F1285.7 X76.361 Y97.645
G1 F900 X105.901 Y127.185 E236.73866
G0 F1285.7 X105.797 Y127.576
G1 F900 X75.968 Y97.746 E238.35307
G0 F1285.7 X75.574 Y97.848
G1 F900 X105.692 Y127.966 E239.98309
G0 F1285.7 X105.588 Y128.356
G1 F900 X75.18 Y97.949 E241.62879
G0 F1285.7 X74.787 Y98.05
G1 F900 X105.483 Y128.747 E243.29012
G0 F1285.7 X105.378 Y129.137
G1 F900 X74.393 Y98.152 E244.96707
G0 F1285.7 X73.999 Y98.253
G1 F900 X105.274 Y129.527 E246.65968
G0 F1285.7 X105.169 Y129.918
G1 F900 X73.606 Y98.355 E248.36791
G0 F1285.7 X73.212 Y98.456
G1 F900 X105.064 Y130.308 E250.09178
G0 F1285.7 X104.96 Y130.699
G1 F900 X72.818 Y98.557 E251.83135
G0 F1285.7 X72.424 Y98.658
G1 F900 X104.856 Y131.089 E253.58658
G0 F1285.7 X104.751 Y131.48
G1 F900 X72.031 Y98.76 E255.35743
G0 F1285.7 X71.637 Y98.861
G1 F900 X104.646 Y131.87 E257.14392
G0 F1285.7 X104.542 Y132.26
G1 F900 X71.243 Y98.962 E258.94608
G0 F1285.7 X70.85 Y99.064
G1 F900 X104.437 Y132.651 E260.76385
G0 F1285.7 X104.332 Y133.041
G1 F900 X70.456 Y99.165 E262.59726
G0 F1285.7 X70.062 Y99.266
G1 F900 X104.228 Y133.431 E264.44634
G0 F1285.7 X104.123 Y133.822
G1 F900 X69.669 Y99.368 E266.31104
G0 F1285.7 X69.275 Y99.469
G1 F900 X104.018 Y134.212 E268.19137
G0 F1285.7 X103.914 Y134.602
G1 F900 X68.882 Y99.57 E270.08735
G0 F1285.7 X68.488 Y99.671
G1 F900 X103.809 Y134.993 E271.99899
G0 F1285.7 X103.704 Y135.383
G1 F900 X68.095 Y99.773 E273.92622
G0 F1285.7 X67.701 Y99.874
G1 F900 X103.6 Y135.773 E275.86912
G0 F1285.7 X103.496 Y136.164
G1 F900 X67.307 Y99.975 E277.82772
G0 F1285.7 X66.914 Y100.077
G1 F900 X103.391 Y136.555 E279.80193
G0 F1285.7 X103.287 Y136.945
G1 F900 X66.52 Y100.178 E281.7918
G0 F1285.7 X66.126 Y100.279
G1 F900 X103.182 Y137.335 E283.79732
G0 F1285.7 X103.077 Y137.726
G1 F900 X65.732 Y100.38 E285.81851
G0 F1285.7 X65.339 Y100.482
G1 F900 X102.973 Y138.116 E287.85531
G0 F1285.7 X102.868 Y138.506
G1 F900 X64.945 Y100.583 E289.90775
G0 F1285.7 X64.551 Y100.684
G1 F900 X102.763 Y138.896 E291.97583
G0 F1285.7 X102.659 Y139.287
G1 F900 X64.158 Y100.786 E294.05956
G0 F1285.7 X63.764 Y100.887
G1 F900 X102.554 Y139.677 E296.15892
G0 F1285.7 X102.449 Y140.067
G1 F900 X63.37 Y100.988 E298.27392
G0 F1285.7 X62.977 Y101.09
G1 F900 X102.345 Y140.458 E300.40457
G0 F1285.7 X102.24 Y140.848
G1 F900 X62.583 Y101.191 E302.55086
G0 F1285.7 X62.19 Y101.293
G1 F900 X102.136 Y141.239 E304.71279
G0 F1285.7 X102.031 Y141.629
G1 F900 X61.796 Y101.394 E306.89036
G0 F1285.7 X61.403 Y101.495
G1 F900 X101.927 Y142.02 E309.08359
G0 F1285.7 X101.822 Y142.41
G1 F900 X61.009 Y101.597 E311.29245
G0 F1285.7 X60.615 Y101.698
G1 F900 X101.718 Y142.8 E313.51697
G0 F1285.7 X101.613 Y143.191
G1 F900 X60.222 Y101.8 E315.7571
G0 F1285.7 X59.828 Y101.901
G1 F900 X101.508 Y143.581 E318.01287
G0 F1285.7 X101.404 Y143.971
G1 F900 X59.434 Y102.002 E320.28432
G0 F1285.7 X59.04 Y102.103
G1 F900 X101.299 Y144.362 E322.57143
G0 F1285.7 X101.194 Y144.752
G1 F900 X58.647 Y102.205 E324.87413
G0 F1285.7 X58.253 Y102.306
G1 F900 X101.09 Y145.142 E327.19249
G0 F1285.7 X100.985 Y145.533
G1 F900 X57.859 Y102.407 E329.52653
G0 F1285.7 X57.466 Y102.509
G1 F900 X100.88 Y145.923 E331.87615
G0 F1285.7 X100.776 Y146.313
G1 F900 X57.072 Y102.61 E334.24144
G0 F1285.7 X56.678 Y102.711
G1 F900 X100.672 Y146.704 E336.62242
G0 F1285.7 X100.567 Y147.095
G1 F900 X56.284 Y102.812 E339.01907
G0 F1285.7 X55.891 Y102.914
G1 F900 X100.462 Y147.485 E341.43131
G0 F1285.7 X100.358 Y147.875
G1 F900 X55.497 Y103.015 E343.85922
G0 F1285.7 X55.104 Y103.116
G1 F900 X100.253 Y148.266 E346.30277
G0 F1285.7 X100.148 Y148.656
G1 F900 X54.71 Y103.218 E348.76193
G0 F1285.7 X54.317 Y103.319
G1 F900 X100.044 Y149.046 E351.23673
G0 F1285.7 X99.939 Y149.437
G1 F900 X53.923 Y103.42 E353.7272
G0 F1285.7 X53.529 Y103.521
G1 F900 X99.834 Y149.827 E356.23332
G0 F1285.7 X99.73 Y150.217
G1 F900 X53.136 Y103.623 E358.75504
G0 F1285.7 X52.742 Y103.724
G1 F900 X99.625 Y150.608 E361.29244
G0 F1285.7 X99.521 Y150.998
G1 F900 X52.348 Y103.825 E363.8455
G0 F1285.7 X51.955 Y103.927
G1 F900 X99.416 Y151.388 E366.41415
G0 F1285.7 X99.311 Y151.779
G1 F900 X51.561 Y104.028 E368.99847
G0 F1285.7 X51.167 Y104.129
G1 F900 X99.207 Y152.17 E371.59848
G0 F1285.7 X99.103 Y152.56
G1 F900 X50.774 Y104.231 E374.21411
G0 F1285.7 X50.38 Y104.332
G1 F900 X98.998 Y152.95 E376.84538
G0 F1285.7 X98.893 Y153.341
G1 F900 X49.986 Y104.434 E379.49229
G0 F1285.7 X49.592 Y104.535
G1 F900 X98.789 Y153.731 E382.15486
G0 F1285.7 X98.684 Y154.121
G1 F900 X49.199 Y104.636 E384.83306
G0 F1285.7 X48.805 Y104.738
G1 F900 X98.579 Y154.512 E387.52689
G0 F1285.7 X98.475 Y154.902
G1 F900 X48.412 Y104.839 E390.23636
G0 F1285.7 X48.018 Y104.941
G1 F900 X98.37 Y155.292 E392.96145
G0 F1285.7 X98.265 Y155.682
G1 F900 X47.625 Y105.042 E395.70215
G0 F1285.7 X47.231 Y105.143
G1 F900 X98.161 Y156.073 E398.45855
G0 F1285.7 X98.056 Y156.463
G1 F900 X46.837 Y105.244 E401.23058
G0 F1285.7 X46.444 Y105.346
G1 F900 X97.951 Y156.853 E404.01821
G0 F1285.7 X97.848 Y157.244
G1 F900 X46.05 Y105.447 E406.82155
G0 F1285.7 X45.656 Y105.548
G1 F900 X97.743 Y157.635 E409.64057
G0 F1285.7 X97.638 Y158.025
G1 F900 X45.263 Y105.65 E412.47517
G0 F1285.7 X44.869 Y105.751
G1 F900 X97.534 Y158.415 E415.32544
G0 F1285.7 X97.429 Y158.806
G1 F900 X44.475 Y105.852 E418.19138
G0 F1285.7 X44.081 Y105.953
G1 F900 X97.324 Y159.196 E421.07296
G0 F1285.7 X97.22 Y159.586
G1 F900 X43.688 Y106.055 E423.97015
G0 F1285.7 X43.294 Y106.156
G1 F900 X97.115 Y159.977 E426.88301
