;FLAVOR:Marlin
;TIME:11696
;Filament used: 14.2044m
;Layer height: 0.3
;MINX:34.767
;MINY:11.424
;MINZ:0.26
;MAXX:193.13
;MAXY:193.115
;MAXZ:7.76
;Generated with Cura_SteamEngine 4.9.1
M82 ;absolute extrusion mode
;Begin Start Gcode for Dagoma DiscoEasy 200
;Sliced: 07-07-2021 19:59:24
;Initial extruder: 0

G90 ;Absolute positioning
M106 S255 ;Fan on full
G28 X Y ;Home stop X Y
G1 X100 ;Centre back during cooldown in case of oozing
M109 R90 ;Cooldown in case too hot
G28 ;Centre
G29 ;Auto-level
M104 S205 ;Pre-heat
M107 ;Fan off
G0 X100 Y5 Z0.5 ;Front centre for degunk
M109 S205 ;Wait for initial temp
M83 ;E Relative
G1 E10 F200 ;Degunk
G1 E-3 F5000 ;Retract
G0 Z3 ;Withdraw
M82 ;E absolute
G92 E0 ;E reset
G1 F6000 ;Set feedrate

;Finish Start Gcode for Dagoma DiscoEasy 200

G92 E0
G92 E0
G1 F3000 E-3.5
;LAYER_COUNT:26
;LAYER:0
M107
G0 F1285.7 X85.179 Y14.392 Z0.26
;TYPE:SKIRT
G1 F3000 E0
G1 F900 X85.524 Y13.817 E0.02566
G1 X85.844 Y13.362 E0.04695
G1 X86.226 Y12.957 E0.06826
G1 X86.661 Y12.611 E0.08953
G1 X87.142 Y12.331 E0.11083
G1 X87.658 Y12.123 E0.13212
G1 X88.199 Y11.991 E0.15343
G1 X88.791 Y11.934 E0.17619
G1 X89.38 Y11.923 E0.19873
G1 X188.603 Y11.424 E3.996
G1 X189.29 Y11.43 E4.02229
G1 X189.844 Y11.475 E4.04356
G1 X190.387 Y11.599 E4.06488
G1 X190.906 Y11.799 E4.08616
G1 X191.391 Y12.071 E4.10744
G1 X191.832 Y12.411 E4.12875
G1 X192.22 Y12.809 E4.15002
G1 X192.547 Y13.26 E4.17134
G1 X192.806 Y13.752 E4.19262
G1 X192.992 Y14.277 E4.21394
G1 X193.101 Y14.822 E4.23521
G1 X193.13 Y15.378 E4.25651
G1 X193.08 Y15.932 E4.2778
G1 X192.951 Y16.473 E4.29908
G1 X192.643 Y17.188 E4.32888
G1 X192.209 Y17.967 E4.363
G1 X92.519 Y190.636 E11.99321
G1 X92.167 Y191.226 E12.0195
G1 X91.848 Y191.683 E12.04083
G1 X91.467 Y192.088 E12.06211
G1 X91.033 Y192.435 E12.08338
G1 X90.552 Y192.717 E12.10471
G1 X90.037 Y192.926 E12.12598
G1 X89.497 Y193.06 E12.14728
G1 X88.943 Y193.115 E12.16858
G1 X88.387 Y193.09 E12.18988
G1 X87.841 Y192.985 E12.21116
G1 X87.315 Y192.804 E12.23245
G1 X86.82 Y192.549 E12.25376
G1 X86.367 Y192.225 E12.27507
G1 X85.965 Y191.841 E12.29635
G1 X85.514 Y191.231 E12.32538
G1 X85.111 Y190.557 E12.35543
G1 X35.622 Y105.335 E16.12686
G1 X35.256 Y104.684 E16.15544
G1 X35.019 Y104.181 E16.17672
G1 X34.856 Y103.649 E16.19802
G1 X34.772 Y103.099 E16.21931
G1 X34.767 Y102.542 E16.24062
G1 X34.841 Y101.991 E16.2619
G1 X34.994 Y101.456 E16.2832
G1 X35.248 Y100.901 E16.30655
G1 X35.653 Y100.174 E16.3384
G1 X85.179 Y14.392 E20.12909
G0 F1285.7 X85.479 Y14.572
G1 F900 X85.824 Y13.997 E20.15475
G1 X86.131 Y13.564 E20.17506
G1 X86.499 Y13.182 E20.19536
G1 X86.92 Y12.859 E20.21567
G1 X87.385 Y12.603 E20.23598
G1 X87.883 Y12.42 E20.25629
G1 X88.403 Y12.314 E20.2766
G1 X88.916 Y12.28 E20.29627
G1 X89.381 Y12.273 E20.31407
G1 X188.6 Y11.774 E24.11118
G1 X189.287 Y11.78 E24.13747
G1 X189.816 Y11.825 E24.15779
G1 X190.332 Y11.948 E24.17809
G1 X190.823 Y12.148 E24.19838
G1 X191.28 Y12.419 E24.21871
G1 X191.69 Y12.755 E24.239
G1 X192.045 Y13.149 E24.2593
G1 X192.337 Y13.593 E24.27963
G1 X192.559 Y14.074 E24.29991
G1 X192.707 Y14.584 E24.32023
G1 X192.776 Y15.11 E24.34053
G1 X192.765 Y15.641 E24.36086
G1 X192.675 Y16.164 E24.38117
G1 X192.507 Y16.667 E24.40146
G1 X192.337 Y17.018 E24.41639
G1 X191.906 Y17.792 E24.45029
G1 X92.218 Y190.457 E32.08032
G1 X91.866 Y191.047 E32.10662
G1 X91.561 Y191.481 E32.12692
G1 X91.194 Y191.864 E32.14722
G1 X90.773 Y192.188 E32.16755
G1 X90.309 Y192.445 E32.18785
G1 X89.811 Y192.629 E32.20816
G1 X89.292 Y192.737 E32.22845
G1 X88.762 Y192.765 E32.24876
G1 X88.234 Y192.714 E32.26906
G1 X87.719 Y192.583 E32.2894
G1 X87.23 Y192.377 E32.30971
G1 X86.778 Y192.1 E32.32999
G1 X86.372 Y191.758 E32.35031
G1 X86.022 Y191.36 E32.37059
G1 X85.814 Y191.051 E32.38485
G1 X85.414 Y190.381 E32.41471
G1 X35.927 Y105.163 E36.18597
G1 X35.561 Y104.512 E36.21455
G1 X35.337 Y104.032 E36.23482
G1 X35.187 Y103.523 E36.25513
G1 X35.115 Y102.997 E36.27545
G1 X35.123 Y102.466 E36.29577
G1 X35.211 Y101.943 E36.31607
G1 X35.376 Y101.439 E36.33636
G1 X35.554 Y101.071 E36.35201
G1 X35.956 Y100.349 E36.38363
G1 X85.479 Y14.572 E40.17409
G0 F1285.7 X85.779 Y14.752
G1 F900 X86.124 Y14.177 E40.19976
G1 X86.417 Y13.768 E40.21901
G1 X86.771 Y13.409 E40.23831
G1 X87.177 Y13.111 E40.25758
G1 X87.624 Y12.881 E40.27682
G1 X88.103 Y12.724 E40.29611
G1 X88.697 Y12.64 E40.31907
G1 X89.347 Y12.623 E40.34395
G1 X188.597 Y12.124 E44.14225
G1 X189.284 Y12.13 E44.16854
G1 X189.785 Y12.174 E44.18779
G1 X190.274 Y12.298 E44.20709
G1 X190.736 Y12.496 E44.22633
G1 X191.162 Y12.766 E44.24563
G1 X191.539 Y13.099 E44.26488
G1 X191.859 Y13.488 E44.28416
G1 X192.114 Y13.922 E44.30342
G1 X192.297 Y14.391 E44.32269
G1 X192.403 Y14.884 E44.34198
G1 X192.43 Y15.387 E44.36126
G1 X192.377 Y15.887 E44.3805
G1 X192.246 Y16.374 E44.3998
G1 X192.031 Y16.848 E44.41972
G1 X191.603 Y17.617 E44.4534
G1 X91.918 Y190.278 E52.08325
G1 X91.566 Y190.868 E52.10954
G1 X91.274 Y191.278 E52.1288
G1 X90.921 Y191.638 E52.1481
G1 X90.516 Y191.937 E52.16736
G1 X90.069 Y192.168 E52.18662
G1 X89.591 Y192.326 E52.20588
G1 X89.093 Y192.406 E52.22519
G1 X88.59 Y192.406 E52.24444
G1 X88.092 Y192.327 E52.26373
G1 X87.614 Y192.17 E52.28299
G1 X87.166 Y191.94 E52.30226
G1 X86.761 Y191.641 E52.32153
G1 X86.407 Y191.282 E52.34082
G1 X86.115 Y190.871 E52.36011
G1 X85.716 Y190.205 E52.38983
G1 X36.232 Y104.992 E56.16086
G1 X35.866 Y104.341 E56.18944
G1 X35.655 Y103.884 E56.20871
G1 X35.519 Y103.399 E56.22798
G1 X35.461 Y102.899 E56.24725
G1 X35.483 Y102.396 E56.26652
G1 X35.584 Y101.902 E56.28581
G1 X35.86 Y101.241 E56.31322
G1 X36.259 Y100.524 E56.34463
G1 X85.779 Y14.752 E60.13487
G1 F3000 E56.63487
;MESH:support_half_hex_8.stl
G0 F1285.7 X87.975 Y16.021
G0 X88.847 Y16.524
G0 X88.988 Y187.952
;TYPE:WALL-INNER
G1 F3000 E60.13487
G1 F900 X88.837 Y188.213 E60.14641
G1 X88.686 Y187.952 E60.15294
G1 X39.227 Y102.782 E63.92208
G1 X89.143 Y16.324 E67.74263
G1 X188.063 Y15.826 E71.5283
G1 X188.366 Y15.825 E71.5399
G1 X188.214 Y16.088 E71.54648
G1 X88.988 Y187.952 E79.14112
G0 F1285.7 X88.989 Y188.6
;TYPE:WALL-OUTER
G1 F900 X88.838 Y188.861 E79.15266
G1 X88.687 Y188.6 E79.1592
G1 X38.852 Y102.783 E82.95697
G1 X88.956 Y16 E86.79189
G1 X188.627 Y15.498 E90.6063
G1 X188.93 Y15.497 E90.6179
G1 X188.778 Y15.76 E90.62448
G1 X88.989 Y188.6 E98.26225
G0 F1285.7 X88.889 Y188.773
G0 X88.837 Y188.462
G0 X88.836 Y187.533
;TYPE:SKIN
G1 F900 X39.62 Y102.781 E102.01288
G1 X89.339 Y16.663 E105.81839
G1 X187.774 Y16.168 E109.5855
G1 X88.836 Y187.533 E117.1581
G0 F1285.7 X88.973 Y186.978
G1 F900 X88.311 Y186.316 E117.19393
G1 X88.249 Y186.254
G0 F1285.7 X89.154 Y186.664
G1 F900 X87.626 Y185.136 E117.27663
G1 X87.564 Y185.074
G0 F1285.7 X86.94 Y183.955
G1 F900 X89.335 Y186.35 E117.40625
G0 F1285.7 X89.517 Y186.037
G1 F900 X86.255 Y182.775 E117.58279
G1 X86.193 Y182.713
G0 F1285.7 X85.569 Y181.594
G1 F900 X89.698 Y185.723 E117.80626
G0 F1285.7 X89.879 Y185.409
G1 F900 X84.883 Y180.414 E118.07662
G1 X84.821 Y180.352
G0 F1285.7 X84.198 Y179.233
G1 F900 X90.06 Y185.095 E118.39388
G0 F1285.7 X90.241 Y184.781
G1 F900 X83.512 Y178.053 E118.75803
G1 X83.45 Y177.991
G0 F1285.7 X82.827 Y176.872
G1 F900 X90.423 Y184.468 E119.16914
G0 F1285.7 X90.604 Y184.154
G1 F900 X82.141 Y175.691 E119.62717
G1 X82.079 Y175.629
G0 F1285.7 X81.456 Y174.511
G1 F900 X90.785 Y183.84 E120.13206
G0 F1285.7 X90.966 Y183.526
G1 F900 X80.77 Y173.33 E120.68388
G1 X80.708 Y173.268
G0 F1285.7 X80.085 Y172.15
G1 F900 X91.148 Y183.213 E121.28263
G0 F1285.7 X91.329 Y182.899
G1 F900 X79.399 Y170.969 E121.92829
G1 X79.337 Y170.907
G0 F1285.7 X78.714 Y169.789
G1 F900 X91.51 Y182.585 E122.62083
G0 F1285.7 X91.691 Y182.271
G1 F900 X78.028 Y168.608 E123.36029
G1 X77.966 Y168.546
G0 F1285.7 X77.343 Y167.428
G1 F900 X91.872 Y181.957 E124.14662
G0 F1285.7 X92.053 Y181.644
G1 F900 X76.657 Y166.247 E124.9799
G1 X76.595 Y166.185
G0 F1285.7 X75.972 Y165.067
G1 F900 X92.235 Y181.33 E125.86007
G0 F1285.7 X92.416 Y181.016
G1 F900 X75.286 Y163.886 E126.78717
G1 X75.224 Y163.824
G0 F1285.7 X74.601 Y162.706
G1 F900 X92.597 Y180.702 E127.76113
G0 F1285.7 X92.778 Y180.389
G1 F900 X73.915 Y161.525 E128.78205
G1 X73.853 Y161.463
G0 F1285.7 X73.23 Y160.345
G1 F900 X92.959 Y180.075 E129.84984
G0 F1285.7 X93.14 Y179.761
G1 F900 X72.544 Y159.164 E130.96454
G1 X72.482 Y159.102
G0 F1285.7 X71.859 Y157.984
G1 F900 X93.321 Y179.447 E132.12612
G0 F1285.7 X93.502 Y179.133
G1 F900 X71.173 Y156.803 E133.33462
G1 X71.111 Y156.741
G0 F1285.7 X70.487 Y155.623
G1 F900 X93.684 Y178.82 E134.59007
G0 F1285.7 X93.865 Y178.506
G1 F900 X69.802 Y154.442 E135.89242
G1 X69.74 Y154.38
G0 F1285.7 X69.116 Y153.262
G1 F900 X94.046 Y178.192 E137.24167
G0 F1285.7 X94.227 Y177.878
G1 F900 X68.43 Y152.081 E138.63783
G1 X68.368 Y152.019
G0 F1285.7 X67.745 Y150.901
G1 F900 X94.409 Y177.565 E140.08092
G0 F1285.7 X94.59 Y177.251
G1 F900 X67.059 Y149.72 E141.57093
G1 X66.997 Y149.658
G0 F1285.7 X66.374 Y148.54
G1 F900 X94.771 Y176.937 E143.10782
G0 F1285.7 X94.952 Y176.623
G1 F900 X65.688 Y147.359 E144.69162
G1 X65.626 Y147.297
G0 F1285.7 X65.003 Y146.179
G1 F900 X95.133 Y176.309 E146.3223
G0 F1285.7 X95.315 Y175.996
G1 F900 X64.317 Y144.998 E147.99995
G1 X64.255 Y144.936
G0 F1285.7 X63.631 Y143.817
G1 F900 X95.496 Y175.682 E149.72452
G0 F1285.7 X95.677 Y175.368
G1 F900 X62.946 Y142.637 E151.49596
G1 X62.884 Y142.575
G0 F1285.7 X62.26 Y141.456
G1 F900 X95.858 Y175.054 E153.31433
G0 F1285.7 X96.039 Y174.74
G1 F900 X61.575 Y140.276 E155.17957
G1 X61.513 Y140.214
G0 F1285.7 X60.889 Y139.095
G1 F900 X96.22 Y174.426 E157.09173
G0 F1285.7 X96.401 Y174.113
G1 F900 X60.204 Y137.915 E159.05078
G1 X60.142 Y137.853
G0 F1285.7 X59.518 Y136.734
G1 F900 X96.583 Y173.799 E161.05678
G0 F1285.7 X96.764 Y173.485
G1 F900 X58.833 Y135.554 E163.10966
G1 X58.771 Y135.492
G0 F1285.7 X58.147 Y134.373
G1 F900 X96.945 Y173.171 E165.20946
G0 F1285.7 X97.126 Y172.857
G1 F900 X57.462 Y133.193 E167.35612
G1 X57.4 Y133.131
G0 F1285.7 X56.776 Y132.012
G1 F900 X97.307 Y172.543 E169.54971
G0 F1285.7 X97.488 Y172.229
G1 F900 X56.091 Y130.832 E171.79017
G1 X56.029 Y130.77
G0 F1285.7 X55.405 Y129.651
G1 F900 X97.669 Y171.916 E174.07758
G0 F1285.7 X97.851 Y171.602
G1 F900 X54.72 Y128.471 E176.41188
G1 X54.658 Y128.409
G0 F1285.7 X54.034 Y127.29
G1 F900 X98.032 Y171.288 E178.79311
G0 F1285.7 X98.213 Y170.974
G1 F900 X53.349 Y126.11 E181.22121
G1 X53.287 Y126.048
G0 F1285.7 X52.663 Y124.929
G1 F900 X98.394 Y170.66 E183.69623
G0 F1285.7 X98.576 Y170.347
G1 F900 X51.978 Y123.749 E186.21817
G1 X51.916 Y123.687
G0 F1285.7 X51.292 Y122.568
G1 F900 X98.757 Y170.033 E188.78704
G0 F1285.7 X98.938 Y169.719
G1 F900 X50.606 Y121.388 E191.4028
G1 X50.544 Y121.326
G0 F1285.7 X49.921 Y120.207
G1 F900 X99.119 Y169.405 E194.06546
G0 F1285.7 X99.3 Y169.091
G1 F900 X49.235 Y119.027 E196.77501
G1 X49.173 Y118.965
G0 F1285.7 X48.549 Y117.846
G1 F900 X99.482 Y168.778 E199.53154
G0 F1285.7 X99.663 Y168.464
G1 F900 X47.864 Y116.666 E202.33495
G1 X47.802 Y116.604
G0 F1285.7 X47.178 Y115.485
G1 F900 X99.844 Y168.15 E205.18527
G0 F1285.7 X100.025 Y167.836
G1 F900 X46.493 Y114.305 E208.08246
G1 X46.431 Y114.243
G0 F1285.7 X45.807 Y113.124
G1 F900 X100.206 Y167.523 E211.02661
G0 F1285.7 X100.387 Y167.209
G1 F900 X45.122 Y111.944 E214.01762
G1 X45.06 Y111.882
G0 F1285.7 X44.436 Y110.763
G1 F900 X100.568 Y166.895 E217.05555
G0 F1285.7 X100.749 Y166.581
G1 F900 X43.751 Y109.583 E220.14036
G1 X43.689 Y109.521
G0 F1285.7 X43.065 Y108.402
G1 F900 X100.931 Y166.267 E223.27211
G0 F1285.7 X101.112 Y165.954
G1 F900 X42.38 Y107.222 E226.45076
G1 X42.318 Y107.16
G0 F1285.7 X41.694 Y106.041
G1 F900 X101.293 Y165.64 E229.67634
G0 F1285.7 X101.474 Y165.326
G1 F900 X41.009 Y104.861 E232.94878
G1 X40.947 Y104.799
G0 F1285.7 X40.323 Y103.68
G1 F900 X101.655 Y165.012 E236.26815
G0 F1285.7 X101.837 Y164.699
G1 F900 X39.843 Y102.705 E239.62334
G0 F1285.7 X40.024 Y102.391
G1 F900 X102.018 Y164.385 E242.97853
G0 F1285.7 X102.199 Y164.071
G1 F900 X40.206 Y102.077 E246.3337
G0 F1285.7 X40.387 Y101.763
G1 F900 X102.38 Y163.757 E249.68887
G0 F1285.7 X102.561 Y163.443
G1 F900 X40.568 Y101.45 E253.04401
G0 F1285.7 X40.749 Y101.136
G1 F900 X102.743 Y163.13 E256.3992
G0 F1285.7 X102.924 Y162.816
G1 F900 X40.93 Y100.822 E259.7544
G0 F1285.7 X41.111 Y100.508
G1 F900 X103.105 Y162.502 E263.10959
G0 F1285.7 X103.286 Y162.188
G1 F900 X41.292 Y100.194 E266.46479
G0 F1285.7 X41.473 Y99.88
G1 F900 X103.468 Y161.875 E269.82003
G0 F1285.7 X103.649 Y161.561
G1 F900 X41.654 Y99.566 E273.17528
G0 F1285.7 X41.836 Y99.253
G1 F900 X103.83 Y161.247 E276.53048
G0 F1285.7 X104.011 Y160.933
G1 F900 X42.017 Y98.939 E279.88567
G0 F1285.7 X42.198 Y98.625
G1 F900 X104.192 Y160.619 E283.24087
G0 F1285.7 X104.373 Y160.306
G1 F900 X42.379 Y98.311 E286.59609
G0 F1285.7 X42.56 Y97.997
G1 F900 X104.554 Y159.992 E289.95131
G0 F1285.7 X104.735 Y159.678
G1 F900 X42.742 Y97.684 E293.30648
G0 F1285.7 X42.923 Y97.37
G1 F900 X104.916 Y159.364 E296.66164
G0 F1285.7 X105.097 Y159.05
G1 F900 X43.104 Y97.056 E300.01681
G0 F1285.7 X43.285 Y96.742
G1 F900 X105.279 Y158.736 E303.372
G0 F1285.7 X105.46 Y158.423
G1 F900 X43.467 Y96.429 E306.72717
G0 F1285.7 X43.648 Y96.115
G1 F900 X105.641 Y158.109 E310.08234
G0 F1285.7 X105.822 Y157.795
G1 F900 X43.829 Y95.801 E313.43751
G0 F1285.7 X44.01 Y95.487
G1 F900 X106.004 Y157.481 E316.7927
G0 F1285.7 X106.185 Y157.167
G1 F900 X44.191 Y95.173 E320.14789
G0 F1285.7 X44.373 Y94.86
G1 F900 X106.366 Y156.853 E323.50303
G0 F1285.7 X106.547 Y156.54
G1 F900 X44.554 Y94.546 E326.8582
G0 F1285.7 X44.735 Y94.232
G1 F900 X106.728 Y156.226 E330.21337
G0 F1285.7 X106.91 Y155.912
G1 F900 X44.916 Y93.918 E333.56856
G0 F1285.7 X45.097 Y93.604
G1 F900 X107.091 Y155.598 E336.92376
G0 F1285.7 X107.272 Y155.284
G1 F900 X45.278 Y93.291 E340.27892
G0 F1285.7 X45.459 Y92.977
G1 F900 X107.453 Y154.97 E343.63409
G0 F1285.7 X107.635 Y154.657
G1 F900 X45.64 Y92.663 E346.98931
G0 F1285.7 X45.821 Y92.349
G1 F900 X107.816 Y154.343 E350.34453
G0 F1285.7 X107.997 Y154.029
G1 F900 X46.003 Y92.036 E353.6997
G0 F1285.7 X46.184 Y91.722
G1 F900 X108.178 Y153.715 E357.05487
G0 F1285.7 X108.359 Y153.401
G1 F900 X46.365 Y91.408 E360.41004
G0 F1285.7 X46.546 Y91.094
G1 F900 X108.54 Y153.088 E363.76523
G0 F1285.7 X108.721 Y152.774
G1 F900 X46.727 Y90.78 E367.12042
G0 F1285.7 X46.909 Y90.467
G1 F900 X108.902 Y152.46 E370.47556
G0 F1285.7 X109.083 Y152.146
G1 F900 X47.09 Y90.153 E373.8307
G0 F1285.7 X47.271 Y89.839
G1 F900 X109.265 Y151.833 E377.1859
G0 F1285.7 X109.446 Y151.519
G1 F900 X47.452 Y89.525 E380.54109
G0 F1285.7 X47.633 Y89.211
G1 F900 X109.627 Y151.205 E383.89629
G0 F1285.7 X109.808 Y150.891
G1 F900 X47.815 Y88.898 E387.25143
G0 F1285.7 X47.996 Y88.584
G1 F900 X109.989 Y150.577 E390.60657
G0 F1285.7 X110.171 Y150.264
G1 F900 X48.177 Y88.27 E393.96176
G0 F1285.7 X48.358 Y87.956
G1 F900 X110.352 Y149.95 E397.31696
G0 F1285.7 X110.533 Y149.636
G1 F900 X48.54 Y87.643 E400.6721
G0 F1285.7 X48.721 Y87.329
G1 F900 X110.714 Y149.322 E404.02724
G0 F1285.7 X110.895 Y149.008
G1 F900 X48.902 Y87.015 E407.38238
G0 F1285.7 X49.083 Y86.701
G1 F900 X111.077 Y148.695 E410.73757
G0 F1285.7 X111.258 Y148.381
G1 F900 X49.264 Y86.387 E414.09277
G0 F1285.7 X49.445 Y86.073
G1 F900 X111.439 Y148.067 E417.44796
G0 F1285.7 X111.62 Y147.753
G1 F900 X49.626 Y85.76 E420.80313
G0 F1285.7 X49.807 Y85.446
G1 F900 X111.802 Y147.44 E424.15835
G0 F1285.7 X111.983 Y147.126
G1 F900 X49.988 Y85.132 E427.51357
G0 F1285.7 X50.169 Y84.818
G1 F900 X112.164 Y146.812 E430.86879
G0 F1285.7 X112.345 Y146.498
G1 F900 X50.351 Y84.504 E434.22398
G0 F1285.7 X50.532 Y84.19
G1 F900 X112.526 Y146.184 E437.57918
G0 F1285.7 X112.707 Y145.871
G1 F900 X50.713 Y83.877 E440.93437
G0 F1285.7 X50.894 Y83.563
G1 F900 X112.888 Y145.557 E444.28957
G0 F1285.7 X113.069 Y145.243
G1 F900 X51.076 Y83.249 E447.64473
G0 F1285.7 X51.257 Y82.935
G1 F900 X113.25 Y144.929 E450.9999
G0 F1285.7 X113.432 Y144.616
G1 F900 X51.438 Y82.621 E454.35512
G0 F1285.7 X51.619 Y82.307
G1 F900 X113.613 Y144.302 E457.71034
G0 F1285.7 X113.794 Y143.988
G1 F900 X51.8 Y81.993 E461.06557
G0 F1285.7 X51.982 Y81.68
