;FLAVOR:Marlin
;TIME:23377
;Filament used: 23.8473m
;Layer height: 0.3
;MINX:5.002
;MINY:11.942
;MINZ:0.26
;MAXX:201.263
;MAXY:178.154
;MAXZ:23.66
;Generated with Cura_SteamEngine 4.9.1
M82 ;absolute extrusion mode
;Begin Start Gcode for Dagoma DiscoEasy 200
;Sliced: 30-06-2021 00:55:08
;Initial extruder: 0

G90 ;Absolute positioning
M106 S255 ;Fan on full
G28 X Y ;Home stop X Y
G1 X100 ;Centre back during cooldown in case of oozing
M109 R90 ;Cooldown in case too hot
G28 ;Centre
G29 ;Auto-level
M104 S205 ;Pre-heat
M107 ;Fan off
G0 X100 Y5 Z0.5 ;Front centre for degunk
M109 S205 ;Wait for initial temp
M83 ;E Relative
G1 E10 F200 ;Degunk
G1 E-3 F5000 ;Retract
G0 Z3 ;Withdraw
M82 ;E absolute
G92 E0 ;E reset
G1 F6000 ;Set feedrate

;Finish Start Gcode for Dagoma DiscoEasy 200

G92 E0
G92 E0
G1 F3000 E-3.5
;LAYER_COUNT:79
;LAYER:0
M107
G0 F1285.7 X46.869 Y17.251 Z0.26
;TYPE:SKIRT
G1 F3000 E0
G1 F900 X47.067 Y16.731 E0.02129
G1 X47.338 Y16.245 E0.04259
G1 X47.675 Y15.802 E0.06389
G1 X48.072 Y15.413 E0.08516
G1 X48.521 Y15.084 E0.10646
G1 X49.013 Y14.823 E0.12778
G1 X49.536 Y14.635 E0.14905
G1 X50.082 Y14.524 E0.17037
G1 X50.522 Y14.492 E0.18725
G1 X51.534 Y14.478 E0.22598
G1 X72.871 Y14.574 E1.04255
G1 X75.639 Y14.547 E1.14848
G1 X78.321 Y14.445 E1.2512
G1 X81.062 Y14.263 E1.35632
G1 X83.772 Y14.006 E1.4605
G1 X86.456 Y13.675 E1.56399
G1 X89.147 Y13.265 E1.66817
G1 X91.821 Y12.78 E1.77217
G1 X94.997 Y12.096 E1.8965
G1 X95.342 Y12.025 E1.90998
G1 X96.11 Y11.945 E1.93953
G1 X97.047 Y11.942 E1.97539
G1 X97.474 Y11.948 E1.99173
G1 X98.937 Y11.95 E2.04772
G1 X99.057 Y11.954 E2.05231
G1 X100.412 Y11.946 E2.10417
G1 X101.123 Y11.949 E2.13138
G1 X101.678 Y11.991 E2.15268
G1 X101.996 Y12.052 E2.16507
G1 X102.836 Y12.25 E2.1981
G1 X105.532 Y12.843 E2.30374
G1 X108.208 Y13.354 E2.408
G1 X110.895 Y13.786 E2.51215
G1 X113.558 Y14.139 E2.61495
G1 X116.262 Y14.419 E2.71899
G1 X118.976 Y14.624 E2.82315
G1 X121.718 Y14.752 E2.9282
G1 X124.421 Y14.803 E3.03166
G1 X150.727 Y14.921 E4.03838
G1 X151.401 Y14.934 E4.06418
G1 X151.955 Y14.984 E4.08547
G1 X152.496 Y15.114 E4.10676
G1 X153.013 Y15.319 E4.12805
G1 X153.495 Y15.597 E4.14934
G1 X153.933 Y15.941 E4.17066
G1 X154.317 Y16.344 E4.19196
G1 X154.639 Y16.797 E4.21323
G1 X154.892 Y17.293 E4.23454
G1 X155.073 Y17.819 E4.25582
G1 X155.176 Y18.366 E4.27713
G1 X155.201 Y18.82 E4.29453
G1 X155.199 Y19.419 E4.31745
G1 X155.23 Y22.201 E4.42392
G1 X155.338 Y24.917 E4.52795
G1 X155.521 Y27.626 E4.63185
G1 X155.781 Y30.323 E4.73554
G1 X156.119 Y33.024 E4.83972
G1 X156.532 Y35.707 E4.9436
G1 X157.018 Y38.367 E5.04709
G1 X157.581 Y41.025 E5.15106
G1 X158.228 Y43.699 E5.25635
G1 X158.935 Y46.298 E5.35943
G1 X159.734 Y48.934 E5.46484
G1 X160.582 Y51.472 E5.56724
G1 X161.526 Y54.056 E5.67252
G1 X162.53 Y56.577 E5.77637
G1 X163.607 Y59.075 E5.88047
G1 X164.755 Y61.54 E5.98454
G1 X165.958 Y63.947 E6.08752
G1 X167.255 Y66.368 E6.19262
G1 X168.6 Y68.714 E6.29611
G1 X170.031 Y71.055 E6.40111
G1 X171.509 Y73.327 E6.50484
G1 X173.039 Y75.538 E6.60774
G1 X174.652 Y77.735 E6.71204
G1 X176.345 Y79.91 E6.81752
G1 X178.069 Y81.988 E6.92085
G1 X178.257 Y82.22 E6.93228
G1 X178.575 Y82.677 E6.95359
G1 X178.773 Y83.012 E6.96848
G1 X180.536 Y86.184 E7.10736
G1 X180.882 Y86.828 E7.13534
G1 X181.109 Y87.336 E7.15663
G1 X181.233 Y87.745 E7.17299
G1 X181.463 Y88.69 E7.21021
G1 X182.161 Y91.402 E7.31738
G1 X182.898 Y93.958 E7.41918
G1 X183.739 Y96.595 E7.5251
G1 X184.63 Y99.14 E7.6283
G1 X185.607 Y101.691 E7.73284
G1 X186.638 Y104.171 E7.83562
G1 X187.76 Y106.673 E7.94056
G1 X188.949 Y109.133 E8.04512
G1 X190.204 Y111.553 E8.14945
G1 X191.429 Y113.764 E8.24618
G1 X200.444 Y129.54 E8.94154
G1 X200.791 Y130.169 E8.96903
G1 X201.024 Y130.674 E8.99031
G1 X201.182 Y131.208 E9.01163
G1 X201.263 Y131.758 E9.0329
G1 X201.263 Y132.315 E9.05422
G1 X201.184 Y132.866 E9.07552
G1 X201.027 Y133.399 E9.09678
G1 X200.795 Y133.905 E9.11809
G1 X200.493 Y134.372 E9.13937
G1 X200.127 Y134.792 E9.16069
G1 X199.705 Y135.154 E9.18197
G1 X199.236 Y135.453 E9.20325
G1 X198.728 Y135.681 E9.22456
G1 X198.193 Y135.834 E9.24586
G1 X197.582 Y135.912 E9.26943
G1 X197.383 Y135.919 E9.27705
G1 X196.822 Y135.926 E9.29852
G1 X191.3 Y135.926 E9.50984
G1 X188.53 Y135.965 E9.61586
G1 X185.783 Y136.082 E9.72108
G1 X183.105 Y136.272 E9.82383
G1 X180.409 Y136.539 E9.92751
G1 X177.681 Y136.888 E10.03276
G1 X175.023 Y137.306 E10.13573
G1 X172.318 Y137.808 E10.24101
G1 X169.699 Y138.372 E10.34354
G1 X167.048 Y139.022 E10.448
G1 X164.421 Y139.744 E10.55226
G1 X161.834 Y140.537 E10.65581
G1 X159.242 Y141.411 E10.76049
G1 X156.681 Y142.356 E10.86496
G1 X154.158 Y143.368 E10.96899
G1 X151.697 Y144.44 E11.07172
G1 X149.203 Y145.609 E11.17713
G1 X146.766 Y146.836 E11.28154
G1 X144.406 Y148.11 E11.38418
G1 X142.047 Y149.471 E11.48841
G1 X139.723 Y150.901 E11.59283
G1 X137.451 Y152.388 E11.69675
G1 X135.221 Y153.942 E11.80077
G1 X133.012 Y155.574 E11.90587
G1 X130.899 Y157.23 E12.00861
G1 X128.797 Y158.975 E12.11316
G1 X126.763 Y160.763 E12.2168
G1 X124.757 Y162.629 E12.32165
G1 X122.83 Y164.528 E12.42518
G1 X120.956 Y166.481 E12.52877
G1 X119.1 Y168.529 E12.63454
G1 X117.364 Y170.556 E12.73667
G1 X115.649 Y172.679 E12.84112
G1 X113.326 Y175.761 E12.98881
G1 X112.759 Y176.543 E13.02578
G1 X112.401 Y176.969 E13.04707
G1 X111.986 Y177.34 E13.06838
G1 X111.522 Y177.646 E13.08965
G1 X111.018 Y177.884 E13.11098
G1 X110.486 Y178.046 E13.13226
G1 X109.781 Y178.141 E13.15949
G1 X109.597 Y178.147 E13.16653
G1 X109.032 Y178.154 E13.18815
G1 X9.499 Y178.154 E16.99723
G1 X8.819 Y178.144 E17.02326
G1 X8.265 Y178.095 E17.04454
G1 X7.723 Y177.968 E17.06585
G1 X7.205 Y177.765 E17.08714
G1 X6.722 Y177.49 E17.10841
G1 X6.282 Y177.148 E17.12974
G1 X5.897 Y176.747 E17.15101
G1 X5.573 Y176.295 E17.17229
G1 X5.317 Y175.801 E17.19359
G1 X5.134 Y175.275 E17.2149
G1 X5.028 Y174.729 E17.23619
G1 X5.002 Y174.173 E17.25749
G1 X5.056 Y173.619 E17.27879
G1 X5.188 Y173.079 E17.30006
G1 X5.502 Y172.364 E17.32995
G1 X6.019 Y171.45 E17.37013
G1 X42.647 Y109.294 E20.13111
G1 X44.022 Y106.885 E20.23726
G1 X45.309 Y104.472 E20.34192
G1 X46.506 Y102.067 E20.44473
G1 X47.656 Y99.58 E20.54959
G1 X48.73 Y97.078 E20.65378
G1 X49.742 Y94.525 E20.75888
G1 X50.654 Y92.013 E20.86116
G1 X51.515 Y89.414 E20.96593
G1 X52.294 Y86.826 E21.06936
G1 X53 Y84.21 E21.17306
G1 X53.637 Y81.554 E21.27759
G1 X54.208 Y78.843 E21.38361
G1 X54.681 Y76.225 E21.48542
G1 X55.088 Y73.537 E21.58946
G1 X55.422 Y70.826 E21.694
G1 X55.676 Y68.138 E21.79732
G1 X55.858 Y65.382 E21.90302
G1 X55.958 Y62.709 E22.00539
G1 X55.984 Y59.955 E22.11079
G1 X55.932 Y57.279 E22.21322
G1 X55.802 Y54.527 E22.31865
G1 X55.598 Y51.827 E22.42227
G1 X55.315 Y49.119 E22.52647
G1 X54.956 Y46.42 E22.63067
G1 X54.523 Y43.742 E22.73449
G1 X54.014 Y41.079 E22.83825
G1 X53.425 Y38.41 E22.94284
G1 X52.778 Y35.819 E23.04505
G1 X52.033 Y33.168 E23.15043
G1 X51.218 Y30.548 E23.25543
G1 X50.354 Y28.029 E23.35735
G1 X49.378 Y25.424 E23.46381
G1 X48.361 Y22.927 E23.56699
G1 X47.271 Y20.452 E23.67048
G1 X47.052 Y19.97 E23.69074
G1 X46.859 Y19.448 E23.71204
G1 X46.742 Y18.904 E23.73334
G1 X46.705 Y18.349 E23.75462
G1 X46.748 Y17.794 E23.77593
G1 X46.869 Y17.251 E23.79722
G0 F1285.7 X47.242 Y17.235
G1 F900 X47.45 Y16.747 E23.81752
G1 X47.728 Y16.295 E23.83783
G1 X48.072 Y15.89 E23.85816
G1 X48.472 Y15.542 E23.87845
G1 X48.92 Y15.257 E23.89877
G1 X49.405 Y15.043 E23.91906
G1 X49.918 Y14.905 E23.93939
G1 X50.527 Y14.842 E23.96282
G1 X51.533 Y14.828 E24.00132
G1 X72.873 Y14.924 E24.818
G1 X75.655 Y14.897 E24.92447
G1 X78.358 Y14.794 E25.02799
G1 X81.083 Y14.613 E25.1325
G1 X83.778 Y14.358 E25.2361
G1 X86.517 Y14.02 E25.34172
G1 X89.228 Y13.607 E25.44666
G1 X91.865 Y13.129 E25.54922
G1 X95.067 Y12.438 E25.67458
G1 X95.412 Y12.367 E25.68806
G1 X96.111 Y12.295 E25.71496
G1 X97.043 Y12.292 E25.75062
G1 X97.47 Y12.298 E25.76697
G1 X98.937 Y12.3 E25.82311
G1 X99.058 Y12.304 E25.82774
G1 X100.411 Y12.296 E25.87952
G1 X101.122 Y12.299 E25.90673
G1 X101.651 Y12.341 E25.92704
G1 X101.915 Y12.393 E25.93733
G1 X102.734 Y12.586 E25.96954
G1 X105.46 Y13.185 E26.07635
G1 X108.161 Y13.702 E26.18159
G1 X110.788 Y14.124 E26.28341
G1 X113.551 Y14.49 E26.39008
G1 X116.237 Y14.768 E26.49342
G1 X118.966 Y14.975 E26.59815
G1 X121.696 Y15.102 E26.70274
G1 X124.417 Y15.153 E26.80689
G1 X150.72 Y15.271 E27.81351
G1 X151.394 Y15.284 E27.8393
G1 X151.922 Y15.334 E27.8596
G1 X152.437 Y15.463 E27.87992
G1 X152.927 Y15.667 E27.90023
G1 X153.38 Y15.943 E27.92053
G1 X153.787 Y16.284 E27.94085
G1 X154.138 Y16.682 E27.96116
G1 X154.425 Y17.128 E27.98146
G1 X154.642 Y17.612 E28.00176
G1 X154.784 Y18.124 E28.02209
G1 X154.851 Y18.819 E28.04881
G1 X154.849 Y19.423 E28.07192
G1 X154.881 Y22.218 E28.17889
G1 X154.988 Y24.921 E28.28242
G1 X155.172 Y27.645 E28.3869
G1 X155.434 Y30.365 E28.49148
G1 X155.774 Y33.086 E28.59642
G1 X156.19 Y35.788 E28.70104
G1 X156.679 Y38.459 E28.80496
G1 X157.234 Y41.079 E28.90745
G1 X157.892 Y43.797 E29.01447
G1 X158.595 Y46.381 E29.11695
G1 X159.402 Y49.045 E29.22348
G1 X160.253 Y51.593 E29.32628
G1 X161.193 Y54.164 E29.43104
G1 X162.209 Y56.715 E29.53613
G1 X163.283 Y59.206 E29.63994
G1 X164.445 Y61.701 E29.74527
G1 X165.657 Y64.126 E29.84902
G1 X166.948 Y66.538 E29.95372
G1 X168.303 Y68.902 E30.05799
G1 X169.72 Y71.218 E30.1619
G1 X171.209 Y73.507 E30.2664
G1 X172.783 Y75.782 E30.37227
G1 X174.373 Y77.947 E30.47507
G1 X176.037 Y80.085 E30.57875
G1 X177.797 Y82.209 E30.68431
G1 X177.985 Y82.441 E30.69574
G1 X178.274 Y82.856 E30.71509
G1 X178.467 Y83.182 E30.72959
G1 X180.227 Y86.35 E30.86828
G1 X180.573 Y86.994 E30.89626
G1 X180.788 Y87.479 E30.91656
G1 X180.893 Y87.828 E30.93051
G1 X181.124 Y88.777 E30.96789
G1 X181.821 Y91.485 E31.0749
G1 X182.573 Y94.094 E31.17881
G1 X183.396 Y96.675 E31.28248
G1 X184.305 Y99.27 E31.38771
G1 X185.277 Y101.808 E31.49172
G1 X186.333 Y104.35 E31.59706
G1 X187.431 Y106.798 E31.69973
G1 X188.636 Y109.29 E31.80567
G1 X189.885 Y111.699 E31.90951
G1 X191.126 Y113.938 E32.00748
G1 X200.137 Y129.709 E32.7026
G1 X200.484 Y130.338 E32.73009
G1 X200.705 Y130.821 E32.75042
G1 X200.851 Y131.331 E32.77072
G1 X200.918 Y131.858 E32.79105
G1 X200.906 Y132.388 E32.81134
G1 X200.814 Y132.911 E32.83166
G1 X200.645 Y133.414 E32.85196
G1 X200.402 Y133.885 E32.87225
G1 X200.091 Y134.316 E32.89259
G1 X199.719 Y134.694 E32.91288
G1 X199.294 Y135.012 E32.9332
G1 X198.827 Y135.263 E32.95349
G1 X198.327 Y135.441 E32.9738
G1 X197.566 Y135.562 E33.00329
G1 X197.379 Y135.569 E33.01045
G1 X196.818 Y135.576 E33.03192
G1 X191.295 Y135.576 E33.24328
G1 X188.511 Y135.615 E33.34983
G1 X185.777 Y135.731 E33.45456
G1 X183.084 Y135.922 E33.55788
G1 X180.326 Y136.196 E33.66394
G1 X177.656 Y136.537 E33.76695
G1 X174.974 Y136.959 E33.87085
G1 X172.256 Y137.464 E33.97665
G1 X169.611 Y138.033 E34.08019
G1 X166.973 Y138.68 E34.18414
G1 X164.326 Y139.408 E34.2892
G1 X161.698 Y140.213 E34.39438
G1 X159.12 Y141.082 E34.49849
G1 X156.559 Y142.027 E34.60296
G1 X154.043 Y143.037 E34.70672
G1 X151.537 Y144.128 E34.81132
G1 X149.038 Y145.299 E34.91693
G1 X146.612 Y146.521 E35.02088
G1 X144.25 Y147.797 E35.12362
G1 X141.848 Y149.181 E35.22971
G1 X139.543 Y150.6 E35.3333
G1 X137.245 Y152.104 E35.43841
G1 X135.023 Y153.652 E35.54204
G1 X132.82 Y155.28 E35.64687
G1 X130.669 Y156.965 E35.75144
G1 X128.57 Y158.709 E35.85588
G1 X126.522 Y160.509 E35.96022
G1 X124.521 Y162.371 E36.06482
G1 X122.579 Y164.283 E36.16912
G1 X120.69 Y166.252 E36.27354
G1 X118.856 Y168.277 E36.3781
G1 X117.092 Y170.337 E36.48189
G1 X115.37 Y172.467 E36.58671
G1 X113.061 Y175.531 E36.73353
G1 X112.476 Y176.338 E36.77168
G1 X112.133 Y176.743 E36.79199
G1 X111.733 Y177.092 E36.8123
G1 X111.285 Y177.377 E36.83262
G1 X110.8 Y177.591 E36.85291
G1 X110.288 Y177.731 E36.87322
G1 X109.767 Y177.791 E36.89329
G1 X109.593 Y177.797 E36.89996
G1 X109.028 Y177.804 E36.92158
G1 X9.504 Y177.804 E40.73032
G1 X8.824 Y177.794 E40.75634
G1 X8.296 Y177.746 E40.77663
G1 X7.78 Y177.619 E40.79697
G1 X7.29 Y177.417 E40.81725
G1 X6.835 Y177.143 E40.83758
G1 X6.427 Y176.804 E40.85788
G1 X6.074 Y176.408 E40.87818
G1 X5.785 Y175.963 E40.89849
G1 X5.565 Y175.48 E40.9188
G1 X5.421 Y174.969 E40.93911
G1 X5.355 Y174.443 E40.9594
G1 X5.369 Y173.912 E40.97973
G1 X5.462 Y173.39 E41.00002
G1 X5.633 Y172.887 E41.02035
G1 X5.806 Y172.536 E41.03533
G1 X6.32 Y171.627 E41.07529
G1 X42.976 Y109.424 E43.83836
G1 X44.337 Y107.038 E43.94348
G1 X45.611 Y104.651 E44.04703
G1 X46.831 Y102.199 E44.15184
G1 X47.976 Y99.723 E44.25623
G1 X49.045 Y97.233 E44.35994
G1 X50.071 Y94.643 E44.46655
G1 X50.983 Y92.132 E44.56878
G1 X51.85 Y89.514 E44.67433
G1 X52.632 Y86.917 E44.77812
G1 X53.336 Y84.307 E44.88157
G1 X53.986 Y81.598 E44.98819
G1 X54.544 Y78.949 E45.09179
G1 X55.029 Y76.265 E45.19617
G1 X55.433 Y73.598 E45.2994
G1 X55.776 Y70.816 E45.40667
G1 X56.026 Y68.158 E45.50884
G1 X56.205 Y65.453 E45.61258
G1 X56.309 Y62.689 E45.71843
G1 X56.334 Y59.954 E45.82311
G1 X56.282 Y57.256 E45.92638
G1 X56.152 Y54.519 E46.03124
G1 X55.947 Y51.802 E46.13551
G1 X55.662 Y49.071 E46.24059
G1 X55.305 Y46.388 E46.34418
G1 X54.865 Y43.666 E46.4497
G1 X54.357 Y41.009 E46.55322
G1 X53.773 Y38.359 E46.65707
G1 X53.112 Y35.717 E46.76129
G1 X52.369 Y33.07 E46.86651
G1 X51.548 Y30.43 E46.97231
G1 X50.681 Y27.903 E47.07455
G1 X49.71 Y25.311 E47.18048
G1 X48.686 Y22.796 E47.2844
G1 X47.573 Y20.27 E47.39004
G1 X47.371 Y19.825 E47.40874
G1 X47.188 Y19.327 E47.42904
G1 X47.083 Y18.807 E47.44934
G1 X47.056 Y18.277 E47.46965
G1 X47.11 Y17.749 E47.48997
G1 X47.242 Y17.235 E47.51027
G0 F1285.7 X47.617 Y17.227
G1 F900 X47.834 Y16.772 E47.52957
G1 X48.121 Y16.358 E47.54884
G1 X48.47 Y15.995 E47.56811
G1 X48.871 Y15.691 E47.58737
G1 X49.316 Y15.455 E47.60665
G1 X49.792 Y15.291 E47.62592
G1 X50.533 Y15.192 E47.65453
G1 X51.531 Y15.178 E47.69272
G1 X72.875 Y15.274 E48.50956
G1 X75.637 Y15.247 E48.61526
G1 X78.393 Y15.142 E48.72081
G1 X81.104 Y14.963 E48.82478
G1 X83.854 Y14.702 E48.9305
G1 X86.544 Y14.37 E49.03422
G1 X89.269 Y13.955 E49.13971
G1 X91.945 Y13.47 E49.24379
G1 X95.138 Y12.781 E49.36879
G1 X95.483 Y12.71 E49.38227
G1 X96.112 Y12.645 E49.40647
G1 X97.038 Y12.642 E49.44191
G1 X97.465 Y12.648 E49.45825
G1 X98.936 Y12.65 E49.51455
G1 X99.059 Y12.655 E49.51926
G1 X100.409 Y12.646 E49.57092
G1 X101.12 Y12.649 E49.59813
G1 X101.835 Y12.734 E49.62569
G1 X102.659 Y12.928 E49.65809
G1 X105.395 Y13.529 E49.76529
G1 X108.07 Y14.041 E49.86952
G1 X110.762 Y14.474 E49.97386
G1 X113.503 Y14.836 E50.07967
G1 X116.21 Y15.117 E50.18382
G1 X118.925 Y15.322 E50.28802
G1 X121.708 Y15.452 E50.39464
G1 X124.415 Y15.503 E50.49825
G1 X150.713 Y15.621 E51.50468
G1 X151.387 Y15.634 E51.53048
G1 X151.888 Y15.683 E51.54974
G1 X152.375 Y15.811 E51.56901
G1 X152.836 Y16.015 E51.5883
G1 X153.259 Y16.289 E51.60759
G1 X153.633 Y16.626 E51.62686
G1 X153.949 Y17.018 E51.64612
G1 X154.198 Y17.455 E51.66537
G1 X154.376 Y17.927 E51.68468
G1 X154.477 Y18.42 E51.70394
G1 X154.501 Y18.818 E51.7192
G1 X154.499 Y19.427 E51.7425
G1 X154.53 Y22.201 E51.84867
G1 X154.64 Y24.959 E51.9543
G1 X154.825 Y27.703 E52.05955
G1 X155.086 Y30.407 E52.16351
G1 X155.424 Y33.108 E52.26768
G1 X155.843 Y35.835 E52.37327
G1 X156.334 Y38.519 E52.47769
G1 X156.894 Y41.165 E52.58119
G1 X157.55 Y43.869 E52.68768
G1 X158.267 Y46.506 E52.79226
G1 X159.067 Y49.148 E52.8979
G1 X159.924 Y51.713 E53.00139
G1 X160.863 Y54.283 E53.1061
G1 X161.895 Y56.872 E53.21277
G1 X162.963 Y59.35 E53.31603
G1 X164.12 Y61.835 E53.42093
G1 X165.341 Y64.278 E53.52545
G1 X166.635 Y66.693 E53.6303
G1 X168.008 Y69.089 E53.73599
G1 X169.441 Y71.432 E53.84109
G1 X170.907 Y73.687 E53.94402
G1 X172.493 Y75.978 E54.05066
G1 X174.095 Y78.16 E54.15425
G1 X175.794 Y80.342 E54.26008
G1 X177.525 Y82.429 E54.36385
G1 X177.974 Y83.035 E54.39271
G1 X178.161 Y83.352 E54.4068
G1 X179.919 Y86.515 E54.54528
G1 X180.265 Y87.159 E54.57326
G1 X180.467 Y87.62 E54.59252
G1 X180.553 Y87.911 E54.60414
G1 X180.785 Y88.865 E54.64171
G1 X181.479 Y91.56 E54.74821
G1 X182.236 Y94.186 E54.8528
G1 X183.075 Y96.818 E54.95852
G1 X183.972 Y99.38 E55.0624
G1 X184.947 Y101.925 E55.1667
G1 X186.011 Y104.485 E55.27279
