;FLAVOR:Marlin
;TIME:11921
;Filament used: 14.4371m
;Layer height: 0.3
;MINX:31.316
;MINY:12.608
;MINZ:0.26
;MAXX:191.637
;MAXY:193.544
;MAXZ:7.76
;Generated with Cura_SteamEngine 4.9.1
M82 ;absolute extrusion mode
;Begin Start Gcode for Dagoma DiscoEasy 200
;Sliced: 07-07-2021 20:12:35
;Initial extruder: 0

G90 ;Absolute positioning
M106 S255 ;Fan on full
G28 X Y ;Home stop X Y
G1 X100 ;Centre back during cooldown in case of oozing
M109 R90 ;Cooldown in case too hot
G28 ;Centre
G29 ;Auto-level
M104 S205 ;Pre-heat
M107 ;Fan off
G0 X100 Y5 Z0.5 ;Front centre for degunk
M109 S205 ;Wait for initial temp
M83 ;E Relative
G1 E10 F200 ;Degunk
G1 E-3 F5000 ;Retract
G0 Z3 ;Withdraw
M82 ;E absolute
G92 E0 ;E reset
G1 F6000 ;Set feedrate

;Finish Start Gcode for Dagoma DiscoEasy 200

G92 E0
G92 E0
G1 F3000 E-3.5
;LAYER_COUNT:26
;LAYER:0
M107
G0 F1285.7 X82.367 Y15.096 Z0.26
;TYPE:SKIRT
G1 F3000 E0
G1 F900 X82.739 Y14.483 E0.02744
G1 X83.061 Y14.029 E0.04874
G1 X83.445 Y13.626 E0.07004
G1 X83.883 Y13.282 E0.09136
G1 X84.365 Y13.005 E0.11263
G1 X84.882 Y12.799 E0.13393
G1 X85.423 Y12.669 E0.15522
G1 X86.094 Y12.614 E0.18099
G1 X86.513 Y12.608 E0.19703
G1 X187.138 Y12.608 E4.0479
G1 X187.82 Y12.618 E4.074
G1 X188.374 Y12.666 E4.09528
G1 X188.916 Y12.793 E4.11658
G1 X189.434 Y12.997 E4.13789
G1 X189.917 Y13.272 E4.15916
G1 X190.356 Y13.614 E4.18046
G1 X190.742 Y14.015 E4.20176
G1 X191.066 Y14.467 E4.22304
G1 X191.322 Y14.961 E4.24433
G1 X191.505 Y15.487 E4.26565
G1 X191.611 Y16.033 E4.28693
G1 X191.637 Y16.589 E4.30823
G1 X191.583 Y17.143 E4.32953
G1 X191.451 Y17.683 E4.35081
G1 X191.141 Y18.392 E4.38042
G1 X190.683 Y19.205 E4.41613
G1 X89.723 Y191.079 E12.04451
G1 X89.361 Y191.677 E12.07126
G1 X89.039 Y192.131 E12.09256
G1 X88.656 Y192.534 E12.11383
G1 X88.219 Y192.878 E12.13512
G1 X87.737 Y193.157 E12.15643
G1 X87.22 Y193.363 E12.17773
G1 X86.679 Y193.493 E12.19902
G1 X86.125 Y193.544 E12.22031
G1 X85.57 Y193.516 E12.24158
G1 X85.024 Y193.408 E12.26288
G1 X84.499 Y193.223 E12.28418
G1 X84.006 Y192.965 E12.30548
G1 X83.555 Y192.638 E12.3268
G1 X83.156 Y192.251 E12.34807
G1 X82.758 Y191.721 E12.37343
G1 X82.521 Y191.338 E12.39067
G1 X32.163 Y105.61 E16.19559
G1 X31.819 Y105.007 E16.22216
G1 X31.579 Y104.505 E16.24346
G1 X31.413 Y103.974 E16.26475
G1 X31.325 Y103.425 E16.28602
G1 X31.316 Y102.868 E16.30734
G1 X31.387 Y102.317 E16.3286
G1 X31.537 Y101.781 E16.34991
G1 X31.795 Y101.21 E16.37388
G1 X32.04 Y100.77 E16.39316
G1 X82.367 Y15.096 E20.1957
G0 F1285.7 X82.666 Y15.277
G1 F900 X83.038 Y14.664 E20.22314
G1 X83.347 Y14.233 E20.24344
G1 X83.717 Y13.852 E20.26376
G1 X84.14 Y13.532 E20.28406
G1 X84.606 Y13.278 E20.30437
G1 X85.105 Y13.098 E20.32467
G1 X85.626 Y12.994 E20.345
G1 X86.185 Y12.962 E20.36643
G1 X86.518 Y12.958 E20.37917
G1 X187.133 Y12.958 E24.22966
G1 X187.815 Y12.968 E24.25577
G1 X188.343 Y13.016 E24.27605
G1 X188.859 Y13.143 E24.29639
G1 X189.349 Y13.345 E24.31667
G1 X189.804 Y13.619 E24.337
G1 X190.212 Y13.958 E24.3573
G1 X190.565 Y14.354 E24.3776
G1 X190.854 Y14.799 E24.39791
G1 X191.073 Y15.282 E24.4182
G1 X191.218 Y15.793 E24.43853
G1 X191.284 Y16.319 E24.45882
G1 X191.27 Y16.85 E24.47915
G1 X191.177 Y17.372 E24.49944
G1 X191.006 Y17.875 E24.51977
G1 X190.836 Y18.22 E24.53449
G1 X190.381 Y19.027 E24.56994
G1 X89.424 Y190.897 E32.19813
G1 X89.062 Y191.495 E32.22488
G1 X88.753 Y191.927 E32.2452
G1 X88.384 Y192.308 E32.2655
G1 X87.961 Y192.629 E32.28582
G1 X87.495 Y192.883 E32.30613
G1 X86.997 Y193.064 E32.32641
G1 X86.476 Y193.169 E32.34675
G1 X85.946 Y193.194 E32.36706
G1 X85.418 Y193.139 E32.38737
G1 X84.905 Y193.005 E32.40766
G1 X84.417 Y192.796 E32.42798
G1 X83.966 Y192.516 E32.4483
G1 X83.563 Y192.172 E32.46857
G1 X83.215 Y191.77 E32.48892
G1 X82.871 Y191.241 E32.51307
G1 X32.467 Y105.437 E36.32139
G1 X32.123 Y104.834 E36.34796
G1 X31.896 Y104.354 E36.36828
G1 X31.743 Y103.846 E36.38859
G1 X31.668 Y103.321 E36.40888
G1 X31.673 Y102.79 E36.4292
G1 X31.757 Y102.266 E36.44951
G1 X31.919 Y101.761 E36.46981
G1 X32.297 Y101.026 E36.50144
G1 X82.666 Y15.277 E40.30727
G0 F1285.7 X82.966 Y15.459
G1 F900 X83.338 Y14.846 E40.33471
G1 X83.632 Y14.437 E40.35399
G1 X83.988 Y14.081 E40.37325
G1 X84.395 Y13.785 E40.39251
G1 X84.844 Y13.557 E40.41178
G1 X85.324 Y13.403 E40.43108
G1 X85.943 Y13.32 E40.45498
G1 X86.522 Y13.308 E40.47714
G1 X187.128 Y13.308 E44.32728
G1 X187.81 Y13.318 E44.35339
G1 X188.311 Y13.366 E44.37265
G1 X188.798 Y13.492 E44.3919
G1 X189.26 Y13.693 E44.41118
G1 X189.684 Y13.965 E44.43046
G1 X190.059 Y14.301 E44.44973
G1 X190.377 Y14.691 E44.46898
G1 X190.629 Y15.127 E44.48826
G1 X190.809 Y15.598 E44.50755
G1 X190.912 Y16.09 E44.52679
G1 X190.936 Y16.593 E44.54606
G1 X190.881 Y17.094 E44.56535
G1 X190.746 Y17.579 E44.58462
G1 X190.531 Y18.049 E44.60439
G1 X190.08 Y18.85 E44.63957
G1 X89.124 Y190.716 E52.26761
G1 X88.762 Y191.314 E52.29436
G1 X88.468 Y191.723 E52.31363
G1 X88.113 Y192.08 E52.3329
G1 X87.706 Y192.377 E52.35218
G1 X87.257 Y192.605 E52.37145
G1 X86.778 Y192.76 E52.39072
G1 X86.28 Y192.836 E52.41
G1 X85.776 Y192.834 E52.42929
G1 X85.28 Y192.751 E52.44853
G1 X84.802 Y192.591 E52.46782
G1 X84.356 Y192.358 E52.48708
G1 X83.952 Y192.057 E52.50636
G1 X83.601 Y191.696 E52.52563
G1 X83.168 Y191.055 E52.55523
G1 X83.124 Y190.983 E52.55846
G1 X32.771 Y105.263 E56.36303
G1 X32.427 Y104.66 E56.38959
G1 X32.213 Y104.204 E56.40887
G1 X32.074 Y103.721 E56.42811
G1 X32.013 Y103.221 E56.44738
G1 X32.032 Y102.717 E56.46668
G1 X32.13 Y102.223 E56.48596
G1 X32.407 Y101.549 E56.51384
G1 X32.643 Y101.125 E56.53242
G1 X82.966 Y15.459 E60.33462
G1 F3000 E56.83462
;MESH:support_half_hex_23.stl
G0 F1285.7 X85.151 Y16.744
G0 X86.021 Y17.255
G0 X86.196 Y188.396
;TYPE:WALL-INNER
G1 F3000 E60.33462
G1 F900 X86.046 Y188.652 E60.34597
G1 X85.896 Y188.396 E60.35242
G1 X35.782 Y103.086 E64.13882
G1 X86.346 Y17.008 E67.95929
G1 X186.566 Y17.008 E71.79466
G1 X186.568 Y17.008 E71.79473
G1 X186.871 Y17.008 E71.80633
G1 X186.717 Y17.27 E71.81291
G1 X86.196 Y188.396 E79.40809
G0 F1285.7 X86.196 Y189.038
;TYPE:WALL-OUTER
G1 F900 X86.046 Y189.294 E79.41945
G1 X85.896 Y189.038 E79.42589
G1 X35.405 Y103.086 E83.24079
G1 X86.16 Y16.683 E87.07568
G1 X187.134 Y16.683 E90.93991
G1 X187.136 Y16.683 E90.93999
G1 X187.439 Y16.683 E90.95158
G1 X187.285 Y16.945 E90.95816
G1 X86.196 Y189.038 E98.59626
G0 F1285.7 X86.095 Y189.21
G0 X86.046 Y188.897
G0 X86.046 Y187.98
;TYPE:SKIN
G1 F900 X36.176 Y103.086 E102.36421
G1 X86.54 Y17.348 E106.16958
G1 X186.277 Y17.348 E109.98647
G1 X86.046 Y187.98 E117.55973
G0 F1285.7 X86.102 Y187.572
G1 F900 X85.825 Y187.295 E117.57472
G0 F1285.7 X86.286 Y187.26
G1 F900 X85.12 Y186.095 E117.6378
G1 X85.058 Y186.033
G0 F1285.7 X84.416 Y184.896
G1 F900 X86.469 Y186.949 E117.74891
G0 F1285.7 X86.652 Y186.637
G1 F900 X83.711 Y183.696 E117.90808
G1 X83.649 Y183.634
G0 F1285.7 X83.006 Y182.496
G1 F900 X86.835 Y186.325 E118.11531
G0 F1285.7 X87.018 Y186.013
G1 F900 X82.302 Y181.297 E118.37055
G1 X82.24 Y181.235
G0 F1285.7 X81.597 Y180.097
G1 F900 X87.201 Y185.701 E118.67384
G0 F1285.7 X87.384 Y185.389
G1 F900 X80.892 Y178.897 E119.0252
G1 X80.83 Y178.835
G0 F1285.7 X80.188 Y177.698
G1 F900 X87.568 Y185.078 E119.42461
G0 F1285.7 X87.751 Y184.766
G1 F900 X79.483 Y176.498 E119.87209
G1 X79.421 Y176.436
G0 F1285.7 X78.778 Y175.298
G1 F900 X87.934 Y184.454 E120.36762
G0 F1285.7 X88.117 Y184.142
G1 F900 X78.073 Y174.098 E120.91122
G1 X78.011 Y174.036
G0 F1285.7 X77.368 Y172.898
G1 F900 X88.301 Y183.831 E121.50292
G0 F1285.7 X88.484 Y183.519
G1 F900 X76.663 Y171.698 E122.14269
G1 X76.601 Y171.636
G0 F1285.7 X75.959 Y170.499
G1 F900 X88.667 Y183.207 E122.83047
G0 F1285.7 X88.85 Y182.895
G1 F900 X75.254 Y169.299 E123.5663
G1 X75.192 Y169.237
G0 F1285.7 X74.549 Y168.099
G1 F900 X89.033 Y182.584 E124.35022
G0 F1285.7 X89.217 Y182.272
G1 F900 X73.844 Y166.899 E125.18222
G1 X73.782 Y166.837
G0 F1285.7 X73.14 Y165.7
G1 F900 X89.4 Y181.96 E126.06224
G0 F1285.7 X89.583 Y181.648
G1 F900 X72.435 Y164.5 E126.99031
G1 X72.373 Y164.438
G0 F1285.7 X71.73 Y163.3
G1 F900 X89.766 Y181.336 E127.96644
G0 F1285.7 X89.949 Y181.024
G1 F900 X71.026 Y162.101 E128.99058
G1 X70.964 Y162.039
G0 F1285.7 X70.321 Y160.901
G1 F900 X90.132 Y180.713 E130.0628
G0 F1285.7 X90.315 Y180.401
G1 F900 X69.616 Y159.701 E131.18308
G1 X69.554 Y159.639
G0 F1285.7 X68.911 Y158.502
G1 F900 X90.499 Y180.089 E132.35143
G0 F1285.7 X90.682 Y179.777
G1 F900 X68.206 Y157.302 E133.56783
G1 X68.144 Y157.24
G0 F1285.7 X67.501 Y156.102
G1 F900 X90.865 Y179.465 E134.83229
G0 F1285.7 X91.048 Y179.153
G1 F900 X66.797 Y154.903 E136.14476
G1 X66.735 Y154.841
G0 F1285.7 X66.092 Y153.703
G1 F900 X91.231 Y178.842 E137.50531
G0 F1285.7 X91.414 Y178.53
G1 F900 X65.387 Y152.503 E138.91393
G1 X65.325 Y152.441
G0 F1285.7 X64.683 Y151.303
G1 F900 X91.597 Y178.218 E140.37057
G0 F1285.7 X91.781 Y177.906
G1 F900 X63.978 Y150.103 E141.87531
G1 X63.916 Y150.041
G0 F1285.7 X63.273 Y148.903
G1 F900 X91.964 Y177.594 E143.4281
G0 F1285.7 X92.147 Y177.282
G1 F900 X62.569 Y147.704 E145.0289
G1 X62.507 Y147.642
G0 F1285.7 X61.864 Y146.504
G1 F900 X92.33 Y176.971 E146.67779
G0 F1285.7 X92.513 Y176.659
G1 F900 X61.159 Y145.304 E148.37473
G1 X61.097 Y145.242
G0 F1285.7 X60.454 Y144.105
G1 F900 X92.696 Y176.347 E150.11971
G0 F1285.7 X92.879 Y176.035
G1 F900 X59.749 Y142.905 E151.91275
G1 X59.687 Y142.843
G0 F1285.7 X59.044 Y141.705
G1 F900 X93.063 Y175.723 E153.75387
G0 F1285.7 X93.246 Y175.411
G1 F900 X58.339 Y140.505 E155.64306
G1 X58.277 Y140.443
G0 F1285.7 X57.635 Y139.306
G1 F900 X93.429 Y175.1 E157.58027
G0 F1285.7 X93.612 Y174.788
G1 F900 X56.93 Y138.106 E159.56555
G1 X56.868 Y138.044
G0 F1285.7 X56.225 Y136.906
G1 F900 X93.795 Y174.476 E161.59889
G0 F1285.7 X93.978 Y174.164
G1 F900 X55.521 Y135.707 E163.68023
G1 X55.459 Y135.645
G0 F1285.7 X54.816 Y134.507
G1 F900 X94.161 Y173.852 E165.80963
G0 F1285.7 X94.345 Y173.54
G1 F900 X54.111 Y133.307 E167.98712
G1 X54.049 Y133.245
G0 F1285.7 X53.407 Y132.108
G1 F900 X94.528 Y173.229 E170.21264
G0 F1285.7 X94.712 Y172.918
G1 F900 X52.702 Y130.908 E172.48627
G1 X52.64 Y130.846
G0 F1285.7 X51.997 Y129.708
G1 F900 X94.895 Y172.606 E174.80797
G0 F1285.7 X95.078 Y172.294
G1 F900 X51.292 Y128.508 E177.17772
G1 X51.23 Y128.446
G0 F1285.7 X50.587 Y127.308
G1 F900 X95.261 Y171.982 E179.59554
G0 F1285.7 X95.444 Y171.67
G1 F900 X49.882 Y126.108 E182.06141
G1 X49.82 Y126.046
G0 F1285.7 X49.178 Y124.909
G1 F900 X95.627 Y171.358 E184.57529
G0 F1285.7 X95.81 Y171.047
G1 F900 X48.473 Y123.709 E187.13725
G1 X48.411 Y123.647
G0 F1285.7 X47.768 Y122.509
G1 F900 X95.993 Y170.735 E189.74728
G0 F1285.7 X96.177 Y170.423
G1 F900 X47.064 Y121.31 E192.40534
G1 X47.002 Y121.248
G0 F1285.7 X46.359 Y120.11
G1 F900 X96.36 Y170.111 E195.11146
G0 F1285.7 X96.543 Y169.799
G1 F900 X45.654 Y118.91 E197.86563
G1 X45.592 Y118.848
G0 F1285.7 X44.949 Y117.71
G1 F900 X96.726 Y169.487 E200.66787
G0 F1285.7 X96.909 Y169.176
G1 F900 X44.245 Y116.511 E203.51814
G1 X44.183 Y116.449
G0 F1285.7 X43.54 Y115.311
G1 F900 X97.092 Y168.864 E206.41647
G0 F1285.7 X97.275 Y168.552
G1 F900 X42.835 Y114.111 E209.36286
G1 X42.773 Y114.049
G0 F1285.7 X42.13 Y112.912
G1 F900 X97.459 Y168.24 E212.35731
G0 F1285.7 X97.642 Y167.928
G1 F900 X41.425 Y111.712 E215.39982
G1 X41.363 Y111.65
G0 F1285.7 X40.72 Y110.512
G1 F900 X97.825 Y167.616 E218.49039
G0 F1285.7 X98.008 Y167.304
G1 F900 X40.016 Y109.313 E221.62896
G1 X39.954 Y109.251
G0 F1285.7 X39.311 Y108.113
G1 F900 X98.191 Y166.993 E224.81562
G0 F1285.7 X98.374 Y166.681
G1 F900 X38.606 Y106.913 E228.05034
G1 X38.544 Y106.851
G0 F1285.7 X37.902 Y105.713
G1 F900 X98.557 Y166.369 E231.33309
G0 F1285.7 X98.741 Y166.057
G1 F900 X37.197 Y104.513 E234.66393
G1 X37.135 Y104.451
G0 F1285.7 X36.492 Y103.313
G1 F900 X98.924 Y165.745 E238.04283
G0 F1285.7 X99.107 Y165.433
G1 F900 X36.505 Y102.832 E241.43091
G0 F1285.7 X36.688 Y102.52
G1 F900 X99.29 Y165.122 E244.81901
G0 F1285.7 X99.473 Y164.81
G1 F900 X36.872 Y102.208 E248.20708
G0 F1285.7 X37.055 Y101.896
G1 F900 X99.656 Y164.498 E251.59515
G0 F1285.7 X99.839 Y164.186
G1 F900 X37.238 Y101.585 E254.9832
G0 F1285.7 X37.421 Y101.273
G1 F900 X100.023 Y163.874 E258.37127
G0 F1285.7 X100.206 Y163.562
G1 F900 X37.604 Y100.961 E261.75934
G0 F1285.7 X37.787 Y100.649
G1 F900 X100.389 Y163.251 E265.14744
G0 F1285.7 X100.572 Y162.939
G1 F900 X37.97 Y100.337 E268.53554
G0 F1285.7 X38.154 Y100.025
G1 F900 X100.755 Y162.627 E271.92362
G0 F1285.7 X100.939 Y162.316
G1 F900 X38.337 Y99.714 E275.31172
G0 F1285.7 X38.52 Y99.402
G1 F900 X101.122 Y162.004 E278.69982
G0 F1285.7 X101.305 Y161.692
G1 F900 X38.703 Y99.09 E282.08792
G0 F1285.7 X38.886 Y98.778
G1 F900 X101.488 Y161.38 E285.47602
G0 F1285.7 X101.672 Y161.069
G1 F900 X39.069 Y98.466 E288.86417
G0 F1285.7 X39.252 Y98.154
G1 F900 X101.855 Y160.757 E292.25232
G0 F1285.7 X102.038 Y160.445
G1 F900 X39.436 Y97.843 E295.64042
G0 F1285.7 X39.619 Y97.531
G1 F900 X102.221 Y160.133 E299.02852
G0 F1285.7 X102.404 Y159.821
G1 F900 X39.803 Y97.22 E302.41657
G0 F1285.7 X39.986 Y96.908
G1 F900 X102.587 Y159.509 E305.80462
G0 F1285.7 X102.77 Y159.198
G1 F900 X40.169 Y96.596 E309.19269
G0 F1285.7 X40.352 Y96.284
G1 F900 X102.954 Y158.886 E312.58079
G0 F1285.7 X103.137 Y158.574
G1 F900 X40.535 Y95.972 E315.96889
G0 F1285.7 X40.718 Y95.66
G1 F900 X103.32 Y158.262 E319.35699
G0 F1285.7 X103.503 Y157.95
G1 F900 X40.901 Y95.349 E322.74506
G0 F1285.7 X41.085 Y95.037
G1 F900 X103.686 Y157.638 E326.13311
G0 F1285.7 X103.869 Y157.327
G1 F900 X41.268 Y94.725 E329.52118
G0 F1285.7 X41.451 Y94.413
G1 F900 X104.052 Y157.015 E332.90925
G0 F1285.7 X104.236 Y156.703
G1 F900 X41.634 Y94.101 E336.29735
G0 F1285.7 X41.817 Y93.789
G1 F900 X104.419 Y156.391 E339.68545
G0 F1285.7 X104.602 Y156.079
G1 F900 X42 Y93.478 E343.07353
G0 F1285.7 X42.183 Y93.166
G1 F900 X104.785 Y155.767 E346.4616
G0 F1285.7 X104.968 Y155.456
G1 F900 X42.367 Y92.854 E349.84967
G0 F1285.7 X42.55 Y92.542
G1 F900 X105.151 Y155.144 E353.23775
G0 F1285.7 X105.334 Y154.832
G1 F900 X42.733 Y92.23 E356.62582
G0 F1285.7 X42.916 Y91.918
G1 F900 X105.518 Y154.52 E360.01392
G0 F1285.7 X105.701 Y154.208
G1 F900 X43.099 Y91.607 E363.40199
G0 F1285.7 X43.282 Y91.295
G1 F900 X105.884 Y153.896 E366.79006
G0 F1285.7 X106.067 Y153.585
G1 F900 X43.465 Y90.983 E370.17816
G0 F1285.7 X43.648 Y90.671
G1 F900 X106.25 Y153.273 E373.56626
G0 F1285.7 X106.433 Y152.961
G1 F900 X43.832 Y90.359 E376.95434
G0 F1285.7 X44.015 Y90.047
G1 F900 X106.616 Y152.649 E380.34241
G0 F1285.7 X106.799 Y152.337
G1 F900 X44.198 Y89.736 E383.73046
G0 F1285.7 X44.381 Y89.424
G1 F900 X106.983 Y152.025 E387.11853
G0 F1285.7 X107.166 Y151.714
G1 F900 X44.564 Y89.112 E390.50663
G0 F1285.7 X44.747 Y88.8
G1 F900 X107.35 Y151.402 E393.89476
G0 F1285.7 X107.533 Y151.091
G1 F900 X44.93 Y88.488 E397.28291
G0 F1285.7 X45.114 Y88.176
G1 F900 X107.716 Y150.779 E400.67104
G0 F1285.7 X107.899 Y150.467
G1 F900 X45.297 Y87.865 E404.05914
G0 F1285.7 X45.481 Y87.553
G1 F900 X108.082 Y150.155 E407.44721
G0 F1285.7 X108.265 Y149.843
G1 F900 X45.664 Y87.242 E410.83526
G0 F1285.7 X45.847 Y86.93
G1 F900 X108.448 Y149.531 E414.2233
G0 F1285.7 X108.632 Y149.22
G1 F900 X46.03 Y86.618 E417.6114
G0 F1285.7 X46.213 Y86.306
G1 F900 X108.815 Y148.908 E420.9995
G0 F1285.7 X108.998 Y148.596
G1 F900 X46.396 Y85.994 E424.3876
G0 F1285.7 X46.579 Y85.682
G1 F900 X109.181 Y148.284 E427.7757
G0 F1285.7 X109.364 Y147.972
G1 F900 X46.763 Y85.371 E431.16375
G0 F1285.7 X46.946 Y85.059
G1 F900 X109.547 Y147.66 E434.55179
G0 F1285.7 X109.73 Y147.349
G1 F900 X47.129 Y84.747 E437.93987
G0 F1285.7 X47.312 Y84.435
G1 F900 X109.914 Y147.037 E441.32797
G0 F1285.7 X110.097 Y146.725
G1 F900 X47.495 Y84.123 E444.71607
G0 F1285.7 X47.678 Y83.811
G1 F900 X110.28 Y146.413 E448.10417
G0 F1285.7 X110.463 Y146.101
G1 F900 X47.861 Y83.5 E451.49224
G0 F1285.7 X48.045 Y83.188
G1 F900 X110.646 Y145.789 E454.88029
G0 F1285.7 X110.829 Y145.478
G1 F900 X48.228 Y82.876 E458.26836
G0 F1285.7 X48.411 Y82.564
G1 F900 X111.012 Y145.166 E461.65643
G0 F1285.7 X111.196 Y144.854
G1 F900 X48.594 Y82.252 E465.04453
G0 F1285.7 X48.777 Y81.94
