;FLAVOR:Marlin
;TIME:24411
;Filament used: 25.8312m
;Layer height: 0.3
;MINX:7.445
;MINY:15.275
;MINZ:0.26
;MAXX:193.664
;MAXY:179.417
;MAXZ:29.66
;Generated with Cura_SteamEngine 4.9.1
M82 ;absolute extrusion mode
;Begin Start Gcode for Dagoma DiscoEasy 200
;Sliced: 26-07-2021 01:24:16
;Initial extruder: 0

G90 ;Absolute positioning
M106 S255 ;Fan on full
G28 X Y ;Home stop X Y
G1 X100 ;Centre back during cooldown in case of oozing
M109 R90 ;Cooldown in case too hot
G28 ;Centre
G29 ;Auto-level
M104 S205 ;Pre-heat
M107 ;Fan off
G0 X100 Y5 Z0.5 ;Front centre for degunk
M109 S205 ;Wait for initial temp
M83 ;E Relative
G1 E10 F200 ;Degunk
G1 E-3 F5000 ;Retract
G0 Z3 ;Withdraw
M82 ;E absolute
G92 E0 ;E reset
G1 F6000 ;Set feedrate

;Finish Start Gcode for Dagoma DiscoEasy 200

G92 E0
G92 E0
G1 F3000 E-3.5
;LAYER_COUNT:99
;LAYER:0
M107
G0 F1285.7 X25.822 Y16.594 Z0.26
;TYPE:SKIRT
G1 F3000 E0
G1 F900 X26.114 Y16.214 E0.01834
G1 X26.465 Y15.888 E0.03667
G1 X26.866 Y15.625 E0.05502
G1 X27.304 Y15.432 E0.07334
G1 X27.769 Y15.314 E0.0917
G1 X28.246 Y15.275 E0.11002
G1 X28.724 Y15.316 E0.12838
G1 X29.188 Y15.436 E0.14672
G1 X29.625 Y15.631 E0.16503
G1 X29.893 Y15.798 E0.17712
G1 X30.447 Y16.187 E0.20302
G1 X100.636 Y67.128 E3.522
G1 X102.887 Y68.713 E3.62736
G1 X105.159 Y70.22 E3.7317
G1 X107.523 Y71.692 E3.83827
G1 X109.869 Y73.062 E3.94224
G1 X112.291 Y74.389 E4.04793
G1 X114.748 Y75.643 E4.15349
G1 X117.213 Y76.815 E4.25795
G1 X119.743 Y77.932 E4.36379
G1 X122.286 Y78.971 E4.46892
G1 X124.852 Y79.932 E4.57378
G1 X127.439 Y80.82 E4.67845
G1 X130.043 Y81.633 E4.78285
G1 X131.121 Y81.938 E4.82572
G1 X131.749 Y82.129 E4.85084
G1 X132.279 Y82.351 E4.87283
G1 X132.782 Y82.624 E4.89473
G1 X133.337 Y82.968 E4.91972
G1 X133.667 Y83.213 E4.93545
G1 X134.32 Y83.685 E4.96629
G1 X135.089 Y84.256 E5.00294
G1 X135.291 Y84.421 E5.01292
G1 X135.794 Y84.871 E5.03875
G1 X136.082 Y85.159 E5.05434
G1 X136.828 Y86.004 E5.09747
G1 X137.019 Y86.226 E5.10868
G1 X138.894 Y88.288 E5.21534
G1 X140.778 Y90.246 E5.31933
G1 X142.752 Y92.185 E5.42522
G1 X144.756 Y94.045 E5.52985
G1 X146.823 Y95.856 E5.63502
G1 X148.933 Y97.602 E5.73983
G1 X151.119 Y99.31 E5.846
G1 X153.316 Y100.929 E5.95044
G1 X155.577 Y102.498 E6.05576
G1 X157.866 Y103.992 E6.16037
G1 X160.22 Y105.436 E6.26605
G1 X162.594 Y106.8 E6.37083
G1 X165.029 Y108.11 E6.47665
G1 X167.455 Y109.328 E6.58053
G1 X169.984 Y110.51 E6.68737
G1 X171.639 Y111.234 E6.7565
G1 X172.439 Y111.576 E6.78979
G1 X172.671 Y111.688 E6.79965
G1 X173.225 Y111.986 E6.82373
G1 X173.806 Y112.343 E6.84982
G1 X174.121 Y112.578 E6.86486
G1 X174.57 Y112.902 E6.88605
G1 X175.545 Y113.624 E6.93248
G1 X175.747 Y113.787 E6.94242
G1 X176.215 Y114.204 E6.9664
G1 X176.715 Y114.736 E6.99434
G1 X177.174 Y115.372 E7.02436
G1 X177.798 Y116.316 E7.06767
G1 X179.341 Y118.59 E7.17283
G1 X180.949 Y120.823 E7.27814
G1 X182.608 Y122.993 E7.38267
G1 X184.356 Y125.153 E7.48901
G1 X186.135 Y127.224 E7.5935
G1 X187.98 Y129.255 E7.6985
G1 X189.874 Y131.225 E7.80309
G1 X192.353 Y133.644 E7.93564
G1 X192.764 Y134.032 E7.95727
G1 X193.083 Y134.389 E7.97559
G1 X193.34 Y134.794 E7.99395
G1 X193.525 Y135.236 E8.01228
G1 X193.634 Y135.703 E8.03064
G1 X193.664 Y136.181 E8.04897
G1 X193.615 Y136.657 E8.06728
G1 X193.487 Y137.119 E8.08562
G1 X193.284 Y137.553 E8.10396
G1 X193.012 Y137.948 E8.12231
G1 X192.678 Y138.291 E8.14064
G1 X192.288 Y138.577 E8.15914
G1 X191.246 Y139.213 E8.20586
G1 X188.927 Y140.674 E8.31075
G1 X186.649 Y142.201 E8.41571
G1 X184.391 Y143.81 E8.52181
G1 X182.231 Y145.443 E8.62544
G1 X180.056 Y147.186 E8.73211
G1 X177.982 Y148.944 E8.83615
G1 X175.937 Y150.782 E8.94138
G1 X173.477 Y153.136 E9.07168
G1 X173.087 Y153.522 E9.09268
G1 X172.448 Y154.083 E9.12522
G1 X171.955 Y154.427 E9.14823
G1 X171.452 Y154.718 E9.17047
G1 X171.239 Y154.828 E9.17964
G1 X170.638 Y155.107 E9.205
G1 X170.364 Y155.219 E9.21633
G1 X169.152 Y155.76 E9.26712
G1 X168.659 Y155.943 E9.28724
G1 X168.536 Y155.983 E9.29219
G1 X167.984 Y156.148 E9.31424
G1 X167.395 Y156.282 E9.33736
G1 X165.352 Y156.679 E9.41701
G1 X162.651 Y157.282 E9.52292
G1 X159.973 Y157.962 E9.62866
G1 X157.361 Y158.702 E9.73255
G1 X154.703 Y159.539 E9.83919
G1 X152.14 Y160.425 E9.94297
G1 X149.536 Y161.409 E10.04951
G1 X147.018 Y162.444 E10.15369
G1 X144.491 Y163.565 E10.25949
G1 X142.046 Y164.735 E10.36322
G1 X139.589 Y165.997 E10.46892
G1 X137.156 Y167.334 E10.57517
G1 X134.817 Y168.707 E10.67896
G1 X132.475 Y170.174 E10.78472
G1 X130.174 Y171.707 E10.89053
G1 X127.941 Y173.286 E10.99519
G1 X126.933 Y174.041 E11.04339
G1 X126.508 Y174.349 E11.06348
G1 X125.949 Y174.697 E11.08867
G1 X125.444 Y174.968 E11.11061
G1 X124.651 Y175.329 E11.14395
G1 X123.435 Y175.861 E11.19475
G1 X123.198 Y175.952 E11.20446
G1 X122.42 Y176.212 E11.23585
G1 X121.729 Y176.379 E11.26306
G1 X121.473 Y176.4 E11.27289
G1 X120.236 Y176.445 E11.32026
G1 X119.821 Y176.454 E11.33615
G1 X117.09 Y176.591 E11.44079
G1 X114.361 Y176.806 E11.54555
G1 X111.601 Y177.103 E11.65179
G1 X108.901 Y177.47 E11.75606
G1 X106.151 Y177.924 E11.86273
G1 X103.497 Y178.439 E11.96619
G1 X100.785 Y179.045 E12.07254
G1 X100.367 Y179.151 E12.08904
G1 X99.523 Y179.348 E12.12221
G1 X99.049 Y179.417 E12.14054
G1 X98.57 Y179.407 E12.15888
G1 X98.1 Y179.318 E12.17718
G1 X97.65 Y179.151 E12.19555
G1 X97.155 Y178.86 E12.21752
G1 X94.794 Y177.242 E12.32706
G1 X92.525 Y175.775 E12.43046
G1 X90.175 Y174.351 E12.53562
G1 X87.773 Y172.985 E12.64137
G1 X85.335 Y171.689 E12.74703
G1 X82.877 Y170.471 E12.85201
G1 X80.402 Y169.331 E12.95629
G1 X77.691 Y168.176 E13.06907
G1 X77.159 Y167.879 E13.09238
G1 X76.456 Y167.382 E13.12533
G1 X75.779 Y166.887 E13.15743
G1 X75.206 Y166.455 E13.18489
G1 X74.848 Y166.134 E13.20329
G1 X74.158 Y165.404 E13.24173
G1 X73.575 Y164.768 E13.27475
G1 X71.666 Y162.801 E13.37965
G1 X70.897 Y162.052 E13.42073
G1 X70.089 Y161.243 E13.46449
G1 X68.443 Y159.545 E13.55499
G1 X66.464 Y157.616 E13.66075
G1 X64.432 Y155.745 E13.76646
G1 X62.375 Y153.956 E13.87079
G1 X60.249 Y152.209 E13.97609
G1 X58.059 Y150.512 E14.08212
G1 X56.687 Y149.498 E14.14741
G1 X52.823 Y146.694 E14.33011
G1 X50.525 Y145.076 E14.43767
G1 X48.288 Y143.593 E14.54038
G1 X45.905 Y142.109 E14.64782
G1 X43.545 Y140.73 E14.75242
G1 X41.155 Y139.423 E14.85667
G1 X37.68 Y137.673 E15.00557
G1 X37.156 Y137.421 E15.02782
G1 X36.674 Y137.131 E15.04935
G1 X36.22 Y136.811 E15.0706
G1 X35.159 Y136.039 E15.12082
G1 X34.294 Y135.391 E15.16218
G1 X32.966 Y134.431 E15.22489
G1 X32.569 Y134.127 E15.24402
G1 X31.755 Y133.542 E15.28239
G1 X31.495 Y133.341 E15.29496
G1 X30.671 Y132.74 E15.33399
G1 X30.084 Y132.299 E15.36209
G1 X29.749 Y132.003 E15.3792
G1 X27.893 Y130.093 E15.48112
G1 X25.926 Y128.181 E15.5861
G1 X23.913 Y126.329 E15.69078
G1 X21.818 Y124.511 E15.79693
G1 X19.703 Y122.777 E15.9016
G1 X17.536 Y121.1 E16.00646
G1 X16.634 Y120.434 E16.04937
G1 X15.868 Y119.86 E16.086
G1 X15.51 Y119.541 E16.10435
G1 X15.209 Y119.168 E16.12269
G1 X14.975 Y118.75 E16.14103
G1 X14.794 Y118.222 E16.16239
G1 X14.762 Y118.075 E16.16814
G1 X14.615 Y117.326 E16.19736
G1 X14.047 Y114.631 E16.30276
G1 X13.411 Y111.986 E16.40687
G1 X12.687 Y109.314 E16.51281
G1 X11.895 Y106.686 E16.61785
G1 X11.029 Y104.083 E16.72283
G1 X10.084 Y101.486 E16.82859
G1 X9.079 Y98.955 E16.93281
G1 X8.5 Y97.612 E16.98878
G1 X8.106 Y96.667 E17.02796
G1 X7.961 Y96.216 E17.04609
G1 X7.796 Y95.51 E17.07384
G1 X7.663 Y94.888 E17.09818
G1 X7.53 Y94.234 E17.12372
G1 X7.473 Y93.738 E17.14283
G1 X7.449 Y92.829 E17.17763
G1 X7.445 Y92.316 E17.19726
G1 X7.448 Y91.65 E17.22275
G1 X7.509 Y91.073 E17.24495
G1 X7.715 Y90.095 E17.2832
G1 X7.821 Y89.633 E17.30134
G1 X7.985 Y88.965 E17.32766
G1 X8.051 Y88.735 E17.33682
G1 X8.621 Y87.037 E17.40537
G1 X9.455 Y84.403 E17.5111
G1 X10.226 Y81.703 E17.61856
G1 X10.902 Y79.06 E17.72296
G1 X11.491 Y76.432 E17.82603
G1 X12.027 Y73.689 E17.93299
G1 X12.476 Y70.989 E18.03773
G1 X12.85 Y68.274 E18.14262
G1 X13.146 Y65.555 E18.24729
G1 X13.368 Y62.791 E18.3534
G1 X13.509 Y60.06 E18.45806
G1 X13.574 Y57.322 E18.56287
G1 X13.56 Y54.551 E18.66891
G1 X13.472 Y51.863 E18.77184
G1 X13.3 Y49.079 E18.87858
G1 X12.928 Y45.184 E19.02832
G1 X12.809 Y44.146 E19.0683
G1 X12.779 Y43.561 E19.09072
G1 X12.81 Y42.62 E19.12675
G1 X12.843 Y41.973 E19.15155
G1 X12.888 Y41.269 E19.17854
G1 X12.944 Y40.86 E19.19434
G1 X13.131 Y39.973 E19.22903
G1 X13.297 Y39.281 E19.25627
G1 X13.456 Y38.806 E19.27544
G1 X13.72 Y38.202 E19.30066
G1 X14.124 Y37.444 E19.33353
G1 X15.108 Y36.044 E19.39902
G1 X15.148 Y35.975 E19.40207
G1 X15.957 Y34.829 E19.45576
G1 X17.44 Y32.597 E19.55831
G1 X18.909 Y30.242 E19.66453
G1 X20.292 Y27.881 E19.76924
G1 X21.627 Y25.446 E19.87552
G1 X22.864 Y23.031 E19.97936
G1 X24.054 Y20.535 E20.08518
G1 X25.131 Y18.106 E20.18686
G1 X25.598 Y17.017 E20.23221
G1 X25.822 Y16.594 E20.25053
G0 F1285.7 X26.132 Y16.76
G1 F900 X26.412 Y16.408 E20.26774
G1 X26.749 Y16.112 E20.2849
G1 X27.134 Y15.88 E20.30211
G1 X27.553 Y15.72 E20.31927
G1 X27.994 Y15.637 E20.33644
G1 X28.443 Y15.633 E20.35363
G1 X28.886 Y15.709 E20.37083
G1 X29.308 Y15.862 E20.38801
G1 X29.692 Y16.084 E20.40498
G1 X30.241 Y16.47 E20.43067
G1 X100.404 Y67.392 E23.74841
G1 X102.703 Y69.011 E23.85602
G1 X104.991 Y70.528 E23.96108
G1 X107.321 Y71.979 E24.06612
G1 X109.694 Y73.366 E24.17131
G1 X112.134 Y74.702 E24.27777
G1 X114.581 Y75.951 E24.38291
G1 X117.077 Y77.138 E24.48868
G1 X119.598 Y78.25 E24.59413
G1 X122.172 Y79.302 E24.70054
G1 X124.715 Y80.255 E24.80447
G1 X127.332 Y81.153 E24.91036
G1 X129.954 Y81.972 E25.01548
G1 X131.019 Y82.273 E25.05783
G1 X131.647 Y82.464 E25.08295
G1 X132.112 Y82.659 E25.10225
G1 X132.605 Y82.926 E25.12371
G1 X133.128 Y83.249 E25.14723
G1 X133.462 Y83.497 E25.16315
G1 X134.111 Y83.966 E25.19379
G1 X134.88 Y84.537 E25.23045
G1 X135.058 Y84.682 E25.23924
G1 X135.553 Y85.126 E25.26468
G1 X135.819 Y85.391 E25.27905
G1 X136.563 Y86.232 E25.32202
G1 X136.775 Y86.479 E25.33448
G1 X138.631 Y88.519 E25.44003
G1 X140.528 Y90.491 E25.54474
G1 X142.517 Y92.444 E25.65142
G1 X144.518 Y94.302 E25.75592
G1 X146.597 Y96.123 E25.86169
G1 X148.721 Y97.882 E25.96723
G1 X150.883 Y99.57 E26.0722
G1 X153.118 Y101.218 E26.17847
G1 X155.38 Y102.787 E26.28382
G1 X157.677 Y104.287 E26.38881
G1 X160.058 Y105.747 E26.49569
G1 X162.396 Y107.09 E26.59888
G1 X164.864 Y108.418 E26.70613
G1 X167.32 Y109.651 E26.8113
G1 X169.834 Y110.826 E26.9175
G1 X171.502 Y111.556 E26.98718
G1 X172.302 Y111.898 E27.02048
G1 X172.505 Y111.996 E27.0291
G1 X173.059 Y112.294 E27.05318
G1 X173.597 Y112.623 E27.07731
G1 X174.334 Y113.163 E27.11228
G1 X175.337 Y113.905 E27.16002
G1 X175.514 Y114.049 E27.16875
G1 X176.044 Y114.523 E27.19597
G1 X176.434 Y114.945 E27.21796
G1 X176.887 Y115.572 E27.24756
G1 X177.507 Y116.511 E27.29062
G1 X179.047 Y118.78 E27.39557
G1 X180.667 Y121.03 E27.50167
G1 X182.338 Y123.215 E27.60694
G1 X184.082 Y125.37 E27.71303
G1 X185.876 Y127.459 E27.81841
G1 X187.733 Y129.503 E27.9241
G1 X189.625 Y131.471 E28.02857
G1 X192.143 Y133.928 E28.16321
G1 X192.523 Y134.287 E28.18321
G1 X192.821 Y134.623 E28.2004
G1 X193.055 Y135.006 E28.21758
G1 X193.217 Y135.425 E28.23477
G1 X193.302 Y135.866 E28.25195
G1 X193.308 Y136.315 E28.26914
G1 X193.234 Y136.758 E28.28633
G1 X193.083 Y137.181 E28.30352
G1 X192.859 Y137.57 E28.32069
G1 X192.57 Y137.914 E28.33789
G1 X192.105 Y138.278 E28.36049
G1 X191.094 Y138.895 E28.40581
G1 X188.731 Y140.384 E28.5127
G1 X186.461 Y141.906 E28.61729
G1 X184.187 Y143.526 E28.72414
G1 X182.011 Y145.171 E28.82853
G1 X179.835 Y146.915 E28.93525
G1 X177.756 Y148.677 E29.03955
G1 X175.692 Y150.532 E29.14575
G1 X173.267 Y152.852 E29.27418
G1 X172.848 Y153.266 E29.29673
G1 X172.222 Y153.816 E29.32862
G1 X171.768 Y154.131 E29.34976
G1 X171.278 Y154.414 E29.37142
G1 X171.091 Y154.51 E29.37946
G1 X170.49 Y154.789 E29.40482
G1 X170.248 Y154.888 E29.41483
G1 X169.009 Y155.441 E29.46675
G1 X168.436 Y155.647 E29.49005
G1 X167.884 Y155.812 E29.5121
G1 X167.322 Y155.94 E29.53416
G1 X165.244 Y156.344 E29.61517
G1 X162.557 Y156.944 E29.72053
G1 X159.902 Y157.618 E29.82536
G1 X157.262 Y158.366 E29.93037
G1 X154.594 Y159.206 E30.03742
G1 X152.001 Y160.103 E30.14242
G1 X149.421 Y161.077 E30.24795
G1 X146.886 Y162.119 E30.35284
G1 X144.368 Y163.236 E30.45826
G1 X141.848 Y164.442 E30.56518
G1 X139.43 Y165.684 E30.66921
G1 X136.995 Y167.022 E30.77553
G1 X134.624 Y168.415 E30.88077
G1 X132.281 Y169.882 E30.98656
G1 X129.988 Y171.409 E31.09199
G1 X127.74 Y173 E31.19739
G1 X126.728 Y173.758 E31.24578
G1 X126.303 Y174.066 E31.26586
G1 X125.769 Y174.396 E31.28989
G1 X125.299 Y174.65 E31.31033
G1 X124.511 Y175.008 E31.34345
G1 X123.295 Y175.54 E31.39425
G1 X123.087 Y175.621 E31.40279
G1 X122.393 Y175.854 E31.43081
G1 X122.097 Y175.944 E31.44265
G1 X121.46 Y176.05 E31.46736
G1 X120.229 Y176.095 E31.5145
G1 X119.832 Y176.104 E31.5297
G1 X117.043 Y176.244 E31.63657
G1 X114.334 Y176.457 E31.74056
G1 X111.551 Y176.756 E31.84767
G1 X108.826 Y177.127 E31.95292
G1 X106.136 Y177.571 E32.05726
G1 X103.396 Y178.103 E32.16408
G1 X100.725 Y178.7 E32.26882
G1 X100.288 Y178.81 E32.28606
G1 X99.444 Y179.007 E32.31923
G1 X98.999 Y179.07 E32.33643
G1 X98.551 Y179.053 E32.35359
G1 X98.112 Y178.957 E32.37078
G1 X97.473 Y178.652 E32.39788
G1 X97.316 Y178.547 E32.40511
G1 X94.997 Y176.956 E32.51273
G1 X92.701 Y175.472 E32.61736
G1 X90.344 Y174.043 E32.72284
G1 X87.953 Y172.684 E32.82809
G1 X85.485 Y171.372 E32.93506
G1 X83.05 Y170.165 E33.03906
G1 X80.531 Y169.005 E33.14519
G1 X77.829 Y167.854 E33.25759
G1 X77.361 Y167.593 E33.2781
G1 X76.663 Y167.099 E33.31082
G1 X75.99 Y166.607 E33.34273
G1 X75.417 Y166.175 E33.37019
G1 X75.102 Y165.894 E33.38634
G1 X74.416 Y165.167 E33.4246
G1 X73.837 Y164.535 E33.4574
G1 X71.932 Y162.572 E33.56208
G1 X71.145 Y161.804 E33.60416
G1 X70.34 Y161 E33.6477
G1 X68.674 Y159.282 E33.73929
G1 X66.697 Y157.355 E33.84494
G1 X64.688 Y155.504 E33.94948
G1 X62.581 Y153.672 E34.05633
G1 X60.455 Y151.925 E34.16164
G1 X58.279 Y150.239 E34.26698
G1 X56.913 Y149.23 E34.33198
G1 X53.024 Y146.408 E34.51586
G1 X50.734 Y144.795 E34.62306
G1 X48.429 Y143.268 E34.72887
G1 X46.107 Y141.822 E34.83355
G1 X43.72 Y140.427 E34.93936
G1 X41.3 Y139.104 E35.04491
G1 X37.862 Y137.373 E35.19221
G1 X37.308 Y137.106 E35.21575
G1 X36.875 Y136.846 E35.23508
G1 X36.426 Y136.528 E35.25613
G1 X35.368 Y135.759 E35.30619
G1 X34.464 Y135.082 E35.34941
G1 X33.174 Y134.15 E35.41031
G1 X32.781 Y133.849 E35.42926
G1 X31.962 Y133.26 E35.46786
G1 X31.704 Y133.06 E35.48036
G1 X30.881 Y132.46 E35.51933
G1 X30.294 Y132.019 E35.54743
G1 X30 Y131.76 E35.56242
G1 X28.116 Y129.821 E35.66589
G1 X26.16 Y127.919 E35.7703
G1 X24.149 Y126.07 E35.87484
G1 X22.062 Y124.259 E35.98059
G1 X19.907 Y122.493 E36.08722
G1 X17.734 Y120.811 E36.19238
G1 X16.844 Y120.154 E36.23471
G1 X16.078 Y119.58 E36.27134
G1 X15.744 Y119.28 E36.28853
G1 X15.468 Y118.925 E36.30573
G1 X15.26 Y118.527 E36.32292
G1 X15.105 Y118.007 E36.34369
G1 X14.958 Y117.258 E36.3729
G1 X14.386 Y114.546 E36.47897
G1 X13.75 Y111.898 E36.58319
G1 X13.028 Y109.234 E36.68881
G1 X12.227 Y106.575 E36.79509
G1 X11.362 Y103.975 E36.89995
G1 X10.409 Y101.356 E37.00661
G1 X9.405 Y98.828 E37.1107
G1 X8.823 Y97.478 E37.16697
G1 X8.429 Y96.533 E37.20615
G1 X8.301 Y96.136 E37.22211
G1 X8.138 Y95.437 E37.24958
G1 X8.006 Y94.818 E37.2738
G1 X7.873 Y94.164 E37.29934
G1 X7.823 Y93.729 E37.3161
G1 X7.799 Y92.826 E37.35067
G1 X7.795 Y92.318 E37.37011
G1 X7.798 Y91.652 E37.3956
G1 X7.852 Y91.145 E37.41511
G1 X8.056 Y90.173 E37.45312
G1 X8.161 Y89.716 E37.47106
G1 X8.325 Y89.048 E37.49739
G1 X8.383 Y88.847 E37.50539
G1 X8.967 Y87.107 E37.57563
G1 X9.791 Y84.505 E37.68008
G1 X10.555 Y81.828 E37.78662
G1 X11.241 Y79.147 E37.89253
G1 X11.84 Y76.472 E37.99743
G1 X12.368 Y73.773 E38.10268
G1 X12.827 Y71.013 E38.20975
G1 X13.197 Y68.32 E38.31378
G1 X13.495 Y65.586 E38.41903
G1 X13.715 Y62.837 E38.52457
G1 X13.86 Y60.039 E38.63179
G1 X13.924 Y57.328 E38.73557
G1 X13.91 Y54.573 E38.841
G1 X13.818 Y51.769 E38.94837
G1 X13.652 Y49.082 E39.05139
G1 X13.276 Y45.15 E39.20256
G1 X13.157 Y44.115 E39.24243
G1 X13.128 Y43.573 E39.2632
G1 X13.159 Y42.638 E39.299
