;FLAVOR:Marlin
;TIME:23015
;Filament used: 23.8396m
;Layer height: 0.3
;MINX:3.427
;MINY:30.419
;MINZ:0.26
;MAXX:198.398
;MAXY:172.294
;MAXZ:23.66
;Generated with Cura_SteamEngine 4.9.1
M82 ;absolute extrusion mode
;Begin Start Gcode for Dagoma DiscoEasy 200
;Sliced: 29-06-2021 07:00:17
;Initial extruder: 0

G90 ;Absolute positioning
M106 S255 ;Fan on full
G28 X Y ;Home stop X Y
G1 X100 ;Centre back during cooldown in case of oozing
M109 R90 ;Cooldown in case too hot
G28 ;Centre
G29 ;Auto-level
M104 S205 ;Pre-heat
M107 ;Fan off
G0 X100 Y5 Z0.5 ;Front centre for degunk
M109 S205 ;Wait for initial temp
M83 ;E Relative
G1 E10 F200 ;Degunk
G1 E-3 F5000 ;Retract
G0 Z3 ;Withdraw
M82 ;E absolute
G92 E0 ;E reset
G1 F6000 ;Set feedrate

;Finish Start Gcode for Dagoma DiscoEasy 200

G92 E0
G92 E0
G1 F3000 E-3.5
;LAYER_COUNT:79
;LAYER:0
M107
G0 F1285.7 X7.109 Y63.11 Z0.26
;TYPE:SKIRT
G1 F3000 E0
G1 F900 X7.328 Y63.103 E0.00839
G1 X7.92 Y63.099 E0.03104
G1 X19.308 Y63.151 E0.46686
G1 X22.075 Y63.124 E0.57276
G1 X24.757 Y63.022 E0.67547
G1 X27.498 Y62.84 E0.7806
G1 X30.208 Y62.583 E0.88477
G1 X32.892 Y62.252 E0.98827
G1 X35.583 Y61.842 E1.09244
G1 X38.269 Y61.355 E1.19691
G1 X40.886 Y60.805 E1.29924
G1 X43.585 Y60.156 E1.40548
G1 X46.174 Y59.455 E1.50813
G1 X48.796 Y58.666 E1.61291
G1 X51.375 Y57.809 E1.71692
G1 X53.934 Y56.877 E1.82114
G1 X56.433 Y55.886 E1.92402
G1 X58.95 Y54.806 E2.02884
G1 X61.429 Y53.657 E2.1334
G1 X63.85 Y52.451 E2.23691
G1 X66.253 Y51.167 E2.34118
G1 X68.622 Y49.815 E2.44557
G1 X70.911 Y48.42 E2.54815
G1 X73.233 Y46.915 E2.65405
G1 X75.457 Y45.381 E2.75744
G1 X77.64 Y43.783 E2.86097
G1 X79.8 Y42.106 E2.96562
G1 X81.893 Y40.385 E3.06932
G1 X83.945 Y38.594 E3.17356
G1 X85.926 Y36.768 E3.27666
G1 X87.872 Y34.87 E3.38069
G1 X89.793 Y32.885 E3.4864
G1 X90.101 Y32.547 E3.5039
G1 X90.937 Y31.658 E3.55061
G1 X91.346 Y31.281 E3.57189
G1 X91.805 Y30.967 E3.59318
G1 X92.305 Y30.722 E3.61448
G1 X92.834 Y30.55 E3.63577
G1 X93.383 Y30.456 E3.65709
G1 X93.685 Y30.439 E3.66866
G1 X94.746 Y30.419 E3.70927
G1 X193.89 Y30.419 E7.50347
G1 X194.58 Y30.429 E7.52988
G1 X195.134 Y30.477 E7.55116
G1 X195.676 Y30.604 E7.57246
G1 X196.194 Y30.807 E7.59375
G1 X196.678 Y31.083 E7.61508
G1 X197.117 Y31.424 E7.63635
G1 X197.503 Y31.825 E7.65765
G1 X197.827 Y32.278 E7.67896
G1 X198.083 Y32.772 E7.70026
G1 X198.266 Y33.297 E7.72153
G1 X198.372 Y33.843 E7.74282
G1 X198.398 Y34.399 E7.76412
G1 X198.344 Y34.953 E7.78542
G1 X198.212 Y35.493 E7.8067
G1 X197.99 Y36.037 E7.82918
G1 X197.655 Y36.653 E7.85602
G1 X188.227 Y53.154 E8.58331
G1 X186.881 Y55.591 E8.68985
G1 X185.639 Y57.995 E8.7934
G1 X184.46 Y60.446 E8.89749
G1 X183.341 Y62.95 E9.00245
G1 X182.305 Y65.453 E9.10612
G1 X181.34 Y67.995 E9.21017
G1 X180.45 Y70.548 E9.31364
G1 X179.625 Y73.153 E9.41821
G1 X178.885 Y75.739 E9.52115
G1 X178.294 Y78.027 E9.61159
G1 X177.966 Y79.363 E9.66423
G1 X177.795 Y79.892 E9.68551
G1 X177.548 Y80.403 E9.70723
G1 X177.092 Y81.204 E9.7425
G1 X176.364 Y82.521 E9.80009
G1 X175.687 Y83.731 E9.85315
G1 X175.489 Y84.051 E9.86755
G1 X174.911 Y84.913 E9.90727
G1 X173.429 Y87.19 E10.01124
G1 X172.011 Y89.512 E10.11536
G1 X170.656 Y91.877 E10.21967
G1 X169.386 Y94.246 E10.32254
G1 X168.163 Y96.693 E10.42723
G1 X167.008 Y99.177 E10.53207
G1 X165.94 Y101.652 E10.63522
G1 X164.922 Y104.211 E10.74062
G1 X163.986 Y106.773 E10.84501
G1 X163.142 Y109.301 E10.947
G1 X162.35 Y111.918 E11.05164
G1 X161.63 Y114.563 E11.15654
G1 X160.996 Y117.184 E11.25974
G1 X160.424 Y119.873 E11.36495
G1 X159.945 Y122.507 E11.46741
G1 X159.529 Y125.212 E11.57214
G1 X159.191 Y127.913 E11.67631
G1 X158.931 Y130.61 E11.78
G1 X158.748 Y133.321 E11.88399
G1 X158.641 Y136.032 E11.98782
G1 X158.61 Y138.772 E12.09268
G1 X158.657 Y141.462 E12.19565
G1 X158.782 Y144.215 E12.30111
G1 X158.979 Y146.885 E12.40357
G1 X159.259 Y149.616 E12.50863
G1 X159.609 Y152.287 E12.61172
G1 X160.042 Y154.997 E12.71675
G1 X160.542 Y157.641 E12.81972
G1 X161.129 Y160.329 E12.92502
G1 X161.772 Y162.918 E13.02711
G1 X161.933 Y163.497 E13.05011
G1 X162.261 Y164.734 E13.09908
G1 X162.364 Y165.281 E13.12038
G1 X162.388 Y165.836 E13.14164
G1 X162.333 Y166.39 E13.16295
G1 X162.199 Y166.93 E13.18424
G1 X161.988 Y167.445 E13.20554
G1 X161.706 Y167.925 E13.22684
G1 X161.359 Y168.359 E13.24811
G1 X160.952 Y168.739 E13.26942
G1 X160.496 Y169.057 E13.29069
G1 X159.998 Y169.307 E13.31202
G1 X159.47 Y169.482 E13.33331
G1 X158.923 Y169.58 E13.35457
G1 X158.572 Y169.602 E13.36803
G1 X157.553 Y169.616 E13.40703
G1 X136.983 Y169.524 E14.19424
G1 X134.215 Y169.551 E14.30018
G1 X131.534 Y169.653 E14.40285
G1 X128.792 Y169.835 E14.50802
G1 X126.088 Y170.091 E14.61196
G1 X123.389 Y170.425 E14.71604
G1 X120.712 Y170.832 E14.81966
G1 X118.039 Y171.317 E14.92363
G1 X114.819 Y172.004 E15.04963
G1 X114.652 Y172.042 E15.05618
G1 X114.021 Y172.131 E15.08057
G1 X112.704 Y172.208 E15.13106
G1 X111.849 Y172.252 E15.16382
G1 X111.124 Y172.268 E15.19157
G1 X109.658 Y172.281 E15.24768
G1 X108.592 Y172.294 E15.28848
G1 X107.901 Y172.292 E15.31492
G1 X107.346 Y172.25 E15.33622
G1 X107.038 Y172.192 E15.34822
G1 X106.009 Y171.954 E15.38864
G1 X105.206 Y171.756 E15.42029
G1 X102.587 Y171.189 E15.52284
G1 X99.892 Y170.683 E15.62778
G1 X97.229 Y170.265 E15.73093
G1 X94.543 Y169.917 E15.83459
G1 X91.805 Y169.642 E15.9399
G1 X89.099 Y169.447 E16.04372
G1 X86.386 Y169.329 E16.14764
G1 X83.988 Y169.288 E16.23943
G1 X58.362 Y169.173 E17.22013
G1 X57.687 Y169.16 E17.24597
G1 X57.133 Y169.11 E17.26726
G1 X56.592 Y168.98 E17.28855
G1 X56.075 Y168.775 E17.30983
G1 X55.593 Y168.497 E17.33113
G1 X55.155 Y168.153 E17.35244
G1 X54.772 Y167.75 E17.37372
G1 X54.449 Y167.297 E17.39501
G1 X54.196 Y166.801 E17.41632
G1 X53.983 Y166.145 E17.44271
G1 X53.813 Y165.397 E17.47207
G1 X53.17 Y162.733 E17.57695
G1 X52.469 Y160.154 E17.67922
G1 X51.672 Y157.515 E17.78472
G1 X50.812 Y154.936 E17.88876
G1 X49.881 Y152.389 E17.99254
G1 X48.876 Y149.859 E18.09672
G1 X47.806 Y147.373 E18.2003
G1 X46.654 Y144.895 E18.30488
G1 X45.45 Y142.485 E18.40798
G1 X43.735 Y139.313 E18.54598
G1 X4.216 Y69.432 E21.61831
G1 X3.892 Y68.839 E21.64417
G1 X3.661 Y68.333 E21.66545
G1 X3.505 Y67.799 E21.68674
G1 X3.427 Y67.248 E21.70804
G1 X3.429 Y66.691 E21.72936
G1 X3.51 Y66.141 E21.75063
G1 X3.669 Y65.608 E21.77192
G1 X3.903 Y65.103 E21.79322
G1 X4.207 Y64.637 E21.81451
G1 X4.575 Y64.219 E21.83582
G1 X4.998 Y63.858 E21.85711
G1 X5.469 Y63.562 E21.87839
G1 X5.978 Y63.336 E21.89971
G1 X6.513 Y63.185 E21.92098
G1 X7.109 Y63.11 E21.94397
G0 F1285.7 X7.125 Y63.46
G1 F900 X7.33 Y63.453 E21.95182
G1 X7.918 Y63.449 E21.97432
G1 X19.309 Y63.501 E22.41026
G1 X22.091 Y63.474 E22.51673
G1 X24.794 Y63.371 E22.62024
G1 X27.519 Y63.19 E22.72476
G1 X30.214 Y62.935 E22.82836
G1 X32.953 Y62.597 E22.93397
G1 X35.664 Y62.184 E23.03892
G1 X38.294 Y61.707 E23.14121
G1 X41.004 Y61.137 E23.24719
G1 X43.624 Y60.507 E23.35031
G1 X46.28 Y59.788 E23.45561
G1 X48.917 Y58.995 E23.56099
G1 X51.494 Y58.138 E23.66493
G1 X54.04 Y57.211 E23.76862
G1 X56.588 Y56.201 E23.87351
G1 X59.106 Y55.12 E23.97838
G1 X61.577 Y53.975 E24.0826
G1 X64 Y52.768 E24.18619
G1 X66.406 Y51.482 E24.2906
G1 X68.808 Y50.112 E24.39642
G1 X71.115 Y48.706 E24.49981
G1 X73.412 Y47.217 E24.60457
G1 X75.635 Y45.683 E24.70794
G1 X77.868 Y44.049 E24.81383
G1 X80.01 Y42.386 E24.91761
G1 X82.134 Y40.638 E25.02288
G1 X84.164 Y38.868 E25.12595
G1 X86.179 Y37.011 E25.23081
G1 X88.138 Y35.099 E25.33557
G1 X90.022 Y33.152 E25.43926
G1 X90.356 Y32.787 E25.45819
G1 X91.192 Y31.898 E25.50489
G1 X91.584 Y31.54 E25.52521
G1 X92.025 Y31.245 E25.54551
G1 X92.505 Y31.019 E25.56582
G1 X93.014 Y30.868 E25.58613
G1 X93.692 Y30.789 E25.61226
G1 X94.746 Y30.769 E25.6526
G1 X193.885 Y30.769 E29.4466
G1 X194.575 Y30.779 E29.47301
G1 X195.104 Y30.827 E29.49334
G1 X195.619 Y30.953 E29.51363
G1 X196.11 Y31.156 E29.53396
G1 X196.564 Y31.429 E29.55424
G1 X196.973 Y31.768 E29.57457
G1 X197.325 Y32.165 E29.59487
G1 X197.615 Y32.609 E29.61517
G1 X197.834 Y33.093 E29.6355
G1 X197.979 Y33.603 E29.65579
G1 X198.045 Y34.13 E29.67611
G1 X198.031 Y34.66 E29.6964
G1 X197.938 Y35.183 E29.71673
G1 X197.677 Y35.88 E29.74521
G1 X197.349 Y36.484 E29.77152
G1 X187.896 Y53.029 E30.50075
G1 X186.584 Y55.404 E30.60458
G1 X185.311 Y57.867 E30.71069
G1 X184.144 Y60.293 E30.81371
G1 X183.031 Y62.785 E30.91816
G1 X181.979 Y65.325 E31.02337
G1 X181.015 Y67.867 E31.12741
G1 X180.107 Y70.469 E31.23288
G1 X179.3 Y73.019 E31.33524
G1 X178.542 Y75.667 E31.44064
G1 X177.955 Y77.94 E31.53048
G1 X177.626 Y79.279 E31.58325
G1 X177.461 Y79.784 E31.60358
G1 X177.238 Y80.239 E31.62297
G1 X177.185 Y80.337 E31.62724
G1 X176.789 Y81.03 E31.65778
G1 X176.058 Y82.35 E31.71553
G1 X175.381 Y83.56 E31.76859
G1 X175.199 Y83.856 E31.78189
G1 X174.621 Y84.718 E31.8216
G1 X173.128 Y87.011 E31.92632
G1 X171.721 Y89.315 E32.02963
G1 X170.35 Y91.708 E32.13518
G1 X169.063 Y94.109 E32.23943
G1 X167.845 Y96.546 E32.34369
G1 X166.696 Y99.016 E32.44794
G1 X165.606 Y101.543 E32.55326
G1 X164.6 Y104.073 E32.65746
G1 X163.661 Y106.642 E32.76214
G1 X162.807 Y109.2 E32.86534
G1 X162.009 Y111.835 E32.9707
G1 X161.296 Y114.457 E33.07469
G1 X160.655 Y117.105 E33.17895
G1 X160.081 Y119.806 E33.28463
G1 X159.598 Y122.461 E33.3879
G1 X159.184 Y125.15 E33.49202
G1 X158.844 Y127.871 E33.59696
G1 X158.582 Y130.591 E33.70154
G1 X158.398 Y133.318 E33.80614
G1 X158.292 Y136.014 E33.90939
G1 X158.26 Y138.772 E34.01494
G1 X158.307 Y141.484 E34.11875
G1 X158.432 Y144.221 E34.2236
G1 X158.63 Y146.908 E34.32671
G1 X158.912 Y149.662 E34.43265
G1 X159.265 Y152.353 E34.53652
G1 X159.694 Y155.036 E34.6405
G1 X160.205 Y157.739 E34.74578
G1 X160.791 Y160.419 E34.85076
G1 X161.438 Y163.028 E34.95363
G1 X161.594 Y163.587 E34.97584
G1 X161.922 Y164.824 E35.02482
G1 X162.019 Y165.345 E35.0451
G1 X162.037 Y165.876 E35.06543
G1 X161.975 Y166.403 E35.08574
G1 X161.834 Y166.914 E35.10602
G1 X161.618 Y167.399 E35.12634
G1 X161.332 Y167.846 E35.14665
G1 X160.982 Y168.245 E35.16696
G1 X160.576 Y168.587 E35.18728
G1 X160.123 Y168.864 E35.2076
G1 X159.634 Y169.07 E35.2279
G1 X159.12 Y169.2 E35.24819
G1 X158.567 Y169.252 E35.26945
G1 X157.554 Y169.266 E35.30822
G1 X136.981 Y169.174 E36.09555
G1 X134.199 Y169.201 E36.20202
G1 X131.497 Y169.304 E36.3055
G1 X128.771 Y169.485 E36.41005
G1 X126.047 Y169.743 E36.51476
G1 X123.363 Y170.075 E36.61826
G1 X120.632 Y170.49 E36.72398
G1 X117.971 Y170.973 E36.82747
G1 X114.781 Y171.654 E36.9523
G1 X114.574 Y171.701 E36.96043
G1 X114.001 Y171.782 E36.98257
G1 X112.689 Y171.859 E37.03287
G1 X111.928 Y171.898 E37.06203
G1 X111.118 Y171.918 E37.09304
G1 X109.654 Y171.931 E37.14907
G1 X108.593 Y171.944 E37.18968
G1 X107.902 Y171.942 E37.21612
G1 X107.117 Y171.851 E37.24636
G1 X106.093 Y171.614 E37.28659
G1 X105.296 Y171.418 E37.318
G1 X102.65 Y170.845 E37.4216
G1 X99.948 Y170.337 E37.52682
G1 X97.289 Y169.92 E37.62982
G1 X94.553 Y169.566 E37.7354
G1 X91.865 Y169.295 E37.83879
G1 X89.138 Y169.099 E37.94342
G1 X86.371 Y168.979 E38.04941
G1 X83.989 Y168.938 E38.14058
G1 X58.369 Y168.823 E39.12106
G1 X57.694 Y168.81 E39.1469
G1 X57.166 Y168.76 E39.16719
G1 X56.651 Y168.631 E39.18751
G1 X56.161 Y168.427 E39.20782
G1 X55.708 Y168.151 E39.22812
G1 X55.301 Y167.81 E39.24844
G1 X54.95 Y167.412 E39.26875
G1 X54.663 Y166.966 E39.28905
G1 X54.446 Y166.482 E39.30935
G1 X54.325 Y166.067 E39.32589
G1 X54.165 Y165.365 E39.35344
G1 X53.514 Y162.669 E39.45958
G1 X52.796 Y160.029 E39.56429
G1 X52.004 Y157.403 E39.66925
G1 X51.144 Y154.825 E39.77326
G1 X50.215 Y152.282 E39.87687
G1 X49.189 Y149.701 E39.98316
G1 X48.131 Y147.243 E40.08557
G1 X46.952 Y144.706 E40.19263
G1 X45.758 Y142.318 E40.2948
G1 X44.026 Y139.115 E40.43415
G1 X4.524 Y69.264 E43.50517
G1 X4.2 Y68.671 E43.53103
G1 X3.981 Y68.188 E43.55132
G1 X3.837 Y67.677 E43.57164
G1 X3.772 Y67.15 E43.59196
G1 X3.787 Y66.62 E43.61225
G1 X3.881 Y66.097 E43.63259
G1 X4.052 Y65.595 E43.65288
G1 X4.297 Y65.124 E43.6732
G1 X4.609 Y64.696 E43.69347
G1 X4.983 Y64.319 E43.71379
G1 X5.409 Y64.002 E43.73411
G1 X5.877 Y63.753 E43.7544
G1 X6.378 Y63.577 E43.77472
G1 X7.125 Y63.46 E43.80366
G0 F1285.7 X7.333 Y63.803
G1 F900 X7.916 Y63.799 E43.82597
G1 X19.311 Y63.851 E44.26206
G1 X22.073 Y63.824 E44.36776
G1 X24.829 Y63.719 E44.47331
G1 X27.54 Y63.54 E44.57728
G1 X30.29 Y63.279 E44.683
G1 X32.98 Y62.947 E44.78672
G1 X35.705 Y62.532 E44.89221
G1 X38.394 Y62.044 E44.9968
G1 X41.056 Y61.484 E45.1009
G1 X43.721 Y60.843 E45.2058
G1 X46.404 Y60.117 E45.31217
G1 X48.986 Y59.34 E45.41536
G1 X51.625 Y58.463 E45.52178
G1 X54.147 Y57.545 E45.62449
G1 X56.744 Y56.516 E45.73139
G1 X59.22 Y55.452 E45.83453
G1 X61.738 Y54.285 E45.94074
G1 X64.179 Y53.07 E46.04509
G1 X66.559 Y51.798 E46.14836
G1 X68.993 Y50.409 E46.25561
G1 X71.301 Y49.002 E46.35905
G1 X73.607 Y47.507 E46.46422
G1 X75.855 Y45.957 E46.56872
G1 X78.063 Y44.341 E46.67343
G1 X80.233 Y42.657 E46.77855
G1 X82.339 Y40.923 E46.88295
G1 X84.403 Y39.123 E46.98776
G1 X86.431 Y37.254 E47.0933
G1 X88.369 Y35.363 E47.19692
G1 X90.301 Y33.366 E47.30326
G1 X90.611 Y33.027 E47.32084
G1 X91.447 Y32.138 E47.36754
G1 X91.82 Y31.8 E47.3868
G1 X92.242 Y31.524 E47.4061
G1 X92.702 Y31.32 E47.42536
G1 X93.188 Y31.19 E47.44461
G1 X93.699 Y31.139 E47.46426
G1 X94.746 Y31.119 E47.50434
G1 X193.88 Y31.119 E51.29815
G1 X194.57 Y31.129 E51.32456
G1 X195.071 Y31.177 E51.34382
G1 X195.559 Y31.302 E51.3631
G1 X196.021 Y31.504 E51.3824
G1 X196.444 Y31.776 E51.40164
G1 X196.82 Y32.111 E51.42091
G1 X197.138 Y32.502 E51.4402
G1 X197.39 Y32.938 E51.45947
G1 X197.57 Y33.408 E51.47873
G1 X197.673 Y33.901 E51.49801
G1 X197.697 Y34.404 E51.51728
G1 X197.642 Y34.904 E51.53653
G1 X197.508 Y35.39 E51.55582
G1 X197.27 Y35.905 E51.57753
G1 X197.024 Y36.348 E51.59693
G1 X187.592 Y52.855 E52.32449
G1 X186.272 Y55.243 E52.42891
G1 X185.012 Y57.683 E52.53401
G1 X183.831 Y60.137 E52.63823
G1 X182.708 Y62.65 E52.74357
G1 X181.642 Y65.227 E52.85029
G1 X180.688 Y67.738 E52.95309
G1 X179.789 Y70.318 E53.05765
G1 X178.945 Y72.983 E53.16463
G1 X178.208 Y75.559 E53.26716
G1 X177.616 Y77.852 E53.35779
G1 X177.286 Y79.196 E53.41076
G1 X177.128 Y79.674 E53.43002
G1 X176.881 Y80.163 E53.45099
G1 X176.485 Y80.856 E53.48153
G1 X175.753 Y82.179 E53.5394
G1 X175.076 Y83.389 E53.59246
G1 X174.908 Y83.661 E53.60469
G1 X174.354 Y84.487 E53.64275
G1 X172.843 Y86.808 E53.74874
G1 X171.4 Y89.171 E53.8547
G1 X170.044 Y91.539 E53.95913
G1 X168.762 Y93.93 E54.06296
G1 X167.528 Y96.398 E54.16855
G1 X166.37 Y98.889 E54.27368
G1 X165.286 Y101.4 E54.37835
G1 X164.271 Y103.953 E54.48349
G1 X163.344 Y106.49 E54.58686
G1 X162.462 Y109.129 E54.69334
G1 X161.682 Y111.71 E54.79653
G1 X160.954 Y114.385 E54.90262
G1 X160.314 Y117.026 E55.00661
G1 X159.738 Y119.739 E55.11275
G1 X159.251 Y122.414 E55.21681
G1 X158.834 Y125.128 E55.32189
G1 X158.496 Y127.829 E55.42606
G1 X158.235 Y130.533 E55.53002
G1 X158.05 Y133.279 E55.63535
G1 X157.941 Y136.033 E55.74083
G1 X157.911 Y138.753 E55.84493
G1 X157.958 Y141.506 E55.9503
G1 X158.084 Y144.261 E56.05584
G1 X158.28 Y146.922 E56.15795
G1 X158.565 Y149.709 E56.26516
G1 X158.92 Y152.414 E56.36957
G1 X159.348 Y155.094 E56.47343
G1 X159.861 Y157.804 E56.57899
G1 X160.443 Y160.468 E56.68334
G1 X161.106 Y163.137 E56.78859
G1 X161.256 Y163.676 E56.81
G1 X161.584 Y164.913 E56.85897
G1 X161.674 Y165.409 E56.87826
G1 X161.685 Y165.912 E56.89752
G1 X161.615 Y166.411 E56.9168
G1 X161.468 Y166.893 E56.93609
G1 X161.247 Y167.345 E56.95534
G1 X160.957 Y167.756 E56.97459
G1 X160.605 Y168.117 E56.99389
G1 X160.201 Y168.417 E57.01314
G1 X159.754 Y168.65 E57.03244
G1 X159.277 Y168.809 E57.05168
G1 X158.562 Y168.902 E57.07927
G1 X157.556 Y168.916 E57.11777
G1 X136.979 Y168.824 E57.90525
G1 X134.217 Y168.851 E58.01096
G1 X131.462 Y168.956 E58.11647
G1 X128.75 Y169.135 E58.22048
G1 X126.01 Y169.395 E58.32581
G1 X123.297 Y169.731 E58.43043
G1 X120.591 Y170.142 E58.53517
G1 X117.899 Y170.631 E58.63988
G1 X114.463 Y171.363 E58.77433
G1 X113.98 Y171.433 E58.793
G1 X112.673 Y171.509 E58.84311
G1 X111.827 Y171.552 E58.87552
G1 X111.111 Y171.569 E58.90293
G1 X109.649 Y171.581 E58.95888
G1 X108.594 Y171.594 E58.99926
