;FLAVOR:Marlin
;TIME:22961
;Filament used: 23.8615m
;Layer height: 0.3
;MINX:4.75
;MINY:24.152
;MINZ:0.26
;MAXX:202.432
;MAXY:165.998
;MAXZ:23.66
;Generated with Cura_SteamEngine 4.9.1
M82 ;absolute extrusion mode
;Begin Start Gcode for Dagoma DiscoEasy 200
;Sliced: 01-07-2021 10:42:19
;Initial extruder: 0

G90 ;Absolute positioning
M106 S255 ;Fan on full
G28 X Y ;Home stop X Y
G1 X100 ;Centre back during cooldown in case of oozing
M109 R90 ;Cooldown in case too hot
G28 ;Centre
G29 ;Auto-level
M104 S205 ;Pre-heat
M107 ;Fan off
G0 X100 Y5 Z0.5 ;Front centre for degunk
M109 S205 ;Wait for initial temp
M83 ;E Relative
G1 E10 F200 ;Degunk
G1 E-3 F5000 ;Retract
G0 Z3 ;Withdraw
M82 ;E absolute
G92 E0 ;E reset
G1 F6000 ;Set feedrate

;Finish Start Gcode for Dagoma DiscoEasy 200

G92 E0
G92 E0
G1 F3000 E-3.5
;LAYER_COUNT:79
;LAYER:0
M107
G0 F1285.7 X39.439 Y26.047 Z0.26
;TYPE:SKIRT
G1 F3000 E0
G1 F900 X39.759 Y25.592 E0.02129
G1 X40.142 Y25.188 E0.04259
G1 X40.578 Y24.842 E0.06389
G1 X41.059 Y24.563 E0.08517
G1 X41.576 Y24.356 E0.10649
G1 X42.116 Y24.224 E0.12776
G1 X42.682 Y24.172 E0.14951
G1 X43.725 Y24.152 E0.18943
G1 X142.873 Y24.152 E3.98378
G1 X143.573 Y24.163 E4.01057
G1 X144.127 Y24.212 E4.03186
G1 X144.669 Y24.34 E4.05317
G1 X145.187 Y24.543 E4.07446
G1 X145.67 Y24.819 E4.09575
G1 X146.108 Y25.162 E4.11704
G1 X146.494 Y25.563 E4.13834
G1 X146.817 Y26.016 E4.15963
G1 X147.073 Y26.51 E4.18092
G1 X147.261 Y27.058 E4.2031
G1 X147.525 Y28.071 E4.24316
G1 X147.597 Y28.365 E4.25474
G1 X148.308 Y30.965 E4.3579
G1 X149.097 Y33.558 E4.46162
G1 X149.977 Y36.18 E4.56746
G1 X150.899 Y38.691 E4.66983
G1 X151.914 Y41.228 E4.7744
G1 X152.986 Y43.704 E4.87766
G1 X154.16 Y46.219 E4.98388
G1 X155.362 Y48.613 E5.08639
G1 X157.222 Y52.025 E5.23511
G1 X162.964 Y62.072 E5.67797
G1 X164.369 Y64.451 E5.7837
G1 X165.838 Y66.786 E5.88928
G1 X167.321 Y69.001 E5.99129
G1 X168.899 Y71.221 E6.09552
G1 X170.551 Y73.409 E6.20044
G1 X172.261 Y75.547 E6.30521
G1 X173.992 Y77.589 E6.40766
G1 X175.653 Y79.446 E6.50301
G1 X176.44 Y80.304 E6.54756
G1 X176.786 Y80.741 E6.56889
G1 X176.957 Y81.016 E6.58129
G1 X177.642 Y82.228 E6.63457
G1 X177.748 Y82.386 E6.64185
G1 X178.693 Y84.046 E6.71495
G1 X178.722 Y84.108 E6.71757
G1 X179.388 Y85.262 E6.76856
G1 X179.631 Y85.763 E6.78987
G1 X179.737 Y86.067 E6.80219
G1 X180.083 Y87.202 E6.8476
G1 X180.93 Y89.846 E6.95385
G1 X181.833 Y92.413 E7.05798
G1 X182.796 Y94.919 E7.16072
G1 X183.855 Y97.461 E7.26611
G1 X184.972 Y99.939 E7.37013
G1 X186.159 Y102.389 E7.47432
G1 X187.412 Y104.797 E7.5782
G1 X188.585 Y106.91 E7.67069
G1 X201.629 Y129.736 E8.6768
G1 X201.957 Y130.329 E8.70273
G1 X202.191 Y130.834 E8.72403
G1 X202.349 Y131.368 E8.74534
G1 X202.43 Y131.918 E8.76662
G1 X202.432 Y132.475 E8.78794
G1 X202.353 Y133.025 E8.8092
G1 X202.197 Y133.559 E8.83049
G1 X201.965 Y134.065 E8.85179
G1 X201.664 Y134.533 E8.87309
G1 X201.298 Y134.953 E8.89441
G1 X200.877 Y135.316 E8.91568
G1 X200.407 Y135.615 E8.937
G1 X199.9 Y135.843 E8.95827
G1 X199.365 Y135.997 E8.97958
G1 X198.747 Y136.076 E9.00342
G1 X198.55 Y136.083 E9.01097
G1 X197.989 Y136.09 E9.03244
G1 X179.979 Y136.09 E9.72167
G1 X177.208 Y136.129 E9.82773
G1 X174.461 Y136.246 E9.93295
G1 X171.783 Y136.436 E10.03569
G1 X169.087 Y136.703 E10.13937
G1 X166.359 Y137.052 E10.24462
G1 X163.701 Y137.47 E10.34759
G1 X160.996 Y137.972 E10.45288
G1 X158.369 Y138.538 E10.55572
G1 X155.75 Y139.181 E10.65892
G1 X153.083 Y139.913 E10.76476
G1 X150.512 Y140.701 E10.86767
G1 X147.92 Y141.575 E10.97235
G1 X145.359 Y142.52 E11.07682
G1 X142.836 Y143.532 E11.18085
G1 X140.375 Y144.604 E11.28358
G1 X137.881 Y145.773 E11.38899
G1 X135.444 Y147 E11.49341
G1 X133.084 Y148.274 E11.59604
G1 X130.725 Y149.635 E11.70027
G1 X128.401 Y151.065 E11.80469
G1 X126.129 Y152.552 E11.90861
G1 X123.899 Y154.106 E12.01263
G1 X121.69 Y155.738 E12.11773
G1 X119.577 Y157.394 E12.22047
G1 X117.475 Y159.139 E12.32502
G1 X115.446 Y160.923 E12.42842
G1 X113.443 Y162.786 E12.5331
G1 X112.373 Y163.853 E12.59093
G1 X112.31 Y163.908 E12.59413
G1 X111.311 Y164.884 E12.64758
G1 X110.886 Y165.243 E12.66887
G1 X110.414 Y165.538 E12.69017
G1 X109.905 Y165.762 E12.71145
G1 X109.369 Y165.911 E12.73274
G1 X108.755 Y165.985 E12.75641
G1 X108.574 Y165.991 E12.76334
G1 X108.013 Y165.998 E12.78481
G1 X9.257 Y165.998 E16.56416
G1 X8.568 Y165.988 E16.59053
G1 X8.013 Y165.94 E16.61185
G1 X7.472 Y165.813 E16.63311
G1 X6.954 Y165.61 E16.6544
G1 X6.47 Y165.334 E16.67573
G1 X6.031 Y164.993 E16.697
G1 X5.645 Y164.591 E16.71833
G1 X5.321 Y164.139 E16.73961
G1 X5.065 Y163.645 E16.7609
G1 X4.882 Y163.12 E16.78218
G1 X4.776 Y162.574 E16.80347
G1 X4.75 Y162.018 E16.82477
G1 X4.804 Y161.464 E16.84607
G1 X4.936 Y160.923 E16.86738
G1 X5.14 Y160.416 E16.88829
G1 X5.255 Y160.193 E16.8979
G1 X5.566 Y159.634 E16.92238
G1 X18.491 Y137.016 E17.91932
G1 X19.835 Y134.583 E18.02569
G1 X21.078 Y132.177 E18.12933
G1 X22.258 Y129.727 E18.2334
G1 X23.369 Y127.239 E18.33767
G1 X24.411 Y124.722 E18.44192
G1 X25.376 Y122.18 E18.54598
G1 X26.258 Y119.649 E18.64855
G1 X27.131 Y116.89 E18.7593
G1 X27.489 Y115.7 E18.80686
G1 X27.788 Y114.979 E18.83673
G1 X28.046 Y114.512 E18.85714
G1 X29.303 Y112.334 E18.95338
G1 X30.13 Y110.949 E19.01511
G1 X30.836 Y109.799 E19.06676
G1 X32.184 Y107.458 E19.17014
G1 X33.46 Y105.089 E19.27311
G1 X34.697 Y102.631 E19.37842
G1 X35.856 Y100.156 E19.48301
G1 X36.927 Y97.686 E19.58603
G1 X37.95 Y95.135 E19.69122
G1 X38.874 Y92.625 E19.79358
G1 X39.753 Y90.013 E19.89904
G1 X40.54 Y87.433 E20.00227
G1 X41.265 Y84.795 E20.10697
G1 X41.916 Y82.131 E20.21192
G1 X42.479 Y79.507 E20.31462
G1 X42.971 Y76.845 E20.41822
G1 X43.393 Y74.143 E20.52288
G1 X43.74 Y71.425 E20.62774
G1 X44.001 Y68.775 E20.72965
G1 X44.193 Y66.025 E20.83514
G1 X44.307 Y63.312 E20.93906
G1 X44.343 Y60.591 E21.0432
G1 X44.302 Y57.847 E21.14822
G1 X44.187 Y55.171 E21.25073
G1 X43.993 Y52.457 E21.35486
G1 X43.72 Y49.727 E21.45985
G1 X43.377 Y47.063 E21.56264
G1 X42.949 Y44.347 E21.66787
G1 X42.452 Y41.681 E21.77165
G1 X41.885 Y39.063 E21.87416
G1 X41.228 Y36.387 E21.97961
G1 X40.514 Y33.802 E22.08225
G1 X39.429 Y30.318 E22.22189
G1 X39.08 Y29.265 E22.26435
G1 X38.943 Y28.726 E22.28563
G1 X38.885 Y28.173 E22.30691
G1 X38.907 Y27.617 E22.3282
G1 X39.008 Y27.07 E22.34949
G1 X39.187 Y26.543 E22.37079
G1 X39.439 Y26.047 E22.39208
G0 F1285.7 X39.817 Y26.103
G1 F900 X40.142 Y25.683 E22.4124
G1 X40.527 Y25.317 E22.43273
G1 X40.961 Y25.013 E22.45301
G1 X41.437 Y24.778 E22.47333
G1 X41.943 Y24.617 E22.49365
G1 X42.689 Y24.522 E22.52243
G1 X43.725 Y24.502 E22.56208
G1 X142.867 Y24.502 E26.3562
G1 X143.567 Y24.513 E26.38299
G1 X144.096 Y24.562 E26.40332
G1 X144.611 Y24.689 E26.42362
G1 X145.101 Y24.892 E26.44392
G1 X145.556 Y25.166 E26.46424
G1 X145.964 Y25.505 E26.48455
G1 X146.316 Y25.902 E26.50485
G1 X146.605 Y26.347 E26.52516
G1 X146.824 Y26.831 E26.54549
G1 X146.922 Y27.147 E26.55815
G1 X147.185 Y28.154 E26.59798
G1 X147.252 Y28.431 E26.60888
G1 X147.981 Y31.091 E26.71444
G1 X148.766 Y33.671 E26.81764
G1 X149.632 Y36.253 E26.92186
G1 X150.578 Y38.83 E27.02692
G1 X151.588 Y41.355 E27.13099
G1 X152.684 Y43.886 E27.23654
G1 X153.835 Y46.354 E27.34076
G1 X155.042 Y48.758 E27.4437
G1 X156.933 Y52.225 E27.59484
G1 X162.662 Y62.25 E28.03672
G1 X164.062 Y64.621 E28.14209
G1 X165.532 Y66.956 E28.24768
G1 X167.042 Y69.213 E28.35161
G1 X168.638 Y71.458 E28.45702
G1 X170.261 Y73.607 E28.56008
G1 X171.987 Y75.765 E28.66583
G1 X173.729 Y77.821 E28.76896
G1 X175.396 Y79.683 E28.8646
G1 X176.182 Y80.541 E28.90913
G1 X176.51 Y80.958 E28.92943
G1 X176.653 Y81.188 E28.9398
G1 X177.376 Y82.467 E28.99602
G1 X177.443 Y82.559 E29.00038
G1 X178.388 Y84.219 E29.07348
G1 X178.412 Y84.271 E29.07567
G1 X179.085 Y85.437 E29.12719
G1 X179.314 Y85.915 E29.14748
G1 X179.402 Y86.169 E29.15776
G1 X179.75 Y87.309 E29.20338
G1 X180.599 Y89.958 E29.30983
G1 X181.497 Y92.512 E29.41344
G1 X182.483 Y95.08 E29.51871
G1 X183.527 Y97.584 E29.62253
G1 X184.664 Y100.107 E29.72844
G1 X185.84 Y102.533 E29.83161
G1 X187.109 Y104.971 E29.9368
G1 X188.282 Y107.084 E30.02929
G1 X201.323 Y129.906 E31.03521
G1 X201.651 Y130.499 E31.06114
G1 X201.872 Y130.981 E31.08143
G1 X202.018 Y131.491 E31.10174
G1 X202.086 Y132.018 E31.12207
G1 X202.074 Y132.548 E31.14236
G1 X201.983 Y133.071 E31.16267
G1 X201.814 Y133.574 E31.18298
G1 X201.572 Y134.046 E31.20328
G1 X201.262 Y134.477 E31.2236
G1 X200.89 Y134.855 E31.24389
G1 X200.466 Y135.174 E31.2642
G1 X199.999 Y135.426 E31.28451
G1 X199.499 Y135.604 E31.30482
G1 X198.731 Y135.726 E31.33458
G1 X198.546 Y135.733 E31.34166
G1 X197.985 Y135.74 E31.36313
G1 X179.974 Y135.74 E32.05241
G1 X177.188 Y135.779 E32.15904
G1 X174.456 Y135.895 E32.26368
G1 X171.762 Y136.086 E32.36704
G1 X169.004 Y136.36 E32.47311
G1 X166.334 Y136.701 E32.57612
G1 X163.652 Y137.123 E32.68002
G1 X160.934 Y137.628 E32.78581
G1 X158.273 Y138.201 E32.88998
G1 X155.649 Y138.845 E32.99338
G1 X153.02 Y139.567 E33.09772
G1 X150.376 Y140.377 E33.20354
G1 X147.798 Y141.246 E33.30766
G1 X145.237 Y142.191 E33.41213
G1 X142.721 Y143.201 E33.51588
G1 X140.215 Y144.292 E33.62048
G1 X137.716 Y145.463 E33.72609
G1 X135.29 Y146.685 E33.83005
G1 X132.928 Y147.961 E33.93279
G1 X130.526 Y149.345 E34.03888
G1 X128.221 Y150.764 E34.14246
G1 X125.923 Y152.268 E34.24757
G1 X123.701 Y153.816 E34.3512
G1 X121.498 Y155.444 E34.45603
G1 X119.347 Y157.129 E34.5606
G1 X117.248 Y158.873 E34.66504
G1 X115.2 Y160.673 E34.76938
G1 X113.205 Y162.529 E34.87366
G1 X112.126 Y163.605 E34.93198
G1 X112.066 Y163.657 E34.93502
G1 X111.066 Y164.634 E34.98852
G1 X110.66 Y164.975 E35.00881
G1 X110.207 Y165.251 E35.02911
G1 X109.718 Y165.457 E35.04942
G1 X109.203 Y165.586 E35.06974
G1 X108.665 Y165.638 E35.09042
G1 X108.57 Y165.641 E35.09406
G1 X108.009 Y165.648 E35.11553
G1 X9.262 Y165.648 E38.89453
G1 X8.573 Y165.638 E38.9209
G1 X8.044 Y165.59 E38.94123
G1 X7.529 Y165.464 E38.96152
G1 X7.038 Y165.261 E38.98185
G1 X6.584 Y164.988 E39.00212
G1 X6.175 Y164.649 E39.02245
G1 X5.822 Y164.252 E39.04278
G1 X5.533 Y163.808 E39.06306
G1 X5.314 Y163.324 E39.08339
G1 X5.169 Y162.814 E39.10368
G1 X5.103 Y162.287 E39.124
G1 X5.117 Y161.757 E39.14429
G1 X5.21 Y161.234 E39.16462
G1 X5.455 Y160.569 E39.19174
G1 X5.561 Y160.363 E39.20061
G1 X5.869 Y159.808 E39.2249
G1 X18.82 Y137.145 E40.22383
G1 X20.136 Y134.764 E40.32794
G1 X21.391 Y132.333 E40.43264
G1 X22.573 Y129.88 E40.53685
G1 X23.692 Y127.374 E40.64188
G1 X24.737 Y124.85 E40.74642
G1 X25.701 Y122.308 E40.85046
G1 X26.601 Y119.728 E40.95503
G1 X27.45 Y117.043 E41.0628
G1 X27.824 Y115.8 E41.11248
G1 X28.096 Y115.145 E41.13962
G1 X28.351 Y114.684 E41.15978
G1 X29.632 Y112.465 E41.25783
G1 X30.428 Y111.133 E41.31722
G1 X31.122 Y110.003 E41.36797
G1 X32.498 Y107.613 E41.47351
G1 X33.783 Y105.228 E41.57718
G1 X35.007 Y102.795 E41.68141
G1 X36.168 Y100.315 E41.78621
G1 X37.253 Y97.813 E41.89057
G1 X38.271 Y95.274 E41.99526
G1 X39.213 Y92.715 E42.09961
G1 X40.087 Y90.117 E42.20451
G1 X40.875 Y87.537 E42.30775
G1 X41.603 Y84.885 E42.413
G1 X42.254 Y82.227 E42.51772
G1 X42.823 Y79.568 E42.62179
G1 X43.318 Y76.894 E42.72586
G1 X43.738 Y74.202 E42.83013
G1 X44.086 Y71.473 E42.93541
G1 X44.353 Y68.763 E43.03962
G1 X44.542 Y66.062 E43.14324
G1 X44.657 Y63.331 E43.24785
G1 X44.693 Y60.591 E43.35271
G1 X44.653 Y57.863 E43.45712
G1 X44.535 Y55.131 E43.56177
G1 X44.342 Y52.432 E43.66533
G1 X44.067 Y49.682 E43.77109
G1 X43.721 Y46.998 E43.87466
G1 X43.297 Y44.303 E43.97906
G1 X42.795 Y41.612 E44.08382
G1 X42.224 Y38.973 E44.18715
G1 X41.572 Y36.318 E44.29178
G1 X40.84 Y33.669 E44.39695
G1 X39.783 Y30.274 E44.53303
G1 X39.412 Y29.155 E44.57815
G1 X39.283 Y28.64 E44.59846
G1 X39.234 Y28.112 E44.61876
G1 X39.264 Y27.582 E44.63907
G1 X39.373 Y27.063 E44.65937
G1 X39.559 Y26.566 E44.67968
G1 X39.817 Y26.103 E44.69996
G0 F1285.7 X39.933 Y26.598
G1 F900 X40.197 Y26.169 E44.71924
G1 X40.526 Y25.788 E44.7385
G1 X40.911 Y25.463 E44.75778
G1 X41.343 Y25.204 E44.77706
G1 X41.81 Y25.016 E44.79633
G1 X42.301 Y24.904 E44.8156
G1 X42.696 Y24.872 E44.83076
G1 X43.725 Y24.852 E44.87015
G1 X142.862 Y24.852 E48.66408
G1 X143.562 Y24.863 E48.69087
G1 X144.063 Y24.911 E48.71013
G1 X144.551 Y25.038 E48.72943
G1 X145.012 Y25.24 E48.74869
G1 X145.436 Y25.512 E48.76797
G1 X145.811 Y25.848 E48.78724
G1 X146.128 Y26.239 E48.8065
G1 X146.38 Y26.675 E48.82577
G1 X146.584 Y27.235 E48.84858
G1 X146.845 Y28.236 E48.88817
G1 X146.918 Y28.537 E48.90002
G1 X147.634 Y31.152 E49.00378
G1 X148.442 Y33.806 E49.10995
G1 X149.313 Y36.402 E49.21474
G1 X150.245 Y38.939 E49.31817
G1 X151.271 Y41.507 E49.424
G1 X152.352 Y44.001 E49.52803
G1 X153.512 Y46.488 E49.63305
G1 X154.753 Y48.961 E49.73894
G1 X156.595 Y52.338 E49.88615
G1 X162.383 Y62.465 E50.33254
G1 X163.777 Y64.825 E50.43743
G1 X165.225 Y67.126 E50.54147
G1 X166.773 Y69.44 E50.64802
G1 X168.337 Y71.639 E50.75129
G1 X170.005 Y73.849 E50.85725
G1 X171.695 Y75.961 E50.96076
G1 X173.483 Y78.071 E51.06661
G1 X175.109 Y79.888 E51.15992
G1 X175.924 Y80.777 E51.20607
G1 X176.348 Y81.361 E51.23369
G1 X177.04 Y82.586 E51.28754
G1 X177.139 Y82.732 E51.29429
G1 X178.084 Y84.392 E51.36739
G1 X178.112 Y84.453 E51.36996
G1 X178.781 Y85.612 E51.42117
G1 X179.068 Y86.271 E51.44868
G1 X179.417 Y87.415 E51.49445
G1 X180.271 Y90.08 E51.60155
G1 X181.176 Y92.654 E51.70596
G1 X182.148 Y95.186 E51.80976
G1 X183.211 Y97.733 E51.91538
G1 X184.344 Y100.247 E52.0209
G1 X185.521 Y102.676 E52.1242
G1 X186.806 Y105.145 E52.23072
G1 X187.978 Y107.258 E52.32319
G1 X201.016 Y130.075 E53.32889
G1 X201.344 Y130.668 E53.35482
G1 X201.552 Y131.127 E53.37411
G1 X201.685 Y131.613 E53.39339
G1 X201.74 Y132.113 E53.41264
G1 X201.714 Y132.616 E53.43191
G1 X201.61 Y133.109 E53.4512
G1 X201.428 Y133.579 E53.47048
G1 X201.175 Y134.014 E53.48974
G1 X200.856 Y134.404 E53.50902
G1 X200.48 Y134.738 E53.52827
G1 X200.055 Y135.009 E53.54756
G1 X199.593 Y135.209 E53.56683
G1 X199.105 Y135.334 E53.5861
G1 X198.542 Y135.383 E53.60773
G1 X197.981 Y135.39 E53.6292
G1 X179.969 Y135.39 E54.31851
G1 X177.17 Y135.43 E54.42564
G1 X174.453 Y135.545 E54.52971
G1 X171.735 Y135.738 E54.63399
G1 X168.964 Y136.012 E54.74055
G1 X166.304 Y136.353 E54.84318
G1 X163.568 Y136.783 E54.94917
G1 X160.865 Y137.285 E55.05438
G1 X158.192 Y137.86 E55.15902
G1 X155.575 Y138.503 E55.26215
G1 X152.903 Y139.237 E55.36819
G1 X150.262 Y140.045 E55.47389
G1 X147.708 Y140.907 E55.57704
G1 X145.097 Y141.87 E55.68355
G1 X142.58 Y142.88 E55.78734
G1 X140.083 Y143.967 E55.89156
G1 X137.582 Y145.14 E55.99727
G1 X135.137 Y146.371 E56.10203
G1 X132.702 Y147.686 E56.20794
G1 X130.379 Y149.025 E56.31055
G1 X128.015 Y150.48 E56.41678
G1 X125.741 Y151.969 E56.5208
G1 X123.503 Y153.528 E56.62518
G1 X121.262 Y155.184 E56.73182
G1 X119.138 Y156.847 E56.83505
G1 X117.02 Y158.606 E56.94042
G1 X114.961 Y160.418 E57.04538
G1 X112.966 Y162.272 E57.14961
G1 X111.879 Y163.357 E57.20838
G1 X111.821 Y163.406 E57.21129
G1 X110.822 Y164.383 E57.26477
G1 X110.435 Y164.706 E57.28406
G1 X110.002 Y164.963 E57.30333
G1 X109.534 Y165.148 E57.32258
G1 X109.042 Y165.257 E57.34187
G1 X108.566 Y165.291 E57.36013
G1 X108.005 Y165.298 E57.3816
G1 X9.267 Y165.298 E61.16026
G1 X8.578 Y165.288 E61.18663
G1 X8.077 Y165.24 E61.20589
G1 X7.589 Y165.115 E61.22517
G1 X7.127 Y164.913 E61.24447
G1 X6.703 Y164.641 E61.26374
G1 X6.328 Y164.306 E61.28299
G1 X6.01 Y163.915 E61.30227
G1 X5.758 Y163.479 E61.32155
G1 X5.578 Y163.009 E61.34081
G1 X5.475 Y162.516 E61.36008
G1 X5.451 Y162.013 E61.37935
G1 X5.506 Y161.513 E61.3986
G1 X5.64 Y161.027 E61.4179
G1 X5.867 Y160.533 E61.4387
G1 X6.173 Y159.982 E61.46282
G1 X19.124 Y137.319 E62.46175
G1 X20.444 Y134.931 E62.56617
G1 X21.712 Y132.475 E62.67195
G1 X22.886 Y130.037 E62.7755
G1 X24.008 Y127.525 E62.88079
G1 X25.074 Y124.948 E62.98752
G1 X26.028 Y122.437 E63.09031
G1 X26.93 Y119.848 E63.19523
G1 X27.799 Y117.101 E63.30549
G1 X28.16 Y115.901 E63.35345
G1 X28.405 Y115.311 E63.3779
G1 X28.656 Y114.856 E63.39779
G1 X29.909 Y112.684 E63.49375
G1 X30.726 Y111.316 E63.55473
G1 X31.426 Y110.176 E63.60592
G1 X32.803 Y107.784 E63.71155
G1 X34.098 Y105.381 E63.81601
G1 X35.317 Y102.958 E63.91981
