;FLAVOR:Marlin
;TIME:12710
;Filament used: 22.5261m
;Layer height: 0.3
;MINX:17.822
;MINY:15.785
;MINZ:0.26
;MAXX:191.404
;MAXY:189.353
;MAXZ:24.56
;Generated with Cura_SteamEngine 4.9.1
M82 ;absolute extrusion mode
;Begin Start Gcode for Dagoma DiscoEasy 200
;Sliced: 01-08-2021 01:27:15
;Initial extruder: 0

G90 ;Absolute positioning
M106 S255 ;Fan on full
G28 X Y ;Home stop X Y
G1 X100 ;Centre back during cooldown in case of oozing
M109 R90 ;Cooldown in case too hot
G28 ;Centre
G29 ;Auto-level
M104 S205 ;Pre-heat
M107 ;Fan off
G0 X100 Y5 Z0.5 ;Front centre for degunk
M109 S205 ;Wait for initial temp
M83 ;E Relative
G1 E10 F200 ;Degunk
G1 E-3 F5000 ;Retract
G0 Z3 ;Withdraw
M82 ;E absolute
G92 E0 ;E reset
G1 F6000 ;Set feedrate

;Finish Start Gcode for Dagoma DiscoEasy 200

G92 E0
G92 E0
G1 F3000 E-3.5
;LAYER_COUNT:82
;LAYER:0
M107
G0 F1285.7 X21.071 Y41.674 Z0.26
;TYPE:SKIRT
G1 F3000 E0
G1 F900 X23.535 Y40.359 E0.10688
G1 X25.883 Y39.019 E0.21034
G1 X28.249 Y37.582 E0.31628
G1 X30.566 Y36.081 E0.42193
G1 X32.811 Y34.535 E0.52625
G1 X35.012 Y32.926 E0.63059
G1 X37.104 Y31.306 E0.73185
G1 X37.822 Y30.735 E0.76695
G1 X38.221 Y30.47 E0.78528
G1 X38.68 Y30.266 E0.80451
G1 X39.195 Y30.112 E0.82508
G1 X39.842 Y29.946 E0.85064
G1 X40.202 Y29.864 E0.86477
G1 X40.768 Y29.794 E0.88659
G1 X41.448 Y29.778 E0.91263
G1 X43.042 Y29.763 E0.97363
G1 X45.777 Y29.661 E1.07837
G1 X48.541 Y29.479 E1.18438
G1 X51.231 Y29.224 E1.28778
G1 X54.015 Y28.882 E1.39513
G1 X56.698 Y28.475 E1.49898
G1 X59.411 Y27.984 E1.60449
G1 X62.075 Y27.424 E1.70867
G1 X64.728 Y26.789 E1.81306
G1 X67.431 Y26.059 E1.92021
G1 X70.046 Y25.272 E2.02472
G1 X72.663 Y24.404 E2.13024
G1 X75.242 Y23.467 E2.23525
G1 X77.78 Y22.462 E2.33971
G1 X80.33 Y21.368 E2.4459
G1 X82.794 Y20.228 E2.5498
G1 X85.277 Y18.992 E2.65595
G1 X87.671 Y17.714 E2.7598
G1 X89.228 Y16.822 E2.82847
G1 X90.089 Y16.339 E2.86625
G1 X90.525 Y16.14 E2.88459
G1 X90.999 Y16.014 E2.90336
G1 X91.575 Y15.913 E2.92574
G1 X92.173 Y15.813 E2.94895
G1 X92.903 Y15.785 E2.9769
G1 X93.071 Y15.801 E2.98336
G1 X94.611 Y15.969 E3.04265
G1 X95.93 Y16.1 E3.09337
G1 X96.486 Y16.163 E3.11479
G1 X99.256 Y16.399 E3.22118
G1 X101.953 Y16.552 E3.32456
G1 X104.723 Y16.631 E3.43061
G1 X107.459 Y16.631 E3.53531
G1 X110.226 Y16.554 E3.64124
G1 X112.948 Y16.399 E3.74558
G1 X116.655 Y16.067 E3.88801
G1 X117.312 Y15.995 E3.91331
G1 X117.791 Y15.983 E3.93165
G1 X118.266 Y16.051 E3.95001
G1 X118.722 Y16.196 E3.96832
G1 X119.148 Y16.415 E3.98665
G1 X119.624 Y16.787 E4.00977
G1 X120.157 Y17.303 E4.03816
G1 X189.918 Y87.065 E7.81374
G1 X190.388 Y87.547 E7.83951
G1 X190.693 Y87.917 E7.85786
G1 X190.932 Y88.332 E7.87618
G1 X191.099 Y88.781 E7.89452
G1 X191.189 Y89.252 E7.91287
G1 X191.189 Y89.857 E7.93602
G1 X191.08 Y90.885 E7.97558
G1 X190.829 Y93.628 E8.08099
G1 X190.656 Y96.365 E8.18595
G1 X190.561 Y99.096 E8.29052
G1 X190.542 Y101.871 E8.39672
G1 X190.601 Y104.605 E8.50138
G1 X190.736 Y107.316 E8.60526
G1 X190.95 Y110.053 E8.71032
G1 X191.175 Y112.224 E8.79385
G1 X191.328 Y113.563 E8.84542
G1 X191.39 Y114.156 E8.86824
G1 X191.404 Y114.337 E8.87519
G1 X191.373 Y114.937 E8.89818
G1 X191.235 Y115.811 E8.93204
G1 X191.033 Y116.675 E8.966
G1 X190.824 Y117.124 E8.98495
G1 X190.384 Y117.886 E9.01863
G1 X189.047 Y120.28 E9.12356
G1 X187.785 Y122.699 E9.22798
G1 X186.572 Y125.196 E9.33422
G1 X185.44 Y127.701 E9.43941
G1 X184.389 Y130.214 E9.54366
G1 X183.384 Y132.822 E9.65062
G1 X182.479 Y135.389 E9.75478
G1 X181.642 Y137.993 E9.85946
G1 X180.87 Y140.65 E9.96535
G1 X180.192 Y143.255 E10.06836
G1 X179.566 Y145.973 E10.1751
G1 X179.018 Y148.701 E10.28158
G1 X178.56 Y151.383 E10.38571
G1 X178.18 Y154.051 E10.48884
G1 X177.864 Y156.825 E10.59569
G1 X177.629 Y159.597 E10.70215
G1 X177.477 Y162.282 E10.80507
G1 X177.399 Y165.057 E10.91131
G1 X177.393 Y166.188 E10.95459
G1 X177.387 Y166.419 E10.96344
G1 X177.322 Y166.956 E10.98414
G1 X177.134 Y167.775 E11.01629
G1 X176.971 Y168.346 E11.03902
G1 X176.8 Y168.794 E11.05737
G1 X176.453 Y169.343 E11.08223
G1 X174.643 Y171.646 E11.19432
G1 X173.027 Y173.829 E11.29826
G1 X171.451 Y176.085 E11.40358
G1 X169.931 Y178.399 E11.50953
G1 X168.49 Y180.738 E11.61467
G1 X167.101 Y183.14 E11.72086
G1 X165.815 Y185.516 E11.82425
G1 X165.18 Y186.782 E11.87845
G1 X164.653 Y187.804 E11.92246
G1 X164.399 Y188.21 E11.94078
G1 X164.081 Y188.568 E11.95911
G1 X163.707 Y188.868 E11.97746
G1 X163.289 Y189.103 E11.99581
G1 X162.838 Y189.264 E12.01413
G1 X162.367 Y189.348 E12.03244
G1 X161.887 Y189.353 E12.05081
G1 X161.414 Y189.278 E12.06914
G1 X160.96 Y189.126 E12.08746
G1 X160.537 Y188.9 E12.10582
G1 X160.125 Y188.578 E12.12583
G1 X159.839 Y188.302 E12.14104
G1 X157.811 Y186.384 E12.24786
G1 X155.766 Y184.558 E12.35278
G1 X153.673 Y182.792 E12.45758
G1 X151.528 Y181.084 E12.56252
G1 X149.301 Y179.412 E12.66909
G1 X147.095 Y177.851 E12.77251
G1 X144.785 Y176.313 E12.87871
G1 X144.247 Y175.971 E12.90311
G1 X143.52 Y175.444 E12.93747
G1 X143.088 Y175.03 E12.96037
G1 X137.104 Y169.041 E13.28437
G1 X136.623 Y168.544 E13.31084
G1 X136.317 Y168.17 E13.32933
G1 X135.719 Y167.297 E13.36983
G1 X134.136 Y165.059 E13.47473
G1 X132.493 Y162.87 E13.57948
G1 X130.767 Y160.7 E13.68559
G1 X129.001 Y158.605 E13.79045
G1 X127.202 Y156.588 E13.89388
G1 X125.26 Y154.531 E14.00214
G1 X123.376 Y152.646 E14.10413
G1 X121.35 Y150.729 E14.21087
G1 X119.284 Y148.885 E14.31685
G1 X117.211 Y147.136 E14.42065
G1 X115.042 Y145.409 E14.52675
G1 X112.879 Y143.783 E14.63031
G1 X109.929 Y141.714 E14.7682
G1 X109.396 Y141.303 E14.79396
G1 X108.685 Y140.618 E14.83174
G1 X102.986 Y134.926 E15.13999
G1 X102.431 Y134.353 E15.17052
G1 X101.783 Y133.65 E15.20711
G1 X99.9 Y131.659 E15.31198
G1 X97.942 Y129.704 E15.41787
G1 X95.953 Y127.825 E15.52258
G1 X93.904 Y126 E15.62759
G1 X91.788 Y124.217 E15.73348
G1 X89.662 Y122.526 E15.83744
G1 X87.451 Y120.869 E15.94318
G1 X85.212 Y119.287 E16.0481
G1 X82.925 Y117.766 E16.15321
G1 X80.582 Y116.301 E16.25896
G1 X78.229 Y114.922 E16.36333
G1 X75.822 Y113.6 E16.46843
G1 X73.366 Y112.342 E16.57403
G1 X70.887 Y111.159 E16.67915
G1 X69.261 Y110.451 E16.74702
G1 X69.157 Y110.395 E16.75154
G1 X67.977 Y109.872 E16.80093
G1 X67.557 Y109.642 E16.81926
G1 X67.153 Y109.32 E16.83903
G1 X66.347 Y108.547 E16.88177
G1 X65.504 Y107.707 E16.92731
G1 X65.017 Y107.207 E16.95402
G1 X64.62 Y106.694 E16.97885
G1 X64.04 Y105.739 E17.0216
G1 X63.733 Y105.218 E17.04475
G1 X62.265 Y102.882 E17.15033
G1 X60.736 Y100.592 E17.25571
G1 X59.141 Y98.347 E17.3611
G1 X57.503 Y96.173 E17.46527
G1 X55.78 Y94.016 E17.57092
G1 X53.989 Y91.9 E17.67701
G1 X52.179 Y89.88 E17.78081
G1 X50.292 Y87.888 E17.88581
G1 X48.351 Y85.956 E17.99062
G1 X46.306 Y84.029 E18.09815
G1 X44.315 Y82.258 E18.20013
G1 X42.176 Y80.46 E18.30707
G1 X40.023 Y78.753 E18.41221
G1 X37.848 Y77.126 E18.51616
G1 X35.571 Y75.521 E18.62277
G1 X33.297 Y74.012 E18.72722
G1 X29.757 Y71.839 E18.88618
G1 X29.289 Y71.481 E18.90873
G1 X28.894 Y71.1 E18.92973
G1 X27.668 Y69.868 E18.99625
G1 X27.177 Y69.361 E19.02326
G1 X26.873 Y68.99 E19.04161
G1 X26.636 Y68.574 E19.05993
G1 X26.464 Y68.103 E19.07912
G1 X26.108 Y66.77 E19.13192
G1 X25.352 Y64.085 E19.23867
G1 X24.547 Y61.508 E19.34199
G1 X23.653 Y58.905 E19.44732
G1 X22.681 Y56.32 E19.55301
G1 X21.651 Y53.797 E19.6573
G1 X20.537 Y51.276 E19.76278
G1 X19.34 Y48.757 E19.86951
G1 X18.261 Y46.653 E19.96
G1 X17.94 Y45.913 E19.99087
G1 X17.841 Y45.444 E20.00921
G1 X17.822 Y44.965 E20.02756
G1 X17.882 Y44.49 E20.04588
G1 X18.02 Y44.031 E20.06422
G1 X18.232 Y43.602 E20.08253
G1 X18.513 Y43.213 E20.1009
G1 X18.855 Y42.877 E20.11925
G1 X19.379 Y42.53 E20.1433
G1 X20.285 Y42.065 E20.18227
G1 X21.071 Y41.674 E20.21587
G0 F1285.7 X21.25 Y41.975
G1 F900 X23.688 Y40.674 E20.32162
G1 X26.069 Y39.316 E20.42652
G1 X28.451 Y37.869 E20.53318
G1 X30.729 Y36.394 E20.63704
G1 X33.005 Y34.825 E20.74283
G1 X35.272 Y33.169 E20.85027
G1 X37.294 Y31.602 E20.94817
G1 X38.04 Y31.009 E20.98464
G1 X38.415 Y30.762 E21.00182
G1 X38.998 Y30.531 E21.02582
G1 X39.281 Y30.451 E21.03707
G1 X40 Y30.268 E21.06547
G1 X40.279 Y30.205 E21.07641
G1 X40.776 Y30.144 E21.09557
G1 X41.451 Y30.128 E21.12141
G1 X43.058 Y30.113 E21.18292
G1 X45.778 Y30.011 E21.28708
G1 X48.562 Y29.828 E21.39385
G1 X51.307 Y29.568 E21.49937
G1 X54.041 Y29.232 E21.60479
G1 X56.738 Y28.823 E21.70918
G1 X59.477 Y28.328 E21.8157
G1 X62.161 Y27.763 E21.92067
G1 X64.833 Y27.123 E22.02582
G1 X67.513 Y26.399 E22.13206
G1 X70.157 Y25.604 E22.23772
G1 X72.783 Y24.733 E22.34359
G1 X75.348 Y23.801 E22.44804
G1 X77.935 Y22.777 E22.55451
G1 X80.443 Y21.701 E22.65895
G1 X82.955 Y20.539 E22.76487
G1 X85.46 Y19.292 E22.87196
G1 X87.855 Y18.013 E22.97587
G1 X89.4 Y17.127 E23.04402
G1 X90.261 Y16.644 E23.0818
G1 X90.67 Y16.46 E23.09897
G1 X91.06 Y16.359 E23.11439
G1 X91.633 Y16.259 E23.13665
G1 X92.231 Y16.159 E23.15985
G1 X92.872 Y16.134 E23.1844
G1 X93.033 Y16.149 E23.19059
G1 X94.576 Y16.317 E23.24998
G1 X95.891 Y16.448 E23.30056
G1 X96.455 Y16.512 E23.32228
G1 X99.206 Y16.746 E23.42794
G1 X101.959 Y16.902 E23.53347
G1 X104.713 Y16.981 E23.6389
G1 X107.468 Y16.981 E23.74434
G1 X110.222 Y16.904 E23.84977
G1 X112.967 Y16.748 E23.95499
G1 X116.726 Y16.411 E24.09942
G1 X117.35 Y16.343 E24.12344
G1 X117.799 Y16.334 E24.14063
G1 X118.242 Y16.405 E24.1578
G1 X118.666 Y16.553 E24.17499
G1 X119.057 Y16.774 E24.19217
G1 X119.38 Y17.039 E24.20816
G1 X119.913 Y17.555 E24.23655
G1 X189.668 Y87.309 E28.01176
G1 X190.138 Y87.791 E28.03752
G1 X190.421 Y88.139 E28.05469
G1 X190.639 Y88.532 E28.07188
G1 X190.783 Y88.957 E28.08906
G1 X190.85 Y89.401 E28.10624
G1 X190.841 Y89.82 E28.12228
G1 X190.732 Y90.848 E28.16184
G1 X190.483 Y93.559 E28.26603
G1 X190.305 Y96.365 E28.37363
G1 X190.211 Y99.065 E28.47702
G1 X190.192 Y101.876 E28.5846
G1 X190.25 Y104.578 E28.68802
G1 X190.39 Y107.384 E28.79554
G1 X190.602 Y110.089 E28.89938
G1 X190.824 Y112.232 E28.98183
G1 X190.98 Y113.599 E29.03448
G1 X191.042 Y114.192 E29.0573
G1 X191.054 Y114.356 E29.06359
G1 X191.028 Y114.883 E29.08379
G1 X190.904 Y115.675 E29.11446
G1 X190.695 Y116.581 E29.15005
G1 X190.521 Y116.949 E29.16562
G1 X190.081 Y117.711 E29.1993
G1 X188.737 Y120.118 E29.3048
G1 X187.459 Y122.569 E29.41058
G1 X186.251 Y125.054 E29.51632
G1 X185.127 Y127.542 E29.62081
G1 X184.064 Y130.083 E29.72621
G1 X183.063 Y132.68 E29.83273
G1 X182.148 Y135.277 E29.9381
G1 X181.308 Y137.889 E30.0431
G1 X180.535 Y140.55 E30.14915
G1 X179.846 Y143.199 E30.2539
G1 X179.216 Y145.932 E30.36123
G1 X178.678 Y148.608 E30.46569
G1 X178.216 Y151.314 E30.57074
G1 X177.829 Y154.041 E30.67615
G1 X177.515 Y156.794 E30.78219
G1 X177.283 Y159.53 E30.88727
G1 X177.127 Y162.287 E30.99295
G1 X177.049 Y165.045 E31.09854
G1 X177.043 Y166.179 E31.14194
G1 X176.98 Y166.882 E31.16895
G1 X176.793 Y167.693 E31.2008
G1 X176.635 Y168.249 E31.22292
G1 X176.472 Y168.667 E31.24009
G1 X176.18 Y169.124 E31.26084
G1 X174.367 Y171.431 E31.37313
G1 X172.739 Y173.631 E31.47787
G1 X171.141 Y175.919 E31.58467
G1 X169.658 Y178.176 E31.68802
G1 X168.186 Y180.565 E31.79541
G1 X166.812 Y182.942 E31.90048
G1 X165.502 Y185.362 E32.00579
G1 X164.869 Y186.621 E32.05972
G1 X164.342 Y187.643 E32.10373
G1 X164.102 Y188.022 E32.12089
G1 X163.798 Y188.353 E32.13809
G1 X163.44 Y188.625 E32.1553
G1 X163.04 Y188.829 E32.17248
G1 X162.611 Y188.958 E32.18963
G1 X162.165 Y189.01 E32.20681
G1 X161.716 Y188.982 E32.22403
G1 X161.28 Y188.875 E32.24121
G1 X160.87 Y188.692 E32.25839
G1 X160.409 Y188.363 E32.28007
G1 X160.079 Y188.048 E32.29752
G1 X158.037 Y186.117 E32.40508
G1 X155.997 Y184.295 E32.50975
G1 X153.886 Y182.514 E32.61545
G1 X151.729 Y180.797 E32.72096
G1 X149.543 Y179.155 E32.82559
G1 X147.256 Y177.537 E32.9328
G1 X145.001 Y176.035 E33.03649
G1 X144.44 Y175.679 E33.06191
G1 X143.758 Y175.188 E33.09407
G1 X143.333 Y174.78 E33.11662
G1 X137.356 Y168.798 E33.44024
G1 X136.875 Y168.301 E33.46671
G1 X136.606 Y167.972 E33.48297
G1 X136.029 Y167.13 E33.52203
G1 X134.405 Y164.833 E33.62969
G1 X132.767 Y162.651 E33.7341
G1 X131.046 Y160.488 E33.83989
G1 X129.264 Y158.374 E33.9457
G1 X127.428 Y156.316 E34.05124
G1 X125.549 Y154.326 E34.15598
G1 X123.58 Y152.356 E34.26257
G1 X121.615 Y150.497 E34.36609
G1 X119.515 Y148.622 E34.47383
G1 X117.423 Y146.857 E34.57858
G1 X115.283 Y145.153 E34.68327
G1 X113.055 Y143.479 E34.78992
G1 X110.156 Y141.445 E34.92544
G1 X109.639 Y141.051 E34.95032
G1 X108.933 Y140.371 E34.98783
G1 X103.238 Y134.682 E35.29589
G1 X102.688 Y134.115 E35.32612
G1 X102.062 Y133.436 E35.36146
G1 X100.137 Y131.401 E35.46867
G1 X98.2 Y129.467 E35.57342
G1 X96.178 Y127.558 E35.67984
G1 X94.132 Y125.734 E35.78473
G1 X92.004 Y123.942 E35.8912
G1 X89.879 Y122.252 E35.99511
G1 X87.652 Y120.583 E36.10161
G1 X85.421 Y119.006 E36.20616
G1 X83.093 Y117.458 E36.31315
G1 X80.775 Y116.009 E36.41777
G1 X78.39 Y114.61 E36.52359
G1 X75.98 Y113.287 E36.6288
G1 X73.548 Y112.041 E36.73337
G1 X71.032 Y110.84 E36.84007
G1 X69.4 Y110.13 E36.90818
G1 X69.301 Y110.076 E36.91249
G1 X68.119 Y109.552 E36.96197
G1 X67.726 Y109.335 E36.97915
G1 X67.395 Y109.067 E36.99545
G1 X66.594 Y108.299 E37.03792
G1 X65.755 Y107.463 E37.08325
G1 X65.268 Y106.963 E37.10996
G1 X64.919 Y106.512 E37.13178
G1 X64.341 Y105.561 E37.17437
G1 X64.018 Y105.013 E37.19871
G1 X62.578 Y102.72 E37.30234
G1 X61.02 Y100.388 E37.40967
G1 X59.426 Y98.143 E37.51503
G1 X57.776 Y95.953 E37.61997
G1 X56.037 Y93.778 E37.72654
G1 X54.292 Y91.715 E37.82995
G1 X52.428 Y89.635 E37.93683
G1 X50.508 Y87.608 E38.04368
G1 X48.605 Y85.714 E38.14643
G1 X46.565 Y83.791 E38.25372
G1 X44.517 Y81.97 E38.3586
G1 X42.408 Y80.198 E38.46401
G1 X40.215 Y78.459 E38.57112
G1 X38.049 Y76.84 E38.67461
G1 X35.773 Y75.235 E38.78119
G1 X33.493 Y73.722 E38.88591
G1 X29.94 Y71.541 E39.04546
G1 X29.529 Y71.226 E39.06527
G1 X29.14 Y70.851 E39.08595
G1 X27.919 Y69.625 E39.15217
G1 X27.428 Y69.118 E39.17918
G1 X27.146 Y68.769 E39.19635
G1 X26.93 Y68.375 E39.21354
G1 X26.802 Y68.013 E39.22824
G1 X26.446 Y66.68 E39.28104
G1 X25.689 Y63.99 E39.38798
G1 X24.881 Y61.4 E39.49181
G1 X23.98 Y58.779 E39.59788
G1 X23.013 Y56.208 E39.703
G1 X21.97 Y53.652 E39.80865
G1 X20.841 Y51.097 E39.91554
G1 X19.681 Y48.657 E40.01894
G1 X18.574 Y46.498 E40.11179
G1 X18.267 Y45.785 E40.1415
G1 X18.182 Y45.344 E40.15869
G1 X18.176 Y44.895 E40.17587
G1 X18.25 Y44.452 E40.19306
G1 X18.401 Y44.03 E40.21021
G1 X18.625 Y43.64 E40.22742
G1 X18.914 Y43.297 E40.24459
G1 X19.259 Y43.01 E40.26176
G1 X19.539 Y42.842 E40.27426
G1 X20.441 Y42.378 E40.31308
G1 X21.25 Y41.975 E40.34766
G0 F1285.7 X21.413 Y42.284
G1 F900 X23.855 Y40.982 E40.45357
G1 X26.254 Y39.613 E40.55928
G1 X28.613 Y38.18 E40.66491
G1 X30.948 Y36.668 E40.77136
G1 X33.225 Y35.099 E40.87719
G1 X35.457 Y33.468 E40.98298
G1 X37.512 Y31.876 E41.08246
G1 X38.258 Y31.283 E41.11893
G1 X38.607 Y31.057 E41.13485
G1 X39.093 Y30.868 E41.1548
G1 X39.368 Y30.79 E41.16574
G1 X40.077 Y30.609 E41.19374
G1 X40.784 Y30.494 E41.22116
G1 X41.454 Y30.478 E41.2468
G1 X43.075 Y30.463 E41.30884
G1 X45.814 Y30.36 E41.41374
G1 X48.583 Y30.178 E41.51993
G1 X51.313 Y29.92 E41.62487
G1 X54.097 Y29.578 E41.73222
G1 X56.818 Y29.164 E41.83755
G1 X59.542 Y28.672 E41.94348
G1 X62.238 Y28.105 E42.04891
G1 X64.905 Y27.466 E42.15387
G1 X67.605 Y26.737 E42.26089
G1 X70.258 Y25.939 E42.36692
G1 X72.901 Y25.063 E42.47347
G1 X75.497 Y24.119 E42.57918
G1 X78.03 Y23.116 E42.68344
G1 X80.616 Y22.007 E42.79113
G1 X83.115 Y20.85 E42.89651
G1 X85.578 Y19.625 E43.00179
G1 X88.024 Y18.319 E43.1079
G1 X89.571 Y17.432 E43.17615
G1 X90.432 Y16.949 E43.21393
G1 X90.813 Y16.781 E43.22986
G1 X91.12 Y16.704 E43.24197
G1 X91.69 Y16.604 E43.26412
G1 X92.288 Y16.504 E43.28732
G1 X92.84 Y16.483 E43.30846
G1 X92.995 Y16.497 E43.31442
G1 X94.563 Y16.668 E43.37478
G1 X95.852 Y16.796 E43.42435
G1 X96.421 Y16.86 E43.44627
G1 X99.159 Y17.094 E43.55143
G1 X101.964 Y17.252 E43.65895
G1 X104.703 Y17.331 E43.76381
G1 X107.478 Y17.331 E43.87001
G1 X110.217 Y17.254 E43.97487
G1 X113.02 Y17.096 E44.08231
G1 X116.74 Y16.762 E44.22525
G1 X117.388 Y16.691 E44.25019
G1 X117.805 Y16.686 E44.26615
G1 X118.215 Y16.76 E44.2821
G1 X118.603 Y16.911 E44.29803
G1 X119.137 Y17.29 E44.32309
