;FLAVOR:Marlin
;TIME:23372
;Filament used: 23.8607m
;Layer height: 0.3
;MINX:5.677
;MINY:19.711
;MINZ:0.26
;MAXX:195.677
;MAXY:175.927
;MAXZ:23.66
;Generated with Cura_SteamEngine 4.9.1
M82 ;absolute extrusion mode
;Begin Start Gcode for Dagoma DiscoEasy 200
;Sliced: 29-06-2021 11:59:03
;Initial extruder: 0

G90 ;Absolute positioning
M106 S255 ;Fan on full
G28 X Y ;Home stop X Y
G1 X100 ;Centre back during cooldown in case of oozing
M109 R90 ;Cooldown in case too hot
G28 ;Centre
G29 ;Auto-level
M104 S205 ;Pre-heat
M107 ;Fan off
G0 X100 Y5 Z0.5 ;Front centre for degunk
M109 S205 ;Wait for initial temp
M83 ;E Relative
G1 E10 F200 ;Degunk
G1 E-3 F5000 ;Retract
G0 Z3 ;Withdraw
M82 ;E absolute
G92 E0 ;E reset
G1 F6000 ;Set feedrate

;Finish Start Gcode for Dagoma DiscoEasy 200

G92 E0
G92 E0
G1 F3000 E-3.5
;LAYER_COUNT:79
;LAYER:0
M107
G0 F1285.7 X36.741 Y25.466 Z0.26
;TYPE:SKIRT
G1 F3000 E0
G1 F900 X37.083 Y25.027 E0.0213
G1 X37.484 Y24.642 E0.04257
G1 X37.937 Y24.318 E0.06388
G1 X38.431 Y24.063 E0.08516
G1 X38.956 Y23.88 E0.10644
G1 X39.503 Y23.775 E0.12775
G1 X39.922 Y23.748 E0.14382
G1 X40.594 Y23.742 E0.16954
G1 X58.739 Y23.823 E0.86395
G1 X61.507 Y23.796 E0.96988
G1 X64.188 Y23.694 E1.07256
G1 X66.928 Y23.512 E1.17765
G1 X69.639 Y23.255 E1.28186
G1 X72.328 Y22.924 E1.38554
G1 X75.01 Y22.515 E1.48937
G1 X77.692 Y22.029 E1.59368
G1 X80.365 Y21.466 E1.69822
G1 X82.978 Y20.839 E1.80105
G1 X85.618 Y20.124 E1.90573
G1 X85.786 Y20.074 E1.91243
G1 X86.525 Y19.867 E1.9418
G1 X87.07 Y19.755 E1.9631
G1 X87.524 Y19.723 E1.98051
G1 X88.604 Y19.711 E2.02185
G1 X91.691 Y19.734 E2.13999
G1 X92.37 Y19.748 E2.16598
G1 X92.696 Y19.768 E2.17848
G1 X93.373 Y19.898 E2.20486
G1 X94.133 Y20.115 E2.23511
G1 X95.285 Y20.459 E2.28112
G1 X97.925 Y21.166 E2.38571
G1 X100.596 Y21.804 E2.4908
G1 X103.235 Y22.351 E2.59394
G1 X105.894 Y22.827 E2.69732
G1 X108.579 Y23.229 E2.80122
G1 X111.312 Y23.56 E2.90657
G1 X113.99 Y23.808 E3.0095
G1 X116.69 Y23.98 E3.11303
G1 X119.445 Y24.079 E3.21853
G1 X121.099 Y24.1 E3.28184
G1 X139.34 Y24.182 E3.97992
G1 X140.015 Y24.196 E4.00576
G1 X140.569 Y24.247 E4.02705
G1 X141.11 Y24.378 E4.04835
G1 X141.627 Y24.584 E4.06965
G1 X142.109 Y24.862 E4.09094
G1 X142.546 Y25.207 E4.11225
G1 X142.929 Y25.61 E4.13353
G1 X143.251 Y26.064 E4.15483
G1 X143.504 Y26.56 E4.17613
G1 X143.711 Y27.198 E4.2018
G1 X143.789 Y27.542 E4.2153
G1 X144.243 Y29.678 E4.29887
G1 X144.882 Y32.324 E4.40304
G1 X145.604 Y34.974 E4.50816
G1 X146.397 Y37.591 E4.6128
G1 X147.245 Y40.13 E4.71525
G1 X148.185 Y42.702 E4.82004
G1 X149.198 Y45.245 E4.9248
G1 X150.265 Y47.717 E5.02784
G1 X151.412 Y50.186 E5.13202
G1 X152.65 Y52.659 E5.23786
G1 X153.91 Y55.011 E5.33997
G1 X154.968 Y56.871 E5.42186
G1 X158.305 Y62.593 E5.67536
G1 X159.739 Y64.974 E5.78173
G1 X161.205 Y67.261 E5.88569
G1 X162.726 Y69.489 E5.98893
G1 X164.35 Y71.732 E6.0949
G1 X165.983 Y73.857 E6.19747
G1 X167.701 Y75.968 E6.30163
G1 X169.471 Y78.019 E6.4053
G1 X171.043 Y79.748 E6.49473
G1 X171.509 Y80.249 E6.52092
G1 X171.913 Y80.763 E6.54594
G1 X173.044 Y82.489 E6.62491
G1 X173.301 Y82.905 E6.64362
G1 X174.241 Y84.463 E6.71326
G1 X174.606 Y85.089 E6.74099
G1 X174.851 Y85.589 E6.7623
G1 X174.958 Y85.889 E6.77448
G1 X175.215 Y86.715 E6.80759
G1 X176.081 Y89.36 E6.9141
G1 X176.998 Y91.914 E7.01795
G1 X177.987 Y94.442 E7.12183
G1 X179.054 Y96.956 E7.22635
G1 X180.174 Y99.402 E7.3293
G1 X181.382 Y101.854 E7.43391
G1 X182.659 Y104.27 E7.53849
G1 X183.966 Y106.585 E7.64023
G1 X194.81 Y125.175 E8.46385
G1 X195.186 Y125.843 E8.49319
G1 X195.423 Y126.347 E8.5145
G1 X195.586 Y126.879 E8.5358
G1 X195.671 Y127.428 E8.55706
G1 X195.677 Y127.985 E8.57837
G1 X195.602 Y128.536 E8.59965
G1 X195.45 Y129.071 E8.62094
G1 X195.222 Y129.579 E8.64225
G1 X194.924 Y130.049 E8.66355
G1 X194.562 Y130.471 E8.68482
G1 X194.143 Y130.837 E8.70611
G1 X193.676 Y131.14 E8.72742
G1 X193.17 Y131.372 E8.74872
G1 X192.636 Y131.53 E8.77003
G1 X191.865 Y131.619 E8.79973
G1 X191.171 Y131.629 E8.8263
G1 X188.481 Y131.706 E8.92928
G1 X185.732 Y131.863 E9.03466
G1 X183.03 Y132.094 E9.13844
G1 X180.327 Y132.403 E9.24255
G1 X177.644 Y132.786 E9.34627
G1 X174.959 Y133.248 E9.45054
G1 X172.28 Y133.787 E9.55511
G1 X169.692 Y134.383 E9.65675
G1 X166.99 Y135.087 E9.76361
G1 X164.401 Y135.842 E9.86681
G1 X161.82 Y136.673 E9.97058
G1 X159.267 Y137.576 E10.07421
G1 X156.706 Y138.565 E10.17928
G1 X154.211 Y139.61 E10.28279
G1 X151.743 Y140.725 E10.38644
G1 X149.286 Y141.922 E10.49103
G1 X146.862 Y143.188 E10.59568
G1 X144.511 Y144.502 E10.69875
G1 X142.15 Y145.91 E10.80396
G1 X139.883 Y147.351 E10.90676
G1 X137.616 Y148.884 E11.01149
G1 X135.432 Y150.452 E11.11438
G1 X133.267 Y152.102 E11.21855
G1 X131.125 Y153.83 E11.32387
G1 X129.059 Y155.599 E11.42796
G1 X127.061 Y157.407 E11.53108
G1 X125.093 Y159.296 E11.63548
G1 X123.162 Y161.254 E11.74072
G1 X121.342 Y163.207 E11.84288
G1 X119.531 Y165.266 E11.94782
G1 X117.809 Y167.336 E12.05087
G1 X116.114 Y169.498 E12.156
G1 X114.487 Y171.698 E12.26072
G1 X113.122 Y173.649 E12.35184
G1 X112.734 Y174.22 E12.37826
G1 X112.389 Y174.656 E12.39954
G1 X111.985 Y175.039 E12.42084
G1 X111.531 Y175.36 E12.44212
G1 X111.035 Y175.612 E12.46341
G1 X110.508 Y175.791 E12.48471
G1 X109.961 Y175.893 E12.50601
G1 X109.501 Y175.92 E12.52364
G1 X108.94 Y175.927 E12.54511
G1 X10.185 Y175.927 E16.32442
G1 X9.495 Y175.917 E16.35083
G1 X8.941 Y175.869 E16.37211
G1 X8.399 Y175.742 E16.39341
G1 X7.881 Y175.539 E16.4147
G1 X7.397 Y175.263 E16.43602
G1 X6.958 Y174.922 E16.4573
G1 X6.572 Y174.521 E16.4786
G1 X6.248 Y174.068 E16.49991
G1 X5.992 Y173.574 E16.5212
G1 X5.809 Y173.049 E16.54248
G1 X5.703 Y172.503 E16.56377
G1 X5.677 Y171.947 E16.58507
G1 X5.731 Y171.393 E16.60637
G1 X5.863 Y170.853 E16.62764
G1 X6.067 Y170.345 E16.64859
G1 X6.183 Y170.121 E16.65825
G1 X6.516 Y169.522 E16.68447
G1 X19.325 Y147.108 E17.67243
G1 X20.638 Y144.732 E17.77632
G1 X21.887 Y142.314 E17.88048
G1 X23.067 Y139.864 E17.98454
G1 X24.178 Y137.376 E18.08882
G1 X25.22 Y134.859 E18.19307
G1 X26.185 Y132.317 E18.29713
G1 X27.075 Y129.764 E18.4006
G1 X27.892 Y127.186 E18.50409
G1 X28.021 Y126.738 E18.52193
G1 X28.31 Y125.785 E18.56004
G1 X28.614 Y125.058 E18.5902
G1 X28.692 Y124.917 E18.59637
G1 X29.009 Y124.364 E18.62076
G1 X30.286 Y122.195 E18.71708
G1 X31.193 Y120.705 E18.78384
G1 X31.577 Y120.092 E18.81152
G1 X32.959 Y117.745 E18.91575
G1 X34.278 Y115.351 E19.02036
G1 X35.517 Y112.946 E19.12389
G1 X36.693 Y110.494 E19.22796
G1 X37.809 Y107.988 E19.33295
G1 X38.843 Y105.484 E19.43662
G1 X39.804 Y102.94 E19.54069
G1 X40.703 Y100.354 E19.64547
G1 X41.507 Y97.803 E19.74783
G1 X42.258 Y95.169 E19.85265
G1 X42.93 Y92.529 E19.9569
G1 X43.529 Y89.871 E20.06117
G1 X44.044 Y87.222 E20.16445
G1 X44.492 Y84.521 E20.26922
G1 X44.857 Y81.859 E20.37205
G1 X45.152 Y79.132 E20.47702
G1 X45.368 Y76.422 E20.58106
G1 X45.507 Y73.708 E20.68506
G1 X45.57 Y70.996 E20.78887
G1 X45.555 Y68.28 E20.89282
G1 X45.464 Y65.568 E20.99666
G1 X45.294 Y62.817 E21.10214
G1 X45.054 Y60.154 E21.20447
G1 X44.729 Y57.422 E21.30976
G1 X44.335 Y54.76 E21.41274
G1 X43.858 Y52.059 E21.5177
G1 X43.312 Y49.412 E21.62114
G1 X42.698 Y46.804 E21.72367
G1 X41.987 Y44.133 E21.82945
G1 X41.21 Y41.507 E21.93425
G1 X40.377 Y38.965 E22.03662
G1 X39.444 Y36.365 E22.14234
G1 X38.463 Y33.86 E22.24529
G1 X37.399 Y31.353 E22.34952
G1 X36.615 Y29.641 E22.42158
G1 X36.415 Y29.188 E22.44053
G1 X36.228 Y28.664 E22.46182
G1 X36.117 Y28.119 E22.4831
G1 X36.085 Y27.563 E22.50442
G1 X36.134 Y27.009 E22.5257
G1 X36.261 Y26.467 E22.547
G1 X36.465 Y25.95 E22.56827
G1 X36.741 Y25.466 E22.5896
G0 F1285.7 X37.131 Y25.521
G1 F900 X37.478 Y25.12 E22.60989
G1 X37.882 Y24.776 E22.6302
G1 X38.333 Y24.496 E22.65051
G1 X38.821 Y24.287 E22.67083
G1 X39.335 Y24.154 E22.69115
G1 X39.926 Y24.098 E22.71387
G1 X40.593 Y24.092 E22.73939
G1 X58.741 Y24.173 E23.43391
G1 X61.523 Y24.146 E23.54039
G1 X64.225 Y24.043 E23.64386
G1 X66.949 Y23.862 E23.74834
G1 X69.645 Y23.607 E23.85198
G1 X72.384 Y23.269 E23.95759
G1 X75.096 Y22.856 E24.06257
G1 X77.752 Y22.374 E24.16588
G1 X80.417 Y21.813 E24.2701
G1 X83.074 Y21.175 E24.37467
G1 X85.71 Y20.461 E24.47919
G1 X85.88 Y20.411 E24.48597
G1 X86.619 Y20.204 E24.51534
G1 X87.14 Y20.099 E24.53568
G1 X87.528 Y20.073 E24.55056
G1 X88.602 Y20.061 E24.59166
G1 X91.684 Y20.084 E24.70961
G1 X92.363 Y20.098 E24.7356
G1 X92.661 Y20.116 E24.74703
G1 X93.277 Y20.234 E24.77103
G1 X94.033 Y20.45 E24.80112
G1 X95.204 Y20.799 E24.84788
G1 X97.821 Y21.501 E24.95158
G1 X100.519 Y22.145 E25.05773
G1 X103.164 Y22.693 E25.1611
G1 X105.856 Y23.175 E25.26576
G1 X108.554 Y23.579 E25.37016
G1 X111.241 Y23.904 E25.47374
G1 X113.967 Y24.157 E25.57851
G1 X116.691 Y24.331 E25.68297
G1 X119.429 Y24.428 E25.78782
G1 X121.095 Y24.45 E25.85158
G1 X139.333 Y24.532 E26.54955
G1 X140.008 Y24.546 E26.57539
G1 X140.536 Y24.597 E26.59569
G1 X141.051 Y24.726 E26.616
G1 X141.54 Y24.932 E26.63631
G1 X141.993 Y25.208 E26.65661
G1 X142.399 Y25.55 E26.67693
G1 X142.75 Y25.948 E26.69723
G1 X143.036 Y26.395 E26.71754
G1 X143.253 Y26.879 E26.73784
G1 X143.434 Y27.553 E26.76455
G1 X143.906 Y29.772 E26.85137
G1 X144.545 Y32.422 E26.95569
G1 X145.263 Y35.057 E27.06021
G1 X146.065 Y37.703 E27.16602
G1 X146.916 Y40.251 E27.26882
G1 X147.855 Y42.822 E27.37357
G1 X148.866 Y45.358 E27.47805
G1 X149.965 Y47.905 E27.58421
G1 X151.088 Y50.32 E27.68613
G1 X152.327 Y52.797 E27.79212
G1 X153.611 Y55.192 E27.89612
G1 X154.645 Y57.011 E27.97619
G1 X158.021 Y62.801 E28.23269
G1 X159.441 Y65.158 E28.338
G1 X160.902 Y67.437 E28.4416
G1 X162.462 Y69.723 E28.54751
G1 X164.042 Y71.905 E28.65061
G1 X165.715 Y74.081 E28.75565
G1 X167.445 Y76.207 E28.86054
G1 X169.19 Y78.229 E28.96276
G1 X170.784 Y79.983 E29.05346
G1 X171.253 Y80.487 E29.0798
G1 X171.62 Y80.955 E29.10256
G1 X172.746 Y82.673 E29.18118
G1 X173.001 Y83.086 E29.19975
G1 X173.938 Y84.639 E29.26916
G1 X174.303 Y85.265 E29.29689
G1 X174.624 Y85.993 E29.32734
G1 X174.897 Y86.87 E29.36249
G1 X175.744 Y89.457 E29.46667
G1 X176.671 Y92.037 E29.57158
G1 X177.659 Y94.564 E29.67542
G1 X178.734 Y97.096 E29.78069
G1 X179.868 Y99.573 E29.88494
G1 X181.079 Y102.03 E29.98977
G1 X182.346 Y104.428 E30.09357
G1 X183.664 Y106.761 E30.19611
G1 X194.505 Y125.347 E31.01954
G1 X194.881 Y126.015 E31.04888
G1 X195.106 Y126.496 E31.0692
G1 X195.256 Y127.005 E31.08951
G1 X195.328 Y127.53 E31.10979
G1 X195.32 Y128.061 E31.13011
G1 X195.232 Y128.584 E31.15041
G1 X195.067 Y129.089 E31.17074
G1 X194.829 Y129.563 E31.19104
G1 X194.521 Y129.995 E31.21134
G1 X194.153 Y130.377 E31.23164
G1 X193.731 Y130.699 E31.25195
G1 X193.265 Y130.954 E31.27228
G1 X192.767 Y131.136 E31.29257
G1 X192.247 Y131.242 E31.31288
G1 X191.86 Y131.269 E31.32773
G1 X191.196 Y131.279 E31.35314
G1 X188.417 Y131.358 E31.45954
G1 X185.717 Y131.513 E31.56304
G1 X182.996 Y131.746 E31.66755
G1 X180.307 Y132.053 E31.77112
G1 X177.569 Y132.444 E31.87697
G1 X174.906 Y132.902 E31.98038
G1 X172.209 Y133.444 E32.08565
G1 X169.586 Y134.048 E32.18866
G1 X166.913 Y134.745 E32.29438
G1 X164.306 Y135.505 E32.3983
G1 X161.696 Y136.345 E32.50323
G1 X159.136 Y137.251 E32.60715
G1 X156.587 Y138.235 E32.71172
G1 X154.074 Y139.288 E32.81599
G1 X151.589 Y140.411 E32.92035
G1 X149.142 Y141.603 E33.02451
G1 X146.7 Y142.878 E33.12994
G1 X144.32 Y144.209 E33.2343
G1 X141.995 Y145.595 E33.33788
G1 X139.668 Y147.074 E33.4434
G1 X137.426 Y148.59 E33.54698
G1 X135.209 Y150.182 E33.65143
G1 X133.039 Y151.835 E33.75582
G1 X130.908 Y153.555 E33.86062
G1 X128.824 Y155.339 E33.96561
G1 X126.832 Y157.142 E34.06843
G1 X124.848 Y159.045 E34.17364
G1 X122.921 Y161 E34.27869
G1 X121.071 Y162.985 E34.38253
G1 X119.265 Y165.038 E34.48717
G1 X117.527 Y167.128 E34.5912
G1 X115.837 Y169.284 E34.69604
G1 X114.219 Y171.471 E34.80015
G1 X112.833 Y173.452 E34.89267
G1 X112.445 Y174.023 E34.91909
G1 X112.114 Y174.438 E34.93941
G1 X111.725 Y174.799 E34.95971
G1 X111.286 Y175.098 E34.98004
G1 X110.808 Y175.327 E35.00033
G1 X110.3 Y175.482 E35.02065
G1 X109.668 Y175.564 E35.04504
G1 X109.497 Y175.57 E35.05159
G1 X108.936 Y175.577 E35.07306
G1 X10.19 Y175.577 E38.85202
G1 X9.5 Y175.567 E38.87843
G1 X8.971 Y175.519 E38.89876
G1 X8.456 Y175.393 E38.91905
G1 X7.965 Y175.19 E38.93938
G1 X7.511 Y174.917 E38.95965
G1 X7.102 Y174.578 E38.97998
G1 X6.75 Y174.181 E39.00029
G1 X6.46 Y173.737 E39.02058
G1 X6.241 Y173.253 E39.04091
G1 X6.096 Y172.743 E39.06121
G1 X6.03 Y172.216 E39.08153
G1 X6.044 Y171.686 E39.10182
G1 X6.137 Y171.163 E39.12215
G1 X6.382 Y170.498 E39.14927
G1 X6.489 Y170.291 E39.15819
G1 X6.82 Y169.696 E39.18425
G1 X19.604 Y147.325 E40.1703
G1 X20.95 Y144.892 E40.27671
G1 X22.2 Y142.47 E40.38102
G1 X23.382 Y140.017 E40.48522
G1 X24.501 Y137.511 E40.59025
G1 X25.546 Y134.987 E40.69479
G1 X26.515 Y132.433 E40.79933
G1 X27.418 Y129.843 E40.9043
G1 X28.227 Y127.287 E41.0069
G1 X28.356 Y126.84 E41.02471
G1 X28.645 Y125.887 E41.06282
G1 X28.922 Y125.225 E41.09028
G1 X28.996 Y125.091 E41.09614
G1 X29.31 Y124.542 E41.12034
G1 X30.585 Y122.377 E41.2165
G1 X31.489 Y120.891 E41.28306
G1 X31.878 Y120.271 E41.31107
G1 X33.276 Y117.895 E41.41657
G1 X34.576 Y115.538 E41.51958
G1 X35.845 Y113.074 E41.62565
G1 X37.009 Y110.646 E41.7287
G1 X38.12 Y108.153 E41.83315
G1 X39.18 Y105.582 E41.93957
G1 X40.131 Y103.068 E42.04243
G1 X41.021 Y100.506 E42.14623
G1 X41.852 Y97.871 E42.25196
G1 X42.594 Y95.265 E42.35566
G1 X43.267 Y92.624 E42.45996
G1 X43.876 Y89.92 E42.56603
G1 X44.385 Y87.305 E42.66798
G1 X44.841 Y84.556 E42.77462
G1 X45.204 Y81.909 E42.87687
G1 X45.501 Y79.162 E42.98261
G1 X45.719 Y76.43 E43.0875
G1 X45.857 Y73.734 E43.19081
G1 X45.92 Y71.002 E43.29539
G1 X45.905 Y68.266 E43.40009
G1 X45.813 Y65.534 E43.5047
G1 X45.646 Y62.837 E43.60812
G1 X45.397 Y60.078 E43.71413
G1 X45.079 Y57.403 E43.81722
G1 X44.677 Y54.683 E43.92245
G1 X44.203 Y52.003 E44.0266
G1 X43.653 Y49.33 E44.13104
G1 X43.034 Y46.702 E44.23436
G1 X42.327 Y44.044 E44.33962
G1 X41.553 Y41.431 E44.44391
G1 X40.696 Y38.816 E44.54922
G1 X39.775 Y36.249 E44.65359
G1 X38.796 Y33.75 E44.75631
G1 X37.714 Y31.2 E44.86231
G1 X36.935 Y29.5 E44.93388
G1 X36.735 Y29.047 E44.95283
G1 X36.558 Y28.547 E44.97313
G1 X36.458 Y28.025 E44.99347
G1 X36.437 Y27.495 E45.01377
G1 X36.496 Y26.968 E45.03406
G1 X36.634 Y26.455 E45.05439
G1 X36.847 Y25.969 E45.0747
G1 X37.131 Y25.521 E45.095
G0 F1285.7 X37.232 Y25.999
G1 F900 X37.523 Y25.588 E45.11427
G1 X37.875 Y25.228 E45.13354
G1 X38.28 Y24.929 E45.1528
G1 X38.727 Y24.697 E45.17208
G1 X39.205 Y24.539 E45.19134
G1 X39.929 Y24.448 E45.21927
G1 X40.591 Y24.442 E45.2446
G1 X58.743 Y24.523 E45.93928
G1 X61.505 Y24.496 E46.04498
G1 X64.26 Y24.391 E46.15049
G1 X66.97 Y24.212 E46.25443
G1 X69.717 Y23.951 E46.36003
G1 X72.414 Y23.619 E46.46402
G1 X75.137 Y23.204 E46.56943
G1 X77.825 Y22.716 E46.67398
G1 X80.521 Y22.148 E46.77942
G1 X83.122 Y21.524 E46.88178
G1 X85.825 Y20.792 E46.98895
G1 X85.975 Y20.748 E46.99493
G1 X86.714 Y20.541 E47.0243
G1 X87.208 Y20.444 E47.04357
G1 X87.532 Y20.423 E47.056
G1 X88.599 Y20.411 E47.09683
G1 X91.676 Y20.434 E47.21459
G1 X92.355 Y20.448 E47.24058
G1 X92.626 Y20.465 E47.25097
G1 X93.181 Y20.571 E47.2726
G1 X93.933 Y20.786 E47.30253
G1 X95.082 Y21.129 E47.34842
G1 X97.76 Y21.846 E47.45451
G1 X100.436 Y22.486 E47.55981
G1 X103.107 Y23.039 E47.6642
G1 X105.777 Y23.517 E47.768
G1 X108.495 Y23.924 E47.87318
G1 X111.237 Y24.256 E47.97888
G1 X113.913 Y24.504 E48.08173
G1 X116.693 Y24.681 E48.18833
G1 X119.411 Y24.778 E48.29241
G1 X121.09 Y24.8 E48.35667
G1 X139.326 Y24.882 E49.05456
G1 X140.001 Y24.896 E49.0804
G1 X140.502 Y24.946 E49.09967
G1 X140.989 Y25.075 E49.11895
G1 X141.449 Y25.279 E49.13821
G1 X141.871 Y25.554 E49.15748
G1 X142.245 Y25.891 E49.17675
G1 X142.56 Y26.284 E49.19602
G1 X142.809 Y26.722 E49.2153
G1 X143.029 Y27.355 E49.24095
G1 X143.105 Y27.687 E49.25398
G1 X143.572 Y29.886 E49.34002
G1 X144.202 Y32.495 E49.44273
G1 X144.925 Y35.15 E49.54804
G1 X145.73 Y37.806 E49.65425
G1 X146.587 Y40.371 E49.75774
G1 X147.537 Y42.972 E49.86371
G1 X148.539 Y45.485 E49.96725
G1 X149.633 Y48.019 E50.07287
G1 X150.777 Y50.482 E50.1768
G1 X152.018 Y52.962 E50.28293
G1 X153.286 Y55.329 E50.38569
