;FLAVOR:Marlin
;TIME:24229
;Filament used: 26.0245m
;Layer height: 0.3
;MINX:11.675
;MINY:10.895
;MINZ:0.26
;MAXX:185.17
;MAXY:188.041
;MAXZ:29.36
;Generated with Cura_SteamEngine 4.9.1
M82 ;absolute extrusion mode
;Begin Start Gcode for Dagoma DiscoEasy 200
;Sliced: 26-07-2021 01:56:42
;Initial extruder: 0

G90 ;Absolute positioning
M106 S255 ;Fan on full
G28 X Y ;Home stop X Y
G1 X100 ;Centre back during cooldown in case of oozing
M109 R90 ;Cooldown in case too hot
G28 ;Centre
G29 ;Auto-level
M104 S205 ;Pre-heat
M107 ;Fan off
G0 X100 Y5 Z0.5 ;Front centre for degunk
M109 S205 ;Wait for initial temp
M83 ;E Relative
G1 E10 F200 ;Degunk
G1 E-3 F5000 ;Retract
G0 Z3 ;Withdraw
M82 ;E absolute
G92 E0 ;E reset
G1 F6000 ;Set feedrate

;Finish Start Gcode for Dagoma DiscoEasy 200

G92 E0
G92 E0
G1 F3000 E-3.5
;LAYER_COUNT:98
;LAYER:0
M107
G0 F1285.7 X34.461 Y20.173 Z0.26
;TYPE:SKIRT
G1 F3000 E0
G1 F900 X35.855 Y17.806 E0.10513
G1 X37.18 Y15.401 E0.21021
G1 X37.399 Y14.979 E0.2284
G1 X37.744 Y14.339 E0.25623
G1 X38.006 Y13.937 E0.27459
G1 X38.331 Y13.585 E0.29293
G1 X38.71 Y13.292 E0.31126
G1 X39.132 Y13.065 E0.3296
G1 X39.586 Y12.912 E0.34793
G1 X40.059 Y12.836 E0.36626
G1 X40.538 Y12.84 E0.3846
G1 X41.01 Y12.924 E0.40294
G1 X41.461 Y13.084 E0.42126
G1 X42.073 Y13.46 E0.44874
G1 X42.323 Y13.66 E0.461
G1 X44.517 Y15.375 E0.56757
G1 X46.721 Y17.002 E0.67241
G1 X48.989 Y18.576 E0.77806
G1 X51.287 Y20.077 E0.8831
G1 X53.621 Y21.509 E0.98789
G1 X56.756 Y23.295 E1.12597
G1 X57.843 Y23.888 E1.17336
G1 X57.994 Y23.975 E1.18002
G1 X58.411 Y24.283 E1.19986
G1 X58.855 Y24.676 E1.22256
G1 X59.083 Y24.885 E1.23439
G1 X59.758 Y25.522 E1.26991
G1 X60.062 Y25.822 E1.28626
G1 X60.71 Y26.444 E1.32063
G1 X60.771 Y26.513 E1.32415
G1 X62.469 Y28.155 E1.41455
G1 X63.601 Y29.288 E1.47584
G1 X64.073 Y29.773 E1.50174
G1 X64.431 Y30.222 E1.52372
G1 X64.608 Y30.497 E1.53623
G1 X66.122 Y32.773 E1.64085
G1 X67.719 Y35.031 E1.74669
G1 X69.359 Y37.216 E1.85124
G1 X71.078 Y39.379 E1.95697
G1 X72.844 Y41.473 E2.0618
G1 X74.645 Y43.491 E2.16531
G1 X76.587 Y45.547 E2.27355
G1 X78.472 Y47.432 E2.37557
G1 X80.498 Y49.349 E2.48231
G1 X82.566 Y51.195 E2.58839
G1 X84.638 Y52.944 E2.69216
G1 X86.806 Y54.67 E2.79821
G1 X88.986 Y56.308 E2.90256
G1 X91.219 Y57.887 E3.00723
G1 X92.484 Y58.724 E3.06527
G1 X93.48 Y59.399 E3.11132
G1 X94.099 Y59.924 E3.14238
G1 X94.588 Y60.384 E3.16807
G1 X94.892 Y60.666 E3.18394
G1 X95.308 Y61.072 E3.20619
G1 X95.536 Y61.3 E3.21853
G1 X96.999 Y62.719 E3.29653
G1 X97.557 Y63.269 E3.32651
G1 X98.92 Y64.634 E3.40033
G1 X99.414 Y65.142 E3.42745
G1 X99.689 Y65.461 E3.44357
G1 X101.471 Y67.578 E3.54946
G1 X103.327 Y69.659 E3.65618
G1 X105.21 Y71.654 E3.76116
G1 X107.11 Y73.557 E3.86407
G1 X109.153 Y75.491 E3.97173
G1 X111.185 Y77.307 E4.07603
G1 X113.275 Y79.072 E4.18072
G1 X115.419 Y80.782 E4.28567
G1 X117.629 Y82.443 E4.39147
G1 X119.867 Y84.029 E4.49644
G1 X122.151 Y85.552 E4.6015
G1 X124.466 Y87.003 E4.70606
G1 X126.87 Y88.416 E4.81277
G1 X129.235 Y89.718 E4.91609
G1 X131.704 Y90.988 E5.02234
G1 X134.185 Y92.177 E5.12763
G1 X134.825 Y92.495 E5.15498
G1 X135.476 Y92.896 E5.18424
G1 X135.896 Y93.199 E5.20406
G1 X136.415 Y93.643 E5.2302
G1 X136.69 Y93.902 E5.24465
G1 X137.08 Y94.368 E5.26791
G1 X137.827 Y95.481 E5.31921
G1 X138.908 Y97.135 E5.39482
G1 X139.55 Y98.147 E5.44069
G1 X141.128 Y100.483 E5.54857
G1 X142.697 Y102.672 E5.65164
G1 X144.368 Y104.869 E5.75727
G1 X146.111 Y107.033 E5.86361
G1 X147.869 Y109.089 E5.96714
G1 X149.718 Y111.133 E6.07262
G1 X151.623 Y113.122 E6.17801
G1 X153.582 Y115.056 E6.28336
G1 X155.613 Y116.95 E6.38964
G1 X157.634 Y118.731 E6.49273
G1 X159.76 Y120.5 E6.59857
G1 X161.934 Y122.208 E6.70438
G1 X164.132 Y123.836 E6.80905
G1 X166.348 Y125.382 E6.91246
G1 X168.693 Y126.923 E7.01984
G1 X170.331 Y127.942 E7.09367
G1 X170.773 Y128.211 E7.11347
G1 X171.385 Y128.641 E7.14209
G1 X171.987 Y129.181 E7.17304
G1 X172.44 Y129.715 E7.19984
G1 X173.566 Y131.427 E7.27826
G1 X173.89 Y131.924 E7.30096
G1 X174.153 Y132.422 E7.32252
G1 X174.373 Y132.873 E7.34172
G1 X174.633 Y133.586 E7.37076
G1 X175.067 Y135.015 E7.42792
G1 X175.94 Y137.628 E7.53335
G1 X176.871 Y140.177 E7.6372
G1 X177.895 Y142.751 E7.74321
G1 X178.986 Y145.28 E7.84862
G1 X180.137 Y147.757 E7.95315
G1 X181.371 Y150.225 E8.05875
G1 X182.663 Y152.637 E8.16346
G1 X184.567 Y155.921 E8.30873
G1 X184.97 Y156.661 E8.34098
G1 X185.109 Y157.119 E8.3593
G1 X185.17 Y157.595 E8.37766
G1 X185.152 Y158.073 E8.39597
G1 X185.054 Y158.542 E8.4143
G1 X184.879 Y158.989 E8.43267
G1 X184.633 Y159.4 E8.451
G1 X184.322 Y159.764 E8.46933
G1 X183.955 Y160.072 E8.48766
G1 X183.395 Y160.38 E8.51212
G1 X182.172 Y160.885 E8.56276
G1 X181.84 Y161.016 E8.57642
G1 X179.338 Y162.088 E8.68059
G1 X176.821 Y163.254 E8.78674
G1 X174.39 Y164.463 E8.89065
G1 X171.953 Y165.763 E8.99635
G1 X169.559 Y167.128 E9.10181
G1 X167.207 Y168.56 E9.20719
G1 X164.391 Y170.406 E9.33605
G1 X164.059 Y170.619 E9.35115
G1 X163.563 Y170.873 E9.37247
G1 X163.382 Y170.944 E9.37991
G1 X162.757 Y171.173 E9.40539
G1 X162.463 Y171.263 E9.41715
G1 X161.193 Y171.58 E9.46725
G1 X161.079 Y171.621 E9.47188
G1 X160.052 Y171.868 E9.51231
G1 X159.522 Y171.964 E9.53292
G1 X159.184 Y172 E9.54593
G1 X158.491 Y172.036 E9.57248
G1 X155.691 Y172.22 E9.67987
G1 X153.002 Y172.473 E9.78323
G1 X150.246 Y172.81 E9.88949
G1 X147.514 Y173.224 E9.99523
G1 X144.843 Y173.706 E10.0991
G1 X142.154 Y174.27 E10.20425
G1 X139.489 Y174.907 E10.30911
G1 X136.807 Y175.632 E10.41543
G1 X134.184 Y176.419 E10.52023
G1 X131.58 Y177.282 E10.62522
G1 X129 Y178.218 E10.73025
G1 X126.437 Y179.231 E10.83572
G1 X123.898 Y180.319 E10.94143
G1 X121.46 Y181.447 E11.04423
G1 X118.943 Y182.698 E11.1518
G1 X116.9 Y183.781 E11.24029
G1 X115.756 Y184.403 E11.29012
G1 X115.381 Y184.573 E11.30588
G1 X114.689 Y184.829 E11.33412
G1 X114.393 Y184.921 E11.34598
G1 X112.619 Y185.368 E11.41599
G1 X112.079 Y185.509 E11.43735
G1 X111.37 Y185.638 E11.46493
G1 X110.757 Y185.682 E11.48845
G1 X110.323 Y185.67 E11.50506
G1 X107.545 Y185.632 E11.61139
G1 X104.775 Y185.672 E11.7174
G1 X102.074 Y185.787 E11.82086
G1 X99.31 Y185.984 E11.92691
G1 X96.587 Y186.255 E12.03163
G1 X93.834 Y186.608 E12.13785
G1 X91.137 Y187.032 E12.24233
G1 X88.446 Y187.534 E12.34709
G1 X87.702 Y187.698 E12.37625
G1 X87.552 Y187.718 E12.38204
G1 X86.29 Y187.982 E12.43138
G1 X85.815 Y188.041 E12.4497
G1 X85.336 Y188.02 E12.46805
G1 X84.867 Y187.919 E12.48641
G1 X84.422 Y187.742 E12.50473
G1 X84.012 Y187.494 E12.52307
G1 X83.512 Y187.055 E12.54853
G1 X13.096 Y116.643 E16.35943
G1 X12.626 Y116.159 E16.38525
G1 X12.322 Y115.789 E16.40357
G1 X12.084 Y115.373 E16.42192
G1 X11.918 Y114.923 E16.44027
G1 X11.829 Y114.452 E16.45862
G1 X11.83 Y113.854 E16.4815
G1 X11.856 Y113.614 E16.49074
G1 X12.147 Y111.188 E16.58425
G1 X12.4 Y108.428 E16.69031
G1 X12.572 Y105.696 E16.79507
G1 X12.667 Y102.962 E16.89976
G1 X12.685 Y100.18 E17.00623
G1 X12.625 Y97.455 E17.11054
G1 X12.488 Y94.723 E17.21523
G1 X12.272 Y91.99 E17.32014
G1 X11.977 Y89.235 E17.42618
G1 X11.838 Y88.221 E17.46535
G1 X11.68 Y86.946 E17.51451
G1 X11.675 Y86.28 E17.54
G1 X11.744 Y85.647 E17.56437
G1 X11.857 Y84.975 E17.59045
G1 X11.999 Y84.427 E17.61211
G1 X12.187 Y83.661 E17.6423
G1 X12.394 Y82.869 E17.67362
G1 X12.653 Y82.121 E17.70392
G1 X12.771 Y81.869 E17.71457
G1 X13.103 Y81.193 E17.74339
G1 X13.902 Y79.604 E17.81145
G1 X15.097 Y77.143 E17.91615
G1 X16.248 Y74.591 E18.02329
G1 X17.304 Y72.065 E18.12806
G1 X18.262 Y69.567 E18.23045
G1 X19.191 Y66.931 E18.33741
G1 X20.033 Y64.307 E18.44287
G1 X20.788 Y61.702 E18.54667
G1 X21.485 Y59.021 E18.65268
G1 X22.106 Y56.324 E18.75859
G1 X22.638 Y53.648 E18.86301
G1 X23.096 Y50.963 E18.96724
G1 X23.486 Y48.215 E19.07346
G1 X23.794 Y45.489 E19.17845
G1 X24.024 Y42.771 E19.28284
G1 X24.18 Y39.976 E19.38997
G1 X24.236 Y38.289 E19.45456
G1 X24.257 Y37.867 E19.47073
G1 X24.346 Y37.106 E19.50005
G1 X24.452 Y36.534 E19.52232
G1 X24.54 Y36.209 E19.5352
G1 X24.838 Y35.054 E19.58085
G1 X25.09 Y34.151 E19.61673
G1 X25.314 Y33.574 E19.64042
G1 X25.636 Y32.901 E19.66897
G1 X25.751 Y32.658 E19.67926
G1 X26.043 Y32.067 E19.70448
G1 X26.412 Y31.5 E19.73037
G1 X26.537 Y31.35 E19.73784
G1 X28.231 Y29.227 E19.84179
G1 X29.889 Y27.024 E19.9473
G1 X31.485 Y24.773 E20.0529
G1 X32.999 Y22.505 E20.15726
G1 X34.461 Y20.173 E20.26259
G0 F1285.7 X34.763 Y20.35
G1 F900 X36.166 Y17.967 E20.36842
G1 X37.485 Y15.574 E20.47299
G1 X37.707 Y15.145 E20.49148
G1 X38.052 Y14.505 E20.5193
G1 X38.3 Y14.13 E20.53651
G1 X38.61 Y13.805 E20.55369
G1 X38.972 Y13.54 E20.57086
G1 X39.376 Y13.344 E20.58805
G1 X39.808 Y13.222 E20.60523
G1 X40.255 Y13.178 E20.62242
G1 X40.702 Y13.214 E20.63958
G1 X41.136 Y13.329 E20.65676
G1 X41.543 Y13.519 E20.67395
G1 X42.107 Y13.936 E20.70079
G1 X44.303 Y15.653 E20.80747
G1 X46.5 Y17.275 E20.91198
G1 X48.792 Y18.865 E21.01873
G1 X51.098 Y20.371 E21.12414
G1 X53.445 Y21.811 E21.22951
G1 X56.572 Y23.593 E21.36725
G1 X57.676 Y24.195 E21.41537
G1 X58.179 Y24.545 E21.43882
G1 X58.619 Y24.935 E21.46132
G1 X58.843 Y25.14 E21.47294
G1 X59.512 Y25.771 E21.50814
G1 X59.82 Y26.075 E21.5247
G1 X60.467 Y26.696 E21.55902
G1 X60.522 Y26.759 E21.56222
G1 X62.191 Y28.373 E21.65107
G1 X63.351 Y29.532 E21.71383
G1 X63.823 Y30.017 E21.73973
G1 X64.136 Y30.411 E21.75898
G1 X64.293 Y30.655 E21.77009
G1 X65.852 Y32.999 E21.87782
G1 X67.421 Y35.217 E21.98179
G1 X69.085 Y37.434 E22.08787
G1 X70.803 Y39.595 E22.19353
G1 X72.579 Y41.701 E22.29895
G1 X74.419 Y43.763 E22.40471
G1 X76.298 Y45.753 E22.50946
G1 X78.268 Y47.722 E22.61605
G1 X80.254 Y49.601 E22.72068
G1 X82.29 Y51.419 E22.82514
G1 X84.442 Y53.236 E22.93292
G1 X86.565 Y54.926 E23.03677
G1 X88.784 Y56.593 E23.14298
G1 X91.04 Y58.188 E23.24871
G1 X92.288 Y59.014 E23.30599
G1 X93.284 Y59.689 E23.35203
G1 X93.863 Y60.182 E23.38113
G1 X94.648 Y60.917 E23.42229
G1 X95.085 Y61.345 E23.4457
G1 X95.261 Y61.521 E23.45522
G1 X96.753 Y62.968 E23.53476
G1 X97.309 Y63.516 E23.56464
G1 X98.669 Y64.878 E23.6383
G1 X99.163 Y65.386 E23.66542
G1 X99.422 Y65.687 E23.68061
G1 X101.225 Y67.829 E23.78776
G1 X103.059 Y69.884 E23.89317
G1 X104.938 Y71.876 E23.99797
G1 X106.907 Y73.848 E24.10461
G1 X108.89 Y75.726 E24.20913
G1 X110.936 Y77.554 E24.31413
G1 X113.058 Y79.347 E24.42045
G1 X115.24 Y81.085 E24.5272
G1 X117.409 Y82.716 E24.63106
G1 X119.656 Y84.309 E24.73647
G1 X121.956 Y85.843 E24.84227
G1 X124.314 Y87.32 E24.94875
G1 X126.666 Y88.703 E25.05317
G1 X129.104 Y90.045 E25.15967
G1 X131.535 Y91.296 E25.2643
G1 X134.003 Y92.478 E25.36902
G1 X134.641 Y92.793 E25.39625
G1 X135.292 Y93.194 E25.42551
G1 X135.668 Y93.465 E25.44325
G1 X136.187 Y93.909 E25.46939
G1 X136.447 Y94.154 E25.48306
G1 X136.79 Y94.563 E25.50348
G1 X137.534 Y95.672 E25.55459
G1 X138.613 Y97.322 E25.63004
G1 X139.275 Y98.366 E25.67735
G1 X140.833 Y100.673 E25.78388
G1 X142.407 Y102.868 E25.88725
G1 X144.115 Y105.113 E25.9952
G1 X145.822 Y107.232 E26.09934
G1 X147.608 Y109.321 E26.20452
G1 X149.479 Y111.389 E26.31124
G1 X151.371 Y113.366 E26.41596
G1 X153.344 Y115.314 E26.52207
G1 X155.354 Y117.187 E26.62721
G1 X157.427 Y119.014 E26.73296
G1 X159.53 Y120.764 E26.83766
G1 X161.72 Y122.484 E26.94423
G1 X163.933 Y124.124 E27.04964
G1 X166.191 Y125.698 E27.15498
G1 X168.467 Y127.194 E27.25921
G1 X170.149 Y128.241 E27.33503
G1 X170.591 Y128.51 E27.35483
G1 X171.156 Y128.906 E27.38123
G1 X171.749 Y129.439 E27.41175
G1 X172.148 Y129.907 E27.43528
G1 X173.274 Y131.619 E27.5137
G1 X173.586 Y132.096 E27.53551
G1 X173.838 Y132.575 E27.55623
G1 X174.058 Y133.026 E27.57543
G1 X174.3 Y133.693 E27.60259
G1 X174.735 Y135.127 E27.65993
G1 X175.6 Y137.717 E27.76443
G1 X176.561 Y140.346 E27.87155
G1 X177.572 Y142.889 E27.97628
G1 X178.648 Y145.383 E28.08023
G1 X179.82 Y147.905 E28.18666
G1 X181.055 Y150.376 E28.29238
G1 X182.365 Y152.82 E28.3985
G1 X184.255 Y156.08 E28.54271
G1 X184.655 Y156.817 E28.5748
G1 X184.778 Y157.248 E28.59195
G1 X184.823 Y157.695 E28.60914
G1 X184.788 Y158.143 E28.62634
G1 X184.674 Y158.577 E28.64351
G1 X184.485 Y158.984 E28.66068
G1 X184.227 Y159.352 E28.67788
G1 X183.908 Y159.668 E28.69507
G1 X183.538 Y159.922 E28.71224
G1 X183.262 Y160.057 E28.724
G1 X182.044 Y160.559 E28.77442
G1 X181.733 Y160.682 E28.78722
G1 X179.166 Y161.782 E28.89409
G1 X176.703 Y162.922 E28.99796
G1 X174.198 Y164.169 E29.10504
G1 X171.773 Y165.462 E29.21022
G1 X169.399 Y166.815 E29.31479
G1 X167.034 Y168.255 E29.42075
G1 X164.202 Y170.111 E29.55033
G1 X163.434 Y170.548 E29.58415
G1 X163.262 Y170.615 E29.59121
G1 X162.637 Y170.844 E29.61669
G1 X162.379 Y170.923 E29.62701
G1 X161.202 Y171.216 E29.67343
G1 X160.997 Y171.281 E29.68166
G1 X159.97 Y171.528 E29.72208
G1 X159.473 Y171.617 E29.74141
G1 X159.166 Y171.651 E29.75323
G1 X158.451 Y171.688 E29.78063
G1 X155.673 Y171.87 E29.88717
G1 X152.922 Y172.129 E29.99291
G1 X150.226 Y172.46 E30.09686
G1 X147.468 Y172.877 E30.20361
G1 X144.743 Y173.369 E30.30958
G1 X142.111 Y173.921 E30.41249
G1 X139.376 Y174.575 E30.52011
G1 X136.735 Y175.288 E30.6248
G1 X134.074 Y176.087 E30.73113
G1 X131.461 Y176.953 E30.83647
G1 X128.864 Y177.895 E30.9422
G1 X126.301 Y178.909 E31.04768
G1 X123.785 Y179.987 E31.15243
G1 X121.264 Y181.153 E31.25873
G1 X118.81 Y182.373 E31.36361
G1 X116.736 Y183.472 E31.45343
G1 X115.589 Y184.095 E31.50338
G1 X115.259 Y184.245 E31.51726
G1 X114.567 Y184.501 E31.54549
G1 X114.308 Y184.581 E31.55587
G1 X112.531 Y185.029 E31.626
G1 X111.991 Y185.17 E31.64736
G1 X111.312 Y185.293 E31.67377
G1 X110.767 Y185.332 E31.69468
G1 X110.336 Y185.32 E31.71118
G1 X107.545 Y185.282 E31.818
G1 X104.79 Y185.321 E31.92344
G1 X102.037 Y185.439 E32.02889
G1 X99.283 Y185.636 E32.13456
G1 X96.508 Y185.912 E32.24128
G1 X93.809 Y186.258 E32.34541
G1 X91.088 Y186.685 E32.45082
G1 X88.398 Y187.187 E32.55554
G1 X87.627 Y187.357 E32.58576
G1 X87.488 Y187.375 E32.59112
G1 X86.219 Y187.64 E32.64073
G1 X85.773 Y187.692 E32.65791
G1 X85.324 Y187.665 E32.67513
G1 X84.888 Y187.558 E32.69231
G1 X84.478 Y187.376 E32.70948
G1 X83.972 Y187.007 E32.73344
G1 X83.697 Y186.746 E32.74795
G1 X13.348 Y116.399 E36.55528
G1 X12.878 Y115.915 E36.58109
G1 X12.595 Y115.566 E36.59829
G1 X12.378 Y115.173 E36.61547
G1 X12.234 Y114.748 E36.63264
G1 X12.168 Y114.304 E36.64982
G1 X12.199 Y113.692 E36.67327
G1 X12.501 Y111.175 E36.77029
G1 X12.747 Y108.482 E36.87378
G1 X12.923 Y105.695 E36.98065
G1 X13.017 Y102.976 E37.08476
G1 X13.035 Y100.18 E37.19177
G1 X12.976 Y97.481 E37.29508
G1 X12.835 Y94.676 E37.40256
G1 X12.623 Y91.978 E37.50613
G1 X12.322 Y89.166 E37.61436
G1 X12.185 Y88.178 E37.65253
G1 X12.027 Y86.903 E37.7017
G1 X12.023 Y86.318 E37.72409
G1 X12.103 Y85.597 E37.75185
G1 X12.196 Y85.063 E37.77259
G1 X12.339 Y84.511 E37.79441
G1 X12.526 Y83.75 E37.8244
G1 X12.733 Y82.958 E37.85573
G1 X12.971 Y82.268 E37.88366
G1 X13.085 Y82.024 E37.89397
G1 X13.416 Y81.351 E37.92267
G1 X14.215 Y79.762 E37.99074
G1 X15.411 Y77.298 E38.09556
G1 X16.567 Y74.735 E38.20316
G1 X17.617 Y72.224 E38.30731
G1 X18.616 Y69.619 E38.41409
G1 X19.52 Y67.054 E38.51816
G1 X20.361 Y64.433 E38.62351
G1 X21.128 Y61.787 E38.72894
G1 X21.823 Y59.112 E38.83471
G1 X22.456 Y56.362 E38.9427
G1 X22.978 Y53.735 E39.0452
G1 X23.445 Y50.997 E39.15149
G1 X23.832 Y48.274 E39.25675
G1 X24.142 Y45.53 E39.36243
G1 X24.374 Y42.783 E39.46793
G1 X24.527 Y40.043 E39.57295
G1 X24.586 Y38.301 E39.63965
G1 X24.605 Y37.908 E39.65471
G1 X24.694 Y37.147 E39.68403
G1 X24.79 Y36.625 E39.70434
G1 X24.878 Y36.3 E39.71723
G1 X25.175 Y35.148 E39.76276
G1 X25.427 Y34.245 E39.79864
G1 X25.633 Y33.717 E39.82033
G1 X26.065 Y32.814 E39.85863
G1 X26.357 Y32.223 E39.88386
G1 X26.681 Y31.725 E39.9066
G1 X26.776 Y31.611 E39.91228
G1 X28.521 Y29.424 E40.01935
G1 X30.175 Y27.227 E40.12459
G1 X31.765 Y24.983 E40.22984
G1 X33.295 Y22.691 E40.3353
G1 X34.763 Y20.35 E40.44105
G0 F1285.7 X35.077 Y20.508
G1 F900 X36.453 Y18.171 E40.54484
G1 X37.805 Y15.717 E40.65206
G1 X38.015 Y15.311 E40.66955
G1 X38.36 Y14.671 E40.69738
G1 X38.592 Y14.325 E40.71332
G1 X38.886 Y14.029 E40.72928
G1 X39.231 Y13.795 E40.74524
G1 X39.614 Y13.631 E40.76118
G1 X40.021 Y13.543 E40.77712
G1 X40.437 Y13.534 E40.79304
G1 X40.848 Y13.605 E40.809
