;FLAVOR:Marlin
;TIME:11643
;Filament used: 14.1765m
;Layer height: 0.3
;MINX:36.192
;MINY:11.868
;MINZ:0.26
;MAXX:194.342
;MAXY:193.053
;MAXZ:7.76
;Generated with Cura_SteamEngine 4.9.1
M82 ;absolute extrusion mode
;Begin Start Gcode for Dagoma DiscoEasy 200
;Sliced: 07-07-2021 19:57:50
;Initial extruder: 0

G90 ;Absolute positioning
M106 S255 ;Fan on full
G28 X Y ;Home stop X Y
G1 X100 ;Centre back during cooldown in case of oozing
M109 R90 ;Cooldown in case too hot
G28 ;Centre
G29 ;Auto-level
M104 S205 ;Pre-heat
M107 ;Fan off
G0 X100 Y5 Z0.5 ;Front centre for degunk
M109 S205 ;Wait for initial temp
M83 ;E Relative
G1 E10 F200 ;Degunk
G1 E-3 F5000 ;Retract
G0 Z3 ;Withdraw
M82 ;E absolute
G92 E0 ;E reset
G1 F6000 ;Set feedrate

;Finish Start Gcode for Dagoma DiscoEasy 200

G92 E0
G92 E0
G1 F3000 E-3.5
;LAYER_COUNT:26
;LAYER:0
M107
G0 F1285.7 X86.366 Y14.367 Z0.26
;TYPE:SKIRT
G1 F3000 E0
G1 F900 X86.72 Y13.772 E0.0265
G1 X87.038 Y13.315 E0.0478
G1 X87.418 Y12.909 E0.06908
G1 X87.853 Y12.561 E0.0904
G1 X88.332 Y12.279 E0.11167
G1 X88.848 Y12.069 E0.13299
G1 X89.388 Y11.935 E0.15429
G1 X89.999 Y11.878 E0.17777
G1 X90.823 Y11.868 E0.20931
G1 X189.88 Y12.118 E4.00018
G1 X190.533 Y12.129 E4.02518
G1 X191.087 Y12.178 E4.04646
G1 X191.629 Y12.306 E4.06777
G1 X192.146 Y12.51 E4.08904
G1 X192.629 Y12.787 E4.11035
G1 X193.068 Y13.129 E4.13165
G1 X193.452 Y13.531 E4.15292
G1 X193.776 Y13.984 E4.17424
G1 X194.031 Y14.479 E4.19555
G1 X194.212 Y15.005 E4.21683
G1 X194.317 Y15.551 E4.23811
G1 X194.342 Y16.107 E4.25941
G1 X194.287 Y16.661 E4.28072
G1 X194.153 Y17.201 E4.30201
G1 X193.855 Y17.885 E4.33056
G1 X193.555 Y18.424 E4.35417
G1 X94.174 Y190.559 E11.96076
G1 X93.816 Y191.161 E11.98757
G1 X93.498 Y191.617 E12.00884
G1 X93.117 Y192.024 E12.03018
G1 X92.683 Y192.371 E12.05144
G1 X92.203 Y192.653 E12.07275
G1 X91.688 Y192.863 E12.09403
G1 X91.148 Y192.998 E12.11534
G1 X90.595 Y193.053 E12.1366
G1 X90.039 Y193.029 E12.1579
G1 X89.492 Y192.926 E12.1792
G1 X88.966 Y192.745 E12.20049
G1 X88.471 Y192.49 E12.2218
G1 X88.018 Y192.168 E12.24307
G1 X87.615 Y191.784 E12.26437
G1 X87.281 Y191.359 E12.28506
G1 X87.142 Y191.144 E12.29486
G1 X86.772 Y190.524 E12.32249
G1 X37.019 Y104.846 E16.11408
G1 X36.681 Y104.245 E16.14047
G1 X36.444 Y103.742 E16.16175
G1 X36.282 Y103.21 E16.18303
G1 X36.197 Y102.66 E16.20433
G1 X36.192 Y102.104 E16.22561
G1 X36.266 Y101.552 E16.24692
G1 X36.419 Y101.017 E16.26822
G1 X36.672 Y100.463 E16.29153
G1 X37.096 Y99.701 E16.3249
G1 X86.366 Y14.367 E20.09584
G0 F1285.7 X86.667 Y14.546
G1 F900 X87.021 Y13.951 E20.12233
G1 X87.326 Y13.516 E20.14267
G1 X87.692 Y13.133 E20.16294
G1 X88.112 Y12.808 E20.18326
G1 X88.576 Y12.551 E20.20356
G1 X89.074 Y12.366 E20.22389
G1 X89.593 Y12.258 E20.24418
G1 X90.004 Y12.228 E20.25995
G1 X90.822 Y12.218 E20.29126
G1 X189.874 Y12.468 E24.08194
G1 X190.527 Y12.479 E24.10693
G1 X191.056 Y12.527 E24.12726
G1 X191.571 Y12.655 E24.14757
G1 X192.061 Y12.858 E24.16787
G1 X192.515 Y13.133 E24.18818
G1 X192.923 Y13.473 E24.20851
G1 X193.275 Y13.87 E24.22881
G1 X193.563 Y14.316 E24.24913
G1 X193.781 Y14.799 E24.26941
G1 X193.924 Y15.31 E24.28972
G1 X193.989 Y15.837 E24.31004
G1 X193.974 Y16.367 E24.33033
G1 X193.88 Y16.89 E24.35066
G1 X193.708 Y17.392 E24.37097
G1 X193.549 Y17.715 E24.38475
G1 X193.252 Y18.249 E24.40813
G1 X93.873 Y190.38 E32.01456
G1 X93.515 Y190.982 E32.04136
G1 X93.21 Y191.416 E32.06166
G1 X92.843 Y191.8 E32.08199
G1 X92.423 Y192.124 E32.10229
G1 X91.959 Y192.382 E32.12261
G1 X91.462 Y192.567 E32.1429
G1 X90.943 Y192.675 E32.16319
G1 X90.413 Y192.704 E32.1835
G1 X89.885 Y192.653 E32.2038
G1 X89.37 Y192.524 E32.22412
G1 X88.881 Y192.319 E32.24441
G1 X88.428 Y192.042 E32.26473
G1 X88.021 Y191.701 E32.28505
G1 X87.57 Y191.162 E32.31195
G1 X87.443 Y190.964 E32.32095
G1 X87.075 Y190.348 E32.34841
G1 X37.325 Y104.675 E36.13978
G1 X36.987 Y104.074 E36.16617
G1 X36.762 Y103.593 E36.18649
G1 X36.612 Y103.084 E36.2068
G1 X36.54 Y102.558 E36.22712
G1 X36.548 Y102.028 E36.2474
G1 X36.636 Y101.504 E36.26774
G1 X36.801 Y101 E36.28803
G1 X36.978 Y100.633 E36.30362
G1 X37.399 Y99.876 E36.33677
G1 X86.667 Y14.546 E40.10754
G0 F1285.7 X86.967 Y14.725
G1 F900 X87.321 Y14.13 E40.13404
G1 X87.612 Y13.719 E40.15331
G1 X87.965 Y13.359 E40.17261
G1 X88.37 Y13.059 E40.1919
G1 X88.817 Y12.827 E40.21117
G1 X89.295 Y12.669 E40.23043
G1 X90.008 Y12.578 E40.25794
G1 X90.821 Y12.568 E40.28906
G1 X189.868 Y12.817 E44.07955
G1 X190.521 Y12.828 E44.10454
G1 X191.023 Y12.877 E44.12385
G1 X191.51 Y13.004 E44.14311
G1 X191.971 Y13.206 E44.16237
G1 X192.394 Y13.479 E44.18164
G1 X192.769 Y13.816 E44.20093
G1 X193.086 Y14.207 E44.22019
G1 X193.337 Y14.643 E44.23945
G1 X193.516 Y15.114 E44.25873
G1 X193.618 Y15.607 E44.278
G1 X193.641 Y16.11 E44.29727
G1 X193.584 Y16.611 E44.31656
G1 X193.449 Y17.096 E44.33583
G1 X193.243 Y17.545 E44.35473
G1 X192.949 Y18.074 E44.37789
G1 X93.572 Y190.201 E51.98415
G1 X93.214 Y190.803 E52.01095
G1 X92.923 Y191.214 E52.03022
G1 X92.571 Y191.574 E52.04949
G1 X92.166 Y191.873 E52.06876
G1 X91.719 Y192.105 E52.08803
G1 X91.241 Y192.264 E52.10731
G1 X90.744 Y192.344 E52.12657
G1 X90.24 Y192.346 E52.14586
G1 X89.743 Y192.267 E52.16512
G1 X89.264 Y192.111 E52.1844
G1 X88.816 Y191.881 E52.20367
G1 X88.41 Y191.583 E52.22295
G1 X88.056 Y191.225 E52.24221
G1 X87.743 Y190.784 E52.26291
G1 X87.377 Y190.172 E52.2902
G1 X37.63 Y104.503 E56.08138
G1 X37.292 Y103.902 E56.10777
G1 X37.08 Y103.445 E56.12705
G1 X36.944 Y102.96 E56.14632
G1 X36.886 Y102.46 E56.16559
G1 X36.908 Y101.957 E56.18486
G1 X37.009 Y101.464 E56.20411
G1 X37.284 Y100.803 E56.23151
G1 X37.702 Y100.051 E56.26444
G1 X86.967 Y14.725 E60.03502
G1 F3000 E56.53502
;MESH:support_half_hex_6.stl
G0 F1285.7 X89.161 Y15.993
G0 X90.17 Y16.575
G0 X90.547 Y187.84
G0 X90.633 Y187.891
;TYPE:WALL-INNER
G1 F3000 E60.03502
G1 F900 X90.482 Y188.152 E60.04656
G1 X90.331 Y187.891 E60.05309
G1 X40.652 Y102.342 E63.839
G1 X90.348 Y16.266 E67.64268
G1 X189.274 Y16.517 E71.42855
G1 X189.275 Y16.517 E71.42858
G1 X189.576 Y16.517 E71.4401
G1 X189.425 Y16.778 E71.44665
G1 X90.633 Y187.891 E79.0081
G0 F1285.7 X90.634 Y188.539
;TYPE:WALL-OUTER
G1 F900 X90.483 Y188.8 E79.01964
G1 X90.332 Y188.539 E79.02618
G1 X40.277 Y102.343 E82.84072
G1 X90.161 Y15.941 E86.65881
G1 X189.836 Y16.193 E90.47333
G1 X189.837 Y16.193 E90.47337
G1 X190.138 Y16.193 E90.48489
G1 X189.987 Y16.454 E90.49144
G1 X90.634 Y188.539 E98.09584
G0 F1285.7 X90.534 Y188.712
G0 X90.482 Y188.052
G0 X90.481 Y187.472
;TYPE:SKIN
G1 F900 X41.045 Y102.342 E101.86321
G1 X90.545 Y16.606 E105.65187
G1 X188.987 Y16.855 E109.41921
G1 X90.481 Y187.472 E116.95875
G0 F1285.7 X90.537 Y187.058
G1 F900 X90.262 Y186.782 E116.97367
G0 F1285.7 X90.718 Y186.744
G1 F900 X89.576 Y185.601 E117.0355
G1 X89.514 Y185.539
G0 F1285.7 X88.891 Y184.421
G1 F900 X90.899 Y186.43 E117.1442
G0 F1285.7 X91.081 Y186.116
G1 F900 X88.205 Y183.24 E117.29985
G1 X88.143 Y183.178
G0 F1285.7 X87.52 Y182.06
G1 F900 X91.262 Y185.802 E117.50238
G0 F1285.7 X91.443 Y185.488
G1 F900 X86.834 Y180.879 E117.75182
G1 X86.772 Y180.817
G0 F1285.7 X86.148 Y179.699
G1 F900 X91.624 Y185.175 E118.04819
G0 F1285.7 X91.805 Y184.861
G1 F900 X85.463 Y178.518 E118.39145
G1 X85.401 Y178.456
G0 F1285.7 X84.777 Y177.338
G1 F900 X91.987 Y184.547 E118.78164
G0 F1285.7 X92.168 Y184.233
G1 F900 X84.091 Y176.157 E119.21875
G1 X84.029 Y176.095
G0 F1285.7 X83.406 Y174.976
G1 F900 X92.349 Y183.919 E119.70276
G0 F1285.7 X92.53 Y183.605
G1 F900 X82.72 Y173.796 E120.23366
G1 X82.658 Y173.734
G0 F1285.7 X82.034 Y172.615
G1 F900 X92.711 Y183.291 E120.81149
G0 F1285.7 X92.893 Y182.978
G1 F900 X81.349 Y171.435 E121.43623
G1 X81.287 Y171.373
G0 F1285.7 X80.663 Y170.254
G1 F900 X93.074 Y182.664 E122.10791
G0 F1285.7 X93.255 Y182.35
G1 F900 X79.978 Y169.074 E122.82645
G1 X79.916 Y169.012
G0 F1285.7 X79.292 Y167.893
G1 F900 X93.436 Y182.036 E123.59191
G0 F1285.7 X93.617 Y181.722
G1 F900 X78.606 Y166.712 E124.4043
G1 X78.544 Y166.65
G0 F1285.7 X77.921 Y165.532
G1 F900 X93.799 Y181.409 E125.26361
G0 F1285.7 X93.98 Y181.095
G1 F900 X77.235 Y164.351 E126.16984
G1 X77.173 Y164.289
G0 F1285.7 X76.55 Y163.171
G1 F900 X94.161 Y180.781 E127.12295
G0 F1285.7 X94.342 Y180.467
G1 F900 X75.864 Y161.99 E128.12297
G1 X75.802 Y161.928
G0 F1285.7 X75.179 Y160.81
G1 F900 X94.523 Y180.154 E129.16989
G0 F1285.7 X94.704 Y179.84
G1 F900 X74.493 Y159.629 E130.26374
G1 X74.431 Y159.567
G0 F1285.7 X73.808 Y158.449
G1 F900 X94.885 Y179.526 E131.40445
G0 F1285.7 X95.066 Y179.212
G1 F900 X73.122 Y157.268 E132.59209
G1 X73.06 Y157.206
G0 F1285.7 X72.436 Y156.087
G1 F900 X95.247 Y178.898 E133.82665
G0 F1285.7 X95.429 Y178.585
G1 F900 X71.751 Y154.907 E135.10813
G1 X71.689 Y154.845
G0 F1285.7 X71.065 Y153.726
G1 F900 X95.61 Y178.271 E136.43654
G0 F1285.7 X95.791 Y177.957
G1 F900 X70.38 Y152.546 E137.81182
G1 X70.318 Y152.484
G0 F1285.7 X69.694 Y151.365
G1 F900 X95.972 Y177.643 E139.23402
G0 F1285.7 X96.154 Y177.33
G1 F900 X69.009 Y150.185 E140.70314
G1 X68.947 Y150.123
G0 F1285.7 X68.323 Y149.004
G1 F900 X96.335 Y177.016 E142.21918
G0 F1285.7 X96.516 Y176.702
G1 F900 X67.638 Y147.824 E143.7821
G1 X67.576 Y147.762
G0 F1285.7 X66.952 Y146.643
G1 F900 X96.697 Y176.388 E145.39193
G0 F1285.7 X96.878 Y176.074
G1 F900 X66.266 Y145.462 E147.04869
G1 X66.204 Y145.4
G0 F1285.7 X65.581 Y144.282
G1 F900 X97.06 Y175.761 E148.75238
G0 F1285.7 X97.241 Y175.447
G1 F900 X64.895 Y143.101 E150.50299
G1 X64.833 Y143.039
G0 F1285.7 X64.21 Y141.921
G1 F900 X97.422 Y175.133 E152.30046
G0 F1285.7 X97.603 Y174.819
G1 F900 X63.524 Y140.74 E154.14486
G1 X63.462 Y140.678
G0 F1285.7 X62.839 Y139.56
G1 F900 X97.785 Y174.506 E156.03618
G0 F1285.7 X97.966 Y174.192
G1 F900 X62.153 Y138.379 E157.97443
G1 X62.091 Y138.317
G0 F1285.7 X61.467 Y137.198
G1 F900 X98.147 Y173.878 E159.9596
G0 F1285.7 X98.328 Y173.564
G1 F900 X60.782 Y136.018 E161.99163
G1 X60.72 Y135.956
G0 F1285.7 X60.096 Y134.837
G1 F900 X98.509 Y173.25 E164.07059
G0 F1285.7 X98.69 Y172.937
G1 F900 X59.411 Y133.657 E166.19645
G1 X59.349 Y133.595
G0 F1285.7 X58.725 Y132.476
G1 F900 X98.871 Y172.623 E168.36923
G0 F1285.7 X99.052 Y172.309
G1 F900 X58.04 Y131.296 E170.58888
G1 X57.978 Y131.234
G0 F1285.7 X57.354 Y130.115
G1 F900 X99.233 Y171.995 E172.85545
G0 F1285.7 X99.415 Y171.681
G1 F900 X56.668 Y128.935 E175.16895
G1 X56.606 Y128.873
G0 F1285.7 X55.983 Y127.754
G1 F900 X99.596 Y171.368 E177.52936
G0 F1285.7 X99.777 Y171.054
G1 F900 X55.297 Y126.573 E179.9367
G1 X55.235 Y126.511
G0 F1285.7 X54.611 Y125.393
G1 F900 X99.958 Y170.74 E182.39094
G0 F1285.7 X100.139 Y170.426
G1 F900 X53.926 Y124.212 E184.89208
G1 X53.864 Y124.15
G0 F1285.7 X53.24 Y123.032
G1 F900 X100.321 Y170.112 E187.44013
G0 F1285.7 X100.502 Y169.798
G1 F900 X52.555 Y121.851 E190.03509
G1 X52.493 Y121.789
G0 F1285.7 X51.869 Y120.671
G1 F900 X100.683 Y169.485 E192.67696
G0 F1285.7 X100.864 Y169.171
G1 F900 X51.183 Y119.49 E195.36576
G1 X51.121 Y119.428
G0 F1285.7 X50.498 Y118.309
G1 F900 X101.045 Y168.857 E198.10146
G0 F1285.7 X101.227 Y168.543
G1 F900 X49.812 Y117.129 E200.88407
G1 X49.75 Y117.067
G0 F1285.7 X49.126 Y115.948
G1 F900 X101.408 Y168.229 E203.71361
G0 F1285.7 X101.589 Y167.915
G1 F900 X48.441 Y114.768 E206.59003
G1 X48.379 Y114.706
G0 F1285.7 X47.755 Y113.587
G1 F900 X101.77 Y167.601 E209.51336
G0 F1285.7 X101.952 Y167.288
G1 F900 X47.07 Y112.407 E212.48362
G1 X47.008 Y112.345
G0 F1285.7 X46.384 Y111.226
G1 F900 X102.133 Y166.974 E215.5008
G0 F1285.7 X102.314 Y166.66
G1 F900 X45.699 Y110.046 E218.56484
G1 X45.637 Y109.984
G0 F1285.7 X45.013 Y108.865
G1 F900 X102.495 Y166.346 E221.67582
G0 F1285.7 X102.676 Y166.032
G1 F900 X44.327 Y107.684 E224.83371
G1 X44.265 Y107.622
G0 F1285.7 X43.642 Y106.504
G1 F900 X102.857 Y165.719 E228.0385
G0 F1285.7 X103.038 Y165.405
G1 F900 X42.956 Y105.323 E231.29022
G1 X42.894 Y105.261
G0 F1285.7 X42.271 Y104.143
G1 F900 X103.219 Y165.091 E234.5888
G0 F1285.7 X103.4 Y164.777
G1 F900 X41.585 Y102.962 E237.93431
G1 X41.523 Y102.9
G0 F1285.7 X41.311 Y102.193
G1 F900 X103.582 Y164.464 E241.30449
G0 F1285.7 X103.763 Y164.15
G1 F900 X41.492 Y101.879 E244.67468
G0 F1285.7 X41.673 Y101.565
G1 F900 X103.944 Y163.836 E248.04486
G0 F1285.7 X104.125 Y163.522
G1 F900 X41.855 Y101.252 E251.415
G0 F1285.7 X42.036 Y100.938
G1 F900 X104.306 Y163.208 E254.78513
G0 F1285.7 X104.488 Y162.895
G1 F900 X42.217 Y100.624 E258.15531
G0 F1285.7 X42.398 Y100.31
G1 F900 X104.669 Y162.581 E261.5255
G0 F1285.7 X104.85 Y162.267
G1 F900 X42.579 Y99.996 E264.89569
G0 F1285.7 X42.76 Y99.682
G1 F900 X105.031 Y161.953 E268.26587
G0 F1285.7 X105.213 Y161.64
G1 F900 X42.941 Y99.369 E271.63608
G0 F1285.7 X43.122 Y99.055
G1 F900 X105.394 Y161.326 E275.0063
G0 F1285.7 X105.575 Y161.012
G1 F900 X43.303 Y98.741 E278.37651
G0 F1285.7 X43.485 Y98.427
G1 F900 X105.756 Y160.698 E281.7467
G0 F1285.7 X105.937 Y160.384
G1 F900 X43.666 Y98.113 E285.11688
G0 F1285.7 X43.847 Y97.799
G1 F900 X106.119 Y160.071 E288.48712
G0 F1285.7 X106.3 Y159.757
G1 F900 X44.028 Y97.485 E291.85736
G0 F1285.7 X44.21 Y97.172
G1 F900 X106.481 Y159.443 E295.22755
G0 F1285.7 X106.662 Y159.129
G1 F900 X44.391 Y96.858 E298.59773
G0 F1285.7 X44.572 Y96.544
G1 F900 X106.843 Y158.815 E301.96792
G0 F1285.7 X107.024 Y158.502
G1 F900 X44.753 Y96.23 E305.33813
G0 F1285.7 X44.934 Y95.916
G1 F900 X107.205 Y158.188 E308.70835
G0 F1285.7 X107.386 Y157.874
G1 F900 X45.116 Y95.603 E312.0785
G0 F1285.7 X45.297 Y95.289
G1 F900 X107.567 Y157.56 E315.44866
G0 F1285.7 X107.749 Y157.247
G1 F900 X45.478 Y94.975 E318.81888
G0 F1285.7 X45.659 Y94.661
G1 F900 X107.93 Y156.933 E322.18909
G0 F1285.7 X108.111 Y156.619
G1 F900 X45.841 Y94.348 E325.55925
G0 F1285.7 X46.022 Y94.034
G1 F900 X108.292 Y156.305 E328.92941
G0 F1285.7 X108.473 Y155.991
G1 F900 X46.203 Y93.72 E332.29957
G0 F1285.7 X46.384 Y93.406
G1 F900 X108.655 Y155.678 E335.66978
G0 F1285.7 X108.836 Y155.364
G1 F900 X46.565 Y93.092 E339.03999
G0 F1285.7 X46.746 Y92.779
G1 F900 X109.017 Y155.05 E342.41018
G0 F1285.7 X109.198 Y154.736
G1 F900 X46.927 Y92.465 E345.78036
G0 F1285.7 X47.108 Y92.151
G1 F900 X109.38 Y154.422 E349.15058
G0 F1285.7 X109.561 Y154.108
G1 F900 X47.289 Y91.837 E352.52079
G0 F1285.7 X47.471 Y91.524
G1 F900 X109.742 Y153.795 E355.89097
G0 F1285.7 X109.923 Y153.481
G1 F900 X47.652 Y91.21 E359.26116
G0 F1285.7 X47.833 Y90.896
G1 F900 X110.104 Y153.167 E362.63135
G0 F1285.7 X110.286 Y152.853
G1 F900 X48.014 Y90.582 E366.00156
G0 F1285.7 X48.195 Y90.268
G1 F900 X110.467 Y152.539 E369.37177
G0 F1285.7 X110.648 Y152.225
G1 F900 X48.377 Y89.955 E372.74193
G0 F1285.7 X48.558 Y89.641
G1 F900 X110.829 Y151.911 E376.11209
G0 F1285.7 X111.01 Y151.598
G1 F900 X48.739 Y89.327 E379.48228
G0 F1285.7 X48.92 Y89.013
G1 F900 X111.191 Y151.284 E382.85246
G0 F1285.7 X111.372 Y150.97
G1 F900 X49.102 Y88.7 E386.22259
G0 F1285.7 X49.283 Y88.386
G1 F900 X111.553 Y150.656 E389.59272
G0 F1285.7 X111.734 Y150.342
G1 F900 X49.464 Y88.072 E392.96286
G0 F1285.7 X49.645 Y87.758
G1 F900 X111.916 Y150.029 E396.33304
G0 F1285.7 X112.097 Y149.715
G1 F900 X49.826 Y87.444 E399.70323
G0 F1285.7 X50.008 Y87.131
G1 F900 X112.278 Y149.401 E403.07336
G0 F1285.7 X112.459 Y149.087
G1 F900 X50.189 Y86.817 E406.44349
G0 F1285.7 X50.37 Y86.503
G1 F900 X112.641 Y148.774 E409.81368
G0 F1285.7 X112.822 Y148.46
G1 F900 X50.551 Y86.189 E413.18386
G0 F1285.7 X50.732 Y85.875
G1 F900 X113.003 Y148.146 E416.55405
G0 F1285.7 X113.184 Y147.832
G1 F900 X50.913 Y85.562 E419.92421
G0 F1285.7 X51.094 Y85.248
G1 F900 X113.365 Y147.518 E423.29437
G0 F1285.7 X113.547 Y147.205
G1 F900 X51.275 Y84.934 E426.66458
G0 F1285.7 X51.456 Y84.62
G1 F900 X113.728 Y146.891 E430.03479
G0 F1285.7 X113.909 Y146.577
G1 F900 X51.638 Y84.306 E433.40498
G0 F1285.7 X51.819 Y83.992
G1 F900 X114.09 Y146.263 E436.77516
G0 F1285.7 X114.271 Y145.949
G1 F900 X52 Y83.679 E440.14532
G0 F1285.7 X52.181 Y83.365
G1 F900 X114.453 Y145.636 E443.51554
G0 F1285.7 X114.634 Y145.322
G1 F900 X52.363 Y83.051 E446.88572
G0 F1285.7 X52.544 Y82.737
G1 F900 X114.815 Y145.008 E450.25591
G0 F1285.7 X114.996 Y144.694
G1 F900 X52.725 Y82.423 E453.62609
G0 F1285.7 X52.906 Y82.109
