;FLAVOR:Marlin
;TIME:12827
;Filament used: 22.6177m
;Layer height: 0.3
;MINX:18.732
;MINY:21.881
;MINZ:0.26
;MAXX:197.481
;MAXY:199.358
;MAXZ:24.26
;Generated with Cura_SteamEngine 4.9.1
M82 ;absolute extrusion mode
;Begin Start Gcode for Dagoma DiscoEasy 200
;Sliced: 01-08-2021 01:47:25
;Initial extruder: 0

G90 ;Absolute positioning
M106 S255 ;Fan on full
G28 X Y ;Home stop X Y
G1 X100 ;Centre back during cooldown in case of oozing
M109 R90 ;Cooldown in case too hot
G28 ;Centre
G29 ;Auto-level
M104 S205 ;Pre-heat
M107 ;Fan off
G0 X100 Y5 Z0.5 ;Front centre for degunk
M109 S205 ;Wait for initial temp
M83 ;E Relative
G1 E10 F200 ;Degunk
G1 E-3 F5000 ;Retract
G0 Z3 ;Withdraw
M82 ;E absolute
G92 E0 ;E reset
G1 F6000 ;Set feedrate

;Finish Start Gcode for Dagoma DiscoEasy 200

G92 E0
G92 E0
G1 F3000 E-3.5
;LAYER_COUNT:81
;LAYER:0
M107
G0 F1285.7 X39.484 Y38.703 Z0.26
;TYPE:SKIRT
G1 F3000 E0
G1 F900 X40.161 Y38.011 E0.03705
G1 X40.523 Y37.698 E0.05536
G1 X40.933 Y37.449 E0.07372
G1 X41.533 Y37.221 E0.09828
G1 X41.948 Y37.096 E0.11487
G1 X44.726 Y36.29 E0.22557
G1 X45.453 Y36.09 E0.25442
G1 X46.097 Y35.989 E0.27937
G1 X46.377 Y35.978 E0.29009
G1 X48.677 Y35.914 E0.37815
G1 X51.375 Y35.762 E0.48156
G1 X54.136 Y35.528 E0.5876
G1 X56.89 Y35.215 E0.69368
G1 X59.569 Y34.834 E0.79723
G1 X62.307 Y34.366 E0.90353
G1 X64.959 Y33.835 E1.00704
G1 X67.678 Y33.21 E1.11381
G1 X70.307 Y32.526 E1.21777
G1 X72.967 Y31.754 E1.32376
G1 X75.589 Y30.911 E1.42917
G1 X78.156 Y30.006 E1.53333
G1 X80.715 Y29.02 E1.63828
G1 X83.267 Y27.956 E1.74409
G1 X85.763 Y26.828 E1.84891
G1 X88.233 Y25.629 E1.95399
G1 X90.682 Y24.351 E2.0597
G1 X92.216 Y23.507 E2.12671
G1 X93.02 Y23.055 E2.16201
G1 X93.54 Y22.827 E2.18373
G1 X94.094 Y22.653 E2.20596
G1 X95.777 Y22.166 E2.27301
G1 X96.462 Y21.978 E2.30019
G1 X96.933 Y21.89 E2.31853
G1 X97.412 Y21.881 E2.33686
G1 X98.016 Y21.983 E2.3603
G1 X100.464 Y22.623 E2.45714
G1 X103.17 Y23.249 E2.56343
G1 X105.866 Y23.792 E2.66868
G1 X108.547 Y24.255 E2.7728
G1 X111.297 Y24.65 E2.87912
G1 X114.007 Y24.961 E2.98351
G1 X116.738 Y25.196 E3.08841
G1 X119.488 Y25.355 E3.19382
G1 X119.962 Y25.422 E3.21214
G1 X120.419 Y25.567 E3.23049
G1 X121.1 Y25.965 E3.26068
G1 X121.372 Y26.179 E3.27392
G1 X123.576 Y27.862 E3.38005
G1 X125.752 Y29.429 E3.48267
G1 X128.059 Y30.994 E3.58935
G1 X130.38 Y32.474 E3.6947
G1 X132.72 Y33.873 E3.79903
G1 X135.128 Y35.222 E3.90466
G1 X137.571 Y36.502 E4.01021
G1 X138.899 Y37.161 E4.06695
G1 X139.479 Y37.542 E4.0935
G1 X139.647 Y37.691 E4.1021
G1 X140.096 Y38.12 E4.12586
G1 X145.963 Y43.869 E4.44021
G1 X146.457 Y44.369 E4.46711
G1 X146.766 Y44.74 E4.48559
G1 X147.422 Y45.676 E4.52933
G1 X149.052 Y47.931 E4.63582
G1 X150.745 Y50.137 E4.74223
G1 X152.447 Y52.232 E4.84553
G1 X154.243 Y54.317 E4.95085
G1 X156.114 Y56.371 E5.05717
G1 X158 Y58.325 E5.1611
G1 X159.974 Y60.261 E5.26691
G1 X161.984 Y62.121 E5.37172
G1 X164.051 Y63.929 E5.47681
G1 X166.185 Y65.69 E5.5827
G1 X168.339 Y67.37 E5.68724
G1 X170.539 Y68.986 E5.7917
G1 X172.846 Y70.584 E5.8991
G1 X173.414 Y70.958 E5.92513
G1 X174.028 Y71.416 E5.95444
G1 X174.409 Y71.777 E5.97453
G1 X180.37 Y77.617 E6.29389
G1 X180.88 Y78.132 E6.32162
G1 X181.083 Y78.359 E6.33328
G1 X181.372 Y78.787 E6.35304
G1 X181.557 Y79.126 E6.36782
G1 X182.558 Y81.027 E6.45004
G1 X183.916 Y83.441 E6.55604
G1 X185.326 Y85.787 E6.66079
G1 X186.813 Y88.109 E6.76631
G1 X188.356 Y90.376 E6.87125
G1 X189.979 Y92.621 E6.97727
G1 X191.633 Y94.775 E7.0812
G1 X192.591 Y95.958 E7.13946
G1 X192.968 Y96.436 E7.16276
G1 X193.159 Y96.708 E7.17547
G1 X193.378 Y97.134 E7.19381
G1 X193.524 Y97.591 E7.21217
G1 X193.588 Y98.018 E7.22869
G1 X193.664 Y99.039 E7.26787
G1 X193.908 Y101.806 E7.37417
G1 X194.23 Y104.556 E7.48013
G1 X194.625 Y107.269 E7.58505
G1 X195.097 Y109.97 E7.68999
G1 X195.644 Y112.652 E7.79474
G1 X196.264 Y115.307 E7.89908
G1 X196.973 Y117.994 E8.00543
G1 X197.371 Y119.377 E8.0605
G1 X197.481 Y120.065 E8.08716
G1 X197.465 Y120.702 E8.11155
G1 X197.401 Y121.038 E8.12464
G1 X197.262 Y121.586 E8.14628
G1 X196.845 Y123.156 E8.20844
G1 X196.648 Y123.854 E8.2362
G1 X196.406 Y124.447 E8.26071
G1 X196.337 Y124.574 E8.26624
G1 X195.039 Y127.032 E8.37262
G1 X193.819 Y129.508 E8.47825
G1 X192.682 Y131.991 E8.58276
G1 X191.597 Y134.549 E8.6891
G1 X190.601 Y137.092 E8.79361
G1 X189.663 Y139.711 E8.90008
G1 X188.833 Y142.247 E9.00219
G1 X188.04 Y144.925 E9.10908
G1 X187.331 Y147.593 E9.21473
G1 X186.714 Y150.209 E9.31759
G1 X186.145 Y152.962 E9.42517
G1 X185.667 Y155.681 E9.53082
G1 X185.274 Y158.349 E9.63402
G1 X184.946 Y161.108 E9.74035
G1 X184.7 Y163.827 E9.84483
G1 X184.531 Y166.563 E9.94974
G1 X184.44 Y169.294 E10.05431
G1 X184.438 Y170.169 E10.0878
G1 X184.415 Y171.562 E10.14111
G1 X184.33 Y172.208 E10.16605
G1 X184.096 Y173.151 E10.20323
G1 X183.412 Y175.707 E10.30449
G1 X183.23 Y176.347 E10.32995
G1 X183.061 Y176.796 E10.34831
G1 X182.82 Y177.21 E10.36664
G1 X182.349 Y177.744 E10.39389
G1 X180.397 Y179.755 E10.50115
G1 X178.562 Y181.755 E10.60502
G1 X176.747 Y183.852 E10.71116
G1 X175.015 Y185.968 E10.8158
G1 X173.327 Y188.156 E10.92156
G1 X171.726 Y190.357 E11.02572
G1 X170.164 Y192.637 E11.13148
G1 X168.68 Y194.94 E11.23633
G1 X167.312 Y197.197 E11.33733
G1 X166.875 Y197.941 E11.37035
G1 X166.599 Y198.333 E11.3887
G1 X166.261 Y198.673 E11.40705
G1 X165.872 Y198.952 E11.42537
G1 X165.442 Y199.163 E11.4437
G1 X164.982 Y199.3 E11.46207
G1 X164.507 Y199.358 E11.48038
G1 X164.028 Y199.336 E11.49873
G1 X163.56 Y199.236 E11.51704
G1 X163.114 Y199.059 E11.53541
G1 X162.705 Y198.81 E11.55373
G1 X162.297 Y198.461 E11.57428
G1 X161.999 Y198.175 E11.59009
G1 X95.864 Y133.331 E15.13463
G1 X93.866 Y131.427 E15.24026
G1 X91.845 Y129.607 E15.34434
G1 X89.731 Y127.808 E15.45057
G1 X87.602 Y126.099 E15.55505
G1 X85.414 Y124.442 E15.66008
G1 X83.172 Y122.841 E15.76551
G1 X80.878 Y121.3 E15.87127
G1 X78.586 Y119.852 E15.97502
G1 X76.192 Y118.434 E16.08151
G1 X73.817 Y117.115 E16.18547
G1 X73.035 Y116.706 E16.21925
G1 X72.498 Y116.414 E16.24264
G1 X71.901 Y115.982 E16.27084
G1 X71.343 Y115.457 E16.30016
G1 X70.895 Y115.005 E16.32451
G1 X70.499 Y114.504 E16.34895
G1 X70.361 Y114.281 E16.35899
G1 X69.194 Y112.337 E16.44576
G1 X67.703 Y110.008 E16.55159
G1 X66.172 Y107.759 E16.65571
G1 X64.555 Y105.522 E16.76134
G1 X62.897 Y103.357 E16.8657
G1 X61.171 Y101.233 E16.97044
G1 X59.352 Y99.12 E17.07714
G1 X57.523 Y97.112 E17.18108
G1 X55.621 Y95.138 E17.28599
G1 X53.635 Y93.193 E17.39237
G1 X51.636 Y91.341 E17.49666
G1 X49.551 Y89.518 E17.60265
G1 X47.457 Y87.788 E17.70659
G1 X45.276 Y86.087 E17.81244
G1 X43.074 Y84.468 E17.91704
G1 X40.811 Y82.902 E18.02236
G1 X38.495 Y81.393 E18.12814
G1 X36.174 Y79.973 E18.23227
G1 X34.049 Y78.749 E18.32612
G1 X33.504 Y78.342 E18.35215
G1 X33.083 Y77.942 E18.37437
G1 X32.531 Y77.384 E18.40441
G1 X32.224 Y77.016 E18.42275
G1 X32.051 Y76.738 E18.43528
G1 X31.584 Y75.878 E18.47273
G1 X30.233 Y73.468 E18.57847
G1 X28.834 Y71.13 E18.68274
G1 X27.354 Y68.808 E18.78811
G1 X25.808 Y66.529 E18.8935
G1 X24.205 Y64.303 E18.99848
G1 X22.547 Y62.134 E19.10296
G1 X20.799 Y59.975 E19.20927
G1 X19.98 Y59.02 E19.25742
G1 X19.4 Y58.326 E19.29203
G1 X19.124 Y57.934 E19.31038
G1 X18.918 Y57.501 E19.32873
G1 X18.786 Y57.041 E19.34704
G1 X18.732 Y56.565 E19.36538
G1 X18.758 Y56.086 E19.38373
G1 X18.864 Y55.619 E19.40206
G1 X19.045 Y55.175 E19.42041
G1 X19.298 Y54.768 E19.43875
G1 X19.615 Y54.408 E19.45711
G1 X20.088 Y54.04 E19.48004
G1 X22.481 Y52.552 E19.58788
G1 X24.752 Y51.05 E19.69208
G1 X27.007 Y49.464 E19.79758
G1 X29.23 Y47.806 E19.90371
G1 X31.364 Y46.119 E20.00782
G1 X33.46 Y44.361 E20.11251
G1 X35.557 Y42.501 E20.21978
G1 X37.529 Y40.649 E20.32331
G1 X39.484 Y38.703 E20.42887
G0 F1285.7 X39.739 Y38.943
G1 F900 X40.411 Y38.256 E20.46565
G1 X40.752 Y37.964 E20.48283
G1 X41.14 Y37.738 E20.50002
G1 X41.641 Y37.554 E20.52044
G1 X42.045 Y37.432 E20.53659
G1 X44.819 Y36.627 E20.64713
G1 X45.546 Y36.427 E20.67599
G1 X46.111 Y36.339 E20.69787
G1 X46.386 Y36.328 E20.7084
G1 X48.673 Y36.264 E20.79596
G1 X51.425 Y36.109 E20.90144
G1 X54.167 Y35.876 E21.00676
G1 X56.914 Y35.565 E21.11256
G1 X59.637 Y35.178 E21.21781
G1 X62.366 Y34.711 E21.32377
G1 X65.031 Y34.178 E21.42777
G1 X67.743 Y33.554 E21.53427
G1 X70.425 Y32.856 E21.64033
G1 X73.072 Y32.088 E21.74581
G1 X75.692 Y31.246 E21.85112
G1 X78.286 Y30.331 E21.95639
G1 X80.845 Y29.345 E22.06134
G1 X83.403 Y28.278 E22.16741
G1 X85.918 Y27.142 E22.27302
G1 X88.378 Y25.948 E22.37767
G1 X90.873 Y24.646 E22.48537
G1 X92.364 Y23.825 E22.55051
G1 X93.191 Y23.36 E22.58681
G1 X93.891 Y23.081 E22.61565
G1 X94.221 Y22.981 E22.62885
G1 X95.87 Y22.503 E22.69455
G1 X96.555 Y22.315 E22.72174
G1 X96.997 Y22.235 E22.73893
G1 X97.446 Y22.235 E22.75611
G1 X97.928 Y22.321 E22.77485
G1 X100.406 Y22.969 E22.87287
G1 X103.09 Y23.59 E22.9783
G1 X105.812 Y24.139 E23.08456
G1 X108.506 Y24.603 E23.18918
G1 X111.208 Y24.991 E23.29364
G1 X113.972 Y25.308 E23.40011
G1 X116.722 Y25.545 E23.50575
G1 X119.468 Y25.704 E23.61101
G1 X119.912 Y25.77 E23.62819
G1 X120.337 Y25.913 E23.64535
G1 X120.883 Y26.241 E23.66972
G1 X121.127 Y26.432 E23.68158
G1 X123.369 Y28.145 E23.78956
G1 X125.571 Y29.729 E23.89337
G1 X127.861 Y31.282 E23.99926
G1 X130.198 Y32.772 E24.10532
G1 X132.554 Y34.181 E24.21038
G1 X134.949 Y35.524 E24.31546
G1 X137.428 Y36.822 E24.42255
G1 X138.744 Y37.475 E24.47877
G1 X139.253 Y37.809 E24.50207
G1 X139.405 Y37.944 E24.50985
G1 X139.851 Y38.37 E24.53346
G1 X145.714 Y44.115 E24.84759
G1 X146.208 Y44.615 E24.87449
G1 X146.48 Y44.941 E24.89074
G1 X147.16 Y45.911 E24.93607
G1 X148.757 Y48.121 E25.04042
G1 X150.458 Y50.339 E25.14739
G1 X152.191 Y52.471 E25.25253
G1 X153.984 Y54.554 E25.35771
G1 X155.851 Y56.602 E25.46377
G1 X157.75 Y58.571 E25.56846
G1 X159.739 Y60.52 E25.67503
G1 X161.746 Y62.378 E25.7797
G1 X163.826 Y64.197 E25.88544
G1 X165.957 Y65.956 E25.99119
G1 X168.126 Y67.648 E26.09646
G1 X170.359 Y69.288 E26.20249
G1 X172.614 Y70.85 E26.30747
G1 X173.215 Y71.246 E26.33501
G1 X173.791 Y71.674 E26.36247
G1 X174.166 Y72.028 E26.38221
G1 X180.151 Y77.893 E26.7029
G1 X180.632 Y78.378 E26.72904
G1 X181.065 Y78.956 E26.75667
G1 X181.247 Y79.289 E26.7712
G1 X182.243 Y81.182 E26.85306
G1 X183.617 Y83.624 E26.96029
G1 X185.028 Y85.971 E27.06509
G1 X186.525 Y88.309 E27.17133
G1 X188.062 Y90.568 E27.2759
G1 X189.681 Y92.807 E27.38164
G1 X191.382 Y95.022 E27.48851
G1 X192.317 Y96.174 E27.54529
G1 X192.694 Y96.652 E27.56859
G1 X193.065 Y97.294 E27.59697
G1 X193.194 Y97.724 E27.61415
G1 X193.239 Y98.044 E27.62652
G1 X193.315 Y99.07 E27.66589
G1 X193.56 Y101.843 E27.77242
G1 X193.88 Y104.578 E27.8778
G1 X194.282 Y107.34 E27.98462
G1 X194.753 Y110.031 E28.08917
G1 X195.302 Y112.726 E28.19442
G1 X195.929 Y115.416 E28.30013
G1 X196.628 Y118.065 E28.40497
G1 X197.034 Y119.474 E28.46109
G1 X197.131 Y120.078 E28.4845
G1 X197.114 Y120.685 E28.50774
G1 X197.062 Y120.952 E28.51815
G1 X196.924 Y121.497 E28.53966
G1 X196.508 Y123.061 E28.6016
G1 X196.311 Y123.759 E28.62935
G1 X196.099 Y124.28 E28.65088
G1 X196.013 Y124.438 E28.65776
G1 X194.721 Y126.884 E28.76363
G1 X193.507 Y129.349 E28.86878
G1 X192.361 Y131.851 E28.9741
G1 X191.274 Y134.414 E29.08064
G1 X190.266 Y136.989 E29.18646
G1 X189.345 Y139.558 E29.2909
G1 X188.485 Y142.187 E29.39676
G1 X187.701 Y144.836 E29.50248
G1 X187.005 Y147.455 E29.60619
G1 X186.362 Y150.182 E29.71341
G1 X185.801 Y152.899 E29.81959
G1 X185.328 Y155.586 E29.924
G1 X184.923 Y158.331 E30.03018
G1 X184.603 Y161.016 E30.13366
G1 X184.351 Y163.812 E30.2411
G1 X184.183 Y166.513 E30.34467
G1 X184.09 Y169.314 E30.45192
G1 X184.088 Y170.164 E30.48445
G1 X184.065 Y171.557 E30.53776
G1 X183.991 Y172.124 E30.55965
G1 X183.757 Y173.061 E30.59661
G1 X183.076 Y175.612 E30.69765
G1 X182.894 Y176.252 E30.72311
G1 X182.733 Y176.671 E30.74029
G1 X182.501 Y177.055 E30.75746
G1 X182.097 Y177.499 E30.78043
G1 X180.152 Y179.505 E30.88736
G1 X178.287 Y181.538 E30.99294
G1 X176.477 Y183.629 E31.09878
G1 X174.747 Y185.743 E31.20332
G1 X173.06 Y187.929 E31.30899
G1 X171.422 Y190.18 E31.41553
G1 X169.878 Y192.435 E31.52012
G1 X168.377 Y194.764 E31.62615
G1 X167.012 Y197.016 E31.72693
G1 X166.573 Y197.764 E31.76012
G1 X166.312 Y198.129 E31.7773
G1 X165.991 Y198.443 E31.79448
G1 X165.619 Y198.694 E31.81166
G1 X165.208 Y198.876 E31.82886
G1 X164.772 Y198.982 E31.84603
G1 X164.324 Y199.009 E31.8632
G1 X163.878 Y198.956 E31.88039
G1 X163.448 Y198.825 E31.8976
G1 X163.049 Y198.621 E31.91475
G1 X162.534 Y198.203 E31.94013
G1 X162.244 Y197.925 E31.9555
G1 X96.109 Y133.081 E35.50005
G1 X94.113 Y131.178 E35.60559
G1 X92.049 Y129.32 E35.71187
G1 X89.966 Y127.549 E35.8165
G1 X87.822 Y125.827 E35.92174
G1 X85.602 Y124.145 E36.02833
G1 X83.377 Y122.557 E36.13294
G1 X81.074 Y121.01 E36.23911
G1 X78.756 Y119.545 E36.34405
G1 X76.382 Y118.139 E36.44964
G1 X73.999 Y116.815 E36.55397
G1 X73.202 Y116.398 E36.58839
G1 X72.665 Y116.106 E36.61179
G1 X72.141 Y115.727 E36.63653
G1 X71.583 Y115.202 E36.66586
G1 X71.144 Y114.759 E36.68972
G1 X70.797 Y114.319 E36.71117
G1 X70.661 Y114.101 E36.721
G1 X69.492 Y112.154 E36.80791
G1 X68.019 Y109.852 E36.9125
G1 X66.438 Y107.529 E37.02003
G1 X64.85 Y105.331 E37.12381
G1 X63.17 Y103.138 E37.22953
G1 X61.428 Y100.994 E37.33525
G1 X59.628 Y98.904 E37.44081
G1 X57.768 Y96.862 E37.54651
G1 X55.87 Y94.893 E37.65117
G1 X53.87 Y92.934 E37.75831
G1 X51.876 Y91.087 E37.86233
G1 X49.795 Y89.266 E37.96815
G1 X47.664 Y87.506 E38.07392
G1 X45.488 Y85.809 E38.17953
G1 X43.27 Y84.178 E38.28489
G1 X41.016 Y82.618 E38.38979
G1 X38.699 Y81.108 E38.49563
G1 X36.329 Y79.658 E38.60196
G1 X34.224 Y78.446 E38.69491
G1 X33.745 Y78.089 E38.71778
G1 X33.265 Y77.631 E38.74316
G1 X32.78 Y77.139 E38.7696
G1 X32.359 Y76.571 E38.79666
G1 X31.908 Y75.741 E38.83281
G1 X30.525 Y73.274 E38.94105
G1 X29.132 Y70.947 E39.04484
G1 X27.642 Y68.61 E39.1509
G1 X26.102 Y66.338 E39.25594
G1 X24.487 Y64.096 E39.36169
G1 X22.817 Y61.912 E39.4669
G1 X21.074 Y59.758 E39.57294
G1 X20.249 Y58.795 E39.62147
G1 X19.669 Y58.101 E39.65608
G1 X19.412 Y57.732 E39.67329
G1 X19.226 Y57.324 E39.69045
G1 X19.114 Y56.889 E39.70764
G1 X19.081 Y56.441 E39.72483
G1 X19.128 Y55.995 E39.74199
G1 X19.254 Y55.564 E39.75918
G1 X19.454 Y55.162 E39.77636
G1 X19.722 Y54.801 E39.79357
G1 X20.273 Y54.338 E39.82111
G1 X22.649 Y52.861 E39.92818
G1 X24.953 Y51.337 E40.03389
G1 X27.214 Y49.747 E40.13967
G1 X29.453 Y48.077 E40.24657
G1 X31.575 Y46.399 E40.3501
G1 X33.689 Y44.626 E40.45569
G1 X35.774 Y42.776 E40.56236
G1 X37.767 Y40.904 E40.667
G1 X39.739 Y38.943 E40.77343
G0 F1285.7 X40.005 Y39.172
G1 F900 X40.661 Y38.501 E40.80934
G1 X40.98 Y38.232 E40.82531
G1 X41.543 Y37.954 E40.84934
G1 X42.125 Y37.774 E40.87265
G1 X44.912 Y36.965 E40.98371
G1 X45.639 Y36.765 E41.01257
G1 X46.367 Y36.679 E41.04062
G1 X48.667 Y36.614 E41.12868
G1 X51.472 Y36.457 E41.23619
G1 X54.205 Y36.225 E41.34116
G1 X56.964 Y35.912 E41.44742
G1 X59.676 Y35.526 E41.55226
G1 X62.418 Y35.057 E41.65871
G1 X65.116 Y34.517 E41.76401
G1 X67.833 Y33.893 E41.8707
G1 X70.501 Y33.199 E41.9762
G1 X73.175 Y32.422 E42.08276
G1 X75.815 Y31.574 E42.18888
G1 X78.387 Y30.667 E42.29325
G1 X80.993 Y29.663 E42.40013
G1 X83.54 Y28.6 E42.50575
G1 X86.073 Y27.456 E42.61211
G1 X88.55 Y26.253 E42.71749
G1 X90.992 Y24.979 E42.8229
G1 X92.553 Y24.12 E42.89109
G1 X93.363 Y23.665 E42.92664
G1 X94 Y23.414 E42.95284
G1 X94.318 Y23.317 E42.96557
G1 X95.962 Y22.841 E43.03107
G1 X96.647 Y22.653 E43.05825
G1 X97.058 Y22.581 E43.07422
G1 X97.674 Y22.622 E43.09785
G1 X97.839 Y22.66 E43.10432
G1 X100.307 Y23.305 E43.20195
G1 X103.011 Y23.931 E43.30816
G1 X105.753 Y24.483 E43.4152
G1 X108.437 Y24.947 E43.51944
G1 X111.183 Y25.341 E43.62561
G1 X113.941 Y25.657 E43.73185
G1 X116.707 Y25.896 E43.83809
G1 X119.448 Y26.054 E43.94316
G1 X119.859 Y26.117 E43.95908
G1 X120.251 Y26.259 E43.97503
G1 X120.939 Y26.73 E44.00694
G1 X123.123 Y28.398 E44.11211
G1 X125.381 Y30.023 E44.21857
G1 X127.678 Y31.581 E44.32479
G1 X129.999 Y33.061 E44.43014
G1 X132.399 Y34.496 E44.53715
G1 X134.766 Y35.823 E44.641
G1 X137.248 Y37.123 E44.74822
G1 X138.588 Y37.788 E44.80547
G1 X139.027 Y38.077 E44.82558
