;FLAVOR:Marlin
;TIME:24469
;Filament used: 25.9206m
;Layer height: 0.3
;MINX:13.586
;MINY:8.112
;MINZ:0.26
;MAXX:188.921
;MAXY:185.922
;MAXZ:29.36
;Generated with Cura_SteamEngine 4.9.1
M82 ;absolute extrusion mode
;Begin Start Gcode for Dagoma DiscoEasy 200
;Sliced: 26-07-2021 01:51:30
;Initial extruder: 0

G90 ;Absolute positioning
M106 S255 ;Fan on full
G28 X Y ;Home stop X Y
G1 X100 ;Centre back during cooldown in case of oozing
M109 R90 ;Cooldown in case too hot
G28 ;Centre
G29 ;Auto-level
M104 S205 ;Pre-heat
M107 ;Fan off
G0 X100 Y5 Z0.5 ;Front centre for degunk
M109 S205 ;Wait for initial temp
M83 ;E Relative
G1 E10 F200 ;Degunk
G1 E-3 F5000 ;Retract
G0 Z3 ;Withdraw
M82 ;E absolute
G92 E0 ;E reset
G1 F6000 ;Set feedrate

;Finish Start Gcode for Dagoma DiscoEasy 200

G92 E0
G92 E0
G1 F3000 E-3.5
;LAYER_COUNT:98
;LAYER:0
M107
G0 F1285.7 X37.407 Y14.546 Z0.26
;TYPE:SKIRT
G1 F3000 E0
G1 F900 X38.33 Y11.981 E0.10432
G1 X38.518 Y11.398 E0.12777
G1 X38.57 Y11.274 E0.13291
G1 X38.977 Y10.062 E0.18184
G1 X39.167 Y9.622 E0.20018
G1 X39.427 Y9.22 E0.2185
G1 X39.751 Y8.866 E0.23687
G1 X40.129 Y8.572 E0.25519
G1 X40.55 Y8.344 E0.27352
G1 X41.004 Y8.189 E0.29188
G1 X41.477 Y8.112 E0.31022
G1 X41.956 Y8.114 E0.32855
G1 X42.428 Y8.196 E0.34688
G1 X42.88 Y8.355 E0.36522
G1 X43.299 Y8.587 E0.38355
G1 X43.696 Y8.907 E0.40306
G1 X44.376 Y9.562 E0.43919
G1 X86.794 Y51.98 E2.73491
G1 X88.788 Y53.918 E2.84132
G1 X90.825 Y55.789 E2.94717
G1 X92.901 Y57.59 E3.05235
G1 X95.014 Y59.322 E3.15691
G1 X97.403 Y61.163 E3.27233
G1 X97.916 Y61.57 E3.29739
G1 X98.28 Y61.916 E3.31661
G1 X102.54 Y66.186 E3.54744
G1 X103.019 Y66.68 E3.57377
G1 X103.096 Y66.763 E3.5781
G1 X103.897 Y67.657 E3.62404
G1 X105.393 Y69.375 E3.71122
G1 X107.247 Y71.444 E3.81754
G1 X109.151 Y73.451 E3.92341
G1 X111.093 Y75.387 E4.02835
G1 X113.085 Y77.263 E4.13307
G1 X115.14 Y79.089 E4.23827
G1 X117.25 Y80.863 E4.34377
G1 X119.404 Y82.571 E4.44897
G1 X121.595 Y84.21 E4.55368
G1 X123.822 Y85.779 E4.65794
G1 X126.132 Y87.312 E4.76404
G1 X128.48 Y88.774 E4.86989
G1 X130.853 Y90.161 E4.97508
G1 X133.236 Y91.466 E5.07905
G1 X135.692 Y92.721 E5.1846
G1 X138.168 Y93.899 E5.28953
G1 X138.794 Y94.191 E5.31597
G1 X139.287 Y94.488 E5.338
G1 X139.746 Y94.832 E5.35995
G1 X140.241 Y95.251 E5.38477
G1 X140.514 Y95.526 E5.39959
G1 X141.354 Y96.351 E5.44465
G1 X141.752 Y96.754 E5.46633
G1 X142.26 Y97.36 E5.49659
G1 X143.267 Y98.853 E5.56551
G1 X144.774 Y101.166 E5.67116
G1 X146.34 Y103.429 E5.77647
G1 X147.957 Y105.627 E5.8809
G1 X149.664 Y107.818 E5.98719
G1 X151.39 Y109.908 E6.09093
G1 X153.212 Y111.991 E6.19683
G1 X155.073 Y114.003 E6.30172
G1 X157.009 Y115.976 E6.4075
G1 X158.964 Y117.862 E6.51146
G1 X161.009 Y119.725 E6.61733
G1 X163.114 Y121.537 E6.72362
G1 X165.211 Y123.241 E6.82703
G1 X167.411 Y124.927 E6.9331
G1 X169.628 Y126.53 E7.0378
G1 X171.892 Y128.071 E7.14261
G1 X174.476 Y129.719 E7.25989
G1 X174.958 Y130.069 E7.28269
G1 X175.369 Y130.401 E7.30291
G1 X175.867 Y130.88 E7.32935
G1 X176.083 Y131.093 E7.34096
G1 X177.353 Y132.393 E7.41051
G1 X177.679 Y132.793 E7.43026
G1 X178.274 Y133.676 E7.47101
G1 X178.664 Y134.284 E7.49865
G1 X178.726 Y134.387 E7.50325
G1 X178.956 Y134.864 E7.52352
G1 X179.154 Y135.393 E7.54513
G1 X180.166 Y137.997 E7.65205
G1 X181.221 Y140.497 E7.75589
G1 X182.37 Y143.023 E7.86209
G1 X183.586 Y145.503 E7.9678
G1 X184.854 Y147.917 E8.07215
G1 X186.199 Y150.308 E8.17713
G1 X187.617 Y152.671 E8.2826
G1 X188.032 Y153.346 E8.31292
G1 X188.245 Y153.775 E8.33125
G1 X188.384 Y154.234 E8.3496
G1 X188.444 Y154.709 E8.36793
G1 X188.425 Y155.188 E8.38627
G1 X188.327 Y155.657 E8.40461
G1 X188.152 Y156.103 E8.42294
G1 X187.905 Y156.514 E8.44129
G1 X187.594 Y156.878 E8.45962
G1 X187.172 Y157.222 E8.48045
G1 X186.55 Y157.639 E8.50911
G1 X185.379 Y158.397 E8.56249
G1 X183.081 Y159.978 E8.66924
G1 X180.885 Y161.585 E8.77338
G1 X178.694 Y163.283 E8.87946
G1 X176.595 Y165.008 E8.98343
G1 X174.509 Y166.824 E9.08928
G1 X172.509 Y168.665 E9.1933
G1 X170.609 Y170.535 E9.29533
G1 X170.522 Y170.607 E9.29965
G1 X169.631 Y171.492 E9.34771
G1 X169.235 Y171.821 E9.36741
G1 X168.87 Y172.069 E9.3843
G1 X168.428 Y172.347 E9.40428
G1 X167.998 Y172.569 E9.4228
G1 X167.334 Y172.843 E9.45029
G1 X166.818 Y173.039 E9.47141
G1 X166.357 Y173.171 E9.48977
G1 X165.947 Y173.222 E9.50558
G1 X165.065 Y173.268 E9.53938
G1 X163.992 Y173.308 E9.58047
G1 X163.874 Y173.315 E9.58499
G1 X162.326 Y173.376 E9.64428
G1 X159.548 Y173.526 E9.75075
G1 X156.857 Y173.746 E9.85407
G1 X154.069 Y174.055 E9.96142
G1 X151.389 Y174.429 E10.06498
G1 X148.656 Y174.888 E10.17103
G1 X145.975 Y175.418 E10.27562
G1 X143.301 Y176.026 E10.38056
G1 X140.632 Y176.712 E10.48603
G1 X137.992 Y177.47 E10.59114
G1 X135.402 Y178.295 E10.69516
G1 X132.79 Y179.209 E10.80107
G1 X130.241 Y180.182 E10.90548
G1 X127.691 Y181.239 E11.01112
G1 X125.159 Y182.374 E11.11731
G1 X122.7 Y183.56 E11.22179
G1 X119.837 Y185.042 E11.34516
G1 X119.622 Y185.142 E11.35424
G1 X118.936 Y185.427 E11.38266
G1 X118.454 Y185.612 E11.40242
G1 X117.912 Y185.761 E11.42393
G1 X117.55 Y185.804 E11.43789
G1 X116.096 Y185.882 E11.49361
G1 X115.052 Y185.922 E11.53359
G1 X114.47 Y185.906 E11.55587
G1 X113.897 Y185.865 E11.57786
G1 X113.39 Y185.783 E11.59751
G1 X111.519 Y185.334 E11.67115
G1 X108.846 Y184.77 E11.77569
G1 X106.128 Y184.277 E11.88141
G1 X103.423 Y183.865 E11.98612
G1 X100.699 Y183.528 E12.09116
G1 X97.982 Y183.271 E12.1956
G1 X95.211 Y183.086 E12.30189
G1 X92.483 Y182.983 E12.40636
G1 X88.787 Y182.964 E12.5478
G1 X87.942 Y182.935 E12.58016
G1 X87.476 Y182.823 E12.5985
G1 X87.035 Y182.634 E12.61686
G1 X86.428 Y182.203 E12.64535
G1 X86.016 Y181.809 E12.66717
G1 X48.737 Y144.53 E14.68476
G1 X46.724 Y142.573 E14.7922
G1 X44.709 Y140.722 E14.89691
G1 X42.648 Y138.935 E15.0013
G1 X40.525 Y137.194 E15.10637
G1 X37.721 Y135.044 E15.2416
G1 X37.143 Y134.617 E15.2691
G1 X36.705 Y134.234 E15.29136
G1 X36.444 Y133.977 E15.30538
G1 X31.926 Y129.454 E15.55004
G1 X31.452 Y128.966 E15.57607
G1 X31.214 Y128.688 E15.59008
G1 X29.549 Y126.468 E15.69628
G1 X27.853 Y124.332 E15.80065
G1 X26.076 Y122.222 E15.90622
G1 X24.269 Y120.194 E16.01017
G1 X22.337 Y118.146 E16.11792
G1 X21.326 Y117.119 E16.17307
G1 X14.855 Y110.647 E16.52332
G1 X14.385 Y110.164 E16.54911
G1 X14.08 Y109.794 E16.56746
G1 X13.841 Y109.378 E16.58582
G1 X13.675 Y108.929 E16.60414
G1 X13.586 Y108.458 E16.62248
G1 X13.596 Y107.775 E16.64862
G1 X13.682 Y107.136 E16.6733
G1 X13.921 Y105.529 E16.73547
G1 X14.252 Y102.769 E16.84185
G1 X14.5 Y100.05 E16.94634
G1 X14.672 Y97.314 E17.05125
G1 X14.766 Y94.582 E17.15587
G1 X14.784 Y91.799 E17.26237
G1 X14.724 Y89.07 E17.36684
G1 X14.592 Y86.422 E17.4683
G1 X14.563 Y85.962 E17.48594
G1 X14.598 Y85.301 E17.51127
G1 X14.647 Y85.015 E17.52237
G1 X14.743 Y84.494 E17.54265
G1 X14.797 Y84.255 E17.55203
G1 X15.092 Y83.178 E17.59476
G1 X15.126 Y83.086 E17.59851
G1 X15.5 Y81.8 E17.64977
G1 X15.687 Y81.309 E17.66987
G1 X15.858 Y80.941 E17.6854
G1 X17.176 Y78.36 E17.79631
G1 X18.346 Y75.896 E17.9007
G1 X19.456 Y73.377 E18.00604
G1 X20.508 Y70.799 E18.1126
G1 X21.445 Y68.29 E18.2151
G1 X22.352 Y65.644 E18.32214
G1 X23.168 Y63.028 E18.42701
G1 X23.903 Y60.405 E18.53126
G1 X24.575 Y57.724 E18.63703
G1 X25.174 Y55.015 E18.74321
G1 X25.679 Y52.36 E18.84664
G1 X26.118 Y49.644 E18.95193
G1 X26.484 Y46.896 E19.05802
G1 X26.765 Y44.205 E19.16156
G1 X26.976 Y41.434 E19.26791
G1 X27.123 Y38.11 E19.39525
G1 X27.145 Y37.309 E19.42591
G1 X27.205 Y36.752 E19.44735
G1 X27.315 Y36.127 E19.47164
G1 X27.419 Y35.697 E19.48857
G1 X28.056 Y33.438 E19.57839
G1 X28.307 Y32.803 E19.60452
G1 X28.526 Y32.391 E19.62238
G1 X28.912 Y31.771 E19.65033
G1 X30.341 Y29.405 E19.7561
G1 X31.684 Y27.03 E19.86052
G1 X32.959 Y24.619 E19.9649
G1 X34.195 Y22.114 E20.07179
G1 X35.326 Y19.647 E20.17565
G1 X36.403 Y17.11 E20.28113
G1 X37.407 Y14.546 E20.38651
G0 F1285.7 X37.731 Y14.68
G1 F900 X38.666 Y12.078 E20.49232
G1 X38.851 Y11.506 E20.51533
G1 X38.899 Y11.391 E20.52009
G1 X39.309 Y10.173 E20.56928
G1 X39.489 Y9.762 E20.58645
G1 X39.739 Y9.39 E20.6036
G1 X40.052 Y9.067 E20.62081
G1 X40.416 Y8.805 E20.63798
G1 X40.821 Y8.612 E20.65515
G1 X41.254 Y8.493 E20.67233
G1 X41.702 Y8.453 E20.68954
G1 X42.149 Y8.493 E20.70672
G1 X42.582 Y8.611 E20.72389
G1 X42.987 Y8.805 E20.74108
G1 X43.453 Y9.159 E20.76348
G1 X44.094 Y9.776 E20.79752
G1 X86.55 Y52.231 E23.09527
G1 X88.555 Y54.179 E23.20225
G1 X90.589 Y56.048 E23.30796
G1 X92.657 Y57.842 E23.41273
G1 X94.809 Y59.606 E23.51922
G1 X97.215 Y61.46 E23.63546
G1 X97.677 Y61.825 E23.658
G1 X98.052 Y62.184 E23.67786
G1 X102.289 Y66.429 E23.90739
G1 X102.768 Y66.923 E23.93373
G1 X102.836 Y66.996 E23.93754
G1 X103.633 Y67.887 E23.98329
G1 X105.133 Y69.609 E24.07069
G1 X106.998 Y71.691 E24.17766
G1 X108.898 Y73.693 E24.28329
G1 X110.853 Y75.642 E24.38893
G1 X112.86 Y77.532 E24.49443
G1 X114.887 Y79.334 E24.59823
G1 X117.039 Y81.143 E24.70582
G1 X119.182 Y82.842 E24.81047
G1 X121.394 Y84.496 E24.91617
G1 X123.637 Y86.077 E25.02119
G1 X125.948 Y87.61 E25.12732
G1 X128.278 Y89.061 E25.23237
G1 X130.651 Y90.448 E25.33756
G1 X133.079 Y91.778 E25.4435
G1 X135.554 Y93.042 E25.54986
G1 X138.03 Y94.221 E25.65481
G1 X138.644 Y94.507 E25.68073
G1 X139.077 Y94.768 E25.70008
G1 X139.536 Y95.112 E25.72203
G1 X139.992 Y95.498 E25.74489
G1 X140.269 Y95.776 E25.75991
G1 X141.105 Y96.597 E25.80475
G1 X141.503 Y97 E25.82643
G1 X141.97 Y97.556 E25.85421
G1 X142.974 Y99.044 E25.92291
G1 X144.49 Y101.371 E26.02919
G1 X146.05 Y103.625 E26.1341
G1 X147.679 Y105.84 E26.23932
G1 X149.381 Y108.025 E26.34531
G1 X151.138 Y110.152 E26.45089
G1 X152.957 Y112.231 E26.55661
G1 X154.814 Y114.238 E26.66125
G1 X156.746 Y116.208 E26.76685
G1 X158.752 Y118.142 E26.87348
G1 X160.772 Y119.984 E26.9781
G1 X162.875 Y121.794 E27.08429
G1 X165.009 Y123.527 E27.18949
G1 X167.203 Y125.209 E27.29529
G1 X169.398 Y126.796 E27.39895
G1 X171.717 Y128.374 E27.50629
G1 X174.288 Y130.014 E27.623
G1 X174.738 Y130.341 E27.64429
G1 X175.149 Y130.673 E27.6645
G1 X175.622 Y131.13 E27.68967
G1 X175.832 Y131.338 E27.70099
G1 X177.102 Y132.638 E27.77054
G1 X177.389 Y132.989 E27.78789
G1 X177.98 Y133.866 E27.82836
G1 X178.364 Y134.465 E27.85559
G1 X178.628 Y134.987 E27.87798
G1 X178.827 Y135.52 E27.89975
G1 X179.837 Y138.118 E28.00642
G1 X180.911 Y140.662 E28.1121
G1 X182.057 Y143.18 E28.21797
G1 X183.267 Y145.649 E28.3232
G1 X184.531 Y148.056 E28.42724
G1 X185.909 Y150.506 E28.53481
G1 X187.306 Y152.834 E28.63872
G1 X187.732 Y153.527 E28.66985
G1 X187.93 Y153.93 E28.68703
G1 X188.053 Y154.362 E28.70422
G1 X188.097 Y154.809 E28.72141
G1 X188.061 Y155.257 E28.73861
G1 X187.947 Y155.691 E28.75578
G1 X187.758 Y156.098 E28.77295
G1 X187.499 Y156.465 E28.79014
G1 X186.978 Y156.932 E28.81692
G1 X186.359 Y157.345 E28.8454
G1 X185.175 Y158.111 E28.89936
G1 X182.908 Y159.671 E29.00468
G1 X180.673 Y161.306 E29.11065
G1 X178.485 Y163.003 E29.21662
G1 X176.353 Y164.754 E29.3222
G1 X174.29 Y166.55 E29.42688
G1 X172.242 Y168.435 E29.5334
G1 X170.363 Y170.285 E29.63431
G1 X170.285 Y170.35 E29.6382
G1 X169.384 Y171.244 E29.68677
G1 X168.77 Y171.715 E29.71639
G1 X168.683 Y171.772 E29.72037
G1 X168.241 Y172.05 E29.74035
G1 X167.864 Y172.246 E29.75661
G1 X167.28 Y172.488 E29.7808
G1 X166.694 Y172.711 E29.8048
G1 X166.261 Y172.833 E29.82201
G1 X165.929 Y172.873 E29.83481
G1 X165.052 Y172.918 E29.86842
G1 X164.008 Y172.957 E29.9084
G1 X163.86 Y172.965 E29.91407
G1 X162.297 Y173.027 E29.97393
G1 X159.571 Y173.174 E30.07841
G1 X156.794 Y173.401 E30.18504
G1 X154.052 Y173.705 E30.29061
G1 X151.317 Y174.086 E30.39629
G1 X148.599 Y174.543 E30.50177
G1 X145.905 Y175.075 E30.60686
G1 X143.205 Y175.689 E30.71282
G1 X140.559 Y176.37 E30.81738
G1 X137.89 Y177.136 E30.92365
G1 X135.248 Y177.978 E31.02977
G1 X132.691 Y178.872 E31.13343
G1 X130.125 Y179.852 E31.23855
G1 X127.509 Y180.936 E31.34692
G1 X125.048 Y182.039 E31.45012
G1 X122.529 Y183.255 E31.55717
G1 X119.676 Y184.731 E31.6801
G1 X119.487 Y184.819 E31.68808
G1 X118.811 Y185.1 E31.71609
G1 X118.329 Y185.285 E31.73585
G1 X117.824 Y185.421 E31.75587
G1 X117.531 Y185.454 E31.76715
G1 X116.083 Y185.532 E31.82265
G1 X115.039 Y185.572 E31.86263
G1 X114.485 Y185.557 E31.88384
G1 X113.923 Y185.516 E31.9054
G1 X113.427 Y185.432 E31.92465
G1 X111.623 Y184.999 E31.99565
G1 X108.885 Y184.421 E32.10274
G1 X106.203 Y183.934 E32.20706
G1 X103.484 Y183.52 E32.31232
G1 X100.74 Y183.181 E32.41813
G1 X97.968 Y182.918 E32.52468
G1 X95.247 Y182.737 E32.62905
G1 X92.498 Y182.633 E32.73432
G1 X88.783 Y182.614 E32.8765
G1 X87.967 Y182.585 E32.90774
G1 X87.533 Y182.472 E32.92491
G1 X87.125 Y182.284 E32.9421
G1 X86.666 Y181.946 E32.96391
G1 X86.26 Y181.558 E32.98541
G1 X48.981 Y144.279 E35.00299
G1 X46.953 Y142.308 E35.11122
G1 X44.964 Y140.481 E35.21458
G1 X42.85 Y138.648 E35.32165
G1 X40.745 Y136.921 E35.42585
G1 X37.918 Y134.754 E35.56217
G1 X37.351 Y134.335 E35.58915
G1 X36.95 Y133.984 E35.60954
G1 X36.692 Y133.73 E35.6234
G1 X32.177 Y129.21 E35.86789
G1 X31.703 Y128.722 E35.89393
G1 X31.494 Y128.478 E35.90622
G1 X29.823 Y126.25 E36.0128
G1 X28.132 Y124.12 E36.11688
G1 X26.339 Y121.991 E36.2234
G1 X24.503 Y119.931 E36.32901
G1 X22.629 Y117.944 E36.43353
G1 X21.576 Y116.873 E36.49101
G1 X15.105 Y110.403 E36.8412
G1 X14.635 Y109.92 E36.86699
G1 X14.352 Y109.572 E36.88416
G1 X14.135 Y109.179 E36.90134
G1 X13.991 Y108.753 E36.91855
G1 X13.924 Y108.309 E36.93573
G1 X13.943 Y107.822 E36.95438
G1 X14.028 Y107.187 E36.9789
G1 X14.271 Y105.552 E37.04216
G1 X14.596 Y102.842 E37.14661
G1 X14.849 Y100.069 E37.25318
G1 X15.021 Y97.348 E37.35751
G1 X15.116 Y94.561 E37.46423
G1 X15.134 Y91.797 E37.57001
G1 X15.075 Y89.097 E37.67337
G1 X14.941 Y86.404 E37.77655
G1 X14.912 Y85.941 E37.79431
G1 X14.943 Y85.36 E37.81657
G1 X14.991 Y85.078 E37.82752
G1 X15.087 Y84.557 E37.84779
G1 X15.135 Y84.348 E37.856
G1 X15.43 Y83.271 E37.89873
G1 X15.465 Y83.176 E37.90261
G1 X15.837 Y81.898 E37.95355
G1 X16.122 Y81.198 E37.98247
G1 X16.17 Y81.1 E37.98665
G1 X17.484 Y78.527 E38.09721
G1 X18.662 Y76.045 E38.20235
G1 X19.78 Y73.508 E38.30845
G1 X20.835 Y70.924 E38.41526
G1 X21.788 Y68.371 E38.51955
G1 X22.672 Y65.794 E38.62381
G1 X23.504 Y63.126 E38.73077
G1 X24.247 Y60.474 E38.83616
G1 X24.915 Y57.809 E38.94131
G1 X25.515 Y55.094 E39.04772
G1 X26.02 Y52.441 E39.15107
G1 X26.467 Y49.677 E39.25822
G1 X26.831 Y46.94 E39.36389
G1 X27.114 Y44.233 E39.46805
G1 X27.323 Y41.476 E39.57386
G1 X27.474 Y38.089 E39.70361
G1 X27.495 Y37.319 E39.73308
G1 X27.552 Y36.8 E39.75307
G1 X27.566 Y36.71 E39.75655
G1 X27.659 Y36.188 E39.77684
G1 X27.756 Y35.792 E39.79244
G1 X28.393 Y33.533 E39.88227
G1 X28.626 Y32.948 E39.90637
G1 X28.823 Y32.575 E39.92251
G1 X29.21 Y31.956 E39.95045
G1 X30.624 Y29.614 E40.05514
G1 X31.991 Y27.196 E40.16144
G1 X33.277 Y24.766 E40.26666
G1 X34.507 Y22.272 E40.37308
G1 X35.652 Y19.775 E40.4782
G1 X36.726 Y17.245 E40.58339
G1 X37.731 Y14.68 E40.68882
G0 F1285.7 X38.054 Y14.816
G1 F900 X38.997 Y12.194 E40.79545
G1 X39.184 Y11.613 E40.81881
G1 X39.227 Y11.513 E40.82297
G1 X39.64 Y10.285 E40.87256
G1 X39.81 Y9.905 E40.88849
G1 X40.05 Y9.564 E40.90444
G1 X40.35 Y9.274 E40.92041
G1 X40.699 Y9.048 E40.93632
G1 X41.086 Y8.892 E40.95229
G1 X41.495 Y8.813 E40.96823
G1 X41.912 Y8.813 E40.98419
G1 X42.321 Y8.893 E41.00014
G1 X42.707 Y9.049 E41.01607
G1 X43.21 Y9.411 E41.03979
G1 X43.881 Y10.057 E41.07544
G1 X86.306 Y52.482 E43.37153
G1 X88.321 Y54.441 E43.47908
G1 X90.351 Y56.304 E43.58452
G1 X92.436 Y58.114 E43.69019
G1 X94.568 Y59.862 E43.7957
G1 X97.002 Y61.737 E43.91328
G1 X97.438 Y62.081 E43.93453
G1 X97.805 Y62.431 E43.95394
G1 X102.037 Y66.673 E44.18325
G1 X102.575 Y67.23 E44.21289
G1 X103.369 Y68.117 E44.25845
G1 X104.872 Y69.843 E44.34603
G1 X106.731 Y71.918 E44.45265
G1 X108.644 Y73.934 E44.55901
G1 X110.614 Y75.898 E44.66546
G1 X112.593 Y77.762 E44.7695
G1 X114.683 Y79.619 E44.8765
G1 X116.823 Y81.418 E44.98349
G1 X118.946 Y83.102 E45.08719
G1 X121.193 Y84.783 E45.19458
G1 X123.453 Y86.375 E45.30038
G1 X125.756 Y87.903 E45.40615
G1 X128.101 Y89.363 E45.51186
G1 X130.476 Y90.751 E45.61713
G1 X132.922 Y92.091 E45.72387
G1 X135.386 Y93.35 E45.82976
