;FLAVOR:Marlin
;TIME:12996
;Filament used: 22.696m
;Layer height: 0.3
;MINX:15.803
;MINY:19.606
;MINZ:0.26
;MAXX:191.214
;MAXY:195.131
;MAXZ:24.26
;Generated with Cura_SteamEngine 4.9.1
M82 ;absolute extrusion mode
;Begin Start Gcode for Dagoma DiscoEasy 200
;Sliced: 01-08-2021 01:39:29
;Initial extruder: 0

G90 ;Absolute positioning
M106 S255 ;Fan on full
G28 X Y ;Home stop X Y
G1 X100 ;Centre back during cooldown in case of oozing
M109 R90 ;Cooldown in case too hot
G28 ;Centre
G29 ;Auto-level
M104 S205 ;Pre-heat
M107 ;Fan off
G0 X100 Y5 Z0.5 ;Front centre for degunk
M109 S205 ;Wait for initial temp
M83 ;E Relative
G1 E10 F200 ;Degunk
G1 E-3 F5000 ;Retract
G0 Z3 ;Withdraw
M82 ;E absolute
G92 E0 ;E reset
G1 F6000 ;Set feedrate

;Finish Start Gcode for Dagoma DiscoEasy 200

G92 E0
G92 E0
G1 F3000 E-3.5
;LAYER_COUNT:81
;LAYER:0
M107
G0 F1285.7 X17.5 Y48.238 Z0.26
;TYPE:SKIRT
G1 F3000 E0
G1 F900 X17.977 Y48.067 E0.01939
G1 X18.361 Y47.955 E0.0347
G1 X21.726 Y47.017 E0.16839
G1 X24.387 Y46.235 E0.27453
G1 X27.019 Y45.379 E0.38045
G1 X29.591 Y44.464 E0.48492
G1 X32.096 Y43.489 E0.58779
G1 X34.704 Y42.391 E0.69608
G1 X37.182 Y41.262 E0.80029
G1 X39.643 Y40.057 E0.90516
G1 X40.659 Y39.521 E0.94912
G1 X41.7 Y38.989 E0.99386
G1 X42.346 Y38.744 E1.0203
G1 X42.713 Y38.638 E1.03492
G1 X44.917 Y38.026 E1.12245
G1 X45.768 Y37.803 E1.15612
G1 X48.787 Y37.056 E1.27514
G1 X49.643 Y36.833 E1.30899
G1 X50.462 Y36.632 E1.34127
G1 X51.295 Y36.416 E1.3742
G1 X51.923 Y36.299 E1.39865
G1 X52.404 Y36.258 E1.41712
G1 X55.18 Y35.979 E1.52389
G1 X57.862 Y35.631 E1.62739
G1 X60.595 Y35.199 E1.73328
G1 X63.288 Y34.695 E1.83813
G1 X65.985 Y34.109 E1.94375
G1 X68.616 Y33.461 E2.04745
G1 X71.31 Y32.715 E2.15442
G1 X73.912 Y31.915 E2.2586
G1 X76.522 Y31.031 E2.36406
G1 X79.085 Y30.081 E2.46866
G1 X81.647 Y29.048 E2.57438
G1 X84.16 Y27.95 E2.67933
G1 X86.67 Y26.77 E2.78547
G1 X88.172 Y26.021 E2.8497
G1 X88.624 Y25.842 E2.86831
G1 X89.72 Y25.511 E2.91212
G1 X89.976 Y25.44 E2.92229
G1 X91.534 Y25.029 E2.98395
G1 X92.305 Y24.837 E3.01436
G1 X93.606 Y24.494 E3.06585
G1 X94.266 Y24.326 E3.09191
G1 X94.815 Y24.191 E3.11355
G1 X96.531 Y23.753 E3.18133
G1 X97.305 Y23.549 E3.21196
G1 X97.996 Y23.383 E3.23915
G1 X98.513 Y23.306 E3.25916
G1 X99.555 Y23.24 E3.29911
G1 X102.291 Y23.027 E3.40414
G1 X105.044 Y22.735 E3.51008
G1 X107.761 Y22.367 E3.61501
G1 X110.454 Y21.926 E3.71944
G1 X113.195 Y21.396 E3.82628
G1 X115.504 Y20.886 E3.91678
G1 X116.021 Y20.766 E3.93709
G1 X116.495 Y20.697 E3.95542
G1 X116.974 Y20.708 E3.97376
G1 X117.445 Y20.798 E3.99211
G1 X117.845 Y20.942 E4.00838
G1 X118.729 Y21.338 E4.04545
G1 X119.453 Y21.676 E4.07602
G1 X121.935 Y22.748 E4.17949
G1 X124.551 Y23.793 E4.2873
G1 X127.082 Y24.718 E4.39042
G1 X129.686 Y25.59 E4.49551
G1 X132.302 Y26.384 E4.60014
G1 X134.983 Y27.116 E4.70649
G1 X137.619 Y27.756 E4.8103
G1 X139.238 Y28.094 E4.8736
G1 X140.497 Y28.37 E4.92292
G1 X140.955 Y28.511 E4.94126
G1 X141.383 Y28.726 E4.95959
G1 X141.853 Y29.086 E4.98225
G1 X142.168 Y29.384 E4.99884
G1 X143.473 Y30.683 E5.06931
G1 X143.98 Y31.204 E5.09713
G1 X144.386 Y31.727 E5.12247
G1 X144.884 Y32.546 E5.15915
G1 X145.276 Y33.211 E5.18869
G1 X146.748 Y35.553 E5.29455
G1 X148.258 Y37.813 E5.39857
G1 X149.831 Y40.029 E5.50257
G1 X151.515 Y42.263 E5.60963
G1 X153.224 Y44.402 E5.71441
G1 X154.999 Y46.499 E5.81955
G1 X156.826 Y48.538 E5.92432
G1 X158.746 Y50.563 E6.03111
G1 X160.64 Y52.449 E6.1334
G1 X162.684 Y54.375 E6.24088
G1 X164.712 Y56.178 E6.34473
G1 X166.832 Y57.958 E6.45067
G1 X168.983 Y59.664 E6.55573
G1 X171.174 Y61.303 E6.66045
G1 X173.426 Y62.889 E6.76586
G1 X175.693 Y64.394 E6.86999
G1 X179.23 Y66.564 E7.02879
G1 X179.7 Y66.924 E7.05145
G1 X180.046 Y67.252 E7.0697
G1 X181.318 Y68.53 E7.1387
G1 X181.825 Y69.054 E7.1666
G1 X182.129 Y69.425 E7.18496
G1 X182.366 Y69.841 E7.20328
G1 X182.574 Y70.467 E7.22853
G1 X182.768 Y71.399 E7.26496
G1 X183.365 Y74.097 E7.37071
G1 X184.015 Y76.686 E7.47286
G1 X184.785 Y79.422 E7.58164
G1 X185.599 Y82.031 E7.68623
G1 X186.488 Y84.613 E7.79073
G1 X187.449 Y87.173 E7.89538
G1 X188.49 Y89.723 E8.00078
G1 X189.674 Y92.397 E8.1127
G1 X189.982 Y93.066 E8.14088
G1 X190.145 Y93.516 E8.1592
G1 X190.231 Y93.987 E8.17752
G1 X190.238 Y94.467 E8.19589
G1 X190.178 Y94.887 E8.21213
G1 X189.867 Y96.293 E8.26724
G1 X189.815 Y96.513 E8.27589
G1 X189.254 Y99.239 E8.3824
G1 X188.775 Y101.966 E8.48836
G1 X188.383 Y104.635 E8.59159
G1 X188.061 Y107.364 E8.69676
G1 X187.725 Y111.418 E8.85243
G1 X187.661 Y112.453 E8.89212
G1 X187.571 Y113.008 E8.91364
G1 X187.394 Y113.682 E8.9403
G1 X186.813 Y115.848 E9.02613
G1 X186.568 Y116.821 E9.06452
G1 X186.323 Y117.814 E9.10367
G1 X185.86 Y119.557 E9.17268
G1 X185.477 Y121.023 E9.23067
G1 X185.314 Y121.608 E9.25391
G1 X185.136 Y122.216 E9.27815
G1 X184.953 Y122.692 E9.29767
G1 X184.422 Y123.779 E9.34397
G1 X184.108 Y124.401 E9.37063
G1 X182.936 Y126.9 E9.47626
G1 X181.84 Y129.419 E9.58139
G1 X180.829 Y131.934 E9.68513
G1 X179.867 Y134.538 E9.79136
G1 X178.997 Y137.118 E9.89556
G1 X178.184 Y139.77 E10.00171
G1 X177.458 Y142.404 E10.10627
G1 X176.793 Y145.105 E10.21273
G1 X176.214 Y147.8 E10.31822
G1 X175.72 Y150.454 E10.42153
G1 X175.295 Y153.161 E10.52639
G1 X174.943 Y155.908 E10.63238
G1 X174.662 Y158.738 E10.74121
G1 X174.555 Y159.504 E10.77081
G1 X173.963 Y161.789 E10.86115
G1 X173.367 Y164.128 E10.95352
G1 X173.209 Y164.774 E10.97897
G1 X173.056 Y165.379 E11.00285
G1 X172.472 Y167.609 E11.09107
G1 X172.338 Y168.093 E11.11029
G1 X172.141 Y168.762 E11.13698
G1 X171.931 Y169.282 E11.15844
G1 X171.443 Y170.215 E11.19874
G1 X170.194 Y172.686 E11.30469
G1 X169.049 Y175.118 E11.40756
G1 X167.917 Y177.709 E11.51577
G1 X166.888 Y180.255 E11.62086
G1 X165.963 Y182.755 E11.72287
G1 X165.068 Y185.398 E11.82966
G1 X163.918 Y189.219 E11.98237
G1 X163.027 Y192.418 E12.10945
G1 X162.836 Y193.069 E12.13542
G1 X162.663 Y193.516 E12.15376
G1 X162.418 Y193.928 E12.1721
G1 X162.109 Y194.294 E12.19044
G1 X161.743 Y194.603 E12.20877
G1 X161.33 Y194.847 E12.22712
G1 X160.883 Y195.02 E12.24547
G1 X160.414 Y195.115 E12.26378
G1 X159.935 Y195.131 E12.28212
G1 X159.46 Y195.068 E12.30046
G1 X159.002 Y194.926 E12.31881
G1 X158.574 Y194.711 E12.33714
G1 X158.114 Y194.361 E12.35926
G1 X157.861 Y194.122 E12.37258
G1 X92.199 Y128.461 E15.92626
G1 X90.205 Y126.523 E16.03268
G1 X88.147 Y124.633 E16.13961
G1 X86.11 Y122.867 E16.24278
G1 X83.982 Y121.123 E16.34807
G1 X81.809 Y119.443 E16.45319
G1 X79.567 Y117.81 E16.55933
G1 X77.327 Y116.272 E16.66332
G1 X75.017 Y114.78 E16.76856
G1 X72.66 Y113.352 E16.87402
G1 X70.249 Y111.982 E16.98015
G1 X69.037 Y111.329 E17.03283
G1 X68.899 Y111.25 E17.03892
G1 X68.352 Y110.835 E17.06519
G1 X67.851 Y110.349 E17.09191
G1 X67.384 Y109.867 E17.11759
G1 X66.992 Y109.358 E17.14218
G1 X66.711 Y108.894 E17.16294
G1 X65.795 Y107.328 E17.23237
G1 X64.35 Y105.011 E17.33687
G1 X62.81 Y102.692 E17.4434
G1 X61.24 Y100.467 E17.54761
G1 X59.6 Y98.276 E17.65235
G1 X57.894 Y96.125 E17.75741
G1 X56.111 Y94.005 E17.86343
G1 X54.309 Y91.981 E17.96713
G1 X52.379 Y89.933 E18.07483
G1 X50.497 Y88.046 E18.17682
G1 X48.471 Y86.125 E18.28367
G1 X46.423 Y84.293 E18.38882
G1 X44.334 Y82.526 E18.49353
G1 X42.173 Y80.802 E18.59933
G1 X39.983 Y79.153 E18.70424
G1 X37.761 Y77.577 E18.80849
G1 X35.446 Y76.03 E18.91505
G1 X33.15 Y74.589 E19.01878
G1 X31.208 Y73.439 E19.10516
G1 X30.9 Y73.26 E19.11879
G1 X30.401 Y72.892 E19.14252
G1 X29.912 Y72.419 E19.16855
G1 X29.384 Y71.875 E19.19757
G1 X29.08 Y71.504 E19.21592
G1 X28.908 Y71.22 E19.22863
G1 X28.432 Y70.318 E19.26766
G1 X27.116 Y67.915 E19.37251
G1 X25.735 Y65.556 E19.47712
G1 X24.278 Y63.217 E19.58258
G1 X22.73 Y60.885 E19.68969
G1 X21.194 Y58.707 E19.79169
G1 X19.515 Y56.463 E19.89894
G1 X17.826 Y54.333 E20.00297
G1 X17.033 Y53.391 E20.0501
G1 X16.453 Y52.683 E20.08512
G1 X16.181 Y52.288 E20.10348
G1 X15.979 Y51.854 E20.1218
G1 X15.851 Y51.392 E20.14014
G1 X15.803 Y50.915 E20.15849
G1 X15.833 Y50.437 E20.17682
G1 X15.943 Y49.971 E20.19514
G1 X16.129 Y49.529 E20.21349
G1 X16.386 Y49.124 E20.23185
G1 X16.706 Y48.768 E20.25017
G1 X17.081 Y48.47 E20.2685
G1 X17.5 Y48.238 E20.28683
G0 F1285.7 X17.519 Y48.617
G1 F900 X18.083 Y48.4 E20.30995
G1 X18.455 Y48.292 E20.32478
G1 X21.85 Y47.346 E20.45965
G1 X24.484 Y46.572 E20.56472
G1 X27.102 Y45.721 E20.67007
G1 X29.735 Y44.783 E20.77703
G1 X32.247 Y43.806 E20.88018
G1 X34.814 Y42.725 E20.98677
G1 X37.339 Y41.574 E21.09297
G1 X39.805 Y40.367 E21.19804
G1 X40.818 Y39.833 E21.24187
G1 X41.859 Y39.301 E21.2866
G1 X42.45 Y39.079 E21.31077
G1 X42.807 Y38.975 E21.325
G1 X45.005 Y38.365 E21.41229
G1 X45.852 Y38.143 E21.4458
G1 X48.882 Y37.393 E21.56526
G1 X49.726 Y37.173 E21.59863
G1 X50.556 Y36.969 E21.63134
G1 X51.314 Y36.772 E21.66132
G1 X51.953 Y36.648 E21.68623
G1 X52.456 Y36.605 E21.70555
G1 X55.191 Y36.33 E21.81074
G1 X57.928 Y35.976 E21.91636
G1 X60.645 Y35.546 E22.02163
G1 X63.351 Y35.039 E22.12699
G1 X66.075 Y34.448 E22.23366
G1 X68.725 Y33.795 E22.33811
G1 X71.363 Y33.064 E22.44287
G1 X74.049 Y32.239 E22.5504
G1 X76.613 Y31.37 E22.654
G1 X79.238 Y30.397 E22.76114
G1 X81.776 Y29.374 E22.86586
G1 X84.307 Y28.268 E22.97157
G1 X86.801 Y27.095 E23.07704
G1 X88.328 Y26.334 E23.14233
G1 X88.725 Y26.177 E23.15867
G1 X89.813 Y25.849 E23.20216
G1 X90.065 Y25.779 E23.21217
G1 X91.618 Y25.369 E23.27364
G1 X92.41 Y25.172 E23.30487
G1 X93.693 Y24.833 E23.35565
G1 X94.35 Y24.666 E23.3816
G1 X94.902 Y24.53 E23.40335
G1 X96.618 Y24.093 E23.47112
G1 X97.451 Y23.873 E23.50409
G1 X98.078 Y23.723 E23.52876
G1 X98.535 Y23.655 E23.54645
G1 X99.59 Y23.588 E23.5869
G1 X102.32 Y23.376 E23.69169
G1 X105.093 Y23.081 E23.79841
G1 X107.796 Y22.716 E23.90279
G1 X110.542 Y22.266 E24.00928
G1 X113.225 Y21.747 E24.11386
G1 X115.587 Y21.226 E24.20643
G1 X116.1 Y21.107 E24.22658
G1 X116.545 Y21.045 E24.24378
G1 X116.993 Y21.063 E24.26094
G1 X117.432 Y21.159 E24.27813
G1 X117.702 Y21.262 E24.28919
G1 X118.581 Y21.656 E24.32606
G1 X119.28 Y21.982 E24.35557
G1 X121.809 Y23.074 E24.46099
G1 X124.402 Y24.111 E24.56787
G1 X127.002 Y25.061 E24.6738
G1 X129.575 Y25.922 E24.77764
G1 X132.209 Y26.722 E24.88298
G1 X134.877 Y27.45 E24.98882
G1 X137.563 Y28.102 E25.0946
G1 X139.163 Y28.436 E25.15715
G1 X140.422 Y28.712 E25.20647
G1 X140.85 Y28.846 E25.22364
G1 X141.248 Y29.055 E25.24084
G1 X141.873 Y29.585 E25.2722
G1 X143.223 Y30.927 E25.34505
G1 X143.73 Y31.448 E25.37287
G1 X144.087 Y31.909 E25.39518
G1 X144.583 Y32.724 E25.4317
G1 X144.985 Y33.406 E25.46199
G1 X146.447 Y35.732 E25.56713
G1 X147.966 Y38.005 E25.67175
G1 X149.582 Y40.281 E25.77858
G1 X151.225 Y42.46 E25.88301
G1 X152.967 Y44.641 E25.98984
G1 X154.733 Y46.728 E26.09446
G1 X156.551 Y48.757 E26.19872
G1 X158.492 Y50.805 E26.3067
G1 X160.4 Y52.704 E26.40972
G1 X162.44 Y54.626 E26.51699
G1 X164.485 Y56.444 E26.6217
G1 X166.621 Y58.238 E26.72845
G1 X168.761 Y59.935 E26.83297
G1 X170.973 Y61.589 E26.93867
G1 X173.216 Y63.17 E27.04369
G1 X175.524 Y64.702 E27.14971
G1 X179.047 Y66.863 E27.30787
G1 X179.46 Y67.178 E27.32775
G1 X179.798 Y67.499 E27.34559
G1 X181.067 Y68.773 E27.41441
G1 X181.574 Y69.297 E27.44231
G1 X181.856 Y69.646 E27.45948
G1 X182.072 Y70.04 E27.47668
G1 X182.231 Y70.538 E27.49668
G1 X182.425 Y71.47 E27.53311
G1 X183.019 Y74.155 E27.63835
G1 X183.684 Y76.803 E27.74284
G1 X184.449 Y79.521 E27.85089
G1 X185.255 Y82.103 E27.95441
G1 X186.162 Y84.739 E28.06109
G1 X187.13 Y87.316 E28.16644
G1 X188.171 Y89.867 E28.27188
G1 X189.356 Y92.543 E28.38388
G1 X189.664 Y93.212 E28.41207
G1 X189.814 Y93.635 E28.42924
G1 X189.888 Y94.078 E28.44643
G1 X189.882 Y94.527 E28.46362
G1 X189.836 Y94.812 E28.47466
G1 X189.527 Y96.212 E28.52953
G1 X189.466 Y96.472 E28.53975
G1 X188.91 Y99.17 E28.64517
G1 X188.434 Y101.881 E28.75051
G1 X188.04 Y104.563 E28.85425
G1 X187.71 Y107.352 E28.96173
G1 X187.375 Y111.397 E29.11706
G1 X187.311 Y112.432 E29.15674
G1 X187.233 Y112.919 E29.17562
G1 X187.056 Y113.591 E29.20221
G1 X186.475 Y115.757 E29.28803
G1 X186.232 Y116.722 E29.32611
G1 X185.985 Y117.724 E29.36561
G1 X185.518 Y119.48 E29.43515
G1 X185.14 Y120.929 E29.49245
G1 X184.978 Y121.509 E29.5155
G1 X184.8 Y122.117 E29.53974
G1 X184.638 Y122.539 E29.55704
G1 X184.109 Y123.621 E29.60314
G1 X183.799 Y124.236 E29.62949
G1 X182.624 Y126.741 E29.73538
G1 X181.527 Y129.261 E29.84056
G1 X180.496 Y131.825 E29.94632
G1 X179.539 Y134.416 E30.05202
G1 X178.647 Y137.061 E30.15885
G1 X177.846 Y139.675 E30.26347
G1 X177.126 Y142.289 E30.36724
G1 X176.453 Y145.024 E30.47503
G1 X175.872 Y147.726 E30.58079
G1 X175.373 Y150.405 E30.68508
G1 X174.951 Y153.092 E30.78917
G1 X174.596 Y155.864 E30.89612
G1 X174.314 Y158.704 E31.00534
G1 X174.216 Y159.416 E31.03285
G1 X173.636 Y161.655 E31.12136
G1 X173.52 Y162.112 E31.1394
G1 X173.028 Y164.042 E31.21563
G1 X172.871 Y164.684 E31.24092
G1 X172.716 Y165.296 E31.26508
G1 X172.135 Y167.515 E31.35286
G1 X172.002 Y167.994 E31.37189
G1 X171.805 Y168.663 E31.39858
G1 X171.62 Y169.12 E31.41744
G1 X171.132 Y170.053 E31.45774
G1 X169.904 Y172.482 E31.5619
G1 X168.713 Y175.011 E31.66888
G1 X167.606 Y177.547 E31.77477
G1 X166.565 Y180.121 E31.88103
G1 X165.616 Y182.687 E31.98573
G1 X164.741 Y185.269 E32.09006
G1 X163.566 Y189.175 E32.24616
G1 X162.691 Y192.32 E32.37109
G1 X162.5 Y192.971 E32.39705
G1 X162.336 Y193.389 E32.41423
G1 X162.1 Y193.771 E32.43142
G1 X161.8 Y194.105 E32.4486
G1 X161.446 Y194.381 E32.46578
G1 X161.049 Y194.59 E32.48295
G1 X160.621 Y194.726 E32.50013
G1 X160.175 Y194.783 E32.51734
G1 X159.727 Y194.761 E32.53451
G1 X159.29 Y194.659 E32.55168
G1 X158.877 Y194.482 E32.56888
G1 X158.353 Y194.105 E32.59358
G1 X158.109 Y193.874 E32.60644
G1 X92.443 Y128.21 E36.16031
G1 X90.438 Y126.262 E36.26729
G1 X88.407 Y124.396 E36.37284
G1 X86.334 Y122.598 E36.47786
G1 X84.187 Y120.838 E36.5841
G1 X82.019 Y119.163 E36.68895
G1 X79.785 Y117.536 E36.79471
G1 X77.505 Y115.97 E36.90057
G1 X75.193 Y114.477 E37.00589
G1 X72.829 Y113.044 E37.11168
G1 X70.448 Y111.692 E37.21647
G1 X69.122 Y110.976 E37.27414
G1 X69.076 Y110.949 E37.27618
G1 X68.596 Y110.583 E37.29928
G1 X68.037 Y110.04 E37.3291
G1 X67.635 Y109.624 E37.35124
G1 X67.291 Y109.177 E37.37283
G1 X67.013 Y108.718 E37.39337
G1 X66.078 Y107.119 E37.46425
G1 X64.642 Y104.818 E37.56805
G1 X63.108 Y102.507 E37.6742
G1 X61.526 Y100.265 E37.77921
G1 X59.874 Y98.058 E37.88471
G1 X58.17 Y95.91 E37.98964
G1 X56.377 Y93.778 E38.09625
G1 X54.559 Y91.737 E38.20085
G1 X52.649 Y89.709 E38.30746
G1 X50.717 Y87.772 E38.41216
G1 X48.715 Y85.874 E38.51774
G1 X46.654 Y84.03 E38.62357
G1 X44.524 Y82.229 E38.73032
G1 X42.409 Y80.541 E38.83388
G1 X40.209 Y78.884 E38.93928
G1 X37.931 Y77.269 E39.04614
G1 X35.657 Y75.75 E39.1508
G1 X33.328 Y74.288 E39.25603
G1 X31.366 Y73.126 E39.3433
G1 X31.076 Y72.957 E39.35614
G1 X30.638 Y72.634 E39.37697
G1 X30.157 Y72.17 E39.40255
G1 X29.635 Y71.632 E39.43123
G1 X29.218 Y71.056 E39.45845
G1 X28.758 Y70.187 E39.49608
G1 X27.399 Y67.706 E39.60433
G1 X26.027 Y65.363 E39.70824
G1 X24.57 Y63.024 E39.8137
G1 X23.032 Y60.706 E39.92016
G1 X21.474 Y58.497 E40.02361
G1 X19.803 Y56.263 E40.13037
G1 X18.079 Y54.09 E40.23652
G1 X17.304 Y53.169 E40.28259
G1 X16.724 Y52.461 E40.31761
G1 X16.471 Y52.09 E40.3348
G1 X16.288 Y51.68 E40.35198
G1 X16.181 Y51.244 E40.36916
G1 X16.153 Y50.796 E40.38634
G1 X16.204 Y50.35 E40.40352
G1 X16.334 Y49.92 E40.42071
G1 X16.538 Y49.52 E40.4379
G1 X16.809 Y49.162 E40.45508
G1 X17.14 Y48.858 E40.47228
G1 X17.519 Y48.617 E40.48947
G0 F1285.7 X17.577 Y48.985
G1 F900 X18.189 Y48.734 E40.51478
G1 X18.549 Y48.629 E40.52913
G1 X21.914 Y47.691 E40.66282
G1 X24.628 Y46.893 E40.77108
G1 X27.206 Y46.055 E40.87482
G1 X29.837 Y45.118 E40.9817
G1 X32.416 Y44.115 E41.0876
G1 X34.953 Y43.046 E41.19295
G1 X37.496 Y41.888 E41.29989
G1 X39.952 Y40.685 E41.40455
G1 X40.977 Y40.144 E41.4489
G1 X42.018 Y39.612 E41.49364
G1 X42.553 Y39.413 E41.51549
G1 X42.901 Y39.312 E41.52936
G1 X45.094 Y38.703 E41.61646
G1 X45.936 Y38.483 E41.64976
G1 X48.969 Y37.733 E41.76933
G1 X49.81 Y37.513 E41.8026
G1 X50.611 Y37.316 E41.83416
G1 X51.455 Y37.097 E41.86753
G1 X51.983 Y36.997 E41.8881
G1 X52.465 Y36.956 E41.90661
G1 X55.236 Y36.677 E42.01319
