;FLAVOR:Marlin
;TIME:12729
;Filament used: 10.1376m
;Layer height: 0.2
;MINX:7.564
;MINY:21.276
;MINZ:0.26
;MAXX:182.24
;MAXY:199.139
;MAXZ:7.86
;Generated with Cura_SteamEngine 4.9.1
M82 ;absolute extrusion mode
;Begin Start Gcode for Dagoma DiscoEasy 200
;Sliced: 13-07-2021 17:10:57
;Initial extruder: 0

G90 ;Absolute positioning
M106 S255 ;Fan on full
G28 X Y ;Home stop X Y
G1 X100 ;Centre back during cooldown in case of oozing
M109 R90 ;Cooldown in case too hot
G28 ;Centre
G29 ;Auto-level
M104 S205 ;Pre-heat
M107 ;Fan off
G0 X100 Y5 Z0.5 ;Front centre for degunk
M109 S205 ;Wait for initial temp
M83 ;E Relative
G1 E10 F200 ;Degunk
G1 E-3 F5000 ;Retract
G0 Z3 ;Withdraw
M82 ;E absolute
G92 E0 ;E reset
G1 F6000 ;Set feedrate

;Finish Start Gcode for Dagoma DiscoEasy 200

G92 E0
G92 E0
G1 F3000 E-3.5
;LAYER_COUNT:39
;LAYER:0
M107
G0 F1285.7 X35.237 Y23.056 Z0.26
;TYPE:SKIRT
G1 F3000 E0
G1 F900 X35.571 Y22.611 E0.02129
G1 X35.965 Y22.218 E0.04259
G1 X36.411 Y21.885 E0.06389
G1 X36.9 Y21.62 E0.08518
G1 X37.422 Y21.428 E0.10646
G1 X37.967 Y21.312 E0.12779
G1 X38.522 Y21.276 E0.14907
G1 X39.077 Y21.32 E0.17038
G1 X39.619 Y21.442 E0.19164
G1 X40.139 Y21.641 E0.21294
G1 X40.625 Y21.912 E0.23424
G1 X41.227 Y22.401 E0.26392
G1 X41.94 Y23.109 E0.30237
G1 X180.689 Y166.093 E7.92711
G1 X181.185 Y166.618 E7.95475
G1 X181.537 Y167.049 E7.97605
G1 X181.824 Y167.526 E7.99735
G1 X182.039 Y168.039 E8.01864
G1 X182.179 Y168.577 E8.03991
G1 X182.24 Y169.13 E8.0612
G1 X182.222 Y169.686 E8.08249
G1 X182.123 Y170.234 E8.1038
G1 X181.948 Y170.762 E8.12509
G1 X181.699 Y171.259 E8.14636
G1 X181.381 Y171.716 E8.16767
G1 X181.001 Y172.122 E8.18895
G1 X180.566 Y172.47 E8.21027
G1 X180.087 Y172.752 E8.23154
G1 X179.469 Y172.994 E8.25694
G1 X179.037 Y173.121 E8.27417
G1 X83.005 Y198.852 E12.07891
G1 X82.318 Y199.025 E12.10602
G1 X81.77 Y199.121 E12.12731
G1 X81.214 Y199.139 E12.1486
G1 X80.661 Y199.076 E12.1699
G1 X80.123 Y198.935 E12.19118
G1 X79.611 Y198.719 E12.21245
G1 X79.134 Y198.431 E12.23377
G1 X78.671 Y198.046 E12.25682
G1 X78.377 Y197.758 E12.27257
G1 X9.095 Y126.361 E16.07986
G1 X8.617 Y125.854 E16.10653
G1 X8.265 Y125.423 E16.12783
G1 X7.979 Y124.946 E16.14911
G1 X7.764 Y124.433 E16.1704
G1 X7.624 Y123.894 E16.19171
G1 X7.564 Y123.341 E16.213
G1 X7.583 Y122.785 E16.23429
G1 X7.709 Y122.122 E16.26011
G1 X7.827 Y121.671 E16.27795
G1 X34.609 Y24.642 E20.13006
G1 X34.777 Y24.066 E20.15302
G1 X34.971 Y23.544 E20.17433
G1 X35.237 Y23.056 E20.1956
G0 F1285.7 X35.558 Y23.204
G1 F900 X35.884 Y22.785 E20.21592
G1 X36.269 Y22.42 E20.23622
G1 X36.704 Y22.116 E20.25653
G1 X37.18 Y21.881 E20.27685
G1 X37.686 Y21.721 E20.29716
G1 X38.21 Y21.638 E20.31746
G1 X38.741 Y21.634 E20.33778
G1 X39.266 Y21.711 E20.35809
G1 X39.773 Y21.865 E20.37837
G1 X40.252 Y22.094 E20.39869
G1 X40.691 Y22.392 E20.41899
G1 X40.98 Y22.649 E20.43379
G1 X41.689 Y23.353 E20.47203
G1 X180.434 Y166.333 E28.09655
G1 X180.93 Y166.858 E28.12419
G1 X181.265 Y167.27 E28.14451
G1 X181.533 Y167.728 E28.16482
G1 X181.73 Y168.221 E28.18513
G1 X181.851 Y168.737 E28.20542
G1 X181.893 Y169.266 E28.22573
G1 X181.855 Y169.796 E28.24606
G1 X181.738 Y170.313 E28.26635
G1 X181.544 Y170.807 E28.28666
G1 X181.279 Y171.267 E28.30697
G1 X180.948 Y171.681 E28.32726
G1 X180.558 Y172.041 E28.34757
G1 X180.118 Y172.339 E28.36791
G1 X179.639 Y172.567 E28.38821
G1 X179.036 Y172.758 E28.41241
G1 X82.971 Y198.499 E32.21847
G1 X82.233 Y198.685 E32.2476
G1 X81.71 Y198.776 E32.26791
G1 X81.179 Y198.787 E32.28824
G1 X80.653 Y198.718 E32.30854
G1 X80.143 Y198.571 E32.32885
G1 X79.661 Y198.349 E32.34916
G1 X79.218 Y198.057 E32.36946
G1 X78.701 Y197.587 E32.3962
G1 X78.628 Y197.514 E32.40015
G1 X9.349 Y126.121 E36.20726
G1 X8.871 Y125.614 E36.23392
G1 X8.537 Y125.202 E36.25422
G1 X8.269 Y124.744 E36.27453
G1 X8.073 Y124.251 E36.29483
G1 X7.952 Y123.734 E36.31515
G1 X7.911 Y123.205 E36.33546
G1 X7.95 Y122.676 E36.35576
G1 X8.068 Y122.128 E36.37721
G1 X8.164 Y121.764 E36.39162
G1 X34.945 Y24.74 E40.24353
G1 X35.113 Y24.164 E40.26649
G1 X35.3 Y23.667 E40.28681
G1 X35.558 Y23.204 E40.3071
G0 F1285.7 X35.879 Y23.355
G1 F900 X36.196 Y22.963 E40.32639
G1 X36.571 Y22.627 E40.34566
G1 X36.994 Y22.354 E40.36493
G1 X37.455 Y22.152 E40.38419
G1 X37.942 Y22.025 E40.40345
G1 X38.444 Y21.976 E40.42275
G1 X38.946 Y22.008 E40.442
G1 X39.438 Y22.119 E40.4613
G1 X39.905 Y22.305 E40.48054
G1 X40.337 Y22.564 E40.49982
G1 X40.734 Y22.897 E40.51965
G1 X41.438 Y23.597 E40.55764
G1 X180.18 Y166.574 E48.182
G1 X180.676 Y167.099 E48.20964
G1 X180.992 Y167.491 E48.22891
G1 X181.241 Y167.928 E48.24815
G1 X181.419 Y168.4 E48.26746
G1 X181.519 Y168.893 E48.28671
G1 X181.541 Y169.396 E48.30598
G1 X181.482 Y169.896 E48.32524
G1 X181.346 Y170.381 E48.34452
G1 X181.134 Y170.838 E48.3638
G1 X180.853 Y171.256 E48.38308
G1 X180.509 Y171.624 E48.40235
G1 X180.111 Y171.933 E48.42164
G1 X179.67 Y172.175 E48.44089
G1 X178.936 Y172.422 E48.47053
G1 X178.856 Y172.445 E48.47371
G1 X82.834 Y198.173 E52.27805
G1 X82.147 Y198.346 E52.30516
G1 X81.651 Y198.43 E52.32441
G1 X81.147 Y198.434 E52.3437
G1 X80.649 Y198.359 E52.36297
G1 X80.17 Y198.205 E52.38223
G1 X79.72 Y197.978 E52.40152
G1 X79.159 Y197.544 E52.42866
G1 X78.879 Y197.27 E52.44365
G1 X9.604 Y125.881 E56.25054
G1 X9.126 Y125.374 E56.27721
G1 X8.811 Y124.981 E56.29648
G1 X8.561 Y124.544 E56.31575
G1 X8.384 Y124.072 E56.33504
G1 X8.284 Y123.579 E56.35429
G1 X8.263 Y123.076 E56.37356
G1 X8.349 Y122.456 E56.39751
G1 X8.492 Y121.894 E56.4197
G1 X35.268 Y24.882 E60.27112
G1 X35.449 Y24.262 E60.29584
G1 X35.628 Y23.791 E60.31512
G1 X35.879 Y23.355 E60.33438
G1 F3000 E56.83438
;MESH:support_half_hex_23.stl
G0 F1285.7 X37.707 Y25.575
G0 X38.694 Y25.846
G0 X94.216 Y93.276
;TYPE:WALL-INNER
G1 F3000 E60.33438
G1 F900 X42.654 Y40.14 E63.16789
G1 X42.064 Y40.292 E63.19121
G1 X22.268 Y112.008 E66.03838
G1 X22.699 Y112.438 E66.06168
G1 X94.216 Y93.276 E68.89514
G0 F1285.7 X164.162 Y165.356
G1 F900 X112.599 Y112.22 E71.72869
G1 X112.009 Y112.372 E71.752
G1 X92.214 Y184.088 E74.59917
G1 X92.645 Y184.518 E74.62247
G1 X164.162 Y165.356 E77.45593
G0 F1285.7 X177.101 Y169.084
G1 F900 X81.532 Y194.692 E81.24233
G1 X12.01 Y123.049 E85.06278
G1 X38.676 Y26.441 E88.89817
G1 X38.757 Y26.147 E88.90984
G1 X38.969 Y26.365 E88.91643
G1 X177.181 Y168.795 E96.51164
G1 X177.182 Y168.796 E96.51169
G1 X177.387 Y169.008 E96.52298
G1 X177.101 Y169.084 E96.52942
G0 F1285.7 X177.719 Y169.255
;TYPE:WALL-OUTER
G1 F900 X81.432 Y195.055 E100.34426
G1 X11.648 Y123.142 E104.1791
G1 X38.514 Y25.808 E108.04332
G1 X38.595 Y25.514 E108.05499
G1 X38.807 Y25.732 E108.06157
G1 X177.799 Y168.966 E115.69965
G1 X177.8 Y168.967 E115.69971
G1 X178.005 Y169.179 E115.71099
G1 X177.719 Y169.255 E115.71743
G0 F1285.7 X177.526 Y169.306
G0 X177.463 Y169.066
G0 X163.722 Y165.012
G0 X163.543 Y165.185
G1 F900 X112.568 Y112.655 E118.51866
G1 X112.497 Y112.582 E118.52256
G1 X112.272 Y112.64 E118.53145
G1 X112.245 Y112.739 E118.53538
G1 X92.605 Y183.893 E121.36023
G1 X92.578 Y183.992 E121.36416
G1 X92.742 Y184.156 E121.37304
G1 X92.841 Y184.13 E121.37695
G1 X163.543 Y165.185 E124.17814
G0 F1285.7 X163.404 Y165.042
G0 X163.583 Y164.869
G0 X93.776 Y92.932
G0 X93.597 Y93.105
G1 F900 X42.623 Y40.575 E126.97934
G1 X42.552 Y40.502 E126.98323
G1 X42.327 Y40.56 E126.99213
G1 X42.3 Y40.659 E126.99605
G1 X22.659 Y111.813 E129.82092
G1 X22.632 Y111.912 E129.82485
G1 X22.796 Y112.076 E129.83372
G1 X22.895 Y112.05 E129.83764
G1 X93.597 Y93.105 E132.63882
G0 F1285.7 X93.458 Y92.962
G0 X93.637 Y92.789
G0 X94.863 Y93.455
;TYPE:SKIN
G1 F900 X42.761 Y39.761 E135.50205
G1 X41.788 Y40.012 E135.54051
G1 X21.887 Y112.109 E138.40281
G1 X22.598 Y112.817 E138.44121
G1 X94.863 Y93.455 E141.3043
G0 F1285.7 X111.733 Y112.092
G1 F900 X91.833 Y184.189 E144.16659
G1 X92.544 Y184.897 E144.20499
G1 X164.809 Y165.535 E147.06808
G1 X112.706 Y111.841 E149.93134
G1 X111.733 Y112.092 E149.9698
G0 F1285.7 X38.927 Y26.811
G1 F900 X176.74 Y168.829 E157.54306
G1 X81.638 Y194.312 E161.31096
G1 X12.39 Y122.952 E165.11633
G1 X38.927 Y26.811 E168.93318
G0 F1285.7 X39.013 Y27.134
G1 F900 X39.298 Y27.419 E168.94861
G0 F1285.7 X38.895 Y27.511
G1 F900 X55.52 Y44.136 E169.84837
G1 X55.582 Y44.198
G0 F1285.7 X51.094 Y48.124
G1 F900 X172.714 Y169.744 E176.4306
G0 F1285.7 X173.104 Y169.639
G1 F900 X37.182 Y33.717 E183.78688
G0 F1285.7 X37.289 Y33.329
G1 F900 X173.495 Y169.535 E191.15852
G0 F1285.7 X173.885 Y169.43
G1 F900 X37.396 Y32.941 E198.54548
G0 F1285.7 X37.503 Y32.553
G1 F900 X174.275 Y169.325 E205.94775
G0 F1285.7 X174.665 Y169.221
G1 F900 X37.611 Y32.166 E213.36532
G0 F1285.7 X37.717 Y31.778
G1 F900 X175.056 Y169.116 E220.79825
G0 F1285.7 X175.446 Y169.011
G1 F900 X37.825 Y31.39 E228.24647
G0 F1285.7 X37.932 Y31.002
G1 F900 X175.836 Y168.907 E235.71004
G0 F1285.7 X176.227 Y168.802
G1 F900 X38.038 Y30.614 E243.18898
G0 F1285.7 X38.146 Y30.226
G1 F900 X169.072 Y161.152 E250.27486
G1 X169.134 Y161.214
G0 F1285.7 X164.644 Y165.139
G1 F900 X169.981 Y170.476 E250.56371
G0 F1285.7 X169.591 Y170.581
G1 F900 X164.729 Y165.718 E250.82687
G0 F1285.7 X164.338 Y165.823
G1 F900 X169.2 Y170.685 E251.09001
G0 F1285.7 X168.81 Y170.79
G1 F900 X163.948 Y165.928 E251.35315
G0 F1285.7 X163.558 Y166.032
G1 F900 X168.42 Y170.894 E251.61628
G0 F1285.7 X168.029 Y170.999
G1 F900 X163.167 Y166.137 E251.87942
G0 F1285.7 X162.777 Y166.242
G1 F900 X167.639 Y171.104 E252.14256
G0 F1285.7 X167.249 Y171.208
G1 F900 X162.387 Y166.346 E252.4057
G0 F1285.7 X161.996 Y166.451
G1 F900 X166.858 Y171.313 E252.66883
G0 F1285.7 X166.467 Y171.417
G1 F900 X161.606 Y166.556 E252.93192
G0 F1285.7 X161.215 Y166.66
G1 F900 X166.077 Y171.522 E253.19506
G0 F1285.7 X165.687 Y171.626
G1 F900 X160.825 Y166.764 E253.45819
G0 F1285.7 X160.434 Y166.869
G1 F900 X165.296 Y171.731 E253.72133
G0 F1285.7 X164.906 Y171.836
G1 F900 X160.044 Y166.974 E253.98447
G0 F1285.7 X159.654 Y167.078
G1 F900 X164.516 Y171.94 E254.24761
G0 F1285.7 X164.125 Y172.045
G1 F900 X159.263 Y167.183 E254.51074
G0 F1285.7 X158.873 Y167.288
G1 F900 X163.735 Y172.15 E254.77388
G0 F1285.7 X163.345 Y172.254
G1 F900 X158.483 Y167.392 E255.03702
G0 F1285.7 X158.092 Y167.497
G1 F900 X162.954 Y172.359 E255.30016
G0 F1285.7 X162.564 Y172.464
G1 F900 X157.702 Y167.601 E255.56332
G0 F1285.7 X157.312 Y167.706
G1 F900 X162.174 Y172.568 E255.82646
G0 F1285.7 X161.783 Y172.673
G1 F900 X156.921 Y167.811 E256.0896
G0 F1285.7 X156.53 Y167.915
G1 F900 X161.393 Y172.778 E256.35279
G0 F1285.7 X161.002 Y172.881
G1 F900 X156.14 Y168.019 E256.61593
G0 F1285.7 X155.75 Y168.124
G1 F900 X160.612 Y172.986 E256.87906
G0 F1285.7 X160.221 Y173.091
G1 F900 X155.359 Y168.229 E257.1422
G0 F1285.7 X154.969 Y168.333
G1 F900 X159.831 Y173.195 E257.40534
G0 F1285.7 X159.441 Y173.3
G1 F900 X154.579 Y168.438 E257.66848
G0 F1285.7 X154.188 Y168.543
G1 F900 X159.05 Y173.405 E257.93161
G0 F1285.7 X158.66 Y173.509
G1 F900 X153.798 Y168.647 E258.19475
G0 F1285.7 X153.408 Y168.752
G1 F900 X158.27 Y173.614 E258.45789
G0 F1285.7 X157.879 Y173.719
G1 F900 X153.017 Y168.857 E258.72103
G0 F1285.7 X152.627 Y168.961
G1 F900 X157.489 Y173.823 E258.98416
G0 F1285.7 X157.099 Y173.928
G1 F900 X152.237 Y169.066 E259.2473
G0 F1285.7 X151.846 Y169.17
G1 F900 X156.709 Y174.033 E259.51049
G0 F1285.7 X156.318 Y174.137
G1 F900 X151.455 Y169.274 E259.77369
G0 F1285.7 X151.065 Y169.379
G1 F900 X155.927 Y174.241 E260.03682
G0 F1285.7 X155.537 Y174.346
G1 F900 X150.675 Y169.484 E260.29996
G0 F1285.7 X150.284 Y169.588
G1 F900 X155.147 Y174.451 E260.56315
G0 F1285.7 X154.756 Y174.555
G1 F900 X149.894 Y169.693 E260.82629
G0 F1285.7 X149.504 Y169.798
G1 F900 X154.366 Y174.66 E261.08943
G0 F1285.7 X153.976 Y174.764
G1 F900 X149.113 Y169.902 E261.35259
G0 F1285.7 X148.723 Y170.007
G1 F900 X153.585 Y174.869 E261.61573
G0 F1285.7 X153.195 Y174.974
G1 F900 X148.333 Y170.112 E261.87887
G0 F1285.7 X147.943 Y170.216
G1 F900 X152.805 Y175.078 E262.14201
G0 F1285.7 X152.414 Y175.183
G1 F900 X147.552 Y170.321 E262.40514
G0 F1285.7 X147.161 Y170.425
G1 F900 X152.024 Y175.288 E262.66834
G0 F1285.7 X151.634 Y175.392
G1 F900 X146.771 Y170.53 E262.9315
G0 F1285.7 X146.381 Y170.634
G1 F900 X151.243 Y175.497 E263.19466
G0 F1285.7 X150.853 Y175.602
G1 F900 X145.99 Y170.739 E263.45786
G0 F1285.7 X145.6 Y170.844
G1 F900 X150.462 Y175.706 E263.72099
G0 F1285.7 X150.072 Y175.81
G1 F900 X145.21 Y170.948 E263.98413
G0 F1285.7 X144.819 Y171.053
G1 F900 X149.681 Y175.915 E264.24727
G0 F1285.7 X149.291 Y176.02
G1 F900 X144.429 Y171.158 E264.51041
G0 F1285.7 X144.039 Y171.262
G1 F900 X148.901 Y176.124 E264.77354
G0 F1285.7 X148.51 Y176.229
G1 F900 X143.648 Y171.367 E265.03668
G0 F1285.7 X143.258 Y171.471
G1 F900 X148.12 Y176.334 E265.29985
G0 F1285.7 X147.73 Y176.438
G1 F900 X142.868 Y171.576 E265.56298
G0 F1285.7 X142.477 Y171.68
G1 F900 X147.339 Y176.543 E265.82615
G0 F1285.7 X146.949 Y176.648
G1 F900 X142.086 Y171.785 E266.08934
G0 F1285.7 X141.696 Y171.889
G1 F900 X146.559 Y176.752 E266.35253
G0 F1285.7 X146.168 Y176.857
G1 F900 X141.306 Y171.994 E266.6157
G0 F1285.7 X140.915 Y172.099
G1 F900 X145.778 Y176.961 E266.87886
G0 F1285.7 X145.388 Y177.066
G1 F900 X140.525 Y172.203 E267.14205
G0 F1285.7 X140.135 Y172.308
G1 F900 X144.997 Y177.17 E267.40519
G0 F1285.7 X144.606 Y177.275
G1 F900 X139.744 Y172.413 E267.66833
G0 F1285.7 X139.354 Y172.517
G1 F900 X144.216 Y177.379 E267.93147
G0 F1285.7 X143.826 Y177.484
G1 F900 X138.964 Y172.622 E268.1946
G0 F1285.7 X138.573 Y172.727
G1 F900 X143.435 Y177.589 E268.45774
G0 F1285.7 X143.045 Y177.693
G1 F900 X138.182 Y172.831 E268.72091
G0 F1285.7 X137.792 Y172.935
G1 F900 X142.655 Y177.798 E268.9841
G0 F1285.7 X142.264 Y177.903
G1 F900 X137.402 Y173.04 E269.24726
G0 F1285.7 X137.011 Y173.144
G1 F900 X141.874 Y178.007 E269.51045
G0 F1285.7 X141.484 Y178.112
G1 F900 X136.621 Y173.249 E269.77365
G0 F1285.7 X136.231 Y173.354
G1 F900 X141.093 Y178.217 E270.03681
G0 F1285.7 X140.703 Y178.321
G1 F900 X135.84 Y173.458 E270.3
G0 F1285.7 X135.45 Y173.563
G1 F900 X140.313 Y178.426 E270.56319
G0 F1285.7 X139.922 Y178.531
G1 F900 X135.06 Y173.668 E270.82636
G0 F1285.7 X134.669 Y173.772
G1 F900 X139.531 Y178.634 E271.0895
G0 F1285.7 X139.141 Y178.739
G1 F900 X134.279 Y173.877 E271.35263
G0 F1285.7 X133.889 Y173.982
G1 F900 X138.751 Y178.844 E271.61577
G0 F1285.7 X138.36 Y178.948
G1 F900 X133.498 Y174.086 E271.87891
G0 F1285.7 X133.107 Y174.19
G1 F900 X137.97 Y179.053 E272.1421
G0 F1285.7 X137.58 Y179.158
G1 F900 X132.717 Y174.295 E272.40529
G0 F1285.7 X132.327 Y174.4
G1 F900 X137.19 Y179.262 E272.66846
G0 F1285.7 X136.799 Y179.367
G1 F900 X131.936 Y174.504 E272.93165
G0 F1285.7 X131.546 Y174.609
G1 F900 X136.409 Y179.472 E273.19484
G0 F1285.7 X136.019 Y179.576
G1 F900 X131.156 Y174.714 E273.45801
G0 F1285.7 X130.765 Y174.818
G1 F900 X135.628 Y179.681 E273.7212
G0 F1285.7 X135.238 Y179.786
G1 F900 X130.375 Y174.923 E273.98439
G0 F1285.7 X129.985 Y175.028
G1 F900 X134.848 Y179.89 E274.24755
G0 F1285.7 X134.457 Y179.995
G1 F900 X129.594 Y175.132 E274.51075
G0 F1285.7 X129.204 Y175.237
G1 F900 X134.066 Y180.099 E274.77388
G0 F1285.7 X133.676 Y180.204
G1 F900 X128.813 Y175.341 E275.03708
G0 F1285.7 X128.423 Y175.445
G1 F900 X133.286 Y180.308 E275.30027
G0 F1285.7 X132.895 Y180.413
G1 F900 X128.032 Y175.55 E275.56346
G0 F1285.7 X127.642 Y175.655
G1 F900 X132.505 Y180.517 E275.82662
G0 F1285.7 X132.115 Y180.622
G1 F900 X127.252 Y175.759 E276.08982
G0 F1285.7 X126.862 Y175.864
G1 F900 X131.724 Y180.727 E276.35298
G0 F1285.7 X131.334 Y180.831
G1 F900 X126.471 Y175.969 E276.61615
G0 F1285.7 X126.081 Y176.073
G1 F900 X130.944 Y180.936 E276.87934
G0 F1285.7 X130.553 Y181.041
G1 F900 X125.691 Y176.178 E277.1425
G0 F1285.7 X125.3 Y176.283
G1 F900 X130.163 Y181.145 E277.40567
G0 F1285.7 X129.773 Y181.25
G1 F900 X124.91 Y176.387 E277.66886
G0 F1285.7 X124.52 Y176.492
G1 F900 X129.382 Y181.355 E277.93202
G0 F1285.7 X128.992 Y181.459
G1 F900 X124.129 Y176.596 E278.19521
G0 F1285.7 X123.738 Y176.701
G1 F900 X128.601 Y181.563 E278.45838
G0 F1285.7 X128.211 Y181.668
G1 F900 X123.348 Y176.805 E278.72157
G0 F1285.7 X122.958 Y176.91
G1 F900 X127.82 Y181.773 E278.98474
