;FLAVOR:Marlin
;TIME:23852
;Filament used: 25.7472m
;Layer height: 0.3
;MINX:8.931
;MINY:19.636
;MINZ:0.26
;MAXX:196.31
;MAXY:176.225
;MAXZ:29.66
;Generated with Cura_SteamEngine 4.9.1
M82 ;absolute extrusion mode
;Begin Start Gcode for Dagoma DiscoEasy 200
;Sliced: 26-07-2021 01:22:10
;Initial extruder: 0

G90 ;Absolute positioning
M106 S255 ;Fan on full
G28 X Y ;Home stop X Y
G1 X100 ;Centre back during cooldown in case of oozing
M109 R90 ;Cooldown in case too hot
G28 ;Centre
G29 ;Auto-level
M104 S205 ;Pre-heat
M107 ;Fan off
G0 X100 Y5 Z0.5 ;Front centre for degunk
M109 S205 ;Wait for initial temp
M83 ;E Relative
G1 E10 F200 ;Degunk
G1 E-3 F5000 ;Retract
G0 Z3 ;Withdraw
M82 ;E absolute
G92 E0 ;E reset
G1 F6000 ;Set feedrate

;Finish Start Gcode for Dagoma DiscoEasy 200

G92 E0
G92 E0
G1 F3000 E-3.5
;LAYER_COUNT:99
;LAYER:0
M107
G0 F1285.7 X17.969 Y20.25 Z0.26
;TYPE:SKIRT
G1 F3000 E0
G1 F900 X18.37 Y19.986 E0.01837
G1 X18.808 Y19.793 E0.03669
G1 X19.272 Y19.675 E0.05501
G1 X19.75 Y19.636 E0.07337
G1 X20.227 Y19.677 E0.09169
G1 X20.691 Y19.796 E0.11002
G1 X21.146 Y20.001 E0.12912
G1 X22.629 Y20.828 E0.1941
G1 X24.043 Y21.614 E0.25601
G1 X26.462 Y22.879 E0.36048
G1 X28.915 Y24.076 E0.46494
G1 X31.458 Y25.229 E0.57179
G1 X33.965 Y26.281 E0.67584
G1 X36.565 Y27.288 E0.78254
G1 X37.499 Y27.621 E0.82049
G1 X38.253 Y27.937 E0.85177
G1 X39.775 Y28.803 E0.91879
G1 X41.098 Y29.564 E0.9772
G1 X43.046 Y30.691 E1.06332
G1 X43.756 Y31.091 E1.09451
G1 X44.868 Y31.736 E1.14371
G1 X45.442 Y32.08 E1.16932
G1 X46.067 Y32.562 E1.19952
G1 X48.231 Y34.368 E1.30739
G1 X50.359 Y36.044 E1.41105
G1 X52.554 Y37.674 E1.51568
G1 X54.85 Y39.279 E1.62289
G1 X57.099 Y40.762 E1.72598
G1 X60.616 Y42.904 E1.88358
G1 X64.689 Y45.27 E2.06384
G1 X67.102 Y46.626 E2.16976
G1 X69.546 Y47.911 E2.27543
G1 X72.01 Y49.117 E2.38042
G1 X74.513 Y50.257 E2.48568
G1 X77.044 Y51.324 E2.59079
G1 X80.034 Y52.479 E2.71346
G1 X81.121 Y52.88 E2.7578
G1 X81.677 Y53.147 E2.7814
G1 X81.934 Y53.293 E2.79271
G1 X82.623 Y53.694 E2.82322
G1 X84.173 Y54.577 E2.89149
G1 X85.221 Y55.185 E2.93786
G1 X86.664 Y56.006 E3.00139
G1 X87.065 Y56.23 E3.01897
G1 X88.06 Y56.808 E3.06301
G1 X88.694 Y57.188 E3.09129
G1 X89.11 Y57.465 E3.11042
G1 X90.874 Y58.701 E3.19285
G1 X93.191 Y60.227 E3.29902
G1 X95.501 Y61.658 E3.40301
G1 X97.889 Y63.046 E3.50872
G1 X100.313 Y64.365 E3.61433
G1 X102.746 Y65.599 E3.71873
G1 X105.257 Y66.785 E3.825
G1 X107.748 Y67.878 E3.92911
G1 X110.338 Y68.929 E4.03607
G1 X112.835 Y69.856 E4.138
G1 X115.508 Y70.766 E4.24606
G1 X118.073 Y71.56 E4.34882
G1 X120.763 Y72.309 E4.45568
G1 X123.385 Y72.961 E4.55908
G1 X126.147 Y73.565 E4.66728
G1 X128.78 Y74.061 E4.76982
G1 X129.109 Y74.115 E4.78257
G1 X129.745 Y74.232 E4.80732
G1 X130.529 Y74.451 E4.83847
G1 X131.228 Y74.718 E4.86711
G1 X131.684 Y74.952 E4.88672
G1 X132.407 Y75.354 E4.91838
G1 X132.784 Y75.569 E4.93499
G1 X133.54 Y76.012 E4.96852
G1 X133.762 Y76.157 E4.97867
G1 X134.353 Y76.581 E5.00651
G1 X134.693 Y76.857 E5.02327
G1 X135.392 Y77.499 E5.05959
G1 X135.967 Y78.043 E5.08988
G1 X137.998 Y79.854 E5.19402
G1 X140.126 Y81.649 E5.30056
G1 X142.277 Y83.361 E5.40577
G1 X144.449 Y84.992 E5.50971
G1 X146.699 Y86.584 E5.61519
G1 X149.016 Y88.125 E5.72169
G1 X151.307 Y89.559 E5.82512
G1 X153.697 Y90.961 E5.93116
G1 X156.107 Y92.288 E6.03645
G1 X158.533 Y93.532 E6.14078
G1 X161.023 Y94.723 E6.24641
G1 X163.519 Y95.83 E6.35091
G1 X166.102 Y96.89 E6.45776
G1 X168.638 Y97.849 E6.56152
G1 X171.229 Y98.745 E6.66643
G1 X172.406 Y99.114 E6.71364
G1 X173.642 Y99.512 E6.76333
G1 X174.405 Y99.798 E6.79452
G1 X174.921 Y100.054 E6.81656
G1 X176.044 Y100.689 E6.86593
G1 X176.492 Y100.937 E6.88553
G1 X177.117 Y101.318 E6.91354
G1 X177.698 Y101.762 E6.94152
G1 X178.141 Y102.151 E6.96408
G1 X178.319 Y102.321 E6.9735
G1 X178.677 Y102.736 E6.99448
G1 X179.342 Y103.672 E7.03842
G1 X180.988 Y105.923 E7.14514
G1 X182.668 Y108.089 E7.25004
G1 X184.424 Y110.226 E7.35589
G1 X186.206 Y112.271 E7.4597
G1 X188.1 Y114.327 E7.56668
G1 X189.968 Y116.244 E7.66911
G1 X191.983 Y118.196 E7.77647
G1 X194.016 Y120.058 E7.88197
G1 X195.326 Y121.202 E7.94853
G1 X195.66 Y121.546 E7.96688
G1 X195.931 Y121.94 E7.98518
G1 X196.133 Y122.375 E8.00354
G1 X196.261 Y122.837 E8.02188
G1 X196.31 Y123.313 E8.0402
G1 X196.278 Y123.792 E8.05857
G1 X196.168 Y124.258 E8.07689
G1 X195.982 Y124.7 E8.09524
G1 X195.726 Y125.104 E8.11355
G1 X195.405 Y125.461 E8.13192
G1 X195.175 Y125.655 E8.14344
G1 X194.152 Y126.433 E8.19262
G1 X192.019 Y128.102 E8.29627
G1 X189.849 Y129.901 E8.40414
G1 X187.813 Y131.688 E8.50781
G1 X185.801 Y133.557 E8.61291
G1 X183.831 Y135.494 E8.71864
G1 X181.945 Y137.456 E8.82279
G1 X179.168 Y140.558 E8.98212
G1 X178.473 Y141.367 E9.02293
G1 X177.879 Y141.959 E9.05503
G1 X177.419 Y142.315 E9.07729
G1 X176.982 Y142.61 E9.09747
G1 X176.262 Y143.021 E9.12919
G1 X175.529 Y143.443 E9.16156
G1 X175.039 Y143.728 E9.18325
G1 X174.464 Y144.002 E9.20763
G1 X173.922 Y144.221 E9.23
G1 X173.772 Y144.272 E9.23606
G1 X172.548 Y144.655 E9.28515
G1 X169.896 Y145.526 E9.39197
G1 X167.291 Y146.464 E9.49793
G1 X164.796 Y147.443 E9.6005
G1 X162.223 Y148.538 E9.70751
G1 X159.728 Y149.683 E9.81257
G1 X157.265 Y150.899 E9.91769
G1 X154.855 Y152.175 E10.02205
G1 X152.426 Y153.551 E10.12888
G1 X150.137 Y154.935 E10.23125
G1 X147.772 Y156.457 E10.33888
G1 X145.539 Y157.986 E10.44245
G1 X143.295 Y159.616 E10.54859
G1 X141.123 Y161.29 E10.65353
G1 X139.003 Y163.023 E10.75832
G1 X136.946 Y164.803 E10.86243
G1 X135.35 Y166.255 E10.945
G1 X134.759 Y166.804 E10.97587
G1 X134.567 Y166.968 E10.98553
G1 X134.143 Y167.298 E11.00609
G1 X133.681 Y167.608 E11.02739
G1 X132.978 Y168.007 E11.05832
G1 X131.807 Y168.682 E11.11005
G1 X131.584 Y168.798 E11.11967
G1 X131.025 Y169.058 E11.14326
G1 X130.376 Y169.287 E11.1696
G1 X129.743 Y169.431 E11.19444
G1 X128.354 Y169.705 E11.24862
G1 X127.763 Y169.814 E11.27162
G1 X125.087 Y170.387 E11.37635
G1 X122.436 Y171.033 E11.48077
G1 X119.76 Y171.765 E11.58694
G1 X117.169 Y172.554 E11.69059
G1 X114.505 Y173.448 E11.79813
G1 X111.974 Y174.378 E11.90132
G1 X109.272 Y175.461 E12.01273
G1 X107.961 Y176.009 E12.0671
G1 X107.505 Y176.156 E12.08544
G1 X107.031 Y176.225 E12.10377
G1 X106.552 Y176.215 E12.1221
G1 X106.081 Y176.126 E12.14045
G1 X105.446 Y175.864 E12.16674
G1 X104.723 Y175.458 E12.19847
G1 X19.163 Y125.771 E15.98489
G1 X18.526 Y125.39 E16.0133
G1 X18.137 Y125.111 E16.03162
G1 X17.799 Y124.771 E16.04997
G1 X17.523 Y124.379 E16.06831
G1 X17.316 Y123.947 E16.08664
G1 X17.12 Y123.192 E16.1165
G1 X16.685 Y121.009 E16.20168
G1 X16.066 Y118.301 E16.30799
G1 X15.387 Y115.677 E16.41171
G1 X14.636 Y113.075 E16.51536
G1 X13.783 Y110.405 E16.62262
G1 X12.883 Y107.847 E16.7264
G1 X11.903 Y105.289 E16.83123
G1 X10.834 Y102.719 E16.93775
G1 X10.375 Y101.706 E16.98031
G1 X9.529 Y99.771 E17.06113
G1 X9.294 Y99.073 E17.08932
G1 X9.173 Y98.519 E17.11102
G1 X9.087 Y97.98 E17.13191
G1 X9.059 Y97.415 E17.15356
G1 X9.066 Y96.353 E17.1942
G1 X9.069 Y95.305 E17.23431
G1 X9.082 Y95.043 E17.24435
G1 X9.147 Y94.355 E17.27079
G1 X9.212 Y93.926 E17.2874
G1 X9.408 Y93.017 E17.32298
G1 X9.588 Y92.245 E17.35332
G1 X10.137 Y89.54 E17.45895
G1 X10.614 Y86.794 E17.56561
G1 X10.998 Y84.135 E17.66843
G1 X11.319 Y81.376 E17.77472
G1 X11.556 Y78.654 E17.87929
G1 X11.717 Y75.922 E17.98402
G1 X11.802 Y73.151 E18.09012
G1 X11.808 Y70.416 E18.19478
G1 X11.736 Y67.679 E18.29956
G1 X11.587 Y64.914 E18.40553
G1 X11.36 Y62.181 E18.51048
G1 X11.057 Y59.461 E18.61522
G1 X10.678 Y56.755 E18.71979
G1 X10.216 Y54.019 E18.82598
G1 X9.678 Y51.307 E18.93178
G1 X9.372 Y49.926 E18.98592
G1 X9.047 Y48.505 E19.0417
G1 X8.967 Y47.989 E19.06169
G1 X8.934 Y47.48 E19.08121
G1 X8.931 Y47.294 E19.08832
G1 X8.94 Y46.285 E19.12694
G1 X8.941 Y45.27 E19.16578
G1 X8.953 Y45.015 E19.17555
G1 X9.001 Y44.483 E19.196
G1 X9.147 Y43.7 E19.22648
G1 X9.38 Y42.96 E19.25617
G1 X9.515 Y42.623 E19.27006
G1 X10.699 Y40.13 E19.37568
G1 X11.807 Y37.61 E19.48103
G1 X12.86 Y35.023 E19.58792
G1 X13.804 Y32.496 E19.69115
G1 X14.697 Y29.885 E19.79676
G1 X15.515 Y27.256 E19.90213
G1 X16.248 Y24.64 E20.00609
G1 X16.771 Y22.577 E20.08754
G1 X16.951 Y21.834 E20.1168
G1 X17.102 Y21.379 E20.13515
G1 X17.327 Y20.956 E20.15348
G1 X17.618 Y20.576 E20.1718
G1 X17.969 Y20.25 E20.19013
G0 F1285.7 X18.276 Y20.457
G1 F900 X18.663 Y20.23 E20.2073
G1 X19.084 Y20.074 E20.22448
G1 X19.526 Y19.995 E20.24167
G1 X19.975 Y19.997 E20.25885
G1 X20.417 Y20.077 E20.27604
G1 X20.976 Y20.306 E20.29916
G1 X23.883 Y21.926 E20.42651
G1 X26.302 Y23.191 E20.53098
G1 X28.772 Y24.396 E20.63616
G1 X31.307 Y25.545 E20.74267
G1 X33.815 Y26.597 E20.84675
G1 X36.465 Y27.624 E20.95552
G1 X37.375 Y27.948 E20.99248
G1 X38.084 Y28.244 E21.02189
G1 X39.6 Y29.106 E21.08862
G1 X40.922 Y29.867 E21.147
G1 X42.87 Y30.994 E21.23313
G1 X43.581 Y31.394 E21.26435
G1 X44.688 Y32.036 E21.31332
G1 X45.262 Y32.38 E21.33893
G1 X45.843 Y32.831 E21.36708
G1 X48.001 Y34.631 E21.47462
G1 X50.144 Y36.32 E21.57904
G1 X52.371 Y37.974 E21.6852
G1 X54.626 Y39.55 E21.79049
G1 X56.925 Y41.066 E21.89588
G1 X60.452 Y43.214 E22.05391
G1 X64.51 Y45.571 E22.23351
G1 X66.937 Y46.935 E22.34005
G1 X69.372 Y48.215 E22.44533
G1 X71.882 Y49.444 E22.55228
G1 X74.387 Y50.584 E22.65761
G1 X76.9 Y51.644 E22.76198
G1 X79.872 Y52.792 E22.88391
G1 X81 Y53.208 E22.92992
G1 X81.51 Y53.455 E22.95161
G1 X81.758 Y53.596 E22.96252
G1 X82.427 Y53.985 E22.99214
G1 X83.997 Y54.88 E23.0613
G1 X85.026 Y55.477 E23.10683
G1 X86.512 Y56.322 E23.17225
G1 X86.889 Y56.532 E23.18876
G1 X87.88 Y57.108 E23.23263
G1 X88.514 Y57.488 E23.26091
G1 X88.91 Y57.752 E23.27913
G1 X90.708 Y59.011 E23.36313
G1 X92.983 Y60.511 E23.46741
G1 X95.326 Y61.962 E23.57288
G1 X97.73 Y63.36 E23.67931
G1 X100.129 Y64.664 E23.7838
G1 X102.595 Y65.915 E23.88962
G1 X105.109 Y67.103 E23.99603
G1 X107.586 Y68.189 E24.09954
G1 X110.215 Y69.256 E24.20812
G1 X112.759 Y70.201 E24.31198
G1 X115.359 Y71.086 E24.41708
G1 X118.018 Y71.909 E24.5236
G1 X120.653 Y72.643 E24.62828
G1 X123.302 Y73.301 E24.73274
G1 X126.076 Y73.908 E24.84141
G1 X128.736 Y74.409 E24.945
G1 X129.046 Y74.46 E24.95702
G1 X129.682 Y74.577 E24.98177
G1 X130.428 Y74.786 E25.01142
G1 X131.068 Y75.03 E25.03763
G1 X131.602 Y75.305 E25.06062
G1 X132.259 Y75.673 E25.08943
G1 X132.607 Y75.871 E25.10476
G1 X133.363 Y76.314 E25.13829
G1 X133.558 Y76.441 E25.1472
G1 X134.149 Y76.865 E25.17503
G1 X134.456 Y77.115 E25.19018
G1 X135.152 Y77.753 E25.22632
G1 X135.741 Y78.31 E25.25734
G1 X137.787 Y80.135 E25.36226
G1 X139.892 Y81.911 E25.46766
G1 X142.059 Y83.635 E25.57363
G1 X144.247 Y85.278 E25.67835
G1 X146.513 Y86.881 E25.78457
G1 X148.822 Y88.417 E25.8907
G1 X151.109 Y89.849 E25.99397
G1 X153.536 Y91.273 E26.10165
G1 X155.921 Y92.586 E26.20584
G1 X158.393 Y93.853 E26.31215
G1 X160.872 Y95.039 E26.41732
G1 X163.386 Y96.154 E26.52256
G1 X165.945 Y97.205 E26.62843
G1 X168.543 Y98.186 E26.73471
G1 X171.121 Y99.077 E26.83909
G1 X172.299 Y99.447 E26.88635
G1 X173.527 Y99.843 E26.93572
G1 X174.252 Y100.113 E26.96533
G1 X174.749 Y100.359 E26.98655
G1 X175.831 Y100.971 E27.03413
G1 X176.317 Y101.241 E27.0554
G1 X176.914 Y101.603 E27.08212
G1 X177.481 Y102.036 E27.10942
G1 X177.899 Y102.404 E27.13074
G1 X178.392 Y102.938 E27.15855
G1 X179.08 Y103.907 E27.20403
G1 X180.695 Y106.117 E27.30878
G1 X182.398 Y108.312 E27.4151
G1 X184.156 Y110.451 E27.52106
G1 X185.949 Y112.51 E27.62554
G1 X187.822 Y114.542 E27.7313
G1 X189.755 Y116.527 E27.83734
G1 X191.706 Y118.416 E27.94126
G1 X193.775 Y120.311 E28.04864
G1 X195.096 Y121.465 E28.11576
G1 X195.407 Y121.789 E28.13295
G1 X195.655 Y122.164 E28.15016
G1 X195.833 Y122.576 E28.16733
G1 X195.935 Y123.013 E28.1845
G1 X195.958 Y123.461 E28.20167
G1 X195.902 Y123.907 E28.21887
G1 X195.767 Y124.335 E28.23605
G1 X195.559 Y124.733 E28.25323
G1 X195.283 Y125.087 E28.27041
G1 X194.963 Y125.377 E28.28694
G1 X193.968 Y126.134 E28.33479
G1 X191.753 Y127.867 E28.44241
G1 X189.642 Y129.616 E28.54733
G1 X187.572 Y131.434 E28.65276
G1 X185.565 Y133.298 E28.75758
G1 X183.58 Y135.25 E28.86412
G1 X181.68 Y137.227 E28.96906
G1 X178.91 Y140.321 E29.12798
G1 X178.213 Y141.132 E29.16891
G1 X177.663 Y141.683 E29.1987
G1 X177.214 Y142.031 E29.22044
G1 X176.809 Y142.306 E29.23918
G1 X176.089 Y142.716 E29.27088
G1 X175.366 Y143.133 E29.30283
G1 X174.863 Y143.426 E29.3251
G1 X174.323 Y143.681 E29.34796
G1 X173.806 Y143.891 E29.36931
G1 X173.667 Y143.938 E29.37493
G1 X172.405 Y144.333 E29.42553
G1 X169.778 Y145.195 E29.53134
G1 X167.218 Y146.118 E29.63548
G1 X164.592 Y147.148 E29.74343
G1 X162.122 Y148.199 E29.84616
G1 X159.57 Y149.371 E29.95363
G1 X157.117 Y150.582 E30.05832
G1 X154.662 Y151.882 E30.16463
G1 X152.284 Y153.229 E30.26923
G1 X149.903 Y154.669 E30.37571
G1 X147.594 Y156.154 E30.48077
G1 X145.352 Y157.689 E30.58476
G1 X143.103 Y159.323 E30.69114
G1 X140.899 Y161.022 E30.79764
G1 X138.763 Y162.768 E30.90322
G1 X136.71 Y164.544 E31.00711
G1 X135.135 Y165.977 E31.0886
G1 X134.521 Y166.548 E31.12068
G1 X134.352 Y166.692 E31.12918
G1 X133.928 Y167.022 E31.14974
G1 X133.508 Y167.304 E31.1691
G1 X132.82 Y167.695 E31.19939
G1 X131.633 Y168.379 E31.25181
G1 X131.437 Y168.48 E31.26025
G1 X130.878 Y168.74 E31.28385
G1 X130.272 Y168.953 E31.30843
G1 X129.673 Y169.088 E31.33193
G1 X128.29 Y169.361 E31.38588
G1 X127.694 Y169.471 E31.40907
G1 X125.007 Y170.046 E31.51423
G1 X122.372 Y170.689 E31.61803
G1 X119.644 Y171.434 E31.72625
G1 X117.046 Y172.225 E31.83018
G1 X114.414 Y173.109 E31.93643
G1 X111.835 Y174.057 E32.04159
G1 X109.137 Y175.138 E32.15282
G1 X107.826 Y175.686 E32.2072
G1 X107.398 Y175.821 E32.22437
G1 X106.953 Y175.879 E32.24155
G1 X106.504 Y175.857 E32.25875
G1 X106.067 Y175.756 E32.27591
G1 X105.617 Y175.559 E32.29471
G1 X104.899 Y175.156 E32.32622
G1 X19.343 Y125.471 E36.11247
G1 X18.706 Y125.09 E36.14088
G1 X18.343 Y124.826 E36.15806
G1 X18.032 Y124.502 E36.17524
G1 X17.783 Y124.128 E36.19244
G1 X17.533 Y123.451 E36.22006
G1 X17.454 Y123.083 E36.23446
G1 X17.028 Y120.939 E36.31812
G1 X16.406 Y118.218 E36.42493
G1 X15.727 Y115.594 E36.52866
G1 X14.959 Y112.934 E36.63461
G1 X14.118 Y110.303 E36.74032
G1 X13.218 Y107.742 E36.8442
G1 X12.228 Y105.16 E36.95003
G1 X11.153 Y102.574 E37.05721
G1 X10.695 Y101.566 E37.09958
G1 X9.849 Y99.631 E37.1804
G1 X9.636 Y98.997 E37.20599
G1 X9.517 Y98.454 E37.22727
G1 X9.435 Y97.943 E37.24707
G1 X9.409 Y97.417 E37.26723
G1 X9.416 Y96.355 E37.30787
G1 X9.419 Y95.306 E37.34801
G1 X9.43 Y95.076 E37.35683
G1 X9.495 Y94.388 E37.38327
G1 X9.554 Y93.999 E37.39833
G1 X9.749 Y93.096 E37.43368
G1 X9.93 Y92.319 E37.46422
G1 X10.482 Y89.601 E37.57036
G1 X10.958 Y86.858 E37.6769
G1 X11.349 Y84.151 E37.78157
G1 X11.667 Y81.416 E37.88694
G1 X11.904 Y78.703 E37.99116
G1 X12.067 Y75.919 E38.09789
G1 X12.152 Y73.161 E38.20348
G1 X12.158 Y70.407 E38.30888
G1 X12.086 Y67.65 E38.41442
G1 X11.937 Y64.901 E38.51978
G1 X11.709 Y62.152 E38.62534
G1 X11.408 Y59.451 E38.72935
G1 X11.021 Y56.683 E38.83631
G1 X10.561 Y53.962 E38.94192
G1 X10.019 Y51.227 E39.04862
G1 X9.71 Y49.83 E39.10338
G1 X9.389 Y48.427 E39.15846
G1 X9.29 Y47.613 E39.18984
G1 X9.281 Y47.297 E39.20193
G1 X9.29 Y46.288 E39.24055
G1 X9.291 Y45.271 E39.27947
G1 X9.301 Y45.046 E39.28809
G1 X9.349 Y44.514 E39.30853
G1 X9.483 Y43.798 E39.33641
G1 X9.713 Y43.069 E39.36566
G1 X9.831 Y42.773 E39.37786
G1 X11.029 Y40.25 E39.48474
G1 X12.119 Y37.772 E39.58834
G1 X13.195 Y35.129 E39.69755
G1 X14.131 Y32.621 E39.8
G1 X15.027 Y30.002 E39.90593
G1 X15.851 Y27.354 E40.01206
G1 X16.585 Y24.735 E40.11615
G1 X17.11 Y22.663 E40.19795
G1 X17.291 Y21.917 E40.22733
G1 X17.435 Y21.491 E40.24454
G1 X17.652 Y21.098 E40.26172
G1 X17.935 Y20.75 E40.27888
G1 X18.276 Y20.457 E40.29609
G0 F1285.7 X18.25 Y20.931
G1 F900 X18.579 Y20.675 E40.31204
G1 X18.951 Y20.486 E40.32801
G1 X19.351 Y20.372 E40.34393
G1 X19.766 Y20.336 E40.35987
G1 X20.181 Y20.38 E40.37584
G1 X20.805 Y20.612 E40.40132
G1 X23.708 Y22.229 E40.52848
G1 X26.122 Y23.492 E40.63275
G1 X28.646 Y24.723 E40.74022
G1 X31.14 Y25.854 E40.84501
G1 X33.736 Y26.943 E40.95275
G1 X36.299 Y27.935 E41.05793
G1 X37.251 Y28.275 E41.09661
G1 X37.916 Y28.55 E41.12415
G1 X39.425 Y29.409 E41.1906
