;FLAVOR:Marlin
;TIME:8314
;Filament used: 15.0438m
;Layer height: 0.3
;MINX:38.801
;MINY:33.091
;MINZ:0.26
;MAXX:163.911
;MAXY:145.215
;MAXZ:34.16
;Generated with Cura_SteamEngine 4.9.1
M82 ;absolute extrusion mode
;Begin Start Gcode for Dagoma DiscoEasy 200
;Sliced: 09-08-2021 14:26:35
;Initial extruder: 0

G90 ;Absolute positioning
M106 S255 ;Fan on full
G28 X Y ;Home stop X Y
G1 X100 ;Centre back during cooldown in case of oozing
M109 R90 ;Cooldown in case too hot
G28 ;Centre
G29 ;Auto-level
M104 S205 ;Pre-heat
M107 ;Fan off
G0 X100 Y5 Z0.5 ;Front centre for degunk
M109 S205 ;Wait for initial temp
M83 ;E Relative
G1 E10 F200 ;Degunk
G1 E-3 F5000 ;Retract
G0 Z3 ;Withdraw
M82 ;E absolute
G92 E0 ;E reset
G1 F6000 ;Set feedrate

;Finish Start Gcode for Dagoma DiscoEasy 200

G92 E0
G92 E0
G1 F3000 E-3.5
;LAYER_COUNT:114
;LAYER:0
M107
G0 F1714.3 X40.106 Y61.205 Z0.26
;TYPE:SKIRT
G1 F3000 E0
G1 F1200 X40.571 Y60.95 E0.0203
G1 X41.193 Y60.759 E0.0452
G1 X41.9 Y60.628 E0.07271
G1 X43.417 Y60.368 E0.13161
G1 X46.12 Y59.824 E0.23713
G1 X48.77 Y59.214 E0.3412
G1 X51.44 Y58.516 E0.44681
G1 X54.11 Y57.739 E0.55323
G1 X56.678 Y56.911 E0.65649
G1 X59.307 Y55.982 E0.7632
G1 X61.836 Y55.006 E0.86694
G1 X64.381 Y53.94 E0.97253
G1 X66.911 Y52.796 E1.07879
G1 X69.337 Y51.615 E1.18205
G1 X71.831 Y50.313 E1.28972
G1 X74.181 Y48.998 E1.39277
G1 X76.564 Y47.577 E1.49895
G1 X78.852 Y46.123 E1.6027
G1 X79.601 Y45.624 E1.63714
G1 X80.274 Y45.258 E1.66646
G1 X80.858 Y45.092 E1.68969
G1 X81.252 Y45.025 E1.70499
G1 X83.249 Y44.71 E1.78236
G1 X85.937 Y44.208 E1.887
G1 X88.635 Y43.625 E1.99264
G1 X91.266 Y42.979 E2.09632
G1 X93.95 Y42.237 E2.20288
G1 X96.574 Y41.432 E2.30792
G1 X99.142 Y40.564 E2.41166
G1 X101.756 Y39.597 E2.51832
G1 X104.311 Y38.568 E2.62373
G1 X106.813 Y37.478 E2.72818
G1 X109.293 Y36.313 E2.83303
G1 X110.158 Y35.874 E2.87016
G1 X111.275 Y35.325 E2.91779
G1 X111.43 Y35.254 E2.92431
G1 X112.541 Y34.788 E2.97042
G1 X113.321 Y34.479 E3.00253
G1 X113.863 Y34.272 E3.02473
G1 X114.12 Y34.188 E3.03508
G1 X115.28 Y33.867 E3.08114
G1 X116.053 Y33.669 E3.11167
G1 X116.659 Y33.522 E3.13554
G1 X116.921 Y33.471 E3.14575
G1 X118.106 Y33.299 E3.19158
G1 X118.916 Y33.197 E3.22282
G1 X119.499 Y33.132 E3.24527
G1 X119.76 Y33.115 E3.25528
G1 X120.969 Y33.091 E3.30156
G1 X121.822 Y33.092 E3.3342
G1 X122.363 Y33.1 E3.35491
G1 X122.622 Y33.116 E3.36484
G1 X123.828 Y33.244 E3.41125
G1 X124.633 Y33.346 E3.4423
G1 X125.233 Y33.431 E3.46549
G1 X125.488 Y33.479 E3.47542
G1 X126.623 Y33.747 E3.52005
G1 X127.423 Y33.953 E3.55167
G1 X128.002 Y34.11 E3.57463
G1 X128.255 Y34.192 E3.5848
G1 X129.411 Y34.624 E3.63203
G1 X130.159 Y34.921 E3.66283
G1 X130.687 Y35.139 E3.68469
G1 X130.925 Y35.25 E3.69474
G1 X131.988 Y35.807 E3.74067
G1 X132.702 Y36.2 E3.77186
G1 X133.23 Y36.501 E3.79512
G1 X133.449 Y36.64 E3.80505
G1 X134.401 Y37.304 E3.84946
G1 X135.078 Y37.796 E3.88149
G1 X135.556 Y38.154 E3.90435
G1 X135.758 Y38.32 E3.91435
G1 X136.659 Y39.133 E3.9608
G1 X137.262 Y39.7 E3.99247
G1 X137.677 Y40.101 E4.01456
G1 X137.859 Y40.294 E4.02471
G1 X138.613 Y41.172 E4.069
G1 X139.17 Y41.844 E4.1024
G1 X139.535 Y42.3 E4.12475
G1 X139.686 Y42.508 E4.13459
G1 X140.328 Y43.478 E4.17911
G1 X140.792 Y44.208 E4.21221
G1 X141.089 Y44.693 E4.23397
G1 X141.212 Y44.915 E4.24369
G1 X141.755 Y46.011 E4.29049
G1 X142.087 Y46.717 E4.32035
G1 X142.344 Y47.286 E4.34424
G1 X142.44 Y47.525 E4.3541
G1 X142.838 Y48.672 E4.40056
G1 X143.098 Y49.474 E4.43283
G1 X143.45 Y50.615 E4.47853
G1 X144.297 Y53.221 E4.58339
G1 X145.219 Y55.807 E4.68846
G1 X146.203 Y58.339 E4.79242
G1 X147.293 Y60.928 E4.89992
G1 X148.42 Y63.401 E5.00392
G1 X150.159 Y66.901 E5.15349
G1 X163.297 Y92.056 E6.23955
G1 X163.592 Y92.64 E6.26459
G1 X163.772 Y93.084 E6.28292
G1 X163.875 Y93.552 E6.30126
G1 X163.901 Y93.896 E6.31446
G1 X163.911 Y94.618 E6.3421
G1 X163.911 Y96.753 E6.4238
G1 X163.893 Y98.025 E6.47249
G1 X163.844 Y99.737 E6.53803
G1 X163.855 Y103.149 E6.66861
G1 X163.835 Y104.108 E6.70532
G1 X163.726 Y104.575 E6.72367
G1 X163.541 Y105.017 E6.742
G1 X163.286 Y105.422 E6.76032
G1 X162.966 Y105.779 E6.77867
G1 X162.411 Y106.19 E6.8051
G1 X161.814 Y106.483 E6.83055
G1 X161.315 Y106.616 E6.85031
G1 X160.552 Y106.747 E6.87994
G1 X157.856 Y107.249 E6.98488
G1 X155.183 Y107.826 E7.08954
G1 X152.516 Y108.482 E7.19464
G1 X149.859 Y109.214 E7.30011
G1 X147.218 Y110.023 E7.40582
G1 X144.617 Y110.902 E7.51089
G1 X142.036 Y111.855 E7.61618
G1 X139.496 Y112.877 E7.72096
G1 X136.99 Y113.968 E7.82556
G1 X134.491 Y115.14 E7.93119
G1 X132.033 Y116.38 E8.03654
G1 X129.61 Y117.691 E8.14197
G1 X127.245 Y119.056 E8.24648
G1 X124.899 Y120.5 E8.3519
G1 X122.629 Y121.988 E8.45577
G1 X120.338 Y123.585 E8.56265
G1 X118.138 Y125.212 E8.66736
G1 X115.997 Y126.891 E8.77149
G1 X113.87 Y128.659 E8.87733
G1 X111.796 Y130.485 E8.98308
G1 X109.805 Y132.338 E9.08717
G1 X107.839 Y134.278 E9.19287
G1 X105.941 Y136.257 E9.29781
G1 X104.087 Y138.305 E9.40353
G1 X102.328 Y140.361 E9.50708
G1 X100.559 Y142.551 E9.61482
G1 X99.597 Y143.799 E9.67512
G1 X99.074 Y144.427 E9.7064
G1 X98.7 Y144.727 E9.72474
G1 X98.281 Y144.96 E9.74309
G1 X97.83 Y145.12 E9.76141
G1 X97.139 Y145.215 E9.7881
G1 X96.561 Y145.212 E9.81022
G1 X95.167 Y145.202 E9.86357
G1 X87.84 Y145.202 E10.14397
G1 X87.137 Y145.191 E10.17088
G1 X86.66 Y145.143 E10.18922
G1 X86.198 Y145.017 E10.20755
G1 X85.703 Y144.781 E10.22853
G1 X85.613 Y144.727 E10.23255
G1 X85.157 Y144.388 E10.2543
G1 X84.726 Y143.996 E10.27659
G1 X83.54 Y142.885 E10.33878
G1 X81.503 Y141.085 E10.44281
G1 X79.385 Y139.316 E10.54842
G1 X77.201 Y137.596 E10.65481
G1 X75.035 Y135.986 E10.75809
G1 X72.776 Y134.405 E10.86361
G1 X70.243 Y132.741 E10.97959
G1 X69.444 Y132.186 E11.01682
G1 X69.116 Y131.837 E11.03515
G1 X68.796 Y131.357 E11.05723
G1 X68.57 Y130.968 E11.07445
G1 X68.219 Y130.333 E11.10221
G1 X67.971 Y129.733 E11.12706
G1 X67.757 Y128.986 E11.1568
G1 X67.412 Y127.714 E11.20724
G1 X66.629 Y125.119 E11.31097
G1 X65.755 Y122.494 E11.41685
G1 X64.815 Y119.916 E11.52186
G1 X63.802 Y117.365 E11.6269
G1 X62.717 Y114.844 E11.73193
G1 X61.555 Y112.339 E11.83761
G1 X60.337 Y109.898 E11.94201
G1 X59.042 Y107.477 E12.04708
G1 X57.664 Y105.067 E12.15332
G1 X56.252 Y102.752 E12.2571
G1 X54.757 Y100.45 E12.36214
G1 X53.173 Y98.157 E12.4688
G1 X51.577 Y95.978 E12.57216
G1 X49.867 Y93.778 E12.67879
G1 X48.124 Y91.662 E12.78371
G1 X46.34 Y89.618 E12.88754
G1 X44.463 Y87.584 E12.99345
G1 X43.317 Y86.42 E13.05597
G1 X42.445 Y85.515 E13.10406
G1 X42.053 Y85.004 E13.12871
G1 X41.652 Y84.336 E13.15853
G1 X41.362 Y83.816 E13.18131
G1 X41.164 Y83.38 E13.19964
G1 X41.042 Y82.917 E13.21796
G1 X40.999 Y82.501 E13.23396
G1 X40.976 Y81.725 E13.26367
G1 X40.858 Y79.022 E13.36722
G1 X40.657 Y76.242 E13.47388
G1 X40.378 Y73.468 E13.58058
G1 X40.032 Y70.8 E13.68354
G1 X39.598 Y68.057 E13.78982
G1 X39.116 Y65.476 E13.8903
G1 X38.856 Y64.178 E13.94096
G1 X38.801 Y63.702 E13.95929
G1 X38.827 Y63.224 E13.97761
G1 X38.931 Y62.756 E13.99596
G1 X39.112 Y62.312 E14.01431
G1 X39.363 Y61.905 E14.03261
G1 X39.679 Y61.544 E14.05097
G1 X40.106 Y61.205 E14.07184
G0 F1714.3 X40.34 Y61.47
G1 F1200 X40.737 Y61.259 E14.08904
G1 X41.257 Y61.103 E14.10982
G1 X41.959 Y60.973 E14.13714
G1 X43.51 Y60.707 E14.19736
G1 X46.157 Y60.174 E14.30069
G1 X48.868 Y59.55 E14.40716
G1 X51.558 Y58.847 E14.51356
G1 X54.173 Y58.087 E14.61777
G1 X56.791 Y57.242 E14.72305
G1 X59.419 Y56.313 E14.82972
G1 X61.998 Y55.318 E14.93551
G1 X64.519 Y54.262 E15.04011
G1 X67.053 Y53.116 E15.14654
G1 X69.51 Y51.921 E15.2511
G1 X71.945 Y50.649 E15.35624
G1 X74.377 Y49.289 E15.46287
G1 X76.746 Y47.876 E15.56844
G1 X79.071 Y46.398 E15.67387
G1 X79.795 Y45.916 E15.70715
G1 X80.43 Y45.572 E15.73479
G1 X80.918 Y45.437 E15.75417
G1 X81.307 Y45.371 E15.76927
G1 X83.299 Y45.057 E15.84644
G1 X86 Y44.553 E15.95159
G1 X88.716 Y43.965 E16.05794
G1 X91.351 Y43.319 E16.16177
G1 X94.037 Y42.577 E16.26841
G1 X96.678 Y41.766 E16.37414
G1 X99.296 Y40.88 E16.47991
G1 X101.877 Y39.926 E16.58521
G1 X104.41 Y38.906 E16.68971
G1 X106.96 Y37.795 E16.79616
G1 X109.457 Y36.622 E16.90174
G1 X110.312 Y36.188 E16.93843
G1 X111.429 Y35.639 E16.98607
G1 X111.565 Y35.577 E16.99179
G1 X112.67 Y35.114 E17.03764
G1 X113.446 Y34.806 E17.06959
G1 X113.988 Y34.599 E17.09179
G1 X114.214 Y34.525 E17.10089
G1 X115.366 Y34.206 E17.14664
G1 X116.136 Y34.009 E17.17705
G1 X116.742 Y33.862 E17.20092
G1 X116.972 Y33.818 E17.20988
G1 X118.15 Y33.646 E17.25544
G1 X118.955 Y33.545 E17.28649
G1 X119.538 Y33.48 E17.30894
G1 X119.767 Y33.465 E17.31772
G1 X120.968 Y33.441 E17.36369
G1 X121.816 Y33.442 E17.39614
G1 X122.357 Y33.45 E17.41685
G1 X122.585 Y33.464 E17.42559
G1 X123.784 Y33.591 E17.47173
G1 X124.584 Y33.693 E17.50259
G1 X125.184 Y33.778 E17.52579
G1 X125.408 Y33.82 E17.53451
G1 X126.536 Y34.086 E17.57886
G1 X127.332 Y34.291 E17.61032
G1 X127.911 Y34.448 E17.63327
G1 X128.133 Y34.519 E17.64219
G1 X129.282 Y34.949 E17.68914
G1 X130.026 Y35.244 E17.71977
G1 X130.554 Y35.462 E17.74163
G1 X130.762 Y35.56 E17.75043
G1 X131.819 Y36.114 E17.7961
G1 X132.529 Y36.504 E17.8271
G1 X133.057 Y36.805 E17.85036
G1 X133.249 Y36.927 E17.85907
G1 X134.196 Y37.587 E17.90324
G1 X134.869 Y38.076 E17.93508
G1 X135.347 Y38.434 E17.95793
G1 X135.524 Y38.58 E17.96671
G1 X136.419 Y39.388 E18.01286
G1 X137.019 Y39.952 E18.04437
G1 X137.434 Y40.353 E18.06646
G1 X137.593 Y40.522 E18.07534
G1 X138.344 Y41.395 E18.11941
G1 X138.896 Y42.063 E18.15257
G1 X139.261 Y42.519 E18.17492
G1 X139.394 Y42.702 E18.18358
G1 X140.033 Y43.665 E18.22781
G1 X140.493 Y44.39 E18.26067
G1 X140.79 Y44.875 E18.28243
G1 X140.898 Y45.071 E18.291
G1 X141.439 Y46.16 E18.33753
G1 X141.768 Y46.861 E18.36717
G1 X142.025 Y47.43 E18.39106
G1 X142.109 Y47.64 E18.39972
G1 X142.505 Y48.78 E18.4459
G1 X142.763 Y49.578 E18.478
G1 X143.105 Y50.685 E18.52234
G1 X143.966 Y53.336 E18.629
G1 X144.894 Y55.94 E18.7348
G1 X145.879 Y58.472 E18.83877
G1 X146.959 Y61.038 E18.94531
G1 X148.107 Y63.557 E19.05125
G1 X149.849 Y67.062 E19.20104
G1 X162.985 Y92.214 E20.28696
G1 X163.28 Y92.798 E20.312
G1 X163.446 Y93.215 E20.32918
G1 X163.551 Y93.901 E20.35574
G1 X163.561 Y94.623 E20.38337
G1 X163.561 Y96.748 E20.46469
G1 X163.543 Y98.015 E20.51319
G1 X163.494 Y99.728 E20.57877
G1 X163.505 Y103.154 E20.70988
G1 X163.485 Y104.085 E20.74552
G1 X163.375 Y104.521 E20.76273
G1 X163.191 Y104.93 E20.77989
G1 X162.936 Y105.3 E20.79709
G1 X162.62 Y105.619 E20.81427
G1 X162.076 Y105.978 E20.83921
G1 X161.667 Y106.164 E20.85641
G1 X161.256 Y106.271 E20.87266
G1 X160.493 Y106.402 E20.90229
G1 X157.787 Y106.906 E21.00763
G1 X155.094 Y107.487 E21.11306
G1 X152.45 Y108.138 E21.21726
G1 X149.732 Y108.886 E21.32515
G1 X147.114 Y109.689 E21.42994
G1 X144.526 Y110.562 E21.53447
G1 X141.896 Y111.534 E21.64177
G1 X139.368 Y112.551 E21.74605
G1 X136.83 Y113.656 E21.85199
G1 X134.326 Y114.83 E21.95782
G1 X131.878 Y116.066 E22.06277
G1 X129.453 Y117.377 E22.16827
G1 X127.072 Y118.751 E22.27347
G1 X124.718 Y120.2 E22.37926
G1 X122.399 Y121.721 E22.48539
G1 X120.164 Y123.279 E22.58965
G1 X117.924 Y124.936 E22.69628
G1 X115.767 Y126.627 E22.80117
G1 X113.625 Y128.408 E22.90778
G1 X111.574 Y130.214 E23.01236
G1 X109.568 Y132.081 E23.11724
G1 X107.587 Y134.034 E23.22369
G1 X105.676 Y136.028 E23.32939
G1 X103.841 Y138.053 E23.43397
G1 X102.035 Y140.166 E23.54035
G1 X100.298 Y142.316 E23.64612
G1 X99.32 Y143.585 E23.70744
G1 X98.813 Y144.193 E23.73773
G1 X98.457 Y144.467 E23.75492
G1 X98.059 Y144.674 E23.77209
G1 X97.631 Y144.808 E23.78926
G1 X97.134 Y144.865 E23.8084
G1 X96.566 Y144.862 E23.83014
G1 X95.169 Y144.852 E23.8836
G1 X87.845 Y144.852 E24.16389
G1 X87.142 Y144.841 E24.19079
G1 X86.696 Y144.794 E24.20796
G1 X86.265 Y144.669 E24.22513
G1 X85.793 Y144.427 E24.24543
G1 X85.392 Y144.129 E24.26455
G1 X84.965 Y143.74 E24.28665
G1 X83.782 Y142.633 E24.34866
G1 X81.712 Y140.802 E24.45442
G1 X79.616 Y139.052 E24.55891
G1 X77.434 Y137.334 E24.6652
G1 X75.218 Y135.686 E24.77088
G1 X72.975 Y134.117 E24.87564
G1 X70.435 Y132.448 E24.99195
G1 X69.657 Y131.907 E25.02821
G1 X69.218 Y131.375 E25.05461
G1 X68.901 Y130.843 E25.07831
G1 X68.525 Y130.164 E25.10801
G1 X68.308 Y129.637 E25.12982
G1 X68.095 Y128.894 E25.1594
G1 X67.752 Y127.631 E25.20949
G1 X66.961 Y125.008 E25.31433
G1 X66.084 Y122.374 E25.42058
G1 X65.149 Y119.81 E25.52502
G1 X64.112 Y117.198 E25.63257
G1 X63.05 Y114.731 E25.73536
G1 X61.86 Y112.166 E25.84357
G1 X60.661 Y109.763 E25.94634
G1 X59.327 Y107.269 E26.05458
G1 X57.985 Y104.922 E26.15805
G1 X56.537 Y102.548 E26.26446
G1 X55.042 Y100.246 E26.36951
G1 X53.463 Y97.961 E26.4758
G1 X51.839 Y95.743 E26.581
G1 X50.151 Y93.572 E26.68625
G1 X48.392 Y91.436 E26.79214
G1 X46.596 Y89.379 E26.89664
G1 X44.722 Y87.349 E27.00237
G1 X43.569 Y86.177 E27.06529
G1 X42.697 Y85.272 E27.11338
G1 X42.352 Y84.823 E27.13505
G1 X42 Y84.239 E27.16115
G1 X41.668 Y83.646 E27.18716
G1 X41.485 Y83.236 E27.20434
G1 X41.377 Y82.8 E27.22153
G1 X41.349 Y82.491 E27.2334
G1 X41.327 Y81.751 E27.26174
G1 X41.203 Y78.926 E27.36995
G1 X41.007 Y76.216 E27.47393
G1 X40.731 Y73.474 E27.5794
G1 X40.378 Y70.741 E27.68486
G1 X39.945 Y68.007 E27.79079
G1 X39.46 Y65.412 E27.89182
G1 X39.199 Y64.11 E27.94264
G1 X39.15 Y63.663 E27.95985
G1 X39.182 Y63.215 E27.97703
G1 X39.292 Y62.78 E27.99421
G1 X39.477 Y62.371 E28.01139
G1 X39.732 Y62.001 E28.02858
G1 X40.048 Y61.683 E28.04574
G1 X40.34 Y61.47 E28.05957
G0 F1714.3 X40.488 Y61.791
G1 F1200 X40.9 Y61.57 E28.07746
G1 X41.321 Y61.448 E28.09424
G1 X42.018 Y61.318 E28.12137
G1 X43.57 Y61.052 E28.18163
G1 X46.236 Y60.515 E28.28571
G1 X48.958 Y59.888 E28.3926
G1 X51.634 Y59.19 E28.49844
G1 X54.287 Y58.417 E28.60419
G1 X56.905 Y57.574 E28.70945
G1 X59.55 Y56.638 E28.81682
G1 X62.117 Y55.648 E28.92211
G1 X64.656 Y54.585 E29.02745
G1 X67.179 Y53.444 E29.13342
G1 X69.683 Y52.225 E29.24
G1 X72.134 Y50.945 E29.34582
G1 X74.542 Y49.598 E29.45141
G1 X76.902 Y48.191 E29.55656
G1 X79.279 Y46.68 E29.66435
G1 X79.989 Y46.207 E29.69699
G1 X80.585 Y45.888 E29.72287
G1 X81.333 Y45.721 E29.7522
G1 X83.349 Y45.404 E29.83029
G1 X86.07 Y44.896 E29.93623
G1 X88.806 Y44.304 E30.04335
G1 X91.45 Y43.655 E30.14754
G1 X94.132 Y42.914 E30.25403
G1 X96.782 Y42.1 E30.36012
G1 X99.399 Y41.216 E30.46583
G1 X101.988 Y40.258 E30.57147
G1 X104.568 Y39.219 E30.67791
G1 X107.106 Y38.113 E30.78386
G1 X109.608 Y36.938 E30.88965
G1 X110.467 Y36.502 E30.92651
G1 X111.584 Y35.953 E30.97414
G1 X111.701 Y35.9 E30.97906
G1 X112.799 Y35.439 E31.02463
G1 X113.571 Y35.133 E31.05641
G1 X114.113 Y34.926 E31.07862
G1 X114.308 Y34.862 E31.08647
G1 X115.453 Y34.545 E31.13194
G1 X116.218 Y34.349 E31.16216
G1 X116.824 Y34.202 E31.18602
G1 X117.022 Y34.164 E31.19374
G1 X118.194 Y33.993 E31.23907
G1 X118.994 Y33.892 E31.26992
G1 X119.577 Y33.827 E31.29237
G1 X119.774 Y33.814 E31.29993
G1 X120.968 Y33.791 E31.34563
G1 X121.811 Y33.792 E31.37789
G1 X122.352 Y33.8 E31.3986
G1 X122.548 Y33.812 E31.40611
G1 X123.74 Y33.938 E31.45199
G1 X124.535 Y34.04 E31.48266
G1 X125.135 Y34.125 E31.50585
G1 X125.328 Y34.161 E31.51336
G1 X126.448 Y34.425 E31.5574
G1 X127.24 Y34.629 E31.5887
G1 X127.819 Y34.786 E31.61166
G1 X128.011 Y34.847 E31.61937
G1 X129.153 Y35.274 E31.66603
G1 X129.892 Y35.568 E31.69646
G1 X130.42 Y35.786 E31.71832
G1 X130.6 Y35.87 E31.72592
G1 X131.651 Y36.421 E31.77134
G1 X132.355 Y36.808 E31.80208
G1 X132.883 Y37.109 E31.82534
G1 X133.049 Y37.214 E31.83286
G1 X133.99 Y37.87 E31.87676
G1 X134.659 Y38.356 E31.9084
G1 X135.137 Y38.714 E31.93126
G1 X135.29 Y38.84 E31.93884
G1 X136.179 Y39.643 E31.98469
G1 X136.775 Y40.204 E32.01601
G1 X137.19 Y40.605 E32.0381
G1 X137.328 Y40.751 E32.04578
G1 X138.074 Y41.619 E32.08958
G1 X138.623 Y42.282 E32.12253
G1 X138.988 Y42.738 E32.14488
G1 X139.103 Y42.895 E32.15233
G1 X139.738 Y43.853 E32.19631
G1 X140.195 Y44.573 E32.22895
G1 X140.492 Y45.058 E32.25071
G1 X140.585 Y45.227 E32.25809
G1 X141.122 Y46.309 E32.30432
G1 X141.449 Y47.005 E32.33375
G1 X141.706 Y47.574 E32.35764
G1 X141.778 Y47.755 E32.3651
G1 X142.172 Y48.888 E32.411
G1 X142.429 Y49.681 E32.44291
G1 X142.773 Y50.793 E32.48745
G1 X143.637 Y53.453 E32.59448
