;FLAVOR:Marlin
;TIME:20392
;Filament used: 22.5574m
;Layer height: 0.3
;MINX:13.024
;MINY:5.656
;MINZ:0.26
;MAXX:198.481
;MAXY:195.73
;MAXZ:26.06
;Generated with Cura_SteamEngine 4.9.1
M82 ;absolute extrusion mode
;Begin Start Gcode for Dagoma DiscoEasy 200
;Sliced: 15-07-2021 12:51:54
;Initial extruder: 0

G90 ;Absolute positioning
M106 S255 ;Fan on full
G28 X Y ;Home stop X Y
G1 X100 ;Centre back during cooldown in case of oozing
M109 R90 ;Cooldown in case too hot
G28 ;Centre
G29 ;Auto-level
M104 S205 ;Pre-heat
M107 ;Fan off
G0 X100 Y5 Z0.5 ;Front centre for degunk
M109 S205 ;Wait for initial temp
M83 ;E Relative
G1 E10 F200 ;Degunk
G1 E-3 F5000 ;Retract
G0 Z3 ;Withdraw
M82 ;E absolute
G92 E0 ;E reset
G1 F6000 ;Set feedrate

;Finish Start Gcode for Dagoma DiscoEasy 200

G92 E0
G92 E0
G1 F3000 E-3.5
;LAYER_COUNT:87
;LAYER:0
M107
G0 F1285.7 X30.115 Y25.451 Z0.26
;TYPE:SKIRT
G1 F3000 E0
G1 F900 X32.092 Y23.493 E0.10648
G1 X34.002 Y21.492 E0.21235
G1 X35.819 Y19.476 E0.31621
G1 X37.62 Y17.361 E0.42252
G1 X39.33 Y15.233 E0.52699
G1 X40.989 Y13.045 E0.63208
G1 X42.601 Y10.791 E0.73812
G1 X43.8 Y9.014 E0.82016
G1 X44.235 Y8.46 E0.84712
G1 X44.597 Y8.147 E0.86543
G1 X45.1 Y7.854 E0.88771
G1 X46.319 Y7.302 E0.93892
G1 X46.431 Y7.254 E0.94358
G1 X49.269 Y5.922 E1.06356
G1 X49.718 Y5.756 E1.08188
G1 X50.189 Y5.666 E1.10023
G1 X50.668 Y5.656 E1.11856
G1 X51.142 Y5.725 E1.1369
G1 X51.484 Y5.827 E1.15055
G1 X52.336 Y6.141 E1.1853
G1 X54.994 Y7.078 E1.29316
G1 X57.567 Y7.904 E1.39658
G1 X60.218 Y8.674 E1.50222
G1 X62.874 Y9.364 E1.60724
G1 X65.548 Y9.979 E1.71224
G1 X69.253 Y10.703 E1.85671
G1 X69.706 Y10.791 E1.87437
G1 X70.703 Y11.054 E1.91383
G1 X71.339 Y11.231 E1.9391
G1 X71.788 Y11.398 E1.95743
G1 X72.55 Y11.877 E1.99188
G1 X72.919 Y12.182 E2.0102
G1 X73.233 Y12.545 E2.02856
G1 X73.482 Y12.954 E2.04689
G1 X73.671 Y13.44 E2.06685
G1 X73.947 Y14.398 E2.105
G1 X74.049 Y14.776 E2.11998
G1 X74.235 Y15.505 E2.14877
G1 X74.315 Y15.992 E2.16766
G1 X74.394 Y16.997 E2.20624
G1 X74.653 Y19.779 E2.31317
G1 X74.985 Y22.502 E2.41815
G1 X75.392 Y25.208 E2.52287
G1 X75.883 Y27.942 E2.62917
G1 X76.439 Y30.604 E2.73324
G1 X76.944 Y32.747 E2.8175
G1 X82.624 Y55.688 E3.72195
G1 X83.331 Y58.376 E3.82832
G1 X84.101 Y61.004 E3.93312
G1 X84.954 Y63.635 E4.03897
G1 X85.876 Y66.23 E4.14436
G1 X86.857 Y68.757 E4.2481
G1 X87.94 Y71.33 E4.35493
G1 X89.063 Y73.8 E4.45877
G1 X90.275 Y76.28 E4.5644
G1 X91.55 Y78.709 E4.66939
G1 X92.896 Y81.107 E4.77463
G1 X94.319 Y83.483 E4.88062
G1 X95.784 Y85.777 E4.98478
G1 X97.33 Y88.056 E5.09017
G1 X98.93 Y90.275 E5.19486
G1 X100.597 Y92.455 E5.29989
G1 X102.325 Y94.588 E5.40494
G1 X104.138 Y96.699 E5.51143
G1 X105.968 Y98.712 E5.61555
G1 X107.868 Y100.686 E5.7204
G1 X109.851 Y102.635 E5.8268
G1 X111.848 Y104.488 E5.93106
G1 X113.914 Y106.298 E6.03618
G1 X116.039 Y108.06 E6.14182
G1 X118.184 Y109.736 E6.24599
G1 X120.403 Y111.371 E6.35148
G1 X122.664 Y112.94 E6.4568
G1 X124.954 Y114.435 E6.56146
G1 X127.304 Y115.877 E6.66697
G1 X129.686 Y117.247 E6.77213
G1 X132.102 Y118.547 E6.87712
G1 X134.555 Y119.78 E6.98219
G1 X137.057 Y120.948 E7.08786
G1 X139.575 Y122.039 E7.19288
G1 X142.142 Y123.066 E7.29869
G1 X144.674 Y123.995 E7.4019
G1 X147.322 Y124.884 E7.5088
G1 X150.023 Y125.707 E7.61686
G1 X161.546 Y129.03 E8.07581
G1 X164.24 Y129.766 E8.18268
G1 X166.9 Y130.412 E8.28744
G1 X169.631 Y130.995 E8.39431
G1 X172.292 Y131.483 E8.49784
G1 X174.126 Y131.777 E8.56892
G1 X174.773 Y131.883 E8.59401
G1 X175.422 Y132.041 E8.61958
G1 X178.959 Y133.064 E8.76048
G1 X179.705 Y133.293 E8.79035
G1 X180.754 Y133.646 E8.8327
G1 X183.423 Y134.502 E8.93997
G1 X186.786 Y135.463 E9.07382
G1 X189.002 Y136.101 E9.16207
G1 X190.719 Y136.606 E9.23056
G1 X191.385 Y136.811 E9.25723
G1 X191.829 Y136.99 E9.27555
G1 X192.238 Y137.24 E9.2939
G1 X192.6 Y137.554 E9.31224
G1 X192.904 Y137.924 E9.33056
G1 X193.143 Y138.34 E9.34892
G1 X193.359 Y138.999 E9.37546
G1 X193.469 Y139.558 E9.39727
G1 X193.773 Y141.229 E9.46226
G1 X194.347 Y143.941 E9.56835
G1 X194.984 Y146.59 E9.67262
G1 X195.704 Y149.24 E9.77771
G1 X196.875 Y153.031 E9.92955
G1 X197.039 Y153.54 E9.95002
G1 X197.27 Y154.41 E9.98446
G1 X198.002 Y157.341 E10.10008
G1 X198.27 Y158.461 E10.14415
G1 X198.418 Y159.132 E10.17044
G1 X198.481 Y159.607 E10.18878
G1 X198.465 Y160.086 E10.20712
G1 X198.37 Y160.555 E10.22544
G1 X198.159 Y161.081 E10.24712
G1 X198.081 Y161.228 E10.25349
G1 X196.834 Y163.497 E10.35258
G1 X196.414 Y164.307 E10.38749
G1 X195.92 Y165.135 E10.42439
G1 X195.595 Y165.487 E10.44273
G1 X194.926 Y165.965 E10.47419
G1 X192.596 Y167.494 E10.58085
G1 X190.348 Y169.062 E10.68574
G1 X188.116 Y170.717 E10.79207
G1 X185.991 Y172.385 E10.89546
G1 X183.865 Y174.154 E11.0013
G1 X181.809 Y175.966 E11.10618
G1 X179.655 Y177.979 E11.219
G1 X162.496 Y194.496 E12.13046
G1 X161.996 Y194.964 E12.15667
G1 X161.62 Y195.261 E12.17501
G1 X161.2 Y195.492 E12.19335
G1 X160.747 Y195.649 E12.2117
G1 X160.275 Y195.73 E12.23003
G1 X159.796 Y195.73 E12.24836
G1 X159.323 Y195.651 E12.26671
G1 X158.87 Y195.495 E12.28505
G1 X158.426 Y195.258 E12.30431
G1 X158.053 Y195.032 E12.321
G1 X154.759 Y192.986 E12.4694
G1 X151.585 Y190.971 E12.61327
G1 X151.074 Y190.642 E12.63653
G1 X148.013 Y188.655 E12.77619
G1 X147.604 Y188.387 E12.7949
G1 X144.484 Y186.317 E12.93819
G1 X143.983 Y185.98 E12.9613
G1 X140.98 Y183.944 E13.10015
G1 X140.591 Y183.677 E13.1182
G1 X137.139 Y181.282 E13.27899
G1 X134.054 Y179.096 E13.42369
G1 X133.595 Y178.766 E13.44532
G1 X130.615 Y176.611 E13.58606
G1 X130.219 Y176.321 E13.60485
G1 X127.224 Y174.106 E13.7474
G1 X126.777 Y173.772 E13.76876
G1 X123.762 Y171.494 E13.91337
G1 X120.524 Y168.998 E14.06983
G1 X120.027 Y168.61 E14.09396
G1 X117.137 Y166.334 E14.23474
G1 X113.808 Y163.66 E14.39815
G1 X113.464 Y163.381 E14.4151
G1 X110.605 Y161.032 E14.5567
G1 X110.177 Y160.678 E14.57796
G1 X107.363 Y158.317 E14.71853
G1 X106.841 Y157.875 E14.74471
G1 X104.19 Y155.606 E14.87825
G1 X103.585 Y155.081 E14.90891
G1 X100.995 Y152.82 E15.04048
G1 X100.526 Y152.404 E15.06447
G1 X97.754 Y149.932 E15.20661
G1 X97.408 Y149.62 E15.22444
G1 X94.622 Y147.085 E15.36859
G1 X94.293 Y146.783 E15.38568
G1 X91.632 Y144.312 E15.52465
G1 X91.105 Y143.817 E15.55232
G1 X88.455 Y141.304 E15.69208
G1 X88.074 Y140.94 E15.71225
G1 X85.445 Y138.397 E15.85222
G1 X85.06 Y138.021 E15.87282
G1 X82.377 Y135.369 E16.01719
G1 X82.069 Y135.062 E16.03383
G1 X79.436 Y132.408 E16.1769
G1 X79.094 Y132.06 E16.19557
G1 X76.477 Y129.369 E16.33923
G1 X76.09 Y128.967 E16.36058
G1 X73.269 Y126.004 E16.51715
G1 X70.616 Y123.163 E16.6659
G1 X67.88 Y120.177 E16.82089
G1 X67.333 Y119.571 E16.85214
G1 X65.068 Y117.044 E16.982
G1 X64.564 Y116.475 E17.01109
G1 X62.243 Y113.83 E17.14576
G1 X61.842 Y113.368 E17.16917
G1 X59.172 Y110.263 E17.32589
G1 X56.707 Y107.338 E17.47228
G1 X54.071 Y104.147 E17.63067
G1 X53.564 Y103.526 E17.66135
G1 X51.345 Y100.781 E17.79644
G1 X51.016 Y100.37 E17.81658
G1 X48.693 Y97.436 E17.9598
G1 X48.418 Y97.085 E17.97686
G1 X46.192 Y94.214 E18.11589
G1 X45.685 Y93.552 E18.1478
G1 X43.577 Y90.775 E18.28123
G1 X43.269 Y90.365 E18.30085
G1 X41.067 Y87.404 E18.44207
G1 X40.702 Y86.908 E18.46563
G1 X38.309 Y83.618 E18.62132
G1 X36.132 Y80.562 E18.76492
G1 X35.755 Y80.028 E18.78993
G1 X33.643 Y76.998 E18.93128
G1 X33.387 Y76.625 E18.94859
G1 X31.059 Y73.207 E19.10685
G1 X28.92 Y70.003 E19.25428
G1 X28.639 Y69.577 E19.27381
G1 X26.666 Y66.554 E19.41196
G1 X26.278 Y65.952 E19.43937
G1 X24.341 Y62.915 E19.57722
G1 X24.02 Y62.407 E19.60022
G1 X22.128 Y59.376 E19.73696
G1 X21.814 Y58.867 E19.75984
G1 X19.869 Y55.676 E19.90286
G1 X17.684 Y52.015 E20.06602
G1 X15.64 Y48.51 E20.2213
G1 X15.234 Y47.804 E20.25246
G1 X13.745 Y45.186 E20.36773
G1 X13.383 Y44.531 E20.39637
G1 X13.187 Y44.093 E20.41473
G1 X13.066 Y43.63 E20.43304
G1 X13.024 Y43.152 E20.45141
G1 X13.062 Y42.675 E20.46972
G1 X13.179 Y42.21 E20.48807
G1 X13.371 Y41.771 E20.50641
G1 X13.633 Y41.37 E20.52474
G1 X13.999 Y40.971 E20.54546
G1 X14.297 Y40.678 E20.56145
G1 X30.115 Y25.451 E21.4017
G0 F1285.7 X30.358 Y25.703
G1 F900 X32.368 Y23.712 E21.50997
G1 X34.234 Y21.757 E21.6134
G1 X36.079 Y19.71 E21.71886
G1 X37.896 Y17.576 E21.82612
G1 X39.602 Y15.454 E21.93032
G1 X41.273 Y13.25 E22.03617
G1 X42.87 Y11.017 E22.14123
G1 X44.087 Y9.214 E22.22447
G1 X44.504 Y8.685 E22.25025
G1 X44.849 Y8.397 E22.26745
G1 X45.245 Y8.173 E22.28486
G1 X46.458 Y7.624 E22.33582
G1 X46.549 Y7.585 E22.33961
G1 X49.417 Y6.239 E22.46085
G1 X49.839 Y6.085 E22.47804
G1 X50.282 Y6.009 E22.49524
G1 X50.731 Y6.012 E22.51242
G1 X51.363 Y6.156 E22.53723
G1 X52.252 Y6.484 E22.57349
G1 X54.839 Y7.395 E22.67846
G1 X57.463 Y8.238 E22.78393
G1 X60.143 Y9.017 E22.89074
G1 X62.783 Y9.702 E22.99512
G1 X65.488 Y10.325 E23.10134
G1 X69.169 Y11.044 E23.24488
G1 X69.617 Y11.13 E23.26233
G1 X70.609 Y11.391 E23.30159
G1 X71.245 Y11.568 E23.32685
G1 X71.665 Y11.727 E23.34404
G1 X72.35 Y12.165 E23.37516
G1 X72.694 Y12.453 E23.39233
G1 X72.982 Y12.797 E23.40949
G1 X73.205 Y13.187 E23.42669
G1 X73.335 Y13.537 E23.44098
G1 X73.609 Y14.489 E23.47889
G1 X73.71 Y14.863 E23.49371
G1 X73.896 Y15.592 E23.52251
G1 X73.966 Y16.019 E23.53906
G1 X74.045 Y17.029 E23.57783
G1 X74.305 Y19.822 E23.68518
G1 X74.632 Y22.51 E23.78881
G1 X75.05 Y25.287 E23.89628
G1 X75.528 Y27.951 E23.99986
G1 X76.099 Y30.689 E24.1069
G1 X76.604 Y32.831 E24.19112
G1 X82.278 Y55.748 E25.09462
G1 X82.998 Y58.486 E25.20297
G1 X83.767 Y61.11 E25.30761
G1 X84.627 Y63.761 E25.41427
G1 X85.541 Y66.333 E25.51872
G1 X86.54 Y68.907 E25.62439
G1 X87.606 Y71.439 E25.72953
G1 X88.763 Y73.985 E25.83655
G1 X89.956 Y76.426 E25.94052
G1 X91.24 Y78.874 E26.04631
G1 X92.603 Y81.3 E26.1528
G1 X94.004 Y83.64 E26.25718
G1 X95.495 Y85.976 E26.36323
G1 X97.036 Y88.247 E26.46826
G1 X98.648 Y90.482 E26.57372
G1 X100.327 Y92.678 E26.67951
G1 X102.068 Y94.826 E26.78532
G1 X103.861 Y96.914 E26.89065
G1 X105.721 Y98.96 E26.99647
G1 X107.634 Y100.949 E27.10208
G1 X109.577 Y102.857 E27.20629
G1 X111.627 Y104.76 E27.31334
G1 X113.69 Y106.568 E27.41832
G1 X115.781 Y108.301 E27.52225
G1 X117.988 Y110.026 E27.62945
G1 X120.213 Y111.665 E27.73521
G1 X122.459 Y113.224 E27.83984
G1 X124.79 Y114.746 E27.94638
G1 X127.105 Y116.166 E28.05031
G1 X129.515 Y117.553 E28.15672
G1 X131.963 Y118.87 E28.2631
G1 X134.392 Y120.09 E28.36713
G1 X136.898 Y121.26 E28.47297
G1 X139.448 Y122.365 E28.57932
G1 X141.992 Y123.383 E28.68418
G1 X144.596 Y124.339 E28.79034
G1 X147.209 Y125.216 E28.89582
G1 X149.896 Y126.034 E29.00331
G1 X161.454 Y129.368 E29.46367
G1 X164.142 Y130.102 E29.5703
G1 X166.853 Y130.761 E29.67707
G1 X169.523 Y131.331 E29.78155
G1 X172.261 Y131.833 E29.88808
G1 X174.069 Y132.122 E29.95815
G1 X174.716 Y132.228 E29.98324
G1 X175.332 Y132.379 E30.00751
G1 X178.898 Y133.411 E30.14958
G1 X179.593 Y133.625 E30.17741
G1 X180.675 Y133.989 E30.2211
G1 X183.283 Y134.826 E30.32592
G1 X186.689 Y135.799 E30.46148
G1 X188.902 Y136.436 E30.54961
G1 X189.416 Y136.586 E30.5701
G1 X190.616 Y136.941 E30.61799
G1 X191.282 Y137.146 E30.64466
G1 X191.698 Y137.315 E30.66184
G1 X192.077 Y137.556 E30.67903
G1 X192.407 Y137.86 E30.6962
G1 X192.678 Y138.218 E30.71339
G1 X192.882 Y138.618 E30.73057
G1 X193.016 Y139.068 E30.74854
G1 X193.125 Y139.62 E30.77007
G1 X193.436 Y141.329 E30.83655
G1 X193.996 Y143.979 E30.9402
G1 X194.642 Y146.662 E31.04581
G1 X195.37 Y149.343 E31.15213
G1 X196.545 Y153.148 E31.30453
G1 X196.701 Y153.63 E31.32392
G1 X196.931 Y154.495 E31.35817
G1 X197.662 Y157.423 E31.47366
G1 X197.928 Y158.536 E31.51746
G1 X198.076 Y159.207 E31.54375
G1 X198.133 Y159.652 E31.56092
G1 X198.111 Y160.101 E31.57812
G1 X198.009 Y160.538 E31.5953
G1 X197.801 Y161.011 E31.61507
G1 X196.513 Y163.355 E31.71743
G1 X196.106 Y164.14 E31.75127
G1 X195.627 Y164.942 E31.78702
G1 X195.317 Y165.266 E31.80418
G1 X194.734 Y165.672 E31.83136
G1 X192.414 Y167.195 E31.93757
G1 X190.15 Y168.774 E32.0432
G1 X187.897 Y170.444 E32.15053
G1 X185.761 Y172.121 E32.25446
G1 X183.62 Y173.903 E32.36106
G1 X181.586 Y175.695 E32.4648
G1 X179.416 Y177.723 E32.57847
G1 X162.256 Y194.24 E33.48995
G1 X161.756 Y194.708 E33.51616
G1 X161.403 Y194.985 E33.53333
G1 X161.006 Y195.194 E33.5505
G1 X160.578 Y195.33 E33.56769
G1 X160.132 Y195.388 E33.5849
G1 X159.684 Y195.366 E33.60207
G1 X159.246 Y195.265 E33.61927
G1 X158.764 Y195.049 E33.63948
G1 X158.259 Y194.748 E33.66198
G1 X154.932 Y192.681 E33.81188
G1 X151.775 Y190.677 E33.95498
G1 X148.204 Y188.363 E34.11782
G1 X147.798 Y188.096 E34.13642
G1 X144.679 Y186.026 E34.27968
G1 X144.18 Y185.691 E34.30268
G1 X141.178 Y183.655 E34.44149
G1 X140.791 Y183.39 E34.45944
G1 X137.341 Y180.996 E34.62015
G1 X134.258 Y178.812 E34.76474
G1 X133.8 Y178.483 E34.78632
G1 X130.822 Y176.328 E34.92699
G1 X130.428 Y176.04 E34.94567
G1 X127.434 Y173.826 E35.08817
G1 X126.988 Y173.493 E35.10947
G1 X123.975 Y171.217 E35.25398
G1 X120.739 Y168.722 E35.41036
G1 X120.244 Y168.336 E35.43438
G1 X117.356 Y166.061 E35.57507
G1 X114.029 Y163.389 E35.73837
G1 X113.686 Y163.11 E35.7553
G1 X110.829 Y160.763 E35.89679
G1 X110.402 Y160.41 E35.918
G1 X107.589 Y158.05 E36.05852
G1 X107.069 Y157.609 E36.08461
G1 X104.419 Y155.341 E36.21809
G1 X103.815 Y154.818 E36.24867
G1 X101.227 Y152.558 E36.38016
G1 X100.759 Y152.143 E36.4041
G1 X97.988 Y149.672 E36.54618
G1 X97.644 Y149.362 E36.5639
G1 X94.858 Y146.827 E36.70805
G1 X94.531 Y146.526 E36.72506
G1 X91.872 Y144.057 E36.86392
G1 X91.346 Y143.563 E36.89154
G1 X88.697 Y141.052 E37.03122
G1 X88.317 Y140.689 E37.05133
G1 X85.69 Y138.146 E37.19126
G1 X85.306 Y137.772 E37.21177
G1 X82.625 Y135.121 E37.35606
G1 X82.317 Y134.815 E37.37267
G1 X79.685 Y132.162 E37.51569
G1 X79.345 Y131.816 E37.53425
G1 X76.729 Y129.126 E37.67785
G1 X76.343 Y128.726 E37.69913
G1 X73.524 Y125.765 E37.85558
G1 X70.874 Y122.927 E38.00418
G1 X68.14 Y119.942 E38.15909
G1 X67.594 Y119.337 E38.19028
G1 X65.33 Y116.811 E38.32009
G1 X64.827 Y116.244 E38.3491
G1 X62.507 Y113.6 E38.48371
G1 X62.107 Y113.14 E38.50704
G1 X59.438 Y110.036 E38.6637
G1 X56.977 Y107.114 E38.8099
G1 X56.655 Y106.727 E38.82917
G1 X54.342 Y103.926 E38.96819
G1 X53.837 Y103.306 E38.99879
G1 X51.618 Y100.562 E39.13384
G1 X51.29 Y100.153 E39.1539
G1 X48.969 Y97.221 E39.29701
G1 X46.47 Y94.001 E39.453
G1 X45.964 Y93.341 E39.48482
G1 X43.856 Y90.564 E39.61825
G1 X43.55 Y90.157 E39.63774
G1 X41.349 Y87.196 E39.77893
G1 X40.985 Y86.702 E39.80241
G1 X38.594 Y83.415 E39.95796
G1 X36.418 Y80.36 E40.1015
G1 X36.043 Y79.828 E40.12641
G1 X33.932 Y76.799 E40.2677
G1 X33.676 Y76.428 E40.28495
G1 X31.35 Y73.013 E40.44308
G1 X29.212 Y69.81 E40.59046
G1 X28.932 Y69.386 E40.6099
G1 X26.96 Y66.364 E40.748
G1 X26.573 Y65.764 E40.77532
G1 X24.637 Y62.729 E40.91309
G1 X24.317 Y62.222 E40.93603
G1 X22.426 Y59.192 E41.07272
G1 X22.113 Y58.684 E41.09555
G1 X20.169 Y55.495 E41.23848
G1 X19.96 Y55.149 E41.25395
G1 X17.987 Y51.839 E41.40142
G1 X15.944 Y48.335 E41.55664
G1 X15.538 Y47.631 E41.58774
G1 X14.051 Y45.016 E41.70287
G1 X13.689 Y44.361 E41.73151
G1 X13.508 Y43.951 E41.74866
G1 X13.402 Y43.514 E41.76587
G1 X13.375 Y43.066 E41.78304
G1 X13.428 Y42.62 E41.80023
G1 X13.559 Y42.191 E41.8174
G1 X13.764 Y41.791 E41.8346
G1 X14.091 Y41.377 E41.85479
G1 X14.519 Y40.95 E41.87793
G1 X30.358 Y25.703 E42.71929
G0 F1285.7 X30.604 Y25.952
G1 F900 X32.596 Y23.978 E42.82661
G1 X34.497 Y21.987 E42.93196
G1 X36.36 Y19.921 E43.03842
G1 X38.155 Y17.812 E43.14441
G1 X39.887 Y15.657 E43.25021
G1 X41.557 Y13.455 E43.35597
G1 X43.165 Y11.207 E43.46175
G1 X44.374 Y9.414 E43.54451
G1 X44.773 Y8.912 E43.56905
G1 X45.098 Y8.652 E43.58498
G1 X45.389 Y8.492 E43.59768
G1 X46.597 Y7.945 E43.64843
G1 X46.707 Y7.898 E43.65301
G1 X49.566 Y6.556 E43.77388
G1 X49.959 Y6.416 E43.78984
G1 X50.37 Y6.353 E43.80575
G1 X50.787 Y6.37 E43.82173
G1 X51.242 Y6.484 E43.83968
G1 X52.132 Y6.812 E43.87598
G1 X54.726 Y7.727 E43.98124
G1 X57.368 Y8.575 E44.08743
G1 X60.058 Y9.356 E44.19463
G1 X62.683 Y10.038 E44.29842
G1 X65.406 Y10.665 E44.40535
G1 X69.113 Y11.389 E44.5499
G1 X69.528 Y11.468 E44.56607
G1 X70.515 Y11.729 E44.60514
G1 X71.151 Y11.906 E44.6304
G1 X71.54 Y12.055 E44.64634
G1 X72.15 Y12.452 E44.6742
