;FLAVOR:Marlin
;TIME:23910
;Filament used: 25.4909m
;Layer height: 0.3
;MINX:14.141
;MINY:10.364
;MINZ:0.26
;MAXX:188.023
;MAXY:183.618
;MAXZ:29.66
;Generated with Cura_SteamEngine 4.9.1
M82 ;absolute extrusion mode
;Begin Start Gcode for Dagoma DiscoEasy 200
;Sliced: 26-07-2021 01:19:04
;Initial extruder: 0

G90 ;Absolute positioning
M106 S255 ;Fan on full
G28 X Y ;Home stop X Y
G1 X100 ;Centre back during cooldown in case of oozing
M109 R90 ;Cooldown in case too hot
G28 ;Centre
G29 ;Auto-level
M104 S205 ;Pre-heat
M107 ;Fan off
G0 X100 Y5 Z0.5 ;Front centre for degunk
M109 S205 ;Wait for initial temp
M83 ;E Relative
G1 E10 F200 ;Degunk
G1 E-3 F5000 ;Retract
G0 Z3 ;Withdraw
M82 ;E absolute
G92 E0 ;E reset
G1 F6000 ;Set feedrate

;Finish Start Gcode for Dagoma DiscoEasy 200

G92 E0
G92 E0
G1 F3000 E-3.5
;LAYER_COUNT:99
;LAYER:0
M107
G0 F1285.7 X40.392 Y12.363 Z0.26
;TYPE:SKIRT
G1 F3000 E0
G1 F900 X40.574 Y11.92 E0.01833
G1 X40.827 Y11.513 E0.03667
G1 X41.145 Y11.154 E0.05502
G1 X41.518 Y10.853 E0.07336
G1 X41.935 Y10.618 E0.09168
G1 X42.386 Y10.455 E0.11003
G1 X42.857 Y10.37 E0.12835
G1 X43.337 Y10.364 E0.14672
G1 X43.81 Y10.438 E0.16504
G1 X44.265 Y10.59 E0.1834
G1 X44.688 Y10.814 E0.20172
G1 X45.136 Y11.171 E0.22364
G1 X45.631 Y11.652 E0.25006
G1 X106.911 Y72.932 E3.56661
G1 X108.924 Y74.889 E3.67405
G1 X110.921 Y76.724 E3.77784
G1 X113.018 Y78.542 E3.88405
G1 X115.127 Y80.27 E3.98839
G1 X117.301 Y81.951 E4.09356
G1 X119.543 Y83.584 E4.19971
G1 X121.783 Y85.122 E4.30369
G1 X124.093 Y86.614 E4.40893
G1 X126.45 Y88.042 E4.5144
G1 X128.822 Y89.39 E4.6188
G1 X131.27 Y90.691 E4.7249
G1 X134.289 Y92.176 E4.85365
G1 X135.266 Y92.637 E4.895
G1 X135.729 Y92.911 E4.91559
G1 X136.035 Y93.138 E4.93017
G1 X136.521 Y93.534 E4.95416
G1 X137.048 Y94.048 E4.98233
G1 X137.933 Y94.946 E5.03058
G1 X138.305 Y95.319 E5.05074
G1 X138.652 Y95.72 E5.07103
G1 X138.99 Y96.163 E5.09236
G1 X139.129 Y96.362 E5.10165
G1 X139.728 Y97.31 E5.14456
G1 X141.261 Y99.661 E5.25197
G1 X142.805 Y101.889 E5.35571
G1 X144.452 Y104.126 E5.46202
G1 X146.123 Y106.267 E5.56596
G1 X147.887 Y108.401 E5.67191
G1 X149.692 Y110.461 E5.77673
G1 X151.558 Y112.476 E5.88183
G1 X153.484 Y114.44 E5.9871
G1 X155.468 Y116.35 E6.09249
G1 X157.478 Y118.179 E6.19649
G1 X159.592 Y119.998 E6.30322
G1 X161.699 Y121.708 E6.40707
G1 X163.9 Y123.393 E6.51315
G1 X166.102 Y124.983 E6.61709
G1 X168.406 Y126.549 E6.7237
G1 X170.152 Y127.673 E6.80317
G1 X170.822 Y128.095 E6.83347
G1 X171.035 Y128.243 E6.8434
G1 X171.666 Y128.725 E6.87379
G1 X172.14 Y129.139 E6.89787
G1 X172.329 Y129.334 E6.90826
G1 X173.687 Y130.707 E6.98217
G1 X174.05 Y131.128 E7.00344
G1 X174.552 Y131.835 E7.03662
G1 X174.721 Y132.145 E7.05014
G1 X175.022 Y132.753 E7.0761
G1 X176.036 Y134.988 E7.17002
G1 X177.247 Y137.47 E7.27571
G1 X178.528 Y139.916 E7.38138
G1 X179.855 Y142.285 E7.48529
G1 X181.27 Y144.65 E7.59076
G1 X182.754 Y146.98 E7.69648
G1 X184.289 Y149.244 E7.80116
G1 X185.907 Y151.494 E7.90722
G1 X187.062 Y153.02 E7.98046
G1 X187.423 Y153.487 E8.00305
G1 X187.683 Y153.889 E8.02137
G1 X187.873 Y154.329 E8.03971
G1 X187.987 Y154.794 E8.05803
G1 X188.023 Y155.272 E8.07638
G1 X187.978 Y155.749 E8.09471
G1 X187.855 Y156.212 E8.11305
G1 X187.657 Y156.648 E8.13137
G1 X187.389 Y157.046 E8.14974
G1 X187.059 Y157.393 E8.16806
G1 X186.676 Y157.68 E8.18638
G1 X186.25 Y157.9 E8.20473
G1 X185.927 Y158.012 E8.21781
G1 X185.075 Y158.252 E8.25168
G1 X89.414 Y183.368 E12.03666
G1 X88.718 Y183.541 E12.06411
G1 X88.244 Y183.618 E12.08248
G1 X87.765 Y183.614 E12.10082
G1 X87.293 Y183.532 E12.11915
G1 X86.842 Y183.372 E12.13746
G1 X86.262 Y183.034 E12.16315
G1 X84.246 Y181.684 E12.25601
G1 X81.935 Y180.228 E12.36054
G1 X79.54 Y178.814 E12.46697
G1 X77.161 Y177.497 E12.57104
G1 X74.684 Y176.215 E12.67777
G1 X72.271 Y175.054 E12.78025
G1 X69.688 Y173.899 E12.88853
G1 X67.211 Y172.874 E12.99112
G1 X66.525 Y172.615 E13.01918
G1 X64.184 Y171.694 E13.11546
G1 X63.725 Y171.464 E13.13511
G1 X63.398 Y171.261 E13.14983
G1 X62.932 Y170.945 E13.17138
G1 X62.448 Y170.552 E13.19524
G1 X62.275 Y170.389 E13.20434
G1 X61.412 Y169.507 E13.25156
G1 X60.711 Y168.796 E13.28977
G1 X60.335 Y168.355 E13.31195
G1 X59.921 Y167.794 E13.33863
G1 X59.334 Y166.872 E13.38046
G1 X59.286 Y166.793 E13.384
G1 X57.789 Y164.495 E13.48896
G1 X56.235 Y162.253 E13.59335
G1 X54.602 Y160.029 E13.69894
G1 X52.907 Y157.856 E13.80441
G1 X51.166 Y155.749 E13.90901
G1 X49.357 Y153.683 E14.0141
G1 X47.491 Y151.667 E14.11923
G1 X45.566 Y149.702 E14.2245
G1 X43.583 Y147.791 E14.32989
G1 X41.556 Y145.944 E14.43484
G1 X39.478 Y144.156 E14.53975
G1 X37.337 Y142.416 E14.64533
G1 X35.171 Y140.757 E14.74974
G1 X32.936 Y139.141 E14.85529
G1 X30.651 Y137.586 E14.96106
G1 X29.379 Y136.762 E15.01906
G1 X27.925 Y135.833 E15.0851
G1 X27.352 Y135.425 E15.11201
G1 X26.935 Y135.042 E15.13368
G1 X26.207 Y134.316 E15.17303
G1 X25.834 Y133.933 E15.19349
G1 X25.376 Y133.475 E15.21828
G1 X24.976 Y133.01 E15.24175
G1 X24.612 Y132.523 E15.26502
G1 X24.429 Y132.218 E15.27863
G1 X24.181 Y131.741 E15.2992
G1 X23.939 Y131.194 E15.32209
G1 X23.655 Y130.379 E15.35512
G1 X22.701 Y127.755 E15.46197
G1 X21.689 Y125.204 E15.567
G1 X20.612 Y122.696 E15.67146
G1 X19.452 Y120.192 E15.77707
G1 X18.208 Y117.694 E15.88386
G1 X16.942 Y115.324 E15.98669
G1 X14.954 Y111.89 E16.13854
G1 X14.554 Y111.23 E16.16808
G1 X14.341 Y110.801 E16.1864
G1 X14.202 Y110.343 E16.20472
G1 X14.141 Y109.867 E16.22309
G1 X14.206 Y109.119 E16.25182
G1 X14.365 Y108.401 E16.27996
G1 X14.606 Y107.397 E16.31948
G1 X15.18 Y104.66 E16.4265
G1 X15.655 Y102.023 E16.52904
G1 X16.07 Y99.283 E16.6351
G1 X16.409 Y96.513 E16.74189
G1 X16.659 Y93.842 E16.84456
G1 X16.84 Y91.079 E16.95052
G1 X16.941 Y88.557 E17.04712
G1 X17.001 Y88.069 E17.06593
G1 X17.05 Y87.853 E17.07441
G1 X17.192 Y87.305 E17.09607
G1 X18.897 Y80.999 E17.34607
G1 X19.096 Y80.3 E17.37388
G1 X19.288 Y79.805 E17.3942
G1 X20.537 Y77.299 E17.50135
G1 X21.702 Y74.787 E17.60732
G1 X22.777 Y72.281 E17.71168
G1 X23.791 Y69.728 E17.8168
G1 X24.738 Y67.123 E17.92288
G1 X25.597 Y64.539 E18.02709
G1 X26.395 Y61.89 E18.13296
G1 X27.105 Y59.268 E18.23692
G1 X27.76 Y56.541 E18.34425
G1 X28.319 Y53.893 E18.44782
G1 X28.812 Y51.175 E18.55353
G1 X29.225 Y48.466 E18.6584
G1 X29.559 Y45.75 E18.76313
G1 X29.817 Y43.031 E18.86765
G1 X30.005 Y40.218 E18.97554
G1 X30.089 Y39.695 E18.99581
G1 X30.274 Y38.977 E19.02419
G1 X31.967 Y32.718 E19.27232
G1 X32.163 Y32.03 E19.2997
G1 X32.367 Y31.511 E19.32104
G1 X32.492 Y31.267 E19.33153
G1 X33.613 Y29.17 E19.42253
G1 X34.83 Y26.729 E19.52691
G1 X35.996 Y24.211 E19.63311
G1 X37.077 Y21.695 E19.7379
G1 X38.104 Y19.109 E19.84439
G1 X39.027 Y16.565 E19.94796
G1 X39.885 Y13.984 E20.05204
G1 X40.052 Y13.435 E20.074
G1 X40.392 Y12.363 E20.11704
G0 F1285.7 X40.725 Y12.469
G1 F900 X40.898 Y12.054 E20.13425
G1 X41.142 Y11.677 E20.15144
G1 X41.449 Y11.35 E20.1686
G1 X41.809 Y11.081 E20.1858
G1 X42.211 Y10.881 E20.20298
G1 X42.642 Y10.755 E20.22017
G1 X43.088 Y10.707 E20.23733
G1 X43.536 Y10.74 E20.25452
G1 X43.971 Y10.851 E20.2717
G1 X44.38 Y11.037 E20.2889
G1 X44.892 Y11.421 E20.31339
G1 X45.383 Y11.9 E20.33964
G1 X106.667 Y73.183 E23.65638
G1 X108.691 Y75.15 E23.76439
G1 X110.683 Y76.98 E23.86791
G1 X112.776 Y78.796 E23.97396
G1 X114.922 Y80.555 E24.08015
G1 X117.091 Y82.231 E24.18505
G1 X119.325 Y83.858 E24.29081
G1 X121.605 Y85.424 E24.39667
G1 X123.917 Y86.917 E24.50199
G1 X126.281 Y88.35 E24.60778
G1 X128.636 Y89.688 E24.71144
G1 X131.107 Y91.001 E24.81852
G1 X134.097 Y92.472 E24.94605
G1 X135.117 Y92.953 E24.9892
G1 X135.703 Y93.324 E25.01575
G1 X135.814 Y93.41 E25.02112
G1 X136.3 Y93.806 E25.04511
G1 X136.798 Y94.293 E25.07177
G1 X137.685 Y95.193 E25.12013
G1 X138.057 Y95.566 E25.14029
G1 X138.445 Y96.023 E25.16323
G1 X138.833 Y96.549 E25.18824
G1 X139.454 Y97.531 E25.23271
G1 X140.95 Y99.825 E25.33752
G1 X142.544 Y102.126 E25.44464
G1 X144.161 Y104.322 E25.549
G1 X145.857 Y106.495 E25.65449
G1 X147.621 Y108.629 E25.76045
G1 X149.438 Y110.702 E25.86594
G1 X151.299 Y112.711 E25.97075
G1 X153.239 Y114.689 E26.07677
G1 X155.22 Y116.597 E26.18203
G1 X157.28 Y118.472 E26.28863
G1 X159.353 Y120.255 E26.39327
G1 X161.475 Y121.978 E26.49788
G1 X163.693 Y123.675 E26.60476
G1 X165.91 Y125.276 E26.70941
G1 X168.222 Y126.848 E26.8164
G1 X169.941 Y127.954 E26.89463
G1 X170.635 Y128.391 E26.92602
G1 X170.823 Y128.521 E26.93476
G1 X171.454 Y129.003 E26.96515
G1 X171.888 Y129.382 E26.9872
G1 X172.08 Y129.58 E26.99776
G1 X173.438 Y130.953 E27.07166
G1 X173.771 Y131.34 E27.0912
G1 X174.247 Y132.006 E27.12253
G1 X174.408 Y132.301 E27.13539
G1 X174.704 Y132.898 E27.16089
G1 X175.736 Y135.173 E27.25649
G1 X176.917 Y137.594 E27.35958
G1 X178.218 Y140.079 E27.46692
G1 X179.562 Y142.477 E27.57212
G1 X180.965 Y144.823 E27.67673
G1 X182.465 Y147.178 E27.78359
G1 X183.995 Y149.434 E27.8879
G1 X185.629 Y151.706 E27.995
G1 X186.785 Y153.234 E28.06833
G1 X187.146 Y153.701 E28.09092
G1 X187.388 Y154.079 E28.10809
G1 X187.559 Y154.494 E28.12527
G1 X187.654 Y154.933 E28.14246
G1 X187.669 Y155.382 E28.15965
G1 X187.605 Y155.826 E28.17682
G1 X187.463 Y156.252 E28.19401
G1 X187.248 Y156.646 E28.21118
G1 X186.967 Y156.996 E28.22836
G1 X186.628 Y157.291 E28.24556
G1 X186.242 Y157.52 E28.26273
G1 X185.832 Y157.676 E28.27952
G1 X184.986 Y157.913 E28.31314
G1 X89.329 Y183.028 E32.09796
G1 X88.633 Y183.201 E32.12541
G1 X88.189 Y183.271 E32.14261
G1 X87.741 Y183.26 E32.15976
G1 X87.301 Y183.17 E32.17695
G1 X86.884 Y183.004 E32.19412
G1 X86.454 Y182.741 E32.21341
G1 X84.425 Y181.383 E32.30685
G1 X82.105 Y179.921 E32.41179
G1 X79.729 Y178.519 E32.51737
G1 X77.322 Y177.185 E32.62269
G1 X74.854 Y175.909 E32.72901
G1 X72.39 Y174.723 E32.83366
G1 X69.864 Y173.594 E32.93955
G1 X67.338 Y172.548 E33.04418
G1 X66.653 Y172.29 E33.07219
G1 X64.322 Y171.372 E33.16807
G1 X63.694 Y171.035 E33.19534
G1 X63.595 Y170.971 E33.19985
G1 X63.129 Y170.655 E33.2214
G1 X62.677 Y170.287 E33.24371
G1 X62.525 Y170.144 E33.25169
G1 X61.662 Y169.262 E33.29892
G1 X60.96 Y168.55 E33.33718
G1 X60.614 Y168.143 E33.35762
G1 X60.216 Y167.606 E33.3832
G1 X59.633 Y166.69 E33.42476
G1 X59.587 Y166.614 E33.42816
G1 X58.073 Y164.291 E33.53427
G1 X56.525 Y162.057 E33.63828
G1 X54.88 Y159.817 E33.74464
G1 X53.189 Y157.649 E33.84986
G1 X51.426 Y155.515 E33.95579
G1 X49.612 Y153.443 E34.06118
G1 X47.75 Y151.432 E34.16607
G1 X45.811 Y149.453 E34.2721
G1 X43.831 Y147.544 E34.37735
G1 X41.791 Y145.686 E34.48295
G1 X39.695 Y143.882 E34.58878
G1 X37.56 Y142.146 E34.69409
G1 X35.361 Y140.462 E34.80008
G1 X33.152 Y138.865 E34.9044
G1 X30.828 Y137.284 E35.01197
G1 X29.567 Y136.467 E35.06947
G1 X28.121 Y135.544 E35.13512
G1 X27.578 Y135.157 E35.16064
G1 X27.182 Y134.795 E35.18117
G1 X26.458 Y134.072 E35.22033
G1 X26.086 Y133.689 E35.24076
G1 X25.624 Y133.227 E35.26576
G1 X25.254 Y132.798 E35.28744
G1 X24.903 Y132.329 E35.30986
G1 X24.74 Y132.057 E35.322
G1 X24.449 Y131.494 E35.34625
G1 X24.269 Y131.079 E35.36356
G1 X23.972 Y130.225 E35.39816
G1 X23.023 Y127.618 E35.50434
G1 X22.017 Y125.08 E35.60882
G1 X20.932 Y122.553 E35.71406
G1 X19.764 Y120.031 E35.82043
G1 X18.531 Y117.556 E35.92625
G1 X17.247 Y115.15 E36.03061
G1 X15.256 Y111.713 E36.18262
G1 X14.854 Y111.049 E36.21233
G1 X14.656 Y110.646 E36.22951
G1 X14.533 Y110.214 E36.2467
G1 X14.488 Y109.767 E36.26389
G1 X14.548 Y109.195 E36.2859
G1 X14.705 Y108.483 E36.31381
G1 X14.953 Y107.448 E36.35454
G1 X15.515 Y104.772 E36.45918
G1 X16.002 Y102.069 E36.56429
G1 X16.422 Y99.293 E36.67173
G1 X16.751 Y96.603 E36.77544
G1 X17.009 Y93.86 E36.88088
G1 X17.192 Y91.06 E36.98826
G1 X17.28 Y88.851 E37.07287
G1 X17.343 Y88.143 E37.10007
G1 X17.388 Y87.941 E37.10799
G1 X17.53 Y87.396 E37.12954
G1 X19.233 Y81.095 E37.37933
G1 X19.432 Y80.396 E37.40715
G1 X19.601 Y79.961 E37.425
G1 X20.847 Y77.46 E37.53194
G1 X22.032 Y74.906 E37.63969
G1 X23.097 Y72.424 E37.74305
G1 X24.124 Y69.835 E37.84964
G1 X25.068 Y67.242 E37.95524
G1 X25.926 Y64.66 E38.05937
G1 X26.739 Y61.961 E38.16724
G1 X27.451 Y59.331 E38.27151
G1 X28.093 Y56.654 E38.37686
G1 X28.67 Y53.922 E38.48372
G1 X29.155 Y51.25 E38.58765
G1 X29.569 Y48.527 E38.69305
G1 X29.907 Y45.792 E38.79852
G1 X30.171 Y43.003 E38.90573
G1 X30.355 Y40.242 E39.01162
G1 X30.428 Y39.782 E39.02945
G1 X30.612 Y39.069 E39.05763
G1 X32.304 Y32.814 E39.30561
G1 X32.5 Y32.126 E39.33299
G1 X32.779 Y31.474 E39.36013
G1 X33.914 Y29.348 E39.45236
G1 X35.155 Y26.861 E39.55872
G1 X36.316 Y24.354 E39.66445
G1 X37.391 Y21.851 E39.7687
G1 X38.433 Y19.227 E39.87675
G1 X39.356 Y16.684 E39.98028
G1 X40.223 Y14.075 E40.08549
G1 X40.385 Y13.541 E40.10685
G1 X40.725 Y12.469 E40.14989
G0 F1285.7 X41.059 Y12.574
G1 F900 X41.222 Y12.191 E40.16582
G1 X41.456 Y11.846 E40.18177
G1 X41.751 Y11.552 E40.19771
G1 X42.096 Y11.319 E40.21364
G1 X42.48 Y11.157 E40.22959
G1 X42.888 Y11.071 E40.24555
G1 X43.304 Y11.064 E40.26147
G1 X43.715 Y11.136 E40.27744
G1 X44.104 Y11.286 E40.2934
G1 X44.648 Y11.672 E40.31892
G1 X45.114 Y12.125 E40.34379
G1 X106.423 Y73.434 E43.66192
G1 X108.421 Y75.376 E43.76854
G1 X110.484 Y77.272 E43.87577
G1 X112.553 Y79.065 E43.98055
G1 X114.696 Y80.822 E44.0866
G1 X116.881 Y82.511 E44.19229
G1 X119.131 Y84.15 E44.29882
G1 X121.403 Y85.71 E44.40429
G1 X123.731 Y87.214 E44.51036
G1 X126.096 Y88.647 E44.61618
G1 X128.502 Y90.014 E44.72208
G1 X130.92 Y91.299 E44.82687
G1 X133.98 Y92.804 E44.95738
G1 X134.968 Y93.27 E44.99918
G1 X135.497 Y93.607 E45.02318
G1 X135.593 Y93.681 E45.02782
G1 X136.079 Y94.077 E45.05181
G1 X136.549 Y94.539 E45.07704
G1 X137.437 Y95.44 E45.12545
G1 X137.809 Y95.813 E45.14561
G1 X138.166 Y96.234 E45.16673
G1 X138.537 Y96.737 E45.19065
G1 X139.142 Y97.693 E45.23395
G1 X140.666 Y100.029 E45.34069
G1 X142.254 Y102.322 E45.44743
G1 X143.88 Y104.53 E45.55237
G1 X145.595 Y106.728 E45.65906
G1 X147.351 Y108.852 E45.76453
G1 X149.165 Y110.922 E45.86986
G1 X151.058 Y112.965 E45.97645
G1 X152.976 Y114.922 E46.08131
G1 X154.988 Y116.859 E46.18819
G1 X157.046 Y118.732 E46.29469
G1 X159.106 Y120.504 E46.39868
G1 X161.29 Y122.277 E46.50633
G1 X163.485 Y123.957 E46.61211
G1 X165.692 Y125.551 E46.7163
G1 X168.021 Y127.135 E46.82409
G1 X169.755 Y128.25 E46.90298
G1 X170.449 Y128.687 E46.93437
G1 X170.61 Y128.8 E46.9419
G1 X171.317 Y129.342 E46.97599
G1 X171.848 Y129.843 E47.00393
G1 X173.189 Y131.2 E47.07694
G1 X173.77 Y131.916 E47.11223
G1 X174.048 Y132.368 E47.13253
G1 X174.095 Y132.457 E47.13639
G1 X174.351 Y132.971 E47.15836
G1 X175.403 Y135.286 E47.25567
G1 X176.624 Y137.789 E47.36225
G1 X177.915 Y140.255 E47.46877
G1 X179.242 Y142.623 E47.57266
G1 X180.681 Y145.031 E47.68001
G1 X182.171 Y147.369 E47.78611
G1 X183.717 Y149.65 E47.89156
G1 X185.32 Y151.877 E47.99657
G1 X186.508 Y153.448 E48.07195
G1 X186.869 Y153.915 E48.09454
G1 X187.091 Y154.267 E48.11046
G1 X187.242 Y154.656 E48.12643
G1 X187.316 Y155.066 E48.14238
G1 X187.31 Y155.482 E48.1583
G1 X187.225 Y155.89 E48.17425
G1 X187.064 Y156.275 E48.19022
G1 X186.832 Y156.621 E48.20616
G1 X186.539 Y156.917 E48.2221
G1 X186.195 Y157.152 E48.23804
G1 X185.737 Y157.339 E48.25697
G1 X184.897 Y157.575 E48.29036
G1 X89.245 Y182.689 E52.07499
G1 X88.549 Y182.862 E52.10244
G1 X88.137 Y182.923 E52.11837
G1 X87.72 Y182.905 E52.13435
G1 X87.315 Y182.807 E52.15029
G1 X86.833 Y182.571 E52.17083
G1 X86.626 Y182.435 E52.18031
G1 X84.637 Y181.103 E52.27192
G1 X82.284 Y179.621 E52.37834
G1 X79.907 Y178.217 E52.48399
G1 X77.467 Y176.866 E52.59073
G1 X75.024 Y175.603 E52.69597
G1 X72.543 Y174.409 E52.80134
G1 X69.999 Y173.271 E52.908
G1 X67.439 Y172.212 E53.01402
G1 X66.781 Y171.964 E53.04093
G1 X64.46 Y171.05 E53.13639
G1 X63.876 Y170.736 E53.16177
G1 X63.791 Y170.681 E53.16564
G1 X63.325 Y170.365 E53.18719
G1 X62.906 Y170.022 E53.20791
G1 X62.775 Y169.899 E53.21479
G1 X61.912 Y169.017 E53.26201
G1 X61.209 Y168.304 E53.30033
G1 X60.615 Y167.567 E53.33656
G1 X60.511 Y167.418 E53.34351
G1 X59.932 Y166.507 E53.38482
G1 X59.882 Y166.426 E53.38846
G1 X58.392 Y164.138 E53.49295
G1 X56.798 Y161.837 E53.60008
G1 X55.158 Y159.605 E53.70607
G1 X53.455 Y157.421 E53.81206
G1 X51.717 Y155.317 E53.9165
G1 X49.866 Y153.203 E54.02403
