;FLAVOR:Marlin
;TIME:12778
;Filament used: 10.0948m
;Layer height: 0.2
;MINX:3.958
;MINY:23.706
;MINZ:0.26
;MAXX:180.385
;MAXY:200.145
;MAXZ:7.66
;Generated with Cura_SteamEngine 4.9.1
M82 ;absolute extrusion mode
;Begin Start Gcode for Dagoma DiscoEasy 200
;Sliced: 13-07-2021 17:19:00
;Initial extruder: 0

G90 ;Absolute positioning
M106 S255 ;Fan on full
G28 X Y ;Home stop X Y
G1 X100 ;Centre back during cooldown in case of oozing
M109 R90 ;Cooldown in case too hot
G28 ;Centre
G29 ;Auto-level
M104 S205 ;Pre-heat
M107 ;Fan off
G0 X100 Y5 Z0.5 ;Front centre for degunk
M109 S205 ;Wait for initial temp
M83 ;E Relative
G1 E10 F200 ;Degunk
G1 E-3 F5000 ;Retract
G0 Z3 ;Withdraw
M82 ;E absolute
G92 E0 ;E reset
G1 F6000 ;Set feedrate

;Finish Start Gcode for Dagoma DiscoEasy 200

G92 E0
G92 E0
G1 F3000 E-3.5
;LAYER_COUNT:38
;LAYER:0
M107
G0 F1285.7 X32.189 Y25.04 Z0.26
;TYPE:SKIRT
G1 F3000 E0
G1 F900 X32.583 Y24.647 E0.0213
G1 X33.03 Y24.315 E0.04261
G1 X33.519 Y24.05 E0.06389
G1 X34.041 Y23.858 E0.08518
G1 X34.585 Y23.742 E0.10646
G1 X35.141 Y23.706 E0.12778
G1 X35.695 Y23.75 E0.14905
G1 X36.238 Y23.872 E0.17035
G1 X36.758 Y24.071 E0.19166
G1 X37.243 Y24.343 E0.21294
G1 X37.755 Y24.745 E0.23785
G1 X38.16 Y25.132 E0.25929
G1 X178.829 Y165.801 E7.87247
G1 X179.293 Y166.278 E7.89794
G1 X179.651 Y166.704 E7.91924
G1 X179.945 Y167.176 E7.94052
G1 X180.168 Y167.686 E7.96182
G1 X180.315 Y168.223 E7.98313
G1 X180.385 Y168.775 E8.00442
G1 X180.374 Y169.331 E8.0257
G1 X180.284 Y169.88 E8.04699
G1 X180.116 Y170.411 E8.06831
G1 X179.874 Y170.912 E8.0896
G1 X179.563 Y171.373 E8.11088
G1 X179.189 Y171.785 E8.13217
G1 X178.76 Y172.139 E8.15346
G1 X178.284 Y172.428 E8.17477
G1 X177.683 Y172.675 E8.19964
G1 X177.155 Y172.833 E8.22073
G1 X80.167 Y199.848 E12.07371
G1 X79.525 Y200.018 E12.09912
G1 X78.978 Y200.121 E12.12042
G1 X78.422 Y200.145 E12.14172
G1 X77.869 Y200.09 E12.16299
G1 X77.329 Y199.955 E12.18429
G1 X76.814 Y199.745 E12.20558
G1 X76.334 Y199.463 E12.22688
G1 X75.845 Y199.063 E12.25106
G1 X75.121 Y198.365 E12.28954
G1 X5.513 Y128.757 E16.05682
G1 X5.05 Y128.281 E16.08223
G1 X4.692 Y127.855 E16.10353
G1 X4.398 Y127.383 E16.12481
G1 X4.175 Y126.873 E16.14611
G1 X4.028 Y126.336 E16.16742
G1 X3.958 Y125.784 E16.18871
G1 X3.969 Y125.228 E16.20999
G1 X4.076 Y124.612 E16.23392
G1 X4.335 Y123.608 E16.2736
G1 X31.205 Y27.146 E20.1057
G1 X31.395 Y26.495 E20.13165
G1 X31.589 Y25.974 E20.15293
G1 X31.856 Y25.485 E20.17425
G1 X32.189 Y25.04 E20.19552
G0 F1285.7 X32.502 Y25.215
G1 F900 X32.887 Y24.849 E20.21585
G1 X33.323 Y24.546 E20.23617
G1 X33.799 Y24.311 E20.25648
G1 X34.304 Y24.15 E20.27677
G1 X34.829 Y24.068 E20.2971
G1 X35.359 Y24.064 E20.31738
G1 X35.884 Y24.141 E20.33769
G1 X36.392 Y24.295 E20.35801
G1 X36.871 Y24.524 E20.37832
G1 X37.31 Y24.823 E20.39865
G1 X37.726 Y25.197 E20.42006
G1 X37.942 Y25.408 E20.43161
G1 X178.578 Y166.045 E28.04304
G1 X179.042 Y166.522 E28.06851
G1 X179.382 Y166.929 E28.0888
G1 X179.657 Y167.383 E28.10912
G1 X179.862 Y167.873 E28.12944
G1 X179.99 Y168.388 E28.14975
G1 X180.039 Y168.916 E28.17004
G1 X180.009 Y169.446 E28.19036
G1 X179.9 Y169.965 E28.21065
G1 X179.713 Y170.462 E28.23098
G1 X179.455 Y170.925 E28.25126
G1 X179.129 Y171.344 E28.27158
G1 X178.745 Y171.71 E28.29188
G1 X178.31 Y172.014 E28.31219
G1 X177.834 Y172.249 E28.3325
G1 X177.318 Y172.422 E28.35333
G1 X177.027 Y172.506 E28.36492
G1 X80.077 Y199.51 E32.21639
G1 X79.435 Y199.68 E32.2418
G1 X78.914 Y199.776 E32.26208
G1 X78.383 Y199.794 E32.28241
G1 X77.856 Y199.731 E32.30272
G1 X77.345 Y199.591 E32.323
G1 X76.86 Y199.375 E32.34332
G1 X76.413 Y199.088 E32.36365
G1 X76.088 Y198.811 E32.37999
G1 X75.368 Y198.118 E32.41823
G1 X5.764 Y128.513 E36.18532
G1 X5.301 Y128.037 E36.21073
G1 X4.961 Y127.63 E36.23102
G1 X4.686 Y127.176 E36.25134
G1 X4.481 Y126.686 E36.27166
G1 X4.353 Y126.171 E36.29197
G1 X4.304 Y125.643 E36.31226
G1 X4.334 Y125.113 E36.33258
G1 X4.415 Y124.699 E36.34872
G1 X4.672 Y123.702 E36.38813
G1 X31.541 Y27.244 E40.22007
G1 X31.731 Y26.593 E40.24602
G1 X31.918 Y26.097 E40.26631
G1 X32.177 Y25.633 E40.28664
G1 X32.502 Y25.215 E40.3069
G0 F1285.7 X32.814 Y25.393
G1 F900 X33.189 Y25.057 E40.32617
G1 X33.613 Y24.784 E40.34547
G1 X34.074 Y24.582 E40.36473
G1 X34.561 Y24.455 E40.38399
G1 X35.062 Y24.406 E40.40326
G1 X35.565 Y24.438 E40.42255
G1 X36.056 Y24.549 E40.44181
G1 X36.524 Y24.736 E40.4611
G1 X36.956 Y24.994 E40.48036
G1 X37.424 Y25.392 E40.50387
G1 X37.67 Y25.632 E40.51702
G1 X178.327 Y166.289 E48.12955
G1 X178.791 Y166.766 E48.15502
G1 X179.112 Y167.154 E48.17429
G1 X179.368 Y167.587 E48.19354
G1 X179.553 Y168.056 E48.21284
G1 X179.66 Y168.548 E48.23211
G1 X179.689 Y169.051 E48.25139
G1 X179.638 Y169.552 E48.27066
G1 X179.508 Y170.038 E48.28991
G1 X179.303 Y170.498 E48.30919
G1 X179.028 Y170.92 E48.32846
G1 X178.69 Y171.293 E48.34773
G1 X178.297 Y171.608 E48.367
G1 X177.859 Y171.857 E48.38628
G1 X177.298 Y172.062 E48.40914
G1 X176.933 Y172.169 E48.4237
G1 X79.988 Y199.171 E52.27496
G1 X79.346 Y199.341 E52.30037
G1 X78.85 Y199.431 E52.31966
G1 X78.347 Y199.442 E52.33892
G1 X77.848 Y199.372 E52.3582
G1 X77.366 Y199.225 E52.37749
G1 X76.914 Y199.003 E52.39676
G1 X76.331 Y198.559 E52.4248
G1 X75.616 Y197.87 E52.4628
G1 X6.015 Y128.269 E56.2297
G1 X5.552 Y127.793 E56.25511
G1 X5.231 Y127.405 E56.27438
G1 X4.975 Y126.971 E56.29366
G1 X4.79 Y126.503 E56.31292
G1 X4.683 Y126.011 E56.33219
G1 X4.654 Y125.508 E56.35147
G1 X4.754 Y124.786 E56.37937
G1 X5.009 Y123.796 E56.41849
G1 X31.877 Y27.342 E60.25027
G1 X32.067 Y26.691 E60.27623
G1 X32.246 Y26.221 E60.29547
G1 X32.497 Y25.784 E60.31476
G1 X32.814 Y25.393 E60.33402
G1 F3000 E56.83402
;MESH:support_half_hex_34.stl
G0 F1285.7 X34.248 Y28.275
G0 X35.381 Y28.589
G0 X38.853 Y41.804
G0 X38.878 Y41.9
;TYPE:WALL-INNER
G1 F3000 E60.33402
G1 F900 X18.734 Y114.217 E63.20692
G1 X19.167 Y114.65 E63.23036
G1 X91.486 Y94.507 E66.10332
G1 X38.878 Y41.9 E68.9505
G0 F1285.7 X38.853 Y41.804
G0 X109.563 Y112.514
G0 X109.588 Y112.61
G1 F900 X89.445 Y184.928 E71.82343
G1 X89.878 Y185.361 E71.84686
G1 X162.196 Y165.217 E74.7198
G1 X109.588 Y112.61 E77.56698
G0 F1285.7 X109.563 Y112.514
G0 X175.212 Y168.703
G0 X175.237 Y168.799
G1 F900 X78.675 Y195.697 E81.40306
G1 X8.398 Y125.42 E85.20654
G1 X35.296 Y28.858 E89.04261
G1 X35.376 Y28.57 E89.05405
G1 X35.587 Y28.781 E89.06054
G1 X175.314 Y168.508 E96.62274
G1 X175.525 Y168.719 E96.63416
G1 X175.237 Y168.799 E96.64065
G0 F1285.7 X175.861 Y168.963
;TYPE:WALL-OUTER
G1 F900 X78.579 Y196.061 E100.50532
G1 X8.034 Y125.516 E104.32331
G1 X35.132 Y28.234 E108.18798
G1 X35.212 Y27.946 E108.19942
G1 X35.423 Y28.157 E108.2059
G1 X175.938 Y168.672 E115.81076
G1 X176.149 Y168.883 E115.82218
G1 X175.861 Y168.963 E115.82867
G0 F1285.7 X175.669 Y169.016
G0 X175.429 Y168.694
G0 X110.052 Y112.934
G0 X109.752 Y113.233
G1 F900 X89.836 Y184.733 E118.66911
G1 X89.809 Y184.832 E118.67304
G1 X89.974 Y184.997 E118.68197
G1 X90.073 Y184.97 E118.68589
G1 X161.573 Y165.053 E121.52634
G1 X109.752 Y113.233 E124.33093
G0 F1285.7 X109.699 Y113.425
G0 X109.29 Y113.311
G0 X91.524 Y94.517
G0 X39.342 Y42.224
G0 X39.042 Y42.523
G1 F900 X19.125 Y114.022 E127.17135
G1 X19.098 Y114.121 E127.17527
G1 X19.263 Y114.286 E127.1842
G1 X19.362 Y114.259 E127.18813
G1 X90.863 Y94.343 E130.02861
G1 X39.042 Y42.523 E132.8332
G0 F1285.7 X38.989 Y42.715
G0 X38.58 Y42.601
G0 X38.707 Y41.248
;TYPE:SKIN
G1 F900 X18.353 Y114.317 E135.73598
G1 X19.067 Y115.031 E135.77462
G1 X92.138 Y94.678 E138.67746
G1 X38.707 Y41.248 E141.56919
G0 F1285.7 X35.547 Y29.223
G1 F900 X174.872 Y168.548 E149.10963
G1 X78.776 Y195.316 E152.92719
G1 X8.779 Y125.319 E156.71552
G1 X35.547 Y29.223 E160.53308
G0 F1285.7 X109.417 Y111.958
G1 F900 X89.064 Y185.028 E163.43588
G1 X89.778 Y185.742 E163.47452
G1 X162.848 Y165.388 E166.37734
G1 X109.417 Y111.958 E169.26907
G0 F1285.7 X9.061 Y124.885
G1 F900 X79.207 Y195.032 E173.06548
G0 F1285.7 X79.594 Y194.923
G1 F900 X9.169 Y124.498 E176.87698
G0 F1285.7 X9.277 Y124.111
G1 F900 X79.982 Y194.816 E180.70362
G0 F1285.7 X80.369 Y194.708
G1 F900 X9.385 Y123.724 E184.54536
G0 F1285.7 X9.492 Y123.337
G1 F900 X80.756 Y194.6 E188.40224
G0 F1285.7 X81.143 Y194.492
G1 F900 X9.601 Y122.95 E192.27418
G0 F1285.7 X9.708 Y122.562
G1 F900 X81.53 Y194.385 E196.16131
G0 F1285.7 X81.917 Y194.276
G1 F900 X9.816 Y122.176 E200.06348
G0 F1285.7 X9.924 Y121.788
G1 F900 X82.305 Y194.169 E203.98083
G0 F1285.7 X82.691 Y194.061
G1 F900 X10.032 Y121.401 E207.91325
G0 F1285.7 X10.139 Y121.014
G1 F900 X83.079 Y193.953 E211.86083
G0 F1285.7 X83.466 Y193.845
G1 F900 X10.248 Y120.627 E215.82348
G0 F1285.7 X10.355 Y120.239
G1 F900 X83.853 Y193.738 E219.80132
G0 F1285.7 X84.24 Y193.629
G1 F900 X10.463 Y119.853 E223.79419
G0 F1285.7 X10.571 Y119.465
G1 F900 X84.627 Y193.522 E227.80223
G0 F1285.7 X85.014 Y193.414
G1 F900 X10.679 Y119.078 E231.82536
G0 F1285.7 X10.786 Y118.691
G1 F900 X85.402 Y193.306 E235.86364
G0 F1285.7 X85.789 Y193.198
G1 F900 X10.895 Y118.304 E239.917
G0 F1285.7 X11.002 Y117.917
G1 F900 X86.176 Y193.091 E243.98552
G0 F1285.7 X86.563 Y192.982
G1 F900 X11.11 Y117.53 E248.0691
G0 F1285.7 X11.218 Y117.142
G1 F900 X86.95 Y192.875 E252.16784
G0 F1285.7 X87.337 Y192.767
G1 F900 X11.326 Y116.756 E256.28165
G0 F1285.7 X11.433 Y116.368
G1 F900 X87.725 Y192.659 E260.41065
G0 F1285.7 X88.111 Y192.551
G1 F900 X11.542 Y115.981 E264.55468
G0 F1285.7 X11.649 Y115.594
G1 F900 X88.499 Y192.444 E268.7139
G0 F1285.7 X88.886 Y192.335
G1 F900 X11.757 Y115.207 E272.8882
G0 F1285.7 X11.865 Y114.819
G1 F900 X89.273 Y192.228 E277.07764
G0 F1285.7 X89.66 Y192.12
G1 F900 X11.973 Y114.433 E281.28216
G0 F1285.7 X12.08 Y114.045
G1 F900 X90.047 Y192.012 E285.50184
G0 F1285.7 X90.434 Y191.904
G1 F900 X12.189 Y113.658 E289.73658
G0 F1285.7 X12.296 Y113.271
G1 F900 X90.822 Y191.797 E293.98651
G0 F1285.7 X91.208 Y191.688
G1 F900 X12.404 Y112.884 E298.25148
G0 F1285.7 X12.512 Y112.497
G1 F900 X91.596 Y191.581 E302.53161
G0 F1285.7 X91.983 Y191.473
G1 F900 X12.62 Y112.11 E306.82684
G0 F1285.7 X12.727 Y111.722
G1 F900 X92.37 Y191.365 E311.13722
G0 F1285.7 X92.757 Y191.257
G1 F900 X12.836 Y111.336 E315.46264
G0 F1285.7 X12.943 Y110.948
G1 F900 X93.145 Y191.15 E319.80328
G0 F1285.7 X93.531 Y191.041
G1 F900 X13.051 Y110.561 E324.15896
G0 F1285.7 X13.159 Y110.174
G1 F900 X93.919 Y190.934 E328.52979
G0 F1285.7 X94.306 Y190.826
G1 F900 X13.267 Y109.787 E332.91573
G0 F1285.7 X13.374 Y109.4
G1 F900 X18.212 Y114.237 E333.17754
G0 F1285.7 X18.319 Y113.849
G1 F900 X13.483 Y109.013 E333.43927
G0 F1285.7 X13.59 Y108.625
G1 F900 X18.427 Y113.463 E333.70108
G0 F1285.7 X18.535 Y113.075
G1 F900 X13.698 Y108.238 E333.96286
G0 F1285.7 X13.806 Y107.851
G1 F900 X18.643 Y112.688 E334.22465
G0 F1285.7 X18.751 Y112.301
G1 F900 X13.914 Y107.464 E334.48643
G0 F1285.7 X14.021 Y107.077
G1 F900 X18.859 Y111.914 E334.74825
G0 F1285.7 X18.966 Y111.527
G1 F900 X14.13 Y106.69 E335.01
G0 F1285.7 X14.237 Y106.302
G1 F900 X19.074 Y111.14 E335.27181
G0 F1285.7 X19.182 Y110.752
G1 F900 X14.345 Y105.916 E335.53357
G0 F1285.7 X14.453 Y105.528
G1 F900 X19.29 Y110.365 E335.79536
G0 F1285.7 X19.398 Y109.978
G1 F900 X14.561 Y105.141 E336.05714
G0 F1285.7 X14.668 Y104.754
G1 F900 X19.506 Y109.591 E336.31895
G0 F1285.7 X19.613 Y109.204
G1 F900 X14.777 Y104.367 E336.58071
G0 F1285.7 X14.885 Y103.98
G1 F900 X19.721 Y108.817 E336.84247
G0 F1285.7 X19.829 Y108.429
G1 F900 X14.992 Y103.593 E337.10423
G0 F1285.7 X15.1 Y103.206
G1 F900 X19.937 Y108.043 E337.36601
G0 F1285.7 X20.045 Y107.656
G1 F900 X15.208 Y102.818 E337.62782
G0 F1285.7 X15.316 Y102.432
G1 F900 X20.153 Y107.268 E337.88958
G0 F1285.7 X20.261 Y106.882
G1 F900 X15.424 Y102.044 E338.15139
G0 F1285.7 X15.532 Y101.657
G1 F900 X20.368 Y106.494 E338.41315
G0 F1285.7 X20.477 Y106.107
G1 F900 X15.639 Y101.27 E338.67496
G0 F1285.7 X15.747 Y100.883
G1 F900 X20.584 Y105.72 E338.93674
G0 F1285.7 X20.692 Y105.333
G1 F900 X15.855 Y100.496 E339.19853
G0 F1285.7 X15.963 Y100.109
G1 F900 X20.8 Y104.945 E339.46029
G0 F1285.7 X20.908 Y104.559
G1 F900 X16.071 Y99.721 E339.7221
G0 F1285.7 X16.179 Y99.335
G1 F900 X21.015 Y104.171 E339.98383
G0 F1285.7 X21.124 Y103.784
G1 F900 X16.286 Y98.947 E340.24564
G0 F1285.7 X16.394 Y98.56
G1 F900 X21.231 Y103.397 E340.50743
G0 F1285.7 X21.339 Y103.01
G1 F900 X16.502 Y98.173 E340.76921
G0 F1285.7 X16.61 Y97.786
G1 F900 X21.447 Y102.623 E341.03099
G0 F1285.7 X21.555 Y102.236
G1 F900 X16.718 Y97.399 E341.29278
G0 F1285.7 X16.826 Y97.012
G1 F900 X21.662 Y101.848 E341.55451
G0 F1285.7 X21.771 Y101.462
G1 F900 X16.933 Y96.624 E341.81635
G0 F1285.7 X17.041 Y96.237
G1 F900 X21.878 Y101.074 E342.07813
G0 F1285.7 X21.986 Y100.687
G1 F900 X17.149 Y95.85 E342.33992
G0 F1285.7 X17.257 Y95.463
G1 F900 X22.094 Y100.3 E342.6017
G0 F1285.7 X22.202 Y99.913
G1 F900 X17.365 Y95.076 E342.86349
G0 F1285.7 X17.473 Y94.689
G1 F900 X22.309 Y99.525 E343.12522
G0 F1285.7 X22.418 Y99.139
G1 F900 X17.58 Y94.301 E343.38706
G0 F1285.7 X17.688 Y93.915
G1 F900 X22.525 Y98.751 E343.64881
G0 F1285.7 X22.633 Y98.364
G1 F900 X17.796 Y93.527 E343.9106
G0 F1285.7 X17.904 Y93.14
G1 F900 X22.741 Y97.977 E344.17238
G0 F1285.7 X22.849 Y97.59
G1 F900 X18.012 Y92.753 E344.43417
G0 F1285.7 X18.12 Y92.366
G1 F900 X22.956 Y97.203 E344.69592
G0 F1285.7 X23.065 Y96.816
G1 F900 X18.227 Y91.979 E344.95774
G0 F1285.7 X18.335 Y91.592
G1 F900 X23.172 Y96.428 E345.21949
G0 F1285.7 X23.28 Y96.042
G1 F900 X18.443 Y91.204 E345.48131
G0 F1285.7 X18.551 Y90.817
G1 F900 X23.388 Y95.654 E345.74309
G0 F1285.7 X23.496 Y95.267
G1 F900 X18.659 Y90.43 E346.00487
G0 F1285.7 X18.767 Y90.043
G1 F900 X23.604 Y94.881 E346.26669
G0 F1285.7 X23.712 Y94.493
G1 F900 X18.874 Y89.656 E346.5285
G0 F1285.7 X18.982 Y89.269
G1 F900 X23.82 Y94.106 E346.79031
G0 F1285.7 X23.927 Y93.719
G1 F900 X19.09 Y88.881 E347.05212
G0 F1285.7 X19.198 Y88.495
G1 F900 X24.035 Y93.332 E347.31391
G0 F1285.7 X24.143 Y92.944
G1 F900 X19.306 Y88.107 E347.57569
G0 F1285.7 X19.414 Y87.72
G1 F900 X24.251 Y92.558 E347.8375
G0 F1285.7 X24.359 Y92.17
G1 F900 X19.521 Y87.333 E348.09931
G0 F1285.7 X19.629 Y86.946
G1 F900 X24.467 Y91.783 E348.36113
G0 F1285.7 X24.574 Y91.396
G1 F900 X19.737 Y86.559 E348.62291
G0 F1285.7 X19.845 Y86.172
G1 F900 X24.682 Y91.009 E348.88469
G0 F1285.7 X24.79 Y90.622
G1 F900 X19.953 Y85.784 E349.14651
G0 F1285.7 X20.061 Y85.397
G1 F900 X24.898 Y90.235 E349.40832
G0 F1285.7 X25.006 Y89.847
G1 F900 X20.168 Y85.01 E349.67013
G0 F1285.7 X20.276 Y84.623
G1 F900 X25.114 Y89.461 E349.93197
G0 F1285.7 X25.221 Y89.073
G1 F900 X20.384 Y84.236 E350.19375
G0 F1285.7 X20.492 Y83.849
G1 F900 X25.329 Y88.686 E350.45554
G0 F1285.7 X25.437 Y88.299
G1 F900 X20.6 Y83.461 E350.71735
G0 F1285.7 X20.708 Y83.075
G1 F900 X25.545 Y87.912 E350.97913
G0 F1285.7 X25.653 Y87.524
G1 F900 X20.815 Y82.687 E351.24095
G0 F1285.7 X20.923 Y82.3
G1 F900 X25.761 Y87.138 E351.50278
G0 F1285.7 X25.868 Y86.75
G1 F900 X21.031 Y81.913 E351.76457
G0 F1285.7 X21.139 Y81.526
G1 F900 X25.976 Y86.363 E352.02635
G0 F1285.7 X26.084 Y85.976
G1 F900 X21.247 Y81.139 E352.28814
G0 F1285.7 X21.355 Y80.752
G1 F900 X26.192 Y85.589 E352.54992
G0 F1285.7 X26.3 Y85.202
G1 F900 X21.462 Y80.364 E352.81176
G0 F1285.7 X21.57 Y79.978
G1 F900 X26.408 Y84.815 E353.07357
G0 F1285.7 X26.515 Y84.427
G1 F900 X21.678 Y79.59 E353.33536
G0 F1285.7 X21.786 Y79.203
G1 F900 X26.623 Y84.041 E353.59717
G0 F1285.7 X26.731 Y83.653
G1 F900 X21.894 Y78.816 E353.85895
G0 F1285.7 X22.002 Y78.429
G1 F900 X26.839 Y83.266 E354.12074
G0 F1285.7 X26.947 Y82.879
G1 F900 X22.109 Y78.041 E354.38258
G0 F1285.7 X22.218 Y77.655
G1 F900 X27.055 Y82.492 E354.64436
G0 F1285.7 X27.163 Y82.105
G1 F900 X22.325 Y77.267 E354.9062
G0 F1285.7 X22.433 Y76.88
G1 F900 X27.27 Y81.718 E355.16801
G0 F1285.7 X27.379 Y81.331
G1 F900 X22.541 Y76.493 E355.42985
G0 F1285.7 X22.649 Y76.106
G1 F900 X27.486 Y80.943 E355.69164
G0 F1285.7 X27.594 Y80.557
G1 F900 X22.757 Y75.719 E355.95345
G0 F1285.7 X22.865 Y75.332
G1 F900 X27.702 Y80.169 E356.21523
G0 F1285.7 X27.81 Y79.782
G1 F900 X22.973 Y74.945 E356.47702
G0 F1285.7 X23.08 Y74.558
G1 F900 X27.917 Y79.395 E356.7388
G0 F1285.7 X28.026 Y79.008
