;FLAVOR:Marlin
;TIME:12005
;Filament used: 14.5358m
;Layer height: 0.3
;MINX:39.719
;MINY:9.998
;MINZ:0.26
;MAXX:198.293
;MAXY:194.928
;MAXZ:7.76
;Generated with Cura_SteamEngine 4.9.1
M82 ;absolute extrusion mode
;Begin Start Gcode for Dagoma DiscoEasy 200
;Sliced: 07-07-2021 20:17:19
;Initial extruder: 0

G90 ;Absolute positioning
M106 S255 ;Fan on full
G28 X Y ;Home stop X Y
G1 X100 ;Centre back during cooldown in case of oozing
M109 R90 ;Cooldown in case too hot
G28 ;Centre
G29 ;Auto-level
M104 S205 ;Pre-heat
M107 ;Fan off
G0 X100 Y5 Z0.5 ;Front centre for degunk
M109 S205 ;Wait for initial temp
M83 ;E Relative
G1 E10 F200 ;Degunk
G1 E-3 F5000 ;Retract
G0 Z3 ;Withdraw
M82 ;E absolute
G92 E0 ;E reset
G1 F6000 ;Set feedrate

;Finish Start Gcode for Dagoma DiscoEasy 200

G92 E0
G92 E0
G1 F3000 E-3.5
;LAYER_COUNT:26
;LAYER:0
M107
G0 F1285.7 X90.786 Y12.448 Z0.26
;TYPE:SKIRT
G1 F3000 E0
G1 F900 X91.113 Y11.899 E0.02445
G1 X91.431 Y11.443 E0.04573
G1 X91.812 Y11.037 E0.06704
G1 X92.246 Y10.689 E0.08833
G1 X92.726 Y10.408 E0.10961
G1 X93.241 Y10.198 E0.1309
G1 X93.781 Y10.064 E0.15219
G1 X94.405 Y10.007 E0.17617
G1 X95.433 Y9.998 E0.21551
G1 X193.814 Y10.969 E3.98069
G1 X194.509 Y10.985 E4.00729
G1 X195.063 Y11.038 E4.02859
G1 X195.604 Y11.169 E4.04989
G1 X196.12 Y11.377 E4.07118
G1 X196.601 Y11.656 E4.09246
G1 X197.037 Y12.002 E4.11376
G1 X197.42 Y12.406 E4.13507
G1 X197.74 Y12.861 E4.15636
G1 X197.992 Y13.357 E4.17765
G1 X198.17 Y13.884 E4.19894
G1 X198.271 Y14.431 E4.22022
G1 X198.293 Y14.987 E4.24152
G1 X198.235 Y15.541 E4.26283
G1 X198.098 Y16.08 E4.28412
G1 X197.851 Y16.661 E4.30828
G1 X197.609 Y17.106 E4.32766
G1 X96.375 Y192.449 E12.07603
G1 X96.023 Y193.039 E12.10233
G1 X95.704 Y193.496 E12.12366
G1 X95.323 Y193.901 E12.14494
G1 X94.889 Y194.248 E12.1662
G1 X94.408 Y194.53 E12.18754
G1 X93.893 Y194.739 E12.20881
G1 X93.353 Y194.873 E12.2301
G1 X92.799 Y194.928 E12.25141
G1 X92.243 Y194.903 E12.27271
G1 X91.697 Y194.798 E12.29398
G1 X91.171 Y194.617 E12.31527
G1 X90.676 Y194.362 E12.33658
G1 X90.223 Y194.038 E12.35789
G1 X89.821 Y193.654 E12.37917
G1 X89.359 Y193.025 E12.40904
G1 X89.064 Y192.514 E12.43162
G1 X40.482 Y104.396 E16.28241
G1 X40.168 Y103.807 E16.30796
G1 X39.942 Y103.298 E16.32927
G1 X39.791 Y102.763 E16.35054
G1 X39.719 Y102.211 E16.37185
G1 X39.726 Y101.655 E16.39313
G1 X39.813 Y101.105 E16.41444
G1 X39.978 Y100.574 E16.43572
G1 X40.193 Y100.114 E16.45515
G1 X40.68 Y99.231 E16.49374
G1 X90.786 Y12.448 E20.3287
G0 F1285.7 X91.087 Y12.627
G1 F900 X91.414 Y12.078 E20.35315
G1 X91.719 Y11.644 E20.37345
G1 X92.085 Y11.261 E20.39373
G1 X92.506 Y10.936 E20.41408
G1 X92.97 Y10.679 E20.43438
G1 X93.467 Y10.494 E20.45468
G1 X93.987 Y10.387 E20.47499
G1 X94.409 Y10.357 E20.49118
G1 X95.43 Y10.348 E20.53026
G1 X193.806 Y11.319 E24.29524
G1 X194.501 Y11.335 E24.32185
G1 X195.029 Y11.387 E24.34215
G1 X195.544 Y11.518 E24.36249
G1 X196.032 Y11.724 E24.38276
G1 X196.485 Y12.002 E24.4031
G1 X196.89 Y12.344 E24.42339
G1 X197.24 Y12.744 E24.44373
G1 X197.525 Y13.191 E24.46401
G1 X197.74 Y13.676 E24.48432
G1 X197.88 Y14.188 E24.50463
G1 X197.942 Y14.715 E24.52494
G1 X197.924 Y15.245 E24.54523
G1 X197.826 Y15.767 E24.56556
G1 X197.541 Y16.498 E24.59558
G1 X197.285 Y16.967 E24.61603
G1 X96.074 Y192.27 E32.36264
G1 X95.722 Y192.86 E32.38893
G1 X95.417 Y193.294 E32.40923
G1 X95.05 Y193.677 E32.42953
G1 X94.629 Y194.001 E32.44986
G1 X94.165 Y194.258 E32.47016
G1 X93.667 Y194.442 E32.49048
G1 X93.148 Y194.55 E32.51076
G1 X92.618 Y194.578 E32.53108
G1 X92.09 Y194.527 E32.55138
G1 X91.575 Y194.396 E32.57171
G1 X91.086 Y194.19 E32.59202
G1 X90.634 Y193.913 E32.61231
G1 X90.228 Y193.571 E32.63262
G1 X89.878 Y193.173 E32.6529
G1 X89.569 Y192.693 E32.67475
G1 X89.348 Y192.304 E32.69187
G1 X40.79 Y104.231 E36.54072
G1 X40.476 Y103.642 E36.56626
G1 X40.263 Y103.157 E36.58653
G1 X40.124 Y102.644 E36.60687
G1 X40.065 Y102.117 E36.62717
G1 X40.084 Y101.587 E36.64746
G1 X40.184 Y101.065 E36.6678
G1 X40.36 Y100.565 E36.68809
G1 X40.5 Y100.283 E36.70014
G1 X40.983 Y99.406 E36.73845
G1 X91.087 Y12.627 E40.57324
G0 F1285.7 X91.387 Y12.806
G1 F900 X91.714 Y12.257 E40.5977
G1 X92.005 Y11.846 E40.61697
G1 X92.358 Y11.487 E40.63624
G1 X92.763 Y11.187 E40.65552
G1 X93.21 Y10.956 E40.67478
G1 X93.688 Y10.798 E40.69405
G1 X94.412 Y10.707 E40.72197
G1 X95.426 Y10.698 E40.76078
G1 X193.798 Y11.669 E44.52561
G1 X194.493 Y11.685 E44.55222
G1 X194.994 Y11.736 E44.57149
G1 X195.481 Y11.866 E44.59078
G1 X195.94 Y12.072 E44.61003
G1 X196.362 Y12.347 E44.62931
G1 X196.735 Y12.686 E44.6486
G1 X197.049 Y13.079 E44.66785
G1 X197.298 Y13.517 E44.68713
G1 X197.473 Y13.989 E44.70639
G1 X197.573 Y14.483 E44.72568
G1 X197.592 Y14.986 E44.74495
G1 X197.532 Y15.486 E44.76422
G1 X197.394 Y15.97 E44.78348
G1 X197.137 Y16.514 E44.8065
G1 X196.982 Y16.792 E44.81868
G1 X95.774 Y192.091 E52.5651
G1 X95.422 Y192.681 E52.59139
G1 X95.13 Y193.091 E52.61066
G1 X94.777 Y193.451 E52.62995
G1 X94.372 Y193.75 E52.64922
G1 X93.925 Y193.981 E52.66847
G1 X93.447 Y194.139 E52.68774
G1 X92.949 Y194.219 E52.70704
G1 X92.446 Y194.219 E52.72629
G1 X91.948 Y194.14 E52.74559
G1 X91.47 Y193.983 E52.76484
G1 X91.022 Y193.753 E52.78411
G1 X90.617 Y193.454 E52.80338
G1 X90.263 Y193.095 E52.82267
G1 X89.962 Y192.669 E52.84264
G1 X89.673 Y192.168 E52.86477
G1 X41.099 Y104.067 E56.71485
G1 X40.785 Y103.478 E56.74039
G1 X40.584 Y103.016 E56.75967
G1 X40.459 Y102.528 E56.77895
G1 X40.412 Y102.027 E56.79821
G1 X40.445 Y101.524 E56.8175
G1 X40.558 Y101.033 E56.83678
G1 X40.806 Y100.452 E56.86096
G1 X41.286 Y99.581 E56.89901
G1 X91.387 Y12.806 E60.73361
G1 F3000 E57.23361
;MESH:support_half_hex_29.stl
G0 F1285.7 X93.781 Y13.73
G0 X94.652 Y14.233
G0 X193.236 Y15.366
;TYPE:WALL-INNER
G1 F3000 E60.73361
G1 F900 X193.533 Y15.367 E60.74498
G1 X193.384 Y15.625 E60.75145
G1 X92.861 Y189.736 E68.44539
G1 X92.706 Y190.004 E68.45723
G1 X92.557 Y189.733 E68.46391
G1 X44.174 Y101.98 E72.29879
G1 X94.743 Y14.392 E76.16929
G1 X193.235 Y15.365 E79.93872
G1 X193.236 Y15.366 E79.93877
G0 F1285.7 X193.796 Y15.046
;TYPE:WALL-OUTER
G1 F900 X194.093 Y15.047 E79.95014
G1 X193.944 Y15.305 E79.95661
G1 X92.854 Y190.398 E87.69394
G1 X92.699 Y190.666 E87.70579
G1 X92.55 Y190.395 E87.71246
G1 X43.801 Y101.977 E91.5764
G1 X94.557 Y14.065 E95.46121
G1 X193.795 Y15.045 E99.25919
G1 X193.796 Y15.046 E99.25924
G0 F1285.7 X193.996 Y15.046
G0 X193.748 Y15.244
G0 X192.946 Y15.701
;TYPE:SKIN
G1 F900 X92.712 Y189.312 E106.93108
G1 X44.564 Y101.985 E110.74734
G1 X94.939 Y14.734 E114.60296
G1 X192.946 Y15.701 E118.35383
G0 F1285.7 X192.632 Y15.926
G1 F900 X192.56 Y15.854 E118.35772
G0 F1285.7 X192.451 Y16.24
G1 F900 X192.06 Y15.849 E118.37888
G0 F1285.7 X191.56 Y15.844
G1 F900 X192.27 Y16.554 E118.41731
G0 F1285.7 X192.089 Y16.868
G1 F900 X191.06 Y15.839 E118.473
G0 F1285.7 X190.56 Y15.834
G1 F900 X191.908 Y17.181 E118.54593
G0 F1285.7 X191.727 Y17.495
G1 F900 X190.06 Y15.829 E118.63612
G0 F1285.7 X189.56 Y15.824
G1 F900 X191.546 Y17.809 E118.74358
G0 F1285.7 X191.364 Y18.123
G1 F900 X189.06 Y15.819 E118.86828
G0 F1285.7 X188.56 Y15.814
G1 F900 X191.183 Y18.437 E119.01024
G0 F1285.7 X191.002 Y18.751
G1 F900 X188.06 Y15.809 E119.16946
G0 F1285.7 X187.56 Y15.804
G1 F900 X190.821 Y19.065 E119.34595
G0 F1285.7 X190.64 Y19.378
G1 F900 X187.06 Y15.799 E119.53968
G0 F1285.7 X186.56 Y15.794
G1 F900 X190.458 Y19.692 E119.75064
G0 F1285.7 X190.277 Y20.006
G1 F900 X186.061 Y15.789 E119.97884
G0 F1285.7 X185.561 Y15.784
G1 F900 X190.096 Y20.32 E120.22431
G0 F1285.7 X189.915 Y20.634
G1 F900 X185.061 Y15.779 E120.48704
G0 F1285.7 X184.561 Y15.774
G1 F900 X189.733 Y20.947 E120.76698
G0 F1285.7 X189.552 Y21.261
G1 F900 X184.061 Y15.769 E121.06419
G0 F1285.7 X183.561 Y15.764
G1 F900 X189.371 Y21.575 E121.37866
G0 F1285.7 X189.19 Y21.889
G1 F900 X183.061 Y15.759 E121.7104
G0 F1285.7 X182.561 Y15.755
G1 F900 X189.009 Y22.203 E122.05937
G0 F1285.7 X188.827 Y22.516
G1 F900 X182.061 Y15.75 E122.42556
G0 F1285.7 X181.562 Y15.745
G1 F900 X188.646 Y22.83 E122.80898
G0 F1285.7 X188.465 Y23.144
G1 F900 X181.062 Y15.74 E123.20967
G0 F1285.7 X180.562 Y15.735
G1 F900 X188.284 Y23.458 E123.62762
G0 F1285.7 X188.103 Y23.772
G1 F900 X180.062 Y15.731 E124.06281
G0 F1285.7 X179.562 Y15.726
G1 F900 X187.922 Y24.085 E124.51523
G0 F1285.7 X187.741 Y24.399
G1 F900 X179.062 Y15.721 E124.98493
G0 F1285.7 X178.562 Y15.716
G1 F900 X187.56 Y24.713 E125.47188
G0 F1285.7 X187.379 Y25.027
G1 F900 X178.062 Y15.711 E125.9761
G0 F1285.7 X177.562 Y15.706
G1 F900 X187.197 Y25.34 E126.49753
G0 F1285.7 X187.016 Y25.654
G1 F900 X177.063 Y15.701 E127.0362
G0 F1285.7 X176.563 Y15.696
G1 F900 X186.835 Y25.968 E127.59214
G0 F1285.7 X186.654 Y26.282
G1 F900 X176.063 Y15.691 E128.16534
G0 F1285.7 X175.563 Y15.686
G1 F900 X186.473 Y26.596 E128.7558
G0 F1285.7 X186.291 Y26.909
G1 F900 X175.063 Y15.681 E129.36347
G0 F1285.7 X174.563 Y15.676
G1 F900 X186.11 Y27.223 E129.98841
G0 F1285.7 X185.929 Y27.537
G1 F900 X174.063 Y15.671 E130.63061
G0 F1285.7 X173.563 Y15.666
G1 F900 X185.748 Y27.851 E131.29008
G0 F1285.7 X185.567 Y28.165
G1 F900 X173.063 Y15.661 E131.96681
G0 F1285.7 X172.563 Y15.656
G1 F900 X185.385 Y28.478 E132.66076
G0 F1285.7 X185.204 Y28.792
G1 F900 X172.063 Y15.651 E133.37196
G0 F1285.7 X171.563 Y15.646
G1 F900 X185.023 Y29.106 E134.10044
G0 F1285.7 X184.842 Y29.42
G1 F900 X171.063 Y15.641 E134.84617
G0 F1285.7 X170.564 Y15.636
G1 F900 X184.66 Y29.733 E135.60909
G0 F1285.7 X184.479 Y30.047
G1 F900 X170.064 Y15.632 E136.38925
G0 F1285.7 X169.564 Y15.627
G1 F900 X184.298 Y30.361 E137.18668
G0 F1285.7 X184.117 Y30.675
G1 F900 X169.064 Y15.622 E138.00136
G0 F1285.7 X168.564 Y15.617
G1 F900 X183.936 Y30.989 E138.83332
G0 F1285.7 X183.755 Y31.302
G1 F900 X168.064 Y15.612 E139.68251
G0 F1285.7 X167.564 Y15.607
G1 F900 X183.574 Y31.616 E140.54896
G0 F1285.7 X183.393 Y31.93
G1 F900 X167.064 Y15.602 E141.43268
G0 F1285.7 X166.564 Y15.597
G1 F900 X183.212 Y32.244 E142.33366
G0 F1285.7 X183.031 Y32.558
G1 F900 X166.064 Y15.592 E143.25191
G0 F1285.7 X165.564 Y15.587
G1 F900 X182.849 Y32.871 E144.18737
G0 F1285.7 X182.668 Y33.185
G1 F900 X165.064 Y15.582 E145.14009
G0 F1285.7 X164.564 Y15.577
G1 F900 X182.487 Y33.499 E146.11008
G0 F1285.7 X182.306 Y33.813
G1 F900 X164.065 Y15.572 E147.09731
G0 F1285.7 X163.565 Y15.567
G1 F900 X182.124 Y34.127 E148.10177
G0 F1285.7 X181.943 Y34.441
G1 F900 X163.065 Y15.563 E149.12347
G0 F1285.7 X162.565 Y15.558
G1 F900 X181.762 Y34.755 E150.16244
G0 F1285.7 X181.581 Y35.068
G1 F900 X162.066 Y15.553 E151.21862
G0 F1285.7 X161.566 Y15.548
G1 F900 X181.4 Y35.382 E152.29206
G0 F1285.7 X181.218 Y35.696
G1 F900 X161.066 Y15.543 E153.38274
G0 F1285.7 X160.566 Y15.538
G1 F900 X181.037 Y36.01 E154.49068
G0 F1285.7 X180.856 Y36.324
G1 F900 X160.066 Y15.533 E155.61589
G0 F1285.7 X159.566 Y15.528
G1 F900 X180.675 Y36.638 E156.75836
G0 F1285.7 X180.493 Y36.951
G1 F900 X159.066 Y15.523 E157.91805
G0 F1285.7 X158.566 Y15.518
G1 F900 X180.312 Y37.265 E159.09499
G0 F1285.7 X180.131 Y37.579
G1 F900 X158.066 Y15.513 E160.28921
G0 F1285.7 X157.566 Y15.508
G1 F900 X179.95 Y37.893 E161.50069
G0 F1285.7 X179.769 Y38.207
G1 F900 X157.066 Y15.504 E162.7294
G0 F1285.7 X156.566 Y15.499
G1 F900 X179.588 Y38.52 E163.97535
G0 F1285.7 X179.407 Y38.834
G1 F900 X156.066 Y15.494 E165.23857
G0 F1285.7 X155.567 Y15.489
G1 F900 X179.226 Y39.148 E166.51903
G0 F1285.7 X179.045 Y39.462
G1 F900 X155.067 Y15.484 E167.81675
G0 F1285.7 X154.567 Y15.479
G1 F900 X178.864 Y39.776 E169.13173
G0 F1285.7 X178.682 Y40.089
G1 F900 X154.067 Y15.474 E170.46393
G0 F1285.7 X153.567 Y15.469
G1 F900 X178.501 Y40.403 E171.81339
G0 F1285.7 X178.32 Y40.717
G1 F900 X153.067 Y15.464 E173.18011
G0 F1285.7 X152.567 Y15.459
G1 F900 X178.139 Y41.031 E174.5641
G0 F1285.7 X177.957 Y41.344
G1 F900 X152.067 Y15.454 E175.9653
G0 F1285.7 X151.567 Y15.449
G1 F900 X177.776 Y41.658 E177.38376
G0 F1285.7 X177.595 Y41.972
G1 F900 X151.067 Y15.444 E178.81949
G0 F1285.7 X150.567 Y15.439
G1 F900 X177.414 Y42.286 E180.27249
G0 F1285.7 X177.233 Y42.6
G1 F900 X150.067 Y15.434 E181.74275
G0 F1285.7 X149.567 Y15.429
G1 F900 X177.051 Y42.913 E183.23021
G0 F1285.7 X176.87 Y43.227
G1 F900 X149.068 Y15.424 E184.73492
G0 F1285.7 X148.568 Y15.419
G1 F900 X176.689 Y43.541 E186.25689
G0 F1285.7 X176.508 Y43.855
G1 F900 X148.068 Y15.414 E187.79613
G0 F1285.7 X147.568 Y15.409
G1 F900 X176.327 Y44.169 E189.35263
G0 F1285.7 X176.145 Y44.482
G1 F900 X147.068 Y15.405 E190.92631
G0 F1285.7 X146.568 Y15.4
G1 F900 X175.964 Y44.796 E192.51726
G0 F1285.7 X175.783 Y45.11
G1 F900 X146.068 Y15.395 E194.12548
G0 F1285.7 X145.568 Y15.39
G1 F900 X175.602 Y45.424 E195.75095
G0 F1285.7 X175.421 Y45.737
G1 F900 X145.068 Y15.385 E197.39367
G0 F1285.7 X144.569 Y15.38
G1 F900 X175.24 Y46.051 E199.05362
G0 F1285.7 X175.059 Y46.365
G1 F900 X144.069 Y15.376 E200.73082
G0 F1285.7 X143.569 Y15.371
G1 F900 X174.878 Y46.679 E202.42527
G0 F1285.7 X174.697 Y46.993
G1 F900 X143.069 Y15.366 E204.13699
G0 F1285.7 X142.569 Y15.361
G1 F900 X174.515 Y47.306 E205.86592
G0 F1285.7 X174.334 Y47.62
G1 F900 X142.069 Y15.356 E207.61212
G0 F1285.7 X141.569 Y15.351
G1 F900 X174.153 Y47.934 E209.37558
G0 F1285.7 X173.972 Y48.248
G1 F900 X141.069 Y15.346 E211.1563
G0 F1285.7 X140.569 Y15.341
G1 F900 X173.791 Y48.562 E212.95429
G0 F1285.7 X173.609 Y48.875
G1 F900 X140.07 Y15.336 E214.76947
G0 F1285.7 X139.57 Y15.331
G1 F900 X173.428 Y49.189 E216.60191
G0 F1285.7 X173.247 Y49.503
G1 F900 X139.07 Y15.326 E218.45161
G0 F1285.7 X138.57 Y15.321
G1 F900 X173.066 Y49.817 E220.31858
G0 F1285.7 X172.884 Y50.131
G1 F900 X138.07 Y15.316 E222.20278
G0 F1285.7 X137.57 Y15.311
G1 F900 X172.703 Y50.444 E224.10422
G0 F1285.7 X172.522 Y50.758
G1 F900 X137.07 Y15.306 E226.02293
G0 F1285.7 X136.57 Y15.301
G1 F900 X172.341 Y51.072 E227.9589
G0 F1285.7 X172.16 Y51.386
G1 F900 X136.07 Y15.296 E229.91214
G0 F1285.7 X135.57 Y15.291
G1 F900 X171.978 Y51.7 E231.88261
G0 F1285.7 X171.797 Y52.014
G1 F900 X135.07 Y15.286 E233.87035
G0 F1285.7 X134.57 Y15.281
G1 F900 X171.616 Y52.328 E235.87536
G0 F1285.7 X171.435 Y52.641
G1 F900 X134.07 Y15.277 E237.89757
G0 F1285.7 X133.571 Y15.272
G1 F900 X171.254 Y52.955 E239.93702
G0 F1285.7 X171.073 Y53.269
G1 F900 X133.071 Y15.267 E241.99374
G0 F1285.7 X132.571 Y15.262
G1 F900 X170.892 Y53.583 E244.06772
G0 F1285.7 X170.711 Y53.897
G1 F900 X132.071 Y15.257 E246.15897
G0 F1285.7 X131.571 Y15.252
G1 F900 X170.53 Y54.211 E248.26748
G0 F1285.7 X170.348 Y54.524
G1 F900 X131.071 Y15.247 E250.3932
G0 F1285.7 X130.571 Y15.242
G1 F900 X170.167 Y54.838 E252.53619
G0 F1285.7 X169.986 Y55.152
G1 F900 X130.071 Y15.237 E254.69644
G0 F1285.7 X129.571 Y15.232
G1 F900 X169.805 Y55.466 E256.87395
G0 F1285.7 X169.624 Y55.78
G1 F900 X129.071 Y15.227 E259.06873
G0 F1285.7 X128.571 Y15.222
G1 F900 X169.442 Y56.093 E261.28072
G0 F1285.7 X169.261 Y56.407
G1 F900 X128.071 Y15.217 E263.50998
G0 F1285.7 X127.571 Y15.212
G1 F900 X169.08 Y56.721 E265.7565
G0 F1285.7 X168.899 Y57.035
G1 F900 X127.072 Y15.207 E268.02026
G0 F1285.7 X126.572 Y15.202
G1 F900 X168.717 Y57.348 E270.30122
G0 F1285.7 X168.536 Y57.662
G1 F900 X126.072 Y15.198 E272.59943
G0 F1285.7 X125.572 Y15.193
G1 F900 X168.355 Y57.976 E274.9149
G0 F1285.7 X168.174 Y58.29
G1 F900 X125.073 Y15.188 E277.24761
G0 F1285.7 X124.573 Y15.183
G1 F900 X167.993 Y58.604 E279.59758
G0 F1285.7 X167.811 Y58.917
G1 F900 X124.073 Y15.178 E281.96476
G0 F1285.7 X123.573 Y15.173
G1 F900 X167.63 Y59.231 E284.34921
G0 F1285.7 X167.449 Y59.545
G1 F900 X123.073 Y15.168 E286.75092
G0 F1285.7 X122.573 Y15.163
G1 F900 X167.268 Y59.859 E289.1699
G0 F1285.7 X167.087 Y60.173
G1 F900 X122.073 Y15.158 E291.60614
G0 F1285.7 X121.573 Y15.154
G1 F900 X166.906 Y60.486 E294.0596
G0 F1285.7 X166.725 Y60.8
G1 F900 X121.073 Y15.149 E296.53031
G0 F1285.7 X120.573 Y15.144
G1 F900 X166.544 Y61.114 E299.0183
G0 F1285.7 X166.363 Y61.428
G1 F900 X120.073 Y15.139 E301.52354
G0 F1285.7 X119.573 Y15.134
G1 F900 X166.181 Y61.741 E304.046
G0 F1285.7 X166 Y62.055
G1 F900 X119.073 Y15.129 E306.58572
G0 F1285.7 X118.574 Y15.124
G1 F900 X165.819 Y62.369 E309.14268
G0 F1285.7 X165.638 Y62.683
