;FLAVOR:Marlin
;TIME:33574
;Filament used: 43.0818m
;Layer height: 0.3
;MINX:0.669
;MINY:3.006
;MINZ:0.26
;MAXX:203.146
;MAXY:201.992
;MAXZ:26.06
;Generated with Cura_SteamEngine 4.9.1
M82 ;absolute extrusion mode
;Begin Start Gcode for Dagoma DiscoEasy 200
;Sliced: 15-07-2021 03:36:17
;Initial extruder: 0

G90 ;Absolute positioning
M106 S255 ;Fan on full
G28 X Y ;Home stop X Y
G1 X100 ;Centre back during cooldown in case of oozing
M109 R90 ;Cooldown in case too hot
G28 ;Centre
G29 ;Auto-level
M104 S205 ;Pre-heat
M107 ;Fan off
G0 X100 Y5 Z0.5 ;Front centre for degunk
M109 S205 ;Wait for initial temp
M83 ;E Relative
G1 E10 F200 ;Degunk
G1 E-3 F5000 ;Retract
G0 Z3 ;Withdraw
M82 ;E absolute
G92 E0 ;E reset
G1 F6000 ;Set feedrate

;Finish Start Gcode for Dagoma DiscoEasy 200

G92 E0
G92 E0
G1 F3000 E-3.5
;LAYER_COUNT:87
;LAYER:0
M107
G0 F1285.7 X48.506 Y47.216 Z0.26
;TYPE:SKIRT
G1 F3000 E0
G1 F900 X48.875 Y46.91 E0.01835
G1 X49.289 Y46.669 E0.03668
G1 X49.788 Y46.486 E0.05702
G1 X50.539 Y46.288 E0.08674
G1 X74.533 Y40.311 E1.03304
G1 X77.207 Y39.605 E1.13888
G1 X79.837 Y38.829 E1.24382
G1 X82.458 Y37.976 E1.3493
G1 X85.051 Y37.05 E1.45467
G1 X87.619 Y36.049 E1.56015
G1 X90.13 Y34.989 E1.66446
G1 X91.876 Y34.181 E1.73808
G1 X93.155 Y33.602 E1.79181
G1 X93.617 Y33.439 E1.81056
G1 X94.389 Y33.238 E1.84109
G1 X96.743 Y32.66 E1.93385
G1 X97.071 Y32.586 E1.94672
G1 X97.577 Y32.464 E1.96664
G1 X98.105 Y32.364 E1.9872
G1 X100.82 Y31.831 E2.09309
G1 X103.495 Y31.225 E2.19805
G1 X106.153 Y30.546 E2.30304
G1 X108.811 Y29.785 E2.40885
G1 X111.415 Y28.958 E2.51341
G1 X114.017 Y28.051 E2.61886
G1 X116.58 Y27.076 E2.7238
G1 X119.131 Y26.02 E2.82946
G1 X121.652 Y24.894 E2.93513
G1 X124.095 Y23.718 E3.03889
G1 X126.549 Y22.449 E3.14461
G1 X128.964 Y21.114 E3.25022
G1 X131.299 Y19.735 E3.35399
G1 X133.655 Y18.251 E3.46055
G1 X135.926 Y16.731 E3.56513
G1 X138.149 Y15.149 E3.66955
G1 X140.361 Y13.479 E3.77562
G1 X142.506 Y11.763 E3.88074
G1 X144.589 Y9.996 E3.98528
G1 X146.647 Y8.148 E4.09113
G1 X148.623 Y6.272 E4.1954
G1 X150.182 Y4.714 E4.27975
G1 X151.013 Y3.866 E4.32519
G1 X151.376 Y3.553 E4.34353
G1 X151.786 Y3.305 E4.36187
G1 X152.231 Y3.128 E4.38019
G1 X152.699 Y3.027 E4.39852
G1 X153.178 Y3.006 E4.41687
G1 X153.654 Y3.065 E4.43522
G1 X154.113 Y3.201 E4.45354
G1 X154.543 Y3.413 E4.47189
G1 X155.105 Y3.852 E4.49918
G1 X155.661 Y4.411 E4.52935
G1 X201.89 Y52.304 E7.07675
G1 X202.377 Y52.823 E7.10399
G1 X202.674 Y53.198 E7.1223
G1 X202.905 Y53.618 E7.14064
G1 X203.063 Y54.07 E7.15896
G1 X203.144 Y54.543 E7.17733
G1 X203.146 Y55.022 E7.19566
G1 X203.067 Y55.494 E7.21397
G1 X202.856 Y56.067 E7.23734
G1 X202.552 Y56.679 E7.26349
G1 X201.018 Y59.653 E7.39156
G1 X200.732 Y60.197 E7.41508
G1 X199.003 Y63.439 E7.55569
G1 X198.733 Y63.937 E7.57737
G1 X197.007 Y67.077 E7.71449
G1 X196.655 Y67.707 E7.74211
G1 X194.864 Y70.86 E7.88088
G1 X194.537 Y71.43 E7.90603
G1 X192.733 Y74.507 E8.04253
G1 X192.365 Y75.127 E8.07012
G1 X190.516 Y78.191 E8.20708
G1 X190.133 Y78.816 E8.23513
G1 X188.219 Y81.894 E8.37384
G1 X187.933 Y82.347 E8.39434
G1 X185.956 Y85.433 E8.5346
G1 X185.587 Y86.002 E8.56055
G1 X183.662 Y88.919 E8.6943
G1 X183.164 Y89.663 E8.72856
G1 X181.223 Y92.521 E8.86077
G1 X180.834 Y93.086 E8.88703
G1 X178.745 Y96.078 E9.02668
G1 X178.43 Y96.523 E9.04754
G1 X176.346 Y99.422 E9.18418
G1 X175.841 Y100.115 E9.21699
G1 X173.787 Y102.897 E9.34933
G1 X173.296 Y103.553 E9.38069
G1 X171.142 Y106.385 E9.51685
G1 X170.745 Y106.901 E9.54177
G1 X168.511 Y109.76 E9.68062
G1 X168.132 Y110.24 E9.70403
G1 X165.846 Y113.089 E9.84382
G1 X165.455 Y113.568 E9.86748
G1 X163.083 Y116.444 E10.01015
G1 X162.786 Y116.8 E10.02789
G1 X160.348 Y119.674 E10.17212
G1 X159.951 Y120.136 E10.19543
G1 X157.607 Y122.827 E10.33201
G1 X157.107 Y123.393 E10.36091
G1 X154.738 Y126.042 E10.49691
G1 X154.289 Y126.54 E10.52257
G1 X151.891 Y129.15 E10.65821
G1 X151.374 Y129.705 E10.68724
G1 X148.889 Y132.338 E10.82579
G1 X148.446 Y132.801 E10.85031
G1 X145.989 Y135.334 E10.98536
G1 X145.44 Y135.893 E11.01535
G1 X142.933 Y138.41 E11.1513
G1 X142.455 Y138.883 E11.17704
G1 X139.9 Y141.383 E11.31384
G1 X139.369 Y141.896 E11.34209
G1 X136.743 Y144.397 E11.48087
G1 X136.368 Y144.749 E11.50055
G1 X133.669 Y147.252 E11.64142
G1 X133.153 Y147.724 E11.66819
G1 X130.527 Y150.095 E11.80358
G1 X129.954 Y150.605 E11.83294
G1 X127.301 Y152.936 E11.96809
G1 X126.774 Y153.393 E11.99479
G1 X124.072 Y155.705 E12.13088
G1 X123.521 Y156.169 E12.15845
G1 X120.798 Y158.436 E12.29404
G1 X120.211 Y158.919 E12.32313
G1 X117.419 Y161.18 E12.46062
G1 X116.942 Y161.563 E12.48403
G1 X114.103 Y163.8 E12.62236
G1 X113.523 Y164.251 E12.65047
G1 X110.713 Y166.405 E12.78597
G1 X110.164 Y166.821 E12.81233
G1 X107.219 Y169.017 E12.95292
G1 X106.779 Y169.341 E12.97383
G1 X103.773 Y171.522 E13.11596
G1 X103.327 Y171.84 E13.13692
G1 X100.336 Y173.95 E13.277
G1 X99.776 Y174.34 E13.30312
G1 X96.784 Y176.391 E13.44194
G1 X96.268 Y176.74 E13.46578
G1 X93.29 Y178.724 E13.60272
G1 X92.633 Y179.155 E13.63279
G1 X89.645 Y181.088 E13.76898
G1 X89.15 Y181.405 E13.79148
G1 X86.084 Y183.33 E13.93002
G1 X85.473 Y183.708 E13.95752
G1 X82.39 Y185.587 E14.09569
G1 X81.841 Y185.916 E14.12018
G1 X78.68 Y187.786 E14.26073
G1 X78.196 Y188.069 E14.28219
G1 X74.968 Y189.92 E14.42459
G1 X74.494 Y190.187 E14.44541
G1 X71.315 Y191.956 E14.58464
G1 X70.668 Y192.309 E14.61285
G1 X67.539 Y193.995 E14.74887
G1 X66.976 Y194.294 E14.77326
G1 X63.731 Y195.987 E14.91333
G1 X63.122 Y196.299 E14.93952
G1 X60.048 Y197.851 E15.0713
G1 X59.267 Y198.239 E15.10468
G1 X56.02 Y199.825 E15.24297
G1 X55.573 Y200.039 E15.26194
G1 X52.593 Y201.445 E15.38803
G1 X51.94 Y201.742 E15.41549
G1 X51.489 Y201.903 E15.43381
G1 X51.017 Y201.988 E15.45217
G1 X50.538 Y201.992 E15.4705
G1 X50.065 Y201.917 E15.48883
G1 X49.611 Y201.765 E15.50715
G1 X48.954 Y201.37 E15.53649
G1 X48.696 Y201.139 E15.54974
G1 X48.204 Y200.642 E15.5765
G1 X1.928 Y152.7 E18.1265
G1 X1.442 Y152.184 E18.15363
G1 X1.144 Y151.809 E18.17196
G1 X0.912 Y151.39 E18.19029
G1 X0.753 Y150.938 E18.20862
G1 X0.671 Y150.466 E18.22696
G1 X0.669 Y149.987 E18.24529
G1 X0.746 Y149.514 E18.26363
G1 X0.901 Y149.06 E18.28199
G1 X1.129 Y148.639 E18.30031
G1 X1.625 Y148.064 E18.32937
G1 X3.567 Y146.338 E18.4288
G1 X5.566 Y144.459 E18.53379
G1 X7.528 Y142.507 E18.63971
G1 X9.396 Y140.541 E18.74349
G1 X11.246 Y138.48 E18.84948
G1 X13.019 Y136.387 E18.95446
G1 X14.745 Y134.232 E19.06012
G1 X16.379 Y132.067 E19.16392
G1 X17.974 Y129.824 E19.26925
G1 X19.513 Y127.527 E19.37506
G1 X20.969 Y125.214 E19.47966
G1 X22.391 Y122.806 E19.58668
G1 X23.688 Y120.463 E19.68916
G1 X24.979 Y117.961 E19.79691
G1 X26.144 Y115.541 E19.89969
G1 X27.28 Y113 E20.00621
G1 X28.333 Y110.456 E20.11158
G1 X29.307 Y107.89 E20.21662
G1 X30.206 Y105.315 E20.32099
G1 X31.038 Y102.692 E20.4263
G1 X31.508 Y101.085 E20.49038
G1 X31.684 Y100.462 E20.51515
G1 X32.392 Y97.817 E20.61994
G1 X33.04 Y95.096 E20.72698
G1 X33.252 Y94.11 E20.76558
G1 X33.382 Y93.61 E20.78535
G1 X33.484 Y93.263 E20.79919
G1 X33.682 Y92.64 E20.82421
G1 X33.8 Y92.332 E20.83683
G1 X34.093 Y91.681 E20.86415
G1 X34.71 Y90.354 E20.92016
G1 X35.819 Y87.785 E21.02724
G1 X36.827 Y85.257 E21.13139
G1 X37.761 Y82.697 E21.23568
G1 X38.631 Y80.09 E21.34086
G1 X39.456 Y77.366 E21.44978
G1 X47.565 Y49.114 E22.57463
G1 X47.77 Y48.435 E22.60177
G1 X47.946 Y47.989 E22.62012
G1 X48.194 Y47.579 E22.63846
G1 X48.506 Y47.216 E22.65677
G0 F1285.7 X48.813 Y47.407
G1 F900 X49.169 Y47.134 E22.67394
G1 X49.568 Y46.928 E22.69113
G1 X49.877 Y46.825 E22.70359
G1 X50.624 Y46.628 E22.73316
G1 X74.638 Y40.646 E23.68024
G1 X77.286 Y39.947 E23.78505
G1 X79.945 Y39.163 E23.89114
G1 X82.574 Y38.307 E23.99695
G1 X85.154 Y37.385 E24.1018
G1 X87.753 Y36.372 E24.20855
G1 X90.257 Y35.315 E24.31257
G1 X92.021 Y34.5 E24.38693
G1 X93.3 Y33.921 E24.44066
G1 X93.705 Y33.777 E24.45711
G1 X94.473 Y33.578 E24.48747
G1 X96.82 Y33.002 E24.57996
G1 X97.112 Y32.936 E24.59141
G1 X97.659 Y32.804 E24.61295
G1 X98.166 Y32.708 E24.6327
G1 X100.904 Y32.171 E24.73947
G1 X103.575 Y31.566 E24.84428
G1 X106.235 Y30.886 E24.94935
G1 X108.913 Y30.119 E25.05596
G1 X111.558 Y29.28 E25.16215
G1 X114.126 Y28.384 E25.26624
G1 X116.727 Y27.394 E25.37274
G1 X119.266 Y26.344 E25.47789
G1 X121.762 Y25.229 E25.58251
G1 X124.279 Y24.017 E25.68942
G1 X126.694 Y22.768 E25.79347
G1 X129.141 Y21.415 E25.90047
G1 X131.494 Y20.025 E26.00506
G1 X133.834 Y18.552 E26.11088
G1 X136.13 Y17.016 E26.21659
G1 X138.376 Y15.417 E26.3221
G1 X140.559 Y13.769 E26.42678
G1 X142.742 Y12.023 E26.53376
G1 X144.822 Y10.259 E26.63813
G1 X146.874 Y8.415 E26.74371
G1 X148.864 Y6.526 E26.84871
G1 X150.429 Y4.962 E26.93338
G1 X151.263 Y4.111 E26.97898
G1 X151.605 Y3.82 E26.99617
G1 X151.992 Y3.594 E27.01332
G1 X152.414 Y3.44 E27.03051
G1 X152.857 Y3.363 E27.04772
G1 X153.306 Y3.365 E27.0649
G1 X153.747 Y3.448 E27.08207
G1 X154.167 Y3.607 E27.09926
G1 X154.552 Y3.838 E27.11644
G1 X154.857 Y4.099 E27.13181
G1 X155.409 Y4.654 E27.16176
G1 X201.634 Y52.543 E29.70894
G1 X202.121 Y53.062 E29.73618
G1 X202.398 Y53.416 E29.75338
G1 X202.608 Y53.813 E29.77057
G1 X202.744 Y54.24 E29.78772
G1 X202.803 Y54.686 E29.80494
G1 X202.781 Y55.134 E29.8221
G1 X202.681 Y55.572 E29.8393
G1 X202.542 Y55.911 E29.85332
G1 X202.241 Y56.518 E29.87925
G1 X200.708 Y59.49 E30.00722
G1 X200.423 Y60.032 E30.03066
G1 X198.695 Y63.272 E30.17118
G1 X198.427 Y63.768 E30.19276
G1 X196.701 Y66.907 E30.32985
G1 X196.351 Y67.534 E30.35733
G1 X194.561 Y70.686 E30.49605
G1 X194.235 Y71.253 E30.52108
G1 X192.433 Y74.328 E30.65748
G1 X192.065 Y74.947 E30.68503
G1 X190.218 Y78.008 E30.82185
G1 X189.835 Y78.631 E30.84984
G1 X187.923 Y81.707 E30.98844
G1 X187.638 Y82.158 E31.00886
G1 X185.662 Y85.243 E31.14906
G1 X185.295 Y85.809 E31.17488
G1 X183.371 Y88.724 E31.30854
G1 X182.875 Y89.467 E31.34273
G1 X180.935 Y92.323 E31.47486
G1 X180.547 Y92.885 E31.50099
G1 X178.46 Y95.876 E31.64057
G1 X178.146 Y96.318 E31.66132
G1 X176.063 Y99.216 E31.7979
G1 X175.56 Y99.907 E31.83061
G1 X173.506 Y102.687 E31.96289
G1 X173.017 Y103.341 E31.99414
G1 X170.865 Y106.171 E32.1302
G1 X170.469 Y106.685 E32.15503
G1 X168.237 Y109.543 E32.2938
G1 X167.859 Y110.021 E32.31712
G1 X165.575 Y112.868 E32.45681
G1 X165.185 Y113.346 E32.48042
G1 X162.814 Y116.22 E32.623
G1 X162.52 Y116.573 E32.64058
G1 X160.082 Y119.446 E32.78478
G1 X159.687 Y119.907 E32.80801
G1 X157.344 Y122.595 E32.94448
G1 X156.846 Y123.16 E32.9733
G1 X154.479 Y125.808 E33.10922
G1 X154.031 Y126.303 E33.13477
G1 X151.635 Y128.911 E33.2703
G1 X151.119 Y129.465 E33.29928
G1 X148.637 Y132.096 E33.4377
G1 X148.195 Y132.557 E33.46214
G1 X145.739 Y135.089 E33.59713
G1 X145.192 Y135.646 E33.62701
G1 X142.687 Y138.161 E33.76285
G1 X142.21 Y138.633 E33.78853
G1 X139.656 Y141.131 E33.92525
G1 X139.128 Y141.642 E33.95337
G1 X136.504 Y144.141 E34.09204
G1 X136.13 Y144.492 E34.11167
G1 X133.433 Y146.993 E34.25243
G1 X132.918 Y147.464 E34.27914
G1 X130.294 Y149.834 E34.41446
G1 X129.723 Y150.342 E34.44371
G1 X127.071 Y152.672 E34.5788
G1 X126.547 Y153.127 E34.60536
G1 X123.846 Y155.437 E34.74137
G1 X123.297 Y155.9 E34.76886
G1 X120.576 Y158.166 E34.90437
G1 X119.99 Y158.647 E34.93338
G1 X117.2 Y160.907 E35.07079
G1 X116.725 Y161.288 E35.09409
G1 X113.888 Y163.524 E35.23233
G1 X113.31 Y163.973 E35.26034
G1 X110.502 Y166.126 E35.39575
G1 X109.955 Y166.54 E35.42201
G1 X107.011 Y168.736 E35.56256
G1 X106.574 Y169.058 E35.58334
G1 X103.569 Y171.237 E35.72539
G1 X103.126 Y171.554 E35.74624
G1 X100.137 Y173.663 E35.88623
G1 X99.578 Y174.052 E35.91229
G1 X96.588 Y176.101 E36.05101
G1 X96.074 Y176.448 E36.07474
G1 X93.098 Y178.431 E36.2116
G1 X92.443 Y178.861 E36.24159
G1 X89.456 Y180.793 E36.37773
G1 X88.964 Y181.108 E36.40008
G1 X85.9 Y183.032 E36.53854
G1 X85.291 Y183.409 E36.56595
G1 X82.21 Y185.287 E36.70404
G1 X81.663 Y185.615 E36.72845
G1 X78.504 Y187.484 E36.86891
G1 X78.022 Y187.765 E36.89027
G1 X74.796 Y189.615 E37.03258
G1 X74.324 Y189.881 E37.05332
G1 X71.147 Y191.649 E37.19246
G1 X70.502 Y192.001 E37.22058
G1 X67.375 Y193.686 E37.35651
G1 X66.814 Y193.984 E37.38082
G1 X63.571 Y195.676 E37.52081
G1 X62.965 Y195.986 E37.54686
G1 X59.892 Y197.537 E37.67859
G1 X59.113 Y197.925 E37.7119
G1 X55.869 Y199.509 E37.85005
G1 X55.424 Y199.722 E37.86893
G1 X52.448 Y201.126 E37.99486
G1 X51.795 Y201.423 E38.02231
G1 X51.372 Y201.572 E38.03948
G1 X50.928 Y201.644 E38.05669
G1 X50.48 Y201.635 E38.07384
G1 X50.039 Y201.548 E38.09104
G1 X49.621 Y201.384 E38.10822
G1 X49.163 Y201.089 E38.12907
G1 X48.945 Y200.893 E38.14029
G1 X48.456 Y200.399 E38.16689
G1 X2.183 Y152.46 E40.71673
G1 X1.697 Y151.944 E40.74386
G1 X1.419 Y151.591 E40.76105
G1 X1.209 Y151.195 E40.7782
G1 X1.072 Y150.767 E40.7954
G1 X1.012 Y150.322 E40.81259
G1 X1.033 Y149.874 E40.82975
G1 X1.133 Y149.436 E40.84694
G1 X1.308 Y149.023 E40.86411
G1 X1.554 Y148.647 E40.8813
G1 X1.858 Y148.326 E40.89822
G1 X3.791 Y146.608 E40.99719
G1 X5.805 Y144.715 E41.10297
G1 X7.781 Y142.749 E41.20964
G1 X9.663 Y140.768 E41.31421
G1 X11.508 Y138.713 E41.4199
G1 X13.279 Y136.623 E41.52474
G1 X15.017 Y134.452 E41.63117
G1 X16.664 Y132.271 E41.73576
G1 X18.27 Y130.012 E41.84183
G1 X19.804 Y127.723 E41.94728
G1 X21.276 Y125.383 E42.05308
G1 X22.673 Y123.017 E42.15823
G1 X24.007 Y120.609 E42.26358
G1 X25.273 Y118.155 E42.36925
G1 X26.479 Y115.651 E42.47561
G1 X27.59 Y113.166 E42.57978
G1 X28.659 Y110.584 E42.68673
G1 X29.633 Y108.019 E42.79173
G1 X30.538 Y105.425 E42.89687
G1 X31.382 Y102.763 E43.00374
G1 X31.844 Y101.183 E43.06674
G1 X32.011 Y100.593 E43.0902
G1 X32.736 Y97.887 E43.19741
G1 X33.369 Y95.228 E43.30202
G1 X33.592 Y94.191 E43.34261
G1 X33.8 Y93.427 E43.37291
G1 X34.016 Y92.746 E43.40025
G1 X34.119 Y92.475 E43.41135
G1 X34.41 Y91.828 E43.4385
G1 X35.048 Y90.456 E43.4964
G1 X36.132 Y87.944 E43.6011
G1 X37.156 Y85.377 E43.70687
G1 X38.09 Y82.817 E43.81116
G1 X38.963 Y80.202 E43.91666
G1 X39.791 Y77.467 E44.02602
G1 X47.9 Y49.215 E45.15086
G1 X48.105 Y48.536 E45.17801
G1 X48.272 Y48.12 E45.19516
G1 X48.511 Y47.739 E45.21237
G1 X48.813 Y47.407 E45.22955
G0 F1285.7 X49.117 Y47.605
G1 F900 X49.46 Y47.368 E45.2455
G1 X49.967 Y47.163 E45.26643
G1 X50.708 Y46.967 E45.29577
G1 X74.722 Y40.985 E46.24286
G1 X77.406 Y40.277 E46.34908
G1 X80.041 Y39.5 E46.45422
G1 X82.7 Y38.634 E46.56124
G1 X85.259 Y37.72 E46.66523
G1 X87.874 Y36.701 E46.77263
G1 X90.42 Y35.625 E46.87841
G1 X92.165 Y34.819 E46.95197
G1 X93.444 Y34.24 E47.0057
G1 X93.793 Y34.116 E47.01987
G1 X94.556 Y33.918 E47.05004
G1 X96.897 Y33.343 E47.14229
G1 X97.225 Y33.269 E47.15516
G1 X97.741 Y33.145 E47.17547
G1 X98.239 Y33.051 E47.19486
G1 X100.973 Y32.514 E47.30149
G1 X103.637 Y31.911 E47.40602
G1 X106.35 Y31.217 E47.51319
G1 X109.006 Y30.458 E47.6189
G1 X111.636 Y29.622 E47.72451
G1 X114.254 Y28.71 E47.83061
G1 X116.843 Y27.724 E47.93663
G1 X119.413 Y26.661 E48.04306
G1 X121.914 Y25.544 E48.14789
G1 X124.435 Y24.33 E48.25497
G1 X126.897 Y23.057 E48.36104
G1 X129.278 Y21.741 E48.46515
G1 X131.673 Y20.326 E48.57161
G1 X134.049 Y18.83 E48.67906
G1 X136.317 Y17.311 E48.78352
G1 X138.58 Y15.701 E48.88981
G1 X140.783 Y14.038 E48.99544
G1 X142.934 Y12.317 E49.10086
G1 X145.078 Y10.499 E49.20844
G1 X147.121 Y8.664 E49.31353
G1 X149.125 Y6.761 E49.41929
G1 X150.661 Y5.225 E49.50242
G1 X151.513 Y4.356 E49.54899
G1 X151.832 Y4.088 E49.56494
G1 X152.196 Y3.886 E49.58087
G1 X152.592 Y3.756 E49.59682
G1 X153.005 Y3.705 E49.61275
G1 X153.421 Y3.733 E49.6287
G1 X153.824 Y3.84 E49.64466
G1 X154.199 Y4.022 E49.66061
G1 X154.608 Y4.345 E49.68056
G1 X155.157 Y4.897 E49.71035
G1 X201.379 Y52.783 E52.25737
G1 X201.866 Y53.302 E52.28461
G1 X202.121 Y53.631 E52.30054
G1 X202.308 Y54.004 E52.3165
G1 X202.421 Y54.405 E52.33245
G1 X202.455 Y54.82 E52.34838
G1 X202.409 Y55.234 E52.36432
G1 X202.229 Y55.756 E52.38546
G1 X201.93 Y56.358 E52.41118
G1 X200.399 Y59.327 E52.53902
G1 X200.114 Y59.867 E52.56239
G1 X198.388 Y63.106 E52.70284
G1 X198.12 Y63.6 E52.72435
G1 X196.396 Y66.736 E52.8613
G1 X196.046 Y67.361 E52.88872
G1 X194.257 Y70.512 E53.02738
G1 X193.933 Y71.076 E53.05227
G1 X192.132 Y74.149 E53.18859
