;FLAVOR:Marlin
;TIME:24486
;Filament used: 25.9659m
;Layer height: 0.3
;MINX:9.919
;MINY:10.726
;MINZ:0.26
;MAXX:187.704
;MAXY:183.407
;MAXZ:29.36
;Generated with Cura_SteamEngine 4.9.1
M82 ;absolute extrusion mode
;Begin Start Gcode for Dagoma DiscoEasy 200
;Sliced: 26-07-2021 01:48:36
;Initial extruder: 0

G90 ;Absolute positioning
M106 S255 ;Fan on full
G28 X Y ;Home stop X Y
G1 X100 ;Centre back during cooldown in case of oozing
M109 R90 ;Cooldown in case too hot
G28 ;Centre
G29 ;Auto-level
M104 S205 ;Pre-heat
M107 ;Fan off
G0 X100 Y5 Z0.5 ;Front centre for degunk
M109 S205 ;Wait for initial temp
M83 ;E Relative
G1 E10 F200 ;Degunk
G1 E-3 F5000 ;Retract
G0 Z3 ;Withdraw
M82 ;E absolute
G92 E0 ;E reset
G1 F6000 ;Set feedrate

;Finish Start Gcode for Dagoma DiscoEasy 200

G92 E0
G92 E0
G1 F3000 E-3.5
;LAYER_COUNT:98
;LAYER:0
M107
G0 F1285.7 X35.032 Y15.278 Z0.26
;TYPE:SKIRT
G1 F3000 E0
G1 F900 X36.106 Y12.548 E0.11227
G1 X36.318 Y12.118 E0.13062
G1 X36.598 Y11.729 E0.14896
G1 X36.939 Y11.393 E0.16728
G1 X37.331 Y11.117 E0.18563
G1 X37.764 Y10.911 E0.20398
G1 X38.224 Y10.779 E0.22229
G1 X38.701 Y10.726 E0.24066
G1 X39.179 Y10.753 E0.25898
G1 X39.646 Y10.858 E0.2773
G1 X40.09 Y11.04 E0.29566
G1 X40.664 Y11.427 E0.32216
G1 X41.389 Y12.055 E0.35886
G1 X43.504 Y13.834 E0.46463
G1 X45.64 Y15.531 E0.56903
G1 X47.832 Y17.171 E0.6738
G1 X50.101 Y18.772 E0.78007
G1 X52.368 Y20.277 E0.8842
G1 X54.715 Y21.741 E0.99006
G1 X57.054 Y23.111 E1.0938
G1 X58.725 Y24.037 E1.16691
G1 X59.898 Y24.673 E1.21798
G1 X60.494 Y25.102 E1.24608
G1 X61.176 Y25.742 E1.28187
G1 X62.29 Y26.824 E1.3413
G1 X63.694 Y28.226 E1.41723
G1 X64.112 Y28.627 E1.4394
G1 X64.2 Y28.733 E1.44467
G1 X65.345 Y29.876 E1.50659
G1 X66.082 Y30.655 E1.54763
G1 X66.474 Y31.158 E1.57203
G1 X67.823 Y33.123 E1.66325
G1 X69.423 Y35.318 E1.7672
G1 X71.117 Y37.51 E1.87322
G1 X72.869 Y39.649 E1.97903
G1 X74.648 Y41.699 E2.0829
G1 X76.52 Y43.737 E2.18881
G1 X78.403 Y45.676 E2.29224
G1 X80.414 Y47.631 E2.39958
G1 X82.411 Y49.466 E2.50336
G1 X84.507 Y51.284 E2.60955
G1 X86.616 Y53.012 E2.71389
G1 X88.797 Y54.699 E2.81941
G1 X91.024 Y56.323 E2.92489
G1 X93.266 Y57.862 E3.02896
G1 X95.269 Y59.161 E3.12032
G1 X95.971 Y59.605 E3.15211
G1 X96.369 Y59.908 E3.17125
G1 X96.837 Y60.348 E3.19584
G1 X98.206 Y61.676 E3.26883
G1 X99.573 Y63.041 E3.34276
G1 X99.975 Y63.431 E3.36419
G1 X100.071 Y63.546 E3.36992
G1 X101.371 Y64.848 E3.44034
G1 X101.729 Y65.22 E3.46009
G1 X102.048 Y65.551 E3.47769
G1 X102.989 Y66.625 E3.53233
G1 X103.183 Y66.852 E3.54376
G1 X105.034 Y68.896 E3.64929
G1 X106.929 Y70.875 E3.75415
G1 X108.884 Y72.8 E3.85915
G1 X110.922 Y74.7 E3.96578
G1 X112.962 Y76.495 E4.06976
G1 X115.07 Y78.247 E4.17466
G1 X117.231 Y79.942 E4.27977
G1 X119.431 Y81.569 E4.38448
G1 X121.706 Y83.155 E4.49061
G1 X124.007 Y84.664 E4.59592
G1 X126.327 Y86.092 E4.70018
G1 X128.727 Y87.478 E4.80624
G1 X131.106 Y88.763 E4.90971
G1 X133.581 Y90.013 E5.01582
G1 X134.944 Y90.645 E5.07332
G1 X136.256 Y91.273 E5.12899
G1 X136.533 Y91.424 E5.14106
G1 X137.301 Y91.902 E5.17568
G1 X137.774 Y92.185 E5.19677
G1 X137.849 Y92.239 E5.20031
G1 X138.977 Y92.932 E5.25097
G1 X139.363 Y93.216 E5.26931
G1 X139.665 Y93.523 E5.28579
G1 X140.26 Y94.227 E5.32107
G1 X140.594 Y94.659 E5.34197
G1 X140.806 Y94.96 E5.35606
G1 X141.967 Y96.665 E5.435
G1 X143.557 Y98.863 E5.53881
G1 X145.233 Y101.047 E5.64417
G1 X146.954 Y103.165 E5.74861
G1 X148.751 Y105.252 E5.854
G1 X150.603 Y107.282 E5.95916
G1 X152.542 Y109.291 E6.06602
G1 X154.467 Y111.176 E6.16912
G1 X156.507 Y113.066 E6.27555
G1 X158.534 Y114.836 E6.37853
G1 X160.706 Y116.629 E6.48632
G1 X162.837 Y118.289 E6.58969
G1 X165.066 Y119.926 E6.69553
G1 X167.323 Y121.488 E6.80057
G1 X169.629 Y122.989 E6.90587
G1 X171.954 Y124.41 E7.01015
G1 X174.351 Y125.782 E7.11584
G1 X177.342 Y127.375 E7.24553
G1 X178.051 Y127.737 E7.27599
G1 X178.458 Y127.989 E7.29431
G1 X178.817 Y128.306 E7.31264
G1 X179.119 Y128.678 E7.33098
G1 X179.355 Y129.095 E7.34932
G1 X179.568 Y129.693 E7.37361
G1 X179.807 Y130.527 E7.40681
G1 X180.006 Y131.27 E7.43625
G1 X180.066 Y131.548 E7.44713
G1 X180.524 Y134.335 E7.55522
G1 X181.049 Y137.053 E7.66116
G1 X181.647 Y139.729 E7.76609
G1 X182.311 Y142.356 E7.86979
G1 X183.068 Y145.03 E7.97614
G1 X183.894 Y147.661 E8.08168
G1 X184.781 Y150.226 E8.18554
G1 X185.31 Y151.657 E8.24393
G1 X185.611 Y152.454 E8.27653
G1 X185.742 Y152.915 E8.29487
G1 X185.795 Y153.391 E8.3132
G1 X185.768 Y153.87 E8.33156
G1 X185.662 Y154.337 E8.34989
G1 X185.48 Y154.78 E8.36822
G1 X185.227 Y155.187 E8.38656
G1 X184.91 Y155.546 E8.40488
G1 X184.356 Y155.961 E8.43137
G1 X184.132 Y156.09 E8.44127
G1 X182.115 Y157.202 E8.52941
G1 X179.738 Y158.603 E8.635
G1 X177.432 Y160.052 E8.73923
G1 X175.134 Y161.587 E8.84498
G1 X172.892 Y163.18 E8.95024
G1 X170.719 Y164.816 E9.05433
G1 X167.242 Y167.63 E9.22551
G1 X166.858 Y167.896 E9.24339
G1 X166.609 Y168.033 E9.25427
G1 X165.616 Y168.542 E9.29697
G1 X165.095 Y168.79 E9.31905
G1 X164.46 Y169.035 E9.3451
G1 X163.845 Y169.206 E9.36953
G1 X162.489 Y169.562 E9.42318
G1 X161.807 Y169.719 E9.44996
G1 X161.241 Y169.802 E9.47185
G1 X160.614 Y169.847 E9.49591
G1 X159.611 Y169.884 E9.53432
G1 X156.882 Y170.057 E9.63897
G1 X154.127 Y170.31 E9.74484
G1 X151.433 Y170.635 E9.84869
G1 X148.667 Y171.048 E9.95572
G1 X146.003 Y171.523 E10.05927
G1 X143.308 Y172.083 E10.16461
G1 X140.624 Y172.72 E10.27018
G1 X137.975 Y173.429 E10.37513
G1 X135.333 Y174.216 E10.48062
G1 X132.76 Y175.064 E10.5843
G1 X130.134 Y176.011 E10.69113
G1 X127.593 Y177.01 E10.79562
G1 X125.069 Y178.085 E10.90061
G1 X122.549 Y179.245 E11.00678
G1 X120.105 Y180.453 E11.11111
G1 X119.647 Y180.697 E11.13097
G1 X118.964 Y181.047 E11.16034
G1 X117.561 Y181.777 E11.22086
G1 X116.765 Y182.157 E11.25462
G1 X116.05 Y182.401 E11.28353
G1 X114.876 Y182.705 E11.32994
G1 X114.14 Y182.904 E11.35912
G1 X113.885 Y182.961 E11.36912
G1 X113.19 Y183.081 E11.39611
G1 X112.474 Y183.126 E11.42356
G1 X111.92 Y183.098 E11.44479
G1 X111.634 Y183.073 E11.45578
G1 X110.374 Y182.932 E11.5043
G1 X107.642 Y182.665 E11.60935
G1 X104.912 Y182.475 E11.71408
G1 X102.142 Y182.361 E11.82018
G1 X99.406 Y182.327 E11.92489
G1 X96.636 Y182.37 E12.03091
G1 X93.935 Y182.488 E12.13437
G1 X91.141 Y182.69 E12.24158
G1 X88.44 Y182.963 E12.34547
G1 X85.795 Y183.304 E12.44753
G1 X85.271 Y183.379 E12.46779
G1 X84.793 Y183.407 E12.48611
G1 X84.317 Y183.355 E12.50444
G1 X83.855 Y183.225 E12.5228
G1 X83.422 Y183.02 E12.54114
G1 X82.942 Y182.672 E12.56383
G1 X82.522 Y182.281 E12.58579
G1 X11.268 Y113.137 E16.38548
G1 X10.764 Y112.636 E16.41267
G1 X10.454 Y112.271 E16.431
G1 X10.208 Y111.86 E16.44933
G1 X10.034 Y111.413 E16.46769
G1 X9.937 Y110.944 E16.48601
G1 X9.919 Y110.465 E16.50436
G1 X10 Y109.894 E16.52643
G1 X10.516 Y107.211 E16.63099
G1 X10.966 Y104.445 E16.73823
G1 X11.324 Y101.773 E16.8414
G1 X11.61 Y99.054 E16.94603
G1 X11.823 Y96.286 E17.05227
G1 X11.958 Y93.506 E17.15879
G1 X12.011 Y90.818 E17.26168
G1 X11.989 Y88.08 E17.36646
G1 X11.931 Y86.235 E17.43711
G1 X11.901 Y85.514 E17.46472
G1 X11.943 Y84.862 E17.48972
G1 X12.026 Y84.369 E17.50886
G1 X12.27 Y83.289 E17.55123
G1 X12.308 Y83.169 E17.55605
G1 X12.608 Y81.894 E17.60617
G1 X12.812 Y81.259 E17.6317
G1 X13.109 Y80.535 E17.66165
G1 X14.412 Y78.048 E17.76909
G1 X15.617 Y75.583 E17.8741
G1 X16.759 Y73.068 E17.9798
G1 X17.831 Y70.517 E18.0857
G1 X18.808 Y67.99 E18.18938
G1 X19.731 Y65.391 E18.29493
G1 X20.573 Y62.79 E18.39955
G1 X21.347 Y60.147 E18.50495
G1 X22.044 Y57.485 E18.61026
G1 X22.674 Y54.78 E18.71654
G1 X23.206 Y52.141 E18.81957
G1 X23.686 Y49.371 E18.92716
G1 X24.07 Y46.706 E19.0302
G1 X24.387 Y43.961 E19.13595
G1 X24.624 Y41.232 E19.24078
G1 X24.786 Y38.467 E19.34677
G1 X24.821 Y37.411 E19.38721
G1 X24.853 Y36.783 E19.41127
G1 X24.949 Y36.032 E19.44025
G1 X25.261 Y34.742 E19.49104
G1 X25.276 Y34.654 E19.49445
G1 X25.443 Y33.996 E19.52043
G1 X25.634 Y33.308 E19.54776
G1 X25.82 Y32.781 E19.56915
G1 X25.94 Y32.478 E19.58162
G1 X26.175 Y32.019 E19.60135
G1 X26.832 Y30.983 E19.6483
G1 X27.51 Y29.933 E19.69613
G1 X28.925 Y27.599 E19.80059
G1 X30.279 Y25.215 E19.90551
G1 X31.584 Y22.761 E20.01187
G1 X32.801 Y20.305 E20.11677
G1 X33.951 Y17.81 E20.22191
G1 X35.032 Y15.278 E20.32727
G0 F1285.7 X35.342 Y15.444
G1 F900 X36.431 Y12.676 E20.4411
G1 X36.632 Y12.274 E20.4583
G1 X36.901 Y11.914 E20.4755
G1 X37.229 Y11.608 E20.49267
G1 X37.607 Y11.365 E20.50986
G1 X38.021 Y11.192 E20.52704
G1 X38.46 Y11.096 E20.54423
G1 X38.908 Y11.078 E20.56139
G1 X39.353 Y11.141 E20.57859
G1 X39.779 Y11.281 E20.59575
G1 X40.174 Y11.494 E20.61293
G1 X40.435 Y11.692 E20.62546
G1 X41.163 Y12.323 E20.66233
G1 X43.244 Y14.074 E20.76641
G1 X45.439 Y15.818 E20.8737
G1 X47.63 Y17.457 E20.97841
G1 X49.875 Y19.041 E21.08356
G1 X52.203 Y20.587 E21.19051
G1 X54.523 Y22.034 E21.29515
G1 X56.898 Y23.425 E21.40048
G1 X58.555 Y24.343 E21.47297
G1 X59.732 Y24.981 E21.52421
G1 X60.255 Y25.358 E21.54888
G1 X60.932 Y25.993 E21.5844
G1 X62.042 Y27.071 E21.64362
G1 X63.38 Y28.407 E21.71598
G1 X63.863 Y28.873 E21.74166
G1 X63.945 Y28.973 E21.74661
G1 X65.15 Y30.177 E21.8118
G1 X65.828 Y30.895 E21.84959
G1 X66.189 Y31.361 E21.87215
G1 X67.532 Y33.317 E21.96295
G1 X69.161 Y35.551 E22.06876
G1 X70.849 Y37.736 E22.17443
G1 X72.583 Y39.852 E22.27912
G1 X74.39 Y41.935 E22.38465
G1 X76.277 Y43.989 E22.4914
G1 X78.147 Y45.915 E22.59413
G1 X80.181 Y47.892 E22.70268
G1 X82.176 Y49.725 E22.80636
G1 X84.263 Y51.536 E22.91211
G1 X86.411 Y53.297 E23.0184
G1 X88.586 Y54.978 E23.1236
G1 X90.807 Y56.597 E23.22878
G1 X93.106 Y58.176 E23.33552
G1 X95.053 Y59.439 E23.42433
G1 X95.784 Y59.901 E23.45743
G1 X96.21 Y60.237 E23.47819
G1 X96.617 Y60.622 E23.49963
G1 X97.958 Y61.923 E23.57113
G1 X99.371 Y63.334 E23.64755
G1 X99.818 Y63.788 E23.67194
G1 X101.118 Y65.09 E23.74235
G1 X101.487 Y65.474 E23.76273
G1 X101.785 Y65.781 E23.7791
G1 X102.723 Y66.852 E23.83359
G1 X102.921 Y67.084 E23.84526
G1 X104.787 Y69.145 E23.95166
G1 X106.678 Y71.119 E24.05627
G1 X108.647 Y73.058 E24.16203
G1 X110.663 Y74.938 E24.26752
G1 X112.755 Y76.778 E24.37414
G1 X114.84 Y78.511 E24.47789
G1 X117.017 Y80.218 E24.58376
G1 X119.257 Y81.875 E24.69039
G1 X121.5 Y83.439 E24.79504
G1 X123.802 Y84.948 E24.90038
G1 X126.154 Y86.397 E25.0061
G1 X128.556 Y87.783 E25.11223
G1 X130.966 Y89.086 E25.21707
G1 X133.421 Y90.325 E25.32231
G1 X134.793 Y90.96 E25.38017
G1 X136.105 Y91.588 E25.43583
G1 X136.348 Y91.722 E25.44645
G1 X137.082 Y92.178 E25.47952
G1 X137.594 Y92.485 E25.50237
G1 X137.671 Y92.541 E25.50601
G1 X138.794 Y93.231 E25.55645
G1 X139.154 Y93.499 E25.57363
G1 X139.398 Y93.749 E25.587
G1 X139.927 Y94.373 E25.6183
G1 X140.308 Y94.86 E25.64197
G1 X140.516 Y95.157 E25.65584
G1 X141.657 Y96.834 E25.73347
G1 X143.276 Y99.072 E25.83918
G1 X144.968 Y101.275 E25.94548
G1 X146.695 Y103.4 E26.05027
G1 X148.492 Y105.488 E26.1557
G1 X150.357 Y107.532 E26.26159
G1 X152.258 Y109.502 E26.36636
G1 X154.251 Y111.453 E26.47309
G1 X156.251 Y113.306 E26.57743
G1 X158.338 Y115.128 E26.68345
G1 X160.478 Y116.895 E26.78966
G1 X162.625 Y118.567 E26.8938
G1 X164.862 Y120.211 E27.00004
G1 X167.127 Y121.777 E27.10542
G1 X169.426 Y123.274 E27.21041
G1 X171.809 Y124.73 E27.31728
G1 X174.169 Y126.082 E27.42137
G1 X177.176 Y127.683 E27.55174
G1 X177.891 Y128.048 E27.58246
G1 X178.271 Y128.287 E27.59964
G1 X178.603 Y128.59 E27.61684
G1 X178.876 Y128.946 E27.63401
G1 X179.15 Y129.534 E27.65884
G1 X179.254 Y129.867 E27.67219
G1 X179.469 Y130.618 E27.70208
G1 X179.668 Y131.361 E27.73152
G1 X179.721 Y131.605 E27.74108
G1 X180.184 Y134.424 E27.8504
G1 X180.706 Y137.121 E27.95553
G1 X181.301 Y139.789 E28.06014
G1 X181.978 Y142.469 E28.16593
G1 X182.73 Y145.12 E28.27138
G1 X183.565 Y147.78 E28.37808
G1 X184.463 Y150.378 E28.48327
G1 X184.982 Y151.781 E28.54052
G1 X185.283 Y152.578 E28.57312
G1 X185.404 Y153.01 E28.59029
G1 X185.446 Y153.457 E28.60748
G1 X185.408 Y153.905 E28.62468
G1 X185.292 Y154.338 E28.64184
G1 X185.101 Y154.745 E28.65904
G1 X184.84 Y155.111 E28.67625
G1 X184.519 Y155.425 E28.69343
G1 X184.005 Y155.76 E28.71691
G1 X181.938 Y156.9 E28.80725
G1 X179.569 Y158.296 E28.91248
G1 X177.237 Y159.762 E29.01789
G1 X174.923 Y161.307 E29.12437
G1 X172.706 Y162.882 E29.22844
G1 X170.507 Y164.538 E29.33379
G1 X167.333 Y167.107 E29.49006
G1 X166.687 Y167.59 E29.52093
G1 X166.449 Y167.722 E29.53135
G1 X165.535 Y168.192 E29.57068
G1 X164.944 Y168.474 E29.59574
G1 X164.367 Y168.698 E29.61943
G1 X163.756 Y168.867 E29.64369
G1 X162.419 Y169.218 E29.69659
G1 X161.743 Y169.375 E29.72314
G1 X161.192 Y169.455 E29.74445
G1 X160.594 Y169.498 E29.7674
G1 X159.614 Y169.533 E29.80492
G1 X156.828 Y169.71 E29.91176
G1 X154.123 Y169.959 E30.01572
G1 X151.338 Y170.295 E30.12307
G1 X148.663 Y170.694 E30.22657
G1 X145.898 Y171.187 E30.33406
G1 X143.265 Y171.734 E30.43697
G1 X140.529 Y172.383 E30.54458
G1 X137.886 Y173.091 E30.64929
G1 X135.223 Y173.884 E30.75563
G1 X132.621 Y174.742 E30.86048
G1 X130.018 Y175.681 E30.96638
G1 X127.47 Y176.682 E31.07114
G1 X124.915 Y177.771 E31.17743
G1 X122.403 Y178.926 E31.28324
G1 X119.941 Y180.143 E31.38834
G1 X119.488 Y180.385 E31.408
G1 X118.805 Y180.735 E31.43737
G1 X117.41 Y181.461 E31.49755
G1 X116.614 Y181.841 E31.53131
G1 X115.955 Y182.064 E31.55793
G1 X114.815 Y182.36 E31.60301
G1 X114.049 Y182.567 E31.63337
G1 X113.824 Y182.616 E31.64219
G1 X113.14 Y182.735 E31.66875
G1 X112.467 Y182.776 E31.69456
G1 X111.946 Y182.749 E31.71452
G1 X111.673 Y182.725 E31.72501
G1 X110.442 Y182.587 E31.77242
G1 X107.665 Y182.316 E31.87919
G1 X104.915 Y182.125 E31.98469
G1 X102.16 Y182.012 E32.09021
G1 X99.405 Y181.976 E32.19565
G1 X96.651 Y182.019 E32.30106
G1 X93.86 Y182.142 E32.40797
G1 X91.147 Y182.338 E32.51207
G1 X88.399 Y182.615 E32.61777
G1 X85.746 Y182.958 E32.72014
G1 X85.222 Y183.033 E32.7404
G1 X84.773 Y183.056 E32.7576
G1 X84.328 Y183 E32.77477
G1 X83.899 Y182.866 E32.79197
G1 X83.501 Y182.659 E32.80914
G1 X83.038 Y182.287 E32.83187
G1 X82.741 Y182.006 E32.84751
G1 X11.515 Y112.889 E36.64571
G1 X11.011 Y112.388 E36.67291
G1 X10.722 Y112.044 E36.6901
G1 X10.498 Y111.655 E36.70728
G1 X10.347 Y111.232 E36.72447
G1 X10.273 Y110.789 E36.74166
G1 X10.318 Y110.086 E36.76862
G1 X10.343 Y109.965 E36.77334
G1 X10.87 Y107.221 E36.88028
G1 X11.302 Y104.562 E36.98337
G1 X11.677 Y101.768 E37.09125
G1 X11.959 Y99.083 E37.19457
G1 X12.174 Y96.295 E37.30158
G1 X12.305 Y93.578 E37.40568
G1 X12.361 Y90.789 E37.51244
G1 X12.338 Y88.046 E37.61741
G1 X12.281 Y86.224 E37.68718
G1 X12.251 Y85.499 E37.71494
G1 X12.29 Y84.906 E37.73769
G1 X12.367 Y84.447 E37.7555
G1 X12.611 Y83.367 E37.79787
G1 X12.645 Y83.263 E37.80206
G1 X12.948 Y81.974 E37.85273
G1 X13.143 Y81.375 E37.87684
G1 X13.419 Y80.698 E37.90482
G1 X14.717 Y78.223 E38.01177
G1 X15.938 Y75.723 E38.11825
G1 X17.073 Y73.222 E38.22335
G1 X18.154 Y70.649 E38.33016
G1 X19.132 Y68.122 E38.43386
G1 X20.072 Y65.474 E38.54139
G1 X20.917 Y62.861 E38.64649
G1 X21.679 Y60.257 E38.75032
G1 X22.392 Y57.537 E38.85793
G1 X23.015 Y54.86 E38.96311
G1 X23.552 Y52.194 E39.06719
G1 X24.026 Y49.462 E39.1733
G1 X24.421 Y46.727 E39.27906
G1 X24.735 Y43.996 E39.38426
G1 X24.972 Y41.281 E39.48856
G1 X25.134 Y38.501 E39.59513
G1 X25.17 Y37.429 E39.63617
G1 X25.202 Y36.809 E39.65993
G1 X25.29 Y36.114 E39.68674
G1 X25.606 Y34.805 E39.73828
G1 X25.615 Y34.74 E39.74079
G1 X25.782 Y34.085 E39.76666
G1 X25.964 Y33.425 E39.79286
G1 X26.15 Y32.898 E39.81424
G1 X26.471 Y32.207 E39.8434
G1 X27.126 Y31.173 E39.89024
G1 X27.806 Y30.12 E39.93821
G1 X29.223 Y27.784 E40.04277
G1 X30.6 Y25.358 E40.14953
G1 X31.905 Y22.903 E40.25593
G1 X33.108 Y20.476 E40.35959
G1 X34.271 Y17.953 E40.46591
G1 X35.342 Y15.444 E40.57031
G0 F1285.7 X35.67 Y15.567
G1 F900 X36.757 Y12.804 E40.68394
G1 X36.946 Y12.432 E40.69991
G1 X37.202 Y12.104 E40.71583
G1 X37.517 Y11.83 E40.73181
G1 X37.877 Y11.622 E40.74772
G1 X38.271 Y11.486 E40.76367
G1 X38.683 Y11.427 E40.7796
G1 X39.1 Y11.448 E40.79558
G1 X39.504 Y11.549 E40.81151
G1 X39.882 Y11.724 E40.82745
G1 X40.206 Y11.956 E40.8427
G1 X40.934 Y12.587 E40.87957
G1 X43.059 Y14.374 E40.98583
G1 X45.206 Y16.08 E41.09077
G1 X47.446 Y17.756 E41.19784
