;FLAVOR:Marlin
;TIME:23125
;Filament used: 23.8737m
;Layer height: 0.3
;MINX:6.905
;MINY:27.592
;MINZ:0.26
;MAXX:200.195
;MAXY:189.979
;MAXZ:23.66
;Generated with Cura_SteamEngine 4.9.1
M82 ;absolute extrusion mode
;Begin Start Gcode for Dagoma DiscoEasy 200
;Sliced: 30-06-2021 14:16:27
;Initial extruder: 0

G90 ;Absolute positioning
M106 S255 ;Fan on full
G28 X Y ;Home stop X Y
G1 X100 ;Centre back during cooldown in case of oozing
M109 R90 ;Cooldown in case too hot
G28 ;Centre
G29 ;Auto-level
M104 S205 ;Pre-heat
M107 ;Fan off
G0 X100 Y5 Z0.5 ;Front centre for degunk
M109 S205 ;Wait for initial temp
M83 ;E Relative
G1 E10 F200 ;Degunk
G1 E-3 F5000 ;Retract
G0 Z3 ;Withdraw
M82 ;E absolute
G92 E0 ;E reset
G1 F6000 ;Set feedrate

;Finish Start Gcode for Dagoma DiscoEasy 200

G92 E0
G92 E0
G1 F3000 E-3.5
;LAYER_COUNT:79
;LAYER:0
M107
G0 F1285.7 X34.564 Y29.197 Z0.26
;TYPE:SKIRT
G1 F3000 E0
G1 F900 X34.924 Y28.773 E0.02129
G1 X35.341 Y28.405 E0.04257
G1 X35.806 Y28.1 E0.06385
G1 X36.311 Y27.865 E0.08517
G1 X36.843 Y27.704 E0.10644
G1 X37.62 Y27.611 E0.13639
G1 X38.654 Y27.592 E0.17596
G1 X137.796 Y27.592 E3.97008
G1 X138.495 Y27.602 E3.99683
G1 X139.05 Y27.65 E4.01815
G1 X139.592 Y27.777 E4.03946
G1 X140.11 Y27.98 E4.06075
G1 X140.593 Y28.255 E4.08202
G1 X141.032 Y28.597 E4.10332
G1 X141.418 Y28.998 E4.12462
G1 X141.743 Y29.45 E4.14592
G1 X141.999 Y29.944 E4.16721
G1 X142.159 Y30.388 E4.18528
G1 X142.392 Y31.184 E4.21702
G1 X142.721 Y32.372 E4.26419
G1 X143.523 Y34.982 E4.36868
G1 X144.385 Y37.529 E4.47159
G1 X145.332 Y40.086 E4.57594
G1 X146.358 Y42.628 E4.68084
G1 X147.434 Y45.098 E4.78395
G1 X148.605 Y47.587 E4.88922
G1 X149.818 Y49.987 E4.99213
G1 X151.544 Y53.142 E5.12976
G1 X160.753 Y69.255 E5.84
G1 X162.135 Y71.597 E5.94407
G1 X163.576 Y73.888 E6.04764
G1 X165.102 Y76.169 E6.15267
G1 X166.683 Y78.393 E6.2571
G1 X168.315 Y80.555 E6.36076
G1 X170.01 Y82.674 E6.46461
G1 X171.755 Y84.733 E6.56789
G1 X173.432 Y86.608 E6.66416
G1 X174.184 Y87.427 E6.70671
G1 X174.706 Y88.095 E6.73916
G1 X175.109 Y88.673 E6.76612
G1 X175.448 Y89.235 E6.79124
G1 X176.903 Y91.757 E6.90267
G1 X177.205 Y92.295 E6.92628
G1 X177.345 Y92.569 E6.93805
G1 X177.565 Y93.148 E6.96176
G1 X177.64 Y93.407 E6.97208
G1 X178.444 Y96.034 E7.07721
G1 X179.328 Y98.654 E7.18303
G1 X180.26 Y101.176 E7.28593
G1 X181.274 Y103.701 E7.39006
G1 X182.365 Y106.212 E7.49483
G1 X183.513 Y108.657 E7.5982
G1 X184.742 Y111.098 E7.70279
G1 X186.495 Y114.306 E7.84269
G1 X199.367 Y136.832 E8.83557
G1 X199.718 Y137.465 E8.86327
G1 X199.952 Y137.97 E8.88457
G1 X200.112 Y138.503 E8.90587
G1 X200.193 Y139.053 E8.92714
G1 X200.195 Y139.609 E8.94842
G1 X200.117 Y140.16 E8.96972
G1 X199.961 Y140.695 E8.99104
G1 X199.73 Y141.201 E9.01233
G1 X199.429 Y141.669 E9.03362
G1 X199.064 Y142.089 E9.05492
G1 X198.643 Y142.452 E9.07619
G1 X198.174 Y142.752 E9.0975
G1 X197.667 Y142.981 E9.11879
G1 X197.132 Y143.135 E9.14009
G1 X196.508 Y143.215 E9.16417
G1 X196.312 Y143.222 E9.17168
G1 X195.751 Y143.229 E9.19315
G1 X195.453 Y143.229 E9.20455
G1 X192.682 Y143.268 E9.31061
G1 X189.935 Y143.385 E9.41583
G1 X187.257 Y143.575 E9.51857
G1 X184.561 Y143.842 E9.62225
G1 X181.833 Y144.191 E9.7275
G1 X179.175 Y144.609 E9.83047
G1 X176.47 Y145.111 E9.93576
G1 X173.843 Y145.677 E10.0386
G1 X171.224 Y146.32 E10.1418
G1 X168.557 Y147.052 E10.24764
G1 X165.986 Y147.84 E10.35055
G1 X163.394 Y148.714 E10.45523
G1 X160.833 Y149.659 E10.5597
G1 X158.31 Y150.671 E10.66373
G1 X155.849 Y151.743 E10.76646
G1 X153.355 Y152.912 E10.87187
G1 X150.918 Y154.139 E10.97629
G1 X148.558 Y155.413 E11.07892
G1 X146.199 Y156.774 E11.18315
G1 X143.875 Y158.204 E11.28757
G1 X141.603 Y159.691 E11.39149
G1 X139.375 Y161.243 E11.4954
G1 X137.164 Y162.877 E11.60061
G1 X135.051 Y164.533 E11.70335
G1 X132.949 Y166.278 E11.8079
G1 X130.915 Y168.066 E11.91154
G1 X128.909 Y169.932 E12.01639
G1 X126.982 Y171.831 E12.11993
G1 X125.108 Y173.784 E12.22351
G1 X123.252 Y175.832 E12.32928
G1 X121.516 Y177.859 E12.43142
G1 X119.792 Y179.993 E12.5364
G1 X118.156 Y182.139 E12.63967
G1 X116.56 Y184.358 E12.74428
G1 X114.447 Y187.516 E12.88969
G1 X114.022 Y188.181 E12.91989
G1 X113.689 Y188.627 E12.94119
G1 X113.296 Y189.021 E12.96249
G1 X112.851 Y189.355 E12.98378
G1 X112.362 Y189.621 E13.00509
G1 X111.841 Y189.814 E13.02635
G1 X111.297 Y189.931 E13.04764
G1 X110.729 Y189.972 E13.06944
G1 X110.168 Y189.979 E13.09091
G1 X11.413 Y189.979 E16.87021
G1 X10.723 Y189.969 E16.89662
G1 X10.169 Y189.921 E16.9179
G1 X9.627 Y189.794 E16.93921
G1 X9.109 Y189.591 E16.9605
G1 X8.625 Y189.315 E16.98182
G1 X8.186 Y188.974 E17.00309
G1 X7.8 Y188.573 E17.0244
G1 X7.476 Y188.12 E17.04571
G1 X7.22 Y187.626 E17.067
G1 X7.037 Y187.101 E17.08828
G1 X6.931 Y186.555 E17.10956
G1 X6.905 Y185.999 E17.13087
G1 X6.959 Y185.445 E17.15217
G1 X7.091 Y184.905 E17.17344
G1 X7.295 Y184.397 E17.19439
G1 X7.41 Y184.174 E17.20399
G1 X7.73 Y183.599 E17.22918
G1 X20.505 Y161.243 E18.21456
G1 X21.817 Y158.868 E18.3184
G1 X23.073 Y156.437 E18.42312
G1 X24.234 Y154.026 E18.52553
G1 X25.363 Y151.498 E18.63148
G1 X26.399 Y148.995 E18.73515
G1 X27.356 Y146.474 E18.83834
G1 X28.262 Y143.872 E18.94379
G1 X29.251 Y140.716 E19.07036
G1 X29.445 Y140.058 E19.09661
G1 X29.71 Y139.393 E19.124
G1 X30.059 Y138.752 E19.15194
G1 X30.443 Y138.082 E19.18149
G1 X30.493 Y137.982 E19.18577
G1 X31.892 Y135.533 E19.2937
G1 X32.004 Y135.35 E19.30191
G1 X32.353 Y134.811 E19.32649
G1 X33.825 Y132.465 E19.43248
G1 X35.196 Y130.136 E19.5359
G1 X36.526 Y127.724 E19.64131
G1 X37.749 Y125.349 E19.74355
G1 X38.939 Y122.87 E19.84878
G1 X40.04 Y120.396 E19.95241
G1 X41.085 Y117.859 E20.05742
G1 X42.045 Y115.334 E20.16079
G1 X42.931 Y112.776 E20.26439
G1 X43.753 Y110.175 E20.36878
G1 X44.5 Y107.552 E20.47316
G1 X45.171 Y104.916 E20.57725
G1 X45.769 Y102.253 E20.6817
G1 X46.28 Y99.631 E20.78393
G1 X46.731 Y96.911 E20.88945
G1 X47.1 Y94.221 E20.99336
G1 X47.39 Y91.55 E21.09617
G1 X47.608 Y88.812 E21.20129
G1 X47.747 Y86.099 E21.30525
G1 X47.81 Y83.384 E21.40918
G1 X47.795 Y80.67 E21.51304
G1 X47.704 Y77.951 E21.61716
G1 X47.535 Y75.214 E21.7221
G1 X47.293 Y72.54 E21.82485
G1 X46.968 Y69.806 E21.93022
G1 X46.578 Y67.166 E22.03235
G1 X46.097 Y64.449 E22.13794
G1 X45.554 Y61.803 E22.24131
G1 X44.933 Y59.172 E22.34477
G1 X44.225 Y56.508 E22.45025
G1 X43.464 Y53.941 E22.55272
G1 X42.603 Y51.311 E22.65862
G1 X41.688 Y48.762 E22.76227
G1 X40.704 Y46.247 E22.86562
G1 X39.647 Y43.756 E22.96918
G1 X38.508 Y41.269 E23.07386
G1 X37.307 Y38.83 E23.1779
G1 X36.038 Y36.43 E23.2818
G1 X35.01 Y34.621 E23.36142
G1 X34.963 Y34.522 E23.36562
G1 X34.326 Y33.405 E23.41483
G1 X34.086 Y32.903 E23.43612
G1 X33.92 Y32.372 E23.45741
G1 X33.832 Y31.822 E23.47873
G1 X33.823 Y31.266 E23.50001
G1 X33.894 Y30.714 E23.52131
G1 X34.044 Y30.178 E23.54261
G1 X34.269 Y29.669 E23.56391
G1 X34.564 Y29.197 E23.58521
G0 F1285.7 X34.967 Y29.249
G1 F900 X35.334 Y28.865 E23.60553
G1 X35.754 Y28.541 E23.62583
G1 X36.218 Y28.283 E23.64615
G1 X36.715 Y28.098 E23.66645
G1 X37.234 Y27.99 E23.68673
G1 X37.626 Y27.961 E23.70178
G1 X38.654 Y27.942 E23.74112
G1 X137.791 Y27.942 E27.53505
G1 X138.49 Y27.952 E27.5618
G1 X139.019 Y28 E27.58213
G1 X139.534 Y28.126 E27.60242
G1 X140.025 Y28.328 E27.62274
G1 X140.48 Y28.602 E27.64307
G1 X140.888 Y28.941 E27.66337
G1 X141.241 Y29.337 E27.68367
G1 X141.531 Y29.782 E27.70399
G1 X141.823 Y30.486 E27.73316
G1 X142.054 Y31.278 E27.76473
G1 X142.383 Y32.468 E27.81198
G1 X143.182 Y35.065 E27.91597
G1 X144.058 Y37.652 E28.02049
G1 X145.011 Y40.227 E28.12557
G1 X146.032 Y42.757 E28.22998
G1 X147.116 Y45.245 E28.33384
G1 X148.282 Y47.723 E28.43864
G1 X149.512 Y50.156 E28.54297
G1 X151.229 Y53.294 E28.67986
G1 X160.429 Y69.394 E29.3895
G1 X161.844 Y71.791 E29.49603
G1 X163.296 Y74.1 E29.60041
G1 X164.806 Y76.357 E29.70433
G1 X166.399 Y78.596 E29.80949
G1 X168.029 Y80.758 E29.91311
G1 X169.75 Y82.909 E30.01853
G1 X171.509 Y84.984 E30.12264
G1 X173.143 Y86.81 E30.21641
G1 X173.926 Y87.663 E30.26072
G1 X174.424 Y88.304 E30.29179
G1 X174.813 Y88.86 E30.31775
G1 X175.147 Y89.414 E30.34251
G1 X176.598 Y91.929 E30.45363
G1 X176.9 Y92.467 E30.47724
G1 X177.029 Y92.72 E30.48811
G1 X177.229 Y93.246 E30.50964
G1 X177.306 Y93.509 E30.52013
G1 X178.124 Y96.18 E30.62703
G1 X178.989 Y98.744 E30.73059
G1 X179.939 Y101.316 E30.83552
G1 X180.948 Y103.829 E30.93915
G1 X182.053 Y106.371 E31.04523
G1 X183.196 Y108.807 E31.14821
G1 X184.429 Y111.255 E31.2531
G1 X186.192 Y114.48 E31.39376
G1 X199.061 Y137.002 E32.38645
G1 X199.412 Y137.635 E32.41415
G1 X199.633 Y138.117 E32.43444
G1 X199.78 Y138.627 E32.45475
G1 X199.849 Y139.153 E32.47505
G1 X199.838 Y139.683 E32.49534
G1 X199.747 Y140.206 E32.51566
G1 X199.579 Y140.71 E32.53599
G1 X199.337 Y141.182 E32.55629
G1 X199.027 Y141.613 E32.5766
G1 X198.656 Y141.992 E32.5969
G1 X198.232 Y142.311 E32.61721
G1 X197.765 Y142.563 E32.63751
G1 X197.265 Y142.742 E32.65784
G1 X196.492 Y142.865 E32.68779
G1 X196.308 Y142.872 E32.69484
G1 X195.747 Y142.879 E32.71631
G1 X195.448 Y142.879 E32.72775
G1 X192.662 Y142.918 E32.83438
G1 X189.93 Y143.034 E32.93903
G1 X187.236 Y143.225 E33.04238
G1 X184.478 Y143.499 E33.14845
G1 X181.808 Y143.84 E33.25146
G1 X179.126 Y144.262 E33.35536
G1 X176.408 Y144.767 E33.46116
G1 X173.747 Y145.34 E33.56533
G1 X171.123 Y145.984 E33.66873
G1 X168.494 Y146.706 E33.77306
G1 X165.85 Y147.516 E33.87889
G1 X163.272 Y148.385 E33.983
G1 X160.711 Y149.33 E34.08747
G1 X158.195 Y150.34 E34.19123
G1 X155.689 Y151.431 E34.29582
G1 X153.19 Y152.602 E34.40144
G1 X150.764 Y153.824 E34.50539
G1 X148.402 Y155.1 E34.60813
G1 X146 Y156.484 E34.71422
G1 X143.695 Y157.903 E34.81781
G1 X141.397 Y159.407 E34.92291
G1 X139.175 Y160.955 E35.02655
G1 X136.972 Y162.583 E35.13138
G1 X134.821 Y164.268 E35.23595
G1 X132.722 Y166.012 E35.34038
G1 X130.674 Y167.812 E35.44473
G1 X128.673 Y169.674 E35.54933
G1 X126.731 Y171.586 E35.65363
G1 X124.842 Y173.555 E35.75805
G1 X123.008 Y175.58 E35.86261
G1 X121.244 Y177.64 E35.96639
G1 X119.504 Y179.793 E36.07233
G1 X117.87 Y181.937 E36.1755
G1 X116.283 Y184.143 E36.27949
G1 X114.167 Y187.305 E36.4251
G1 X113.727 Y187.993 E36.45635
G1 X113.408 Y188.417 E36.47666
G1 X113.03 Y188.789 E36.49695
G1 X112.599 Y189.099 E36.51727
G1 X112.127 Y189.342 E36.53759
G1 X111.624 Y189.511 E36.55789
G1 X110.896 Y189.616 E36.58604
G1 X110.725 Y189.622 E36.59259
G1 X110.164 Y189.629 E36.61406
G1 X11.418 Y189.629 E40.39302
G1 X10.728 Y189.619 E40.41943
G1 X10.199 Y189.571 E40.43976
G1 X9.684 Y189.445 E40.46005
G1 X9.193 Y189.242 E40.48038
G1 X8.739 Y188.969 E40.50066
G1 X8.33 Y188.63 E40.52099
G1 X7.978 Y188.233 E40.54129
G1 X7.688 Y187.789 E40.56159
G1 X7.469 Y187.305 E40.58192
G1 X7.324 Y186.795 E40.60221
G1 X7.258 Y186.268 E40.62253
G1 X7.272 Y185.738 E40.64282
G1 X7.365 Y185.215 E40.66315
G1 X7.61 Y184.55 E40.69027
G1 X7.716 Y184.344 E40.69914
G1 X8.033 Y183.773 E40.72413
G1 X20.808 Y161.417 E41.70952
G1 X22.121 Y159.043 E41.81334
G1 X23.386 Y156.593 E41.91886
G1 X24.562 Y154.15 E42.02262
G1 X25.673 Y151.663 E42.12687
G1 X26.725 Y149.123 E42.23208
G1 X27.693 Y146.57 E42.33657
G1 X28.578 Y144.029 E42.43954
G1 X29.604 Y140.757 E42.57077
G1 X29.781 Y140.157 E42.59471
G1 X30.022 Y139.552 E42.61963
G1 X30.364 Y138.923 E42.64703
G1 X30.773 Y138.208 E42.67855
G1 X30.797 Y138.156 E42.68075
G1 X32.196 Y135.707 E42.78868
G1 X32.298 Y135.54 E42.79617
G1 X32.645 Y135.003 E42.82064
G1 X34.126 Y132.643 E42.92727
G1 X35.513 Y130.286 E43.03193
G1 X36.824 Y127.91 E43.13578
G1 X38.07 Y125.49 E43.23994
G1 X39.254 Y123.021 E43.34473
G1 X40.364 Y120.529 E43.44913
G1 X41.404 Y118.005 E43.55361
G1 X42.378 Y115.442 E43.65853
G1 X43.267 Y112.875 E43.7625
G1 X44.089 Y110.276 E43.86681
G1 X44.832 Y107.666 E43.97067
G1 X45.519 Y104.969 E44.07718
G1 X46.104 Y102.362 E44.17942
G1 X46.632 Y99.651 E44.28512
G1 X47.075 Y96.981 E44.3887
G1 X47.447 Y94.267 E44.49353
G1 X47.738 Y91.58 E44.59697
G1 X47.958 Y88.823 E44.70281
G1 X48.097 Y86.125 E44.8062
G1 X48.16 Y83.39 E44.91089
G1 X48.145 Y80.656 E45.01552
G1 X48.053 Y77.919 E45.12033
G1 X47.888 Y75.231 E45.22339
G1 X47.637 Y72.463 E45.32975
G1 X47.319 Y69.787 E45.43288
G1 X46.921 Y67.089 E45.53725
G1 X46.443 Y64.393 E45.64203
G1 X45.9 Y61.746 E45.74544
G1 X45.27 Y59.078 E45.85035
G1 X44.566 Y56.429 E45.95525
G1 X43.787 Y53.801 E46.06015
G1 X42.94 Y51.215 E46.16429
G1 X42.027 Y48.67 E46.26776
G1 X41.014 Y46.082 E46.37412
G1 X39.968 Y43.615 E46.47666
G1 X38.821 Y41.111 E46.58207
G1 X37.61 Y38.654 E46.6869
G1 X36.36 Y36.288 E46.7893
G1 X35.314 Y34.448 E46.8703
G1 X35.267 Y34.347 E46.87456
G1 X34.63 Y33.231 E46.92374
G1 X34.402 Y32.752 E46.94404
G1 X34.25 Y32.244 E46.96433
G1 X34.175 Y31.718 E46.98467
G1 X34.18 Y31.188 E47.00495
G1 X34.264 Y30.664 E47.02526
G1 X34.426 Y30.158 E47.04559
G1 X34.662 Y29.683 E47.06589
G1 X34.967 Y29.249 E47.08619
G0 F1285.7 X35.059 Y29.71
G1 F900 X35.373 Y29.316 E47.10547
G1 X35.745 Y28.977 E47.12473
G1 X36.166 Y28.701 E47.144
G1 X36.626 Y28.494 E47.1633
G1 X37.112 Y28.363 E47.18256
G1 X37.633 Y28.311 E47.2026
G1 X38.654 Y28.292 E47.24168
G1 X137.786 Y28.292 E51.03542
G1 X138.485 Y28.302 E51.06217
G1 X138.987 Y28.349 E51.08146
G1 X139.474 Y28.475 E51.10072
G1 X139.936 Y28.677 E51.12001
G1 X140.36 Y28.948 E51.13927
G1 X140.736 Y29.284 E51.15857
G1 X141.054 Y29.674 E51.17782
G1 X141.306 Y30.11 E51.1971
G1 X141.487 Y30.585 E51.21655
G1 X141.717 Y31.371 E51.24789
G1 X142.047 Y32.563 E51.29522
G1 X142.858 Y35.202 E51.40088
G1 X143.729 Y37.775 E51.50483
G1 X144.683 Y40.349 E51.60989
G1 X145.706 Y42.886 E51.71457
G1 X146.798 Y45.391 E51.81915
G1 X147.972 Y47.888 E51.92475
G1 X149.193 Y50.302 E52.02827
G1 X150.925 Y53.468 E52.16638
G1 X160.15 Y69.61 E52.87789
G1 X161.542 Y71.97 E52.98275
G1 X162.999 Y74.286 E53.08746
G1 X164.526 Y76.568 E53.19254
G1 X166.101 Y78.783 E53.29655
G1 X167.77 Y80.994 E53.40256
G1 X169.458 Y83.105 E53.506
G1 X171.246 Y85.215 E53.61184
G1 X172.885 Y87.047 E53.70592
G1 X173.668 Y87.9 E53.75023
G1 X174.143 Y88.512 E53.77988
G1 X174.517 Y89.047 E53.80486
G1 X174.846 Y89.593 E53.82925
G1 X176.293 Y92.1 E53.94003
G1 X176.595 Y92.638 E53.96364
G1 X176.713 Y92.87 E53.9736
G1 X176.893 Y93.344 E53.993
G1 X176.971 Y93.612 E54.00369
G1 X177.789 Y96.284 E54.11063
G1 X178.66 Y98.866 E54.21491
G1 X179.61 Y101.438 E54.31984
G1 X180.622 Y103.957 E54.42373
G1 X181.735 Y106.517 E54.53056
G1 X182.866 Y108.929 E54.63251
G1 X184.116 Y111.411 E54.73886
G1 X185.901 Y114.677 E54.8813
G1 X198.755 Y137.171 E55.87277
G1 X199.106 Y137.804 E55.90047
G1 X199.314 Y138.263 E55.91975
G1 X199.448 Y138.748 E55.93901
G1 X199.503 Y139.249 E55.9583
G1 X199.478 Y139.752 E55.97757
G1 X199.374 Y140.245 E55.99685
G1 X199.193 Y140.715 E56.01613
G1 X198.94 Y141.15 E56.03539
G1 X198.622 Y141.54 E56.05464
G1 X198.246 Y141.875 E56.07391
G1 X197.821 Y142.146 E56.0932
G1 X197.359 Y142.347 E56.11249
G1 X196.872 Y142.472 E56.13173
G1 X196.304 Y142.522 E56.15355
G1 X195.743 Y142.529 E56.17502
G1 X195.443 Y142.529 E56.1865
G1 X192.644 Y142.569 E56.29363
G1 X189.927 Y142.684 E56.3977
G1 X187.209 Y142.877 E56.50198
G1 X184.438 Y143.151 E56.60854
G1 X181.778 Y143.492 E56.71117
G1 X179.042 Y143.922 E56.81716
G1 X176.339 Y144.424 E56.92237
G1 X173.666 Y144.999 E57.02701
G1 X171.049 Y145.642 E57.13014
G1 X168.377 Y146.376 E57.23618
G1 X165.736 Y147.184 E57.34187
G1 X163.182 Y148.046 E57.44503
G1 X160.571 Y149.009 E57.55153
G1 X158.054 Y150.019 E57.65532
G1 X155.557 Y151.106 E57.75954
G1 X153.056 Y152.279 E57.86526
G1 X150.611 Y153.51 E57.97002
G1 X148.176 Y154.825 E58.07593
G1 X145.853 Y156.164 E58.17854
G1 X143.489 Y157.619 E58.28477
G1 X141.215 Y159.108 E58.38879
G1 X138.977 Y160.667 E58.49317
G1 X136.736 Y162.323 E58.59981
G1 X134.612 Y163.986 E58.70304
G1 X132.494 Y165.745 E58.8084
G1 X130.435 Y167.557 E58.91337
G1 X128.436 Y169.416 E59.01784
G1 X126.48 Y171.342 E59.12289
G1 X124.596 Y173.307 E59.22707
G1 X122.749 Y175.345 E59.33233
G1 X120.952 Y177.443 E59.43804
G1 X119.25 Y179.549 E59.54167
G1 X117.574 Y181.747 E59.64745
G1 X115.994 Y183.944 E59.75101
G1 X113.858 Y187.138 E59.89806
G1 X113.432 Y187.804 E59.92831
G1 X113.128 Y188.206 E59.9476
G1 X112.764 Y188.554 E59.96687
