;FLAVOR:Marlin
;TIME:23182
;Filament used: 23.86m
;Layer height: 0.3
;MINX:2.596
;MINY:26.083
;MINZ:0.26
;MAXX:200.171
;MAXY:173.515
;MAXZ:23.66
;Generated with Cura_SteamEngine 4.9.1
M82 ;absolute extrusion mode
;Begin Start Gcode for Dagoma DiscoEasy 200
;Sliced: 29-06-2021 20:10:09
;Initial extruder: 0

G90 ;Absolute positioning
M106 S255 ;Fan on full
G28 X Y ;Home stop X Y
G1 X100 ;Centre back during cooldown in case of oozing
M109 R90 ;Cooldown in case too hot
G28 ;Centre
G29 ;Auto-level
M104 S205 ;Pre-heat
M107 ;Fan off
G0 X100 Y5 Z0.5 ;Front centre for degunk
M109 S205 ;Wait for initial temp
M83 ;E Relative
G1 E10 F200 ;Degunk
G1 E-3 F5000 ;Retract
G0 Z3 ;Withdraw
M82 ;E absolute
G92 E0 ;E reset
G1 F6000 ;Set feedrate

;Finish Start Gcode for Dagoma DiscoEasy 200

G92 E0
G92 E0
G1 F3000 E-3.5
;LAYER_COUNT:79
;LAYER:0
M107
G0 F1285.7 X43.028 Y27.882 Z0.26
;TYPE:SKIRT
G1 F3000 E0
G1 F900 X43.361 Y27.436 E0.0213
G1 X43.755 Y27.043 E0.0426
G1 X44.201 Y26.711 E0.06388
G1 X44.691 Y26.446 E0.08519
G1 X45.213 Y26.253 E0.10649
G1 X45.757 Y26.138 E0.12777
G1 X46.216 Y26.102 E0.14539
G1 X47.255 Y26.083 E0.18516
G1 X146.398 Y26.083 E3.97931
G1 X147.096 Y26.093 E4.00603
G1 X147.65 Y26.141 E4.02731
G1 X148.192 Y26.268 E4.04861
G1 X148.71 Y26.471 E4.06991
G1 X149.193 Y26.746 E4.09118
G1 X149.632 Y27.088 E4.11247
G1 X150.018 Y27.489 E4.13377
G1 X150.343 Y27.941 E4.15508
G1 X150.599 Y28.435 E4.17637
G1 X150.782 Y28.96 E4.19765
G1 X150.909 Y29.747 E4.22816
G1 X150.949 Y30.465 E4.25568
G1 X151.006 Y31.79 E4.30643
G1 X151.2 Y34.504 E4.41056
G1 X151.473 Y37.236 E4.51563
G1 X151.815 Y39.894 E4.61819
G1 X152.244 Y42.613 E4.72353
G1 X152.737 Y45.255 E4.82639
G1 X153.314 Y47.925 E4.93092
G1 X153.964 Y50.575 E5.03534
G1 X154.677 Y53.161 E5.138
G1 X155.492 Y55.816 E5.24429
G1 X156.349 Y58.353 E5.34677
G1 X157.295 Y60.913 E5.45121
G1 X158.313 Y63.442 E5.55554
G1 X159.394 Y65.925 E5.65918
G1 X160.55 Y68.386 E5.76323
G1 X161.79 Y70.844 E5.86859
G1 X163.057 Y73.19 E5.97063
G1 X164.443 Y75.586 E6.07656
G1 X165.852 Y77.873 E6.17936
G1 X167.344 Y80.149 E6.28351
G1 X168.915 Y82.402 E6.38862
G1 X170.514 Y84.564 E6.49153
G1 X172.183 Y86.692 E6.59503
G1 X173.863 Y88.716 E6.69569
G1 X174.218 Y89.132 E6.71662
G1 X174.601 Y89.666 E6.74177
G1 X174.987 Y90.318 E6.77076
G1 X175.337 Y90.926 E6.79761
G1 X176.893 Y93.537 E6.91393
G1 X177.113 Y93.896 E6.93005
G1 X177.369 Y94.39 E6.95134
G1 X177.514 Y94.782 E6.96733
G1 X177.844 Y95.857 E7.01037
G1 X177.926 Y96.138 E7.02157
G1 X178.75 Y98.711 E7.12496
G1 X179.653 Y101.277 E7.22907
G1 X180.616 Y103.786 E7.33191
G1 X181.675 Y106.326 E7.43723
G1 X182.787 Y108.796 E7.54089
G1 X183.985 Y111.268 E7.64602
G1 X185.226 Y113.651 E7.74884
G1 X186.427 Y115.818 E7.84366
G1 X199.371 Y138.469 E8.84205
G1 X199.698 Y139.061 E8.86794
G1 X199.931 Y139.567 E8.88925
G1 X200.09 Y140.1 E8.91054
G1 X200.171 Y140.65 E8.93182
G1 X200.171 Y141.207 E8.95313
G1 X200.093 Y141.758 E8.97443
G1 X199.936 Y142.291 E8.99569
G1 X199.704 Y142.797 E9.017
G1 X199.402 Y143.265 E9.03831
G1 X199.037 Y143.684 E9.05958
G1 X198.615 Y144.047 E9.08088
G1 X198.145 Y144.346 E9.1022
G1 X197.638 Y144.574 E9.12347
G1 X197.103 Y144.727 E9.14477
G1 X196.49 Y144.806 E9.16842
G1 X196.291 Y144.813 E9.17604
G1 X195.73 Y144.82 E9.19751
G1 X174.059 Y144.82 E10.02685
G1 X171.289 Y144.859 E10.13287
G1 X168.542 Y144.976 E10.23809
G1 X165.864 Y145.166 E10.34083
G1 X163.168 Y145.433 E10.44451
G1 X160.44 Y145.782 E10.54976
G1 X157.782 Y146.2 E10.65273
G1 X155.077 Y146.702 E10.75802
G1 X152.458 Y147.266 E10.86054
G1 X149.807 Y147.916 E10.965
G1 X147.18 Y148.638 E11.06926
G1 X144.593 Y149.431 E11.17281
G1 X142.001 Y150.305 E11.2775
G1 X139.44 Y151.25 E11.38196
G1 X136.917 Y152.262 E11.48599
G1 X134.456 Y153.334 E11.58872
G1 X131.962 Y154.503 E11.69413
G1 X129.525 Y155.73 E11.79855
G1 X127.165 Y157.004 E11.90118
G1 X124.806 Y158.365 E12.00541
G1 X122.482 Y159.795 E12.10984
G1 X120.21 Y161.282 E12.21375
G1 X117.98 Y162.836 E12.31777
G1 X115.771 Y164.468 E12.42288
G1 X113.657 Y166.124 E12.52564
G1 X111.534 Y167.887 E12.63125
G1 X110.401 Y168.87 E12.68866
G1 X109.779 Y169.418 E12.72038
G1 X109.336 Y169.755 E12.74168
G1 X108.849 Y170.025 E12.76299
G1 X108.329 Y170.222 E12.78427
G1 X107.786 Y170.343 E12.80556
G1 X107.185 Y170.391 E12.82864
G1 X106.636 Y170.401 E12.84965
G1 X80.823 Y170.516 E13.83751
G1 X78.121 Y170.567 E13.94093
G1 X75.379 Y170.695 E14.04598
G1 X72.666 Y170.9 E14.1501
G1 X69.997 Y171.177 E14.25279
G1 X67.247 Y171.541 E14.35895
G1 X64.621 Y171.965 E14.46075
G1 X61.908 Y172.481 E14.56644
G1 X58.934 Y173.141 E14.68302
G1 X57.821 Y173.405 E14.72679
G1 X57.272 Y173.495 E14.74808
G1 X56.947 Y173.51 E14.76054
G1 X55.962 Y173.515 E14.79823
G1 X55.566 Y173.51 E14.81339
G1 X54.241 Y173.511 E14.86409
G1 X54.144 Y173.504 E14.86782
G1 X52.848 Y173.504 E14.91741
G1 X52.411 Y173.479 E14.93416
G1 X51.736 Y173.401 E14.96017
G1 X51.158 Y173.306 E14.98259
G1 X50.285 Y173.109 E15.01683
G1 X47.624 Y172.547 E15.12092
G1 X44.976 Y172.066 E15.22391
G1 X42.269 Y171.653 E15.32871
G1 X39.56 Y171.318 E15.43317
G1 X36.826 Y171.057 E15.53827
G1 X34.154 Y170.879 E15.64076
G1 X31.441 Y170.776 E15.74466
G1 X28.641 Y170.748 E15.85182
G1 X7.07 Y170.844 E16.67734
G1 X6.428 Y170.837 E16.70191
G1 X5.873 Y170.791 E16.72322
G1 X5.331 Y170.666 E16.74451
G1 X4.812 Y170.465 E16.7658
G1 X4.328 Y170.191 E16.78709
G1 X3.887 Y169.851 E16.8084
G1 X3.5 Y169.451 E16.8297
G1 X3.174 Y169 E16.851
G1 X2.916 Y168.507 E16.87229
G1 X2.732 Y167.982 E16.89358
G1 X2.624 Y167.436 E16.91488
G1 X2.596 Y166.881 E16.93615
G1 X2.647 Y166.327 E16.95744
G1 X2.778 Y165.786 E16.97874
G1 X3.085 Y165.075 E17.00838
G1 X3.531 Y164.275 E17.04343
G1 X14.284 Y145.84 E17.86017
G1 X15.653 Y143.413 E17.96681
G1 X16.916 Y141.022 E18.07029
G1 X18.117 Y138.581 E18.1744
G1 X19.249 Y136.106 E18.27856
G1 X20.319 Y133.582 E18.38347
G1 X21.304 Y131.063 E18.48698
G1 X22.215 Y128.515 E18.59054
G1 X23.227 Y125.367 E18.71708
G1 X23.318 Y125.093 E18.72813
G1 X23.638 Y124.379 E18.75807
G1 X24.457 Y122.959 E18.82081
G1 X24.617 Y122.688 E18.83285
G1 X25.13 Y121.804 E18.87196
G1 X26.156 Y119.994 E18.95159
G1 X26.43 Y119.575 E18.97075
G1 X26.965 Y118.865 E19.00477
G1 X27.616 Y118.03 E19.04529
G1 X29.201 Y115.87 E19.14782
G1 X30.743 Y113.64 E19.25157
G1 X32.25 Y111.324 E19.35732
G1 X33.645 Y109.039 E19.45977
G1 X35.012 Y106.65 E19.56511
G1 X36.283 Y104.278 E19.66809
G1 X37.491 Y101.86 E19.77153
G1 X38.651 Y99.367 E19.87676
G1 X39.728 Y96.865 E19.98101
G1 X40.72 Y94.372 E20.08369
G1 X41.665 Y91.786 E20.18905
G1 X42.523 Y89.215 E20.29278
G1 X43.311 Y86.61 E20.39693
G1 X44.018 Y84.01 E20.50005
G1 X44.668 Y81.318 E20.60603
G1 X45.224 Y78.693 E20.70871
G1 X45.716 Y76.004 E20.81333
G1 X46.127 Y73.323 E20.91713
G1 X46.463 Y70.629 E21.02103
G1 X46.722 Y67.93 E21.12479
G1 X46.906 Y65.214 E21.22897
G1 X47.013 Y62.504 E21.33276
G1 X47.042 Y59.753 E21.43804
G1 X46.995 Y57.074 E21.54058
G1 X46.87 Y54.327 E21.64582
G1 X46.671 Y51.646 E21.7487
G1 X46.392 Y48.919 E21.85361
G1 X46.039 Y46.232 E21.95732
G1 X45.607 Y43.536 E22.06181
G1 X45.108 Y40.903 E22.16437
G1 X44.525 Y38.234 E22.26892
G1 X43.869 Y35.594 E22.37302
G1 X42.954 Y32.349 E22.50205
G1 X42.576 Y31.089 E22.55239
G1 X42.455 Y30.546 E22.57368
G1 X42.413 Y29.991 E22.59498
G1 X42.451 Y29.436 E22.61627
G1 X42.568 Y28.892 E22.63757
G1 X42.761 Y28.37 E22.65887
G1 X43.028 Y27.882 E22.68015
G0 F1285.7 X43.405 Y27.948
G1 F900 X43.742 Y27.539 E22.70043
G1 X44.136 Y27.184 E22.72073
G1 X44.58 Y26.893 E22.74105
G1 X45.062 Y26.671 E22.76135
G1 X45.572 Y26.524 E22.78167
G1 X46.222 Y26.452 E22.80669
G1 X47.255 Y26.433 E22.84623
G1 X146.392 Y26.433 E26.64016
G1 X147.09 Y26.443 E26.66687
G1 X147.619 Y26.491 E26.6872
G1 X148.134 Y26.617 E26.70749
G1 X148.625 Y26.819 E26.72781
G1 X149.08 Y27.093 E26.74814
G1 X149.488 Y27.432 E26.76844
G1 X149.841 Y27.828 E26.78874
G1 X150.131 Y28.273 E26.80907
G1 X150.35 Y28.756 E26.82936
G1 X150.495 Y29.267 E26.84969
G1 X150.559 Y29.767 E26.86898
G1 X150.6 Y30.48 E26.89631
G1 X150.658 Y31.83 E26.94802
G1 X150.851 Y34.529 E27.05158
G1 X151.126 Y37.277 E27.15727
G1 X151.471 Y39.958 E27.26071
G1 X151.898 Y42.669 E27.36574
G1 X152.399 Y45.352 E27.47019
G1 X152.967 Y47.981 E27.57312
G1 X153.62 Y50.642 E27.67798
G1 X154.35 Y53.289 E27.78306
G1 X155.148 Y55.888 E27.88711
G1 X156.032 Y58.507 E27.99289
G1 X156.966 Y61.034 E28.09599
G1 X157.987 Y63.571 E28.20065
G1 X159.076 Y66.071 E28.305
G1 X160.24 Y68.551 E28.40985
G1 X161.475 Y70.998 E28.51474
G1 X162.752 Y73.362 E28.61757
G1 X164.124 Y75.734 E28.72244
G1 X165.565 Y78.072 E28.82754
G1 X167.056 Y80.346 E28.9316
G1 X168.627 Y82.601 E29.03678
G1 X170.238 Y84.778 E29.14042
G1 X171.936 Y86.944 E29.24575
G1 X173.567 Y88.909 E29.34348
G1 X173.951 Y89.359 E29.36612
G1 X174.3 Y89.845 E29.38901
G1 X174.684 Y90.492 E29.41781
G1 X175.036 Y91.105 E29.44486
G1 X176.569 Y93.678 E29.55948
G1 X176.815 Y94.079 E29.57748
G1 X177.057 Y94.551 E29.59778
G1 X177.179 Y94.885 E29.61139
G1 X177.508 Y95.955 E29.65423
G1 X177.588 Y96.233 E29.6653
G1 X178.418 Y98.824 E29.76942
G1 X179.317 Y101.377 E29.873
G1 X180.304 Y103.947 E29.97836
G1 X181.353 Y106.463 E30.08268
G1 X182.472 Y108.95 E30.18704
G1 X183.659 Y111.397 E30.29113
G1 X184.922 Y113.825 E30.39586
G1 X186.104 Y115.956 E30.48912
G1 X199.065 Y138.639 E31.48891
G1 X199.392 Y139.231 E31.51479
G1 X199.612 Y139.713 E31.53506
G1 X199.758 Y140.223 E31.55537
G1 X199.826 Y140.75 E31.5757
G1 X199.814 Y141.28 E31.59599
G1 X199.722 Y141.803 E31.61631
G1 X199.553 Y142.306 E31.63662
G1 X199.311 Y142.778 E31.65692
G1 X199 Y143.208 E31.67723
G1 X198.628 Y143.587 E31.69755
G1 X198.204 Y143.905 E31.71783
G1 X197.737 Y144.157 E31.73814
G1 X197.237 Y144.335 E31.75845
G1 X196.474 Y144.456 E31.78802
G1 X196.287 Y144.463 E31.79518
G1 X195.726 Y144.47 E31.81665
G1 X174.054 Y144.47 E32.64603
G1 X171.27 Y144.509 E32.75258
G1 X168.536 Y144.625 E32.8573
G1 X165.843 Y144.816 E32.96062
G1 X163.085 Y145.09 E33.06669
G1 X160.415 Y145.431 E33.1697
G1 X157.733 Y145.853 E33.2736
G1 X155.015 Y146.358 E33.37939
G1 X152.37 Y146.927 E33.48293
G1 X149.732 Y147.574 E33.58688
G1 X147.085 Y148.302 E33.69194
G1 X144.457 Y149.107 E33.79713
G1 X141.879 Y149.976 E33.90124
G1 X139.318 Y150.921 E34.00571
G1 X136.802 Y151.931 E34.10946
G1 X134.296 Y153.022 E34.21406
G1 X131.797 Y154.193 E34.31967
G1 X129.371 Y155.415 E34.42363
G1 X127.009 Y156.691 E34.52637
G1 X124.607 Y158.075 E34.63246
G1 X122.302 Y159.494 E34.73604
G1 X120.004 Y160.998 E34.84115
G1 X117.782 Y162.546 E34.94479
G1 X115.579 Y164.174 E35.04962
G1 X113.428 Y165.859 E35.15418
G1 X111.328 Y167.604 E35.25867
G1 X110.172 Y168.606 E35.31722
G1 X109.547 Y169.156 E35.34908
G1 X109.124 Y169.475 E35.36936
G1 X108.657 Y169.728 E35.38968
G1 X108.158 Y169.907 E35.40997
G1 X107.457 Y170.027 E35.43719
G1 X106.683 Y170.05 E35.46682
G1 X80.819 Y170.166 E36.45663
G1 X78.099 Y170.217 E36.56074
G1 X75.372 Y170.344 E36.66522
G1 X72.638 Y170.551 E36.77015
G1 X69.95 Y170.83 E36.87357
G1 X67.214 Y171.192 E36.97919
G1 X64.534 Y171.625 E37.08308
G1 X61.835 Y172.139 E37.18822
G1 X58.89 Y172.792 E37.30367
G1 X57.74 Y173.065 E37.3489
G1 X57.216 Y173.148 E37.3692
G1 X56.945 Y173.16 E37.37958
G1 X55.967 Y173.165 E37.41701
G1 X55.571 Y173.16 E37.43217
G1 X54.241 Y173.161 E37.48307
G1 X54.148 Y173.154 E37.48663
G1 X52.848 Y173.154 E37.53638
G1 X52.451 Y173.132 E37.5516
G1 X51.785 Y173.055 E37.57726
G1 X51.235 Y172.965 E37.59859
G1 X50.362 Y172.768 E37.63284
G1 X47.69 Y172.204 E37.73735
G1 X45.017 Y171.718 E37.84132
G1 X42.295 Y171.303 E37.94669
G1 X39.602 Y170.969 E38.05054
G1 X36.882 Y170.71 E38.1551
G1 X34.155 Y170.529 E38.25969
G1 X31.457 Y170.426 E38.36302
G1 X28.643 Y170.398 E38.47072
G1 X7.074 Y170.494 E39.29616
G1 X6.432 Y170.487 E39.32073
G1 X5.903 Y170.441 E39.34105
G1 X5.387 Y170.317 E39.36136
G1 X4.896 Y170.116 E39.38166
G1 X4.44 Y169.844 E39.40198
G1 X4.031 Y169.507 E39.42227
G1 X3.676 Y169.111 E39.44262
G1 X3.385 Y168.668 E39.4629
G1 X3.164 Y168.185 E39.48323
G1 X3.018 Y167.675 E39.50353
G1 X2.95 Y167.149 E39.52383
G1 X2.962 Y166.618 E39.54415
G1 X3.053 Y166.096 E39.56443
G1 X3.222 Y165.593 E39.58474
G1 X3.391 Y165.246 E39.59951
G1 X3.871 Y164.386 E39.6372
G1 X14.614 Y145.969 E40.45316
G1 X15.962 Y143.58 E40.55813
G1 X17.219 Y141.198 E40.6612
G1 X18.429 Y138.74 E40.76605
G1 X19.569 Y136.247 E40.87096
G1 X20.642 Y133.716 E40.97616
G1 X21.635 Y131.178 E41.08046
G1 X22.543 Y128.638 E41.18369
G1 X23.559 Y125.477 E41.31076
G1 X23.65 Y125.203 E41.3218
G1 X23.941 Y124.553 E41.34906
G1 X24.758 Y123.138 E41.41159
G1 X24.92 Y122.864 E41.42377
G1 X25.433 Y121.98 E41.46288
G1 X26.46 Y120.167 E41.54262
G1 X26.71 Y119.786 E41.56006
G1 X27.241 Y119.08 E41.59387
G1 X27.894 Y118.242 E41.63453
G1 X29.491 Y116.066 E41.73782
G1 X31.044 Y113.819 E41.84235
G1 X32.52 Y111.552 E41.94588
G1 X33.965 Y109.184 E42.05204
G1 X35.303 Y106.847 E42.1551
G1 X36.606 Y104.416 E42.26065
G1 X37.809 Y102.007 E42.3637
G1 X38.963 Y99.527 E42.46838
G1 X40.055 Y96.991 E42.57405
G1 X41.049 Y94.491 E42.67701
G1 X41.994 Y91.906 E42.78234
G1 X42.854 Y89.327 E42.88638
G1 X43.641 Y86.726 E42.99037
G1 X44.369 Y84.05 E43.0965
G1 X45.01 Y81.397 E43.20095
G1 X45.568 Y78.76 E43.3041
G1 X46.058 Y76.085 E43.40818
G1 X46.472 Y73.385 E43.51271
G1 X46.81 Y70.67 E43.61742
G1 X47.072 Y67.949 E43.72203
G1 X47.256 Y65.217 E43.82682
G1 X47.362 Y62.521 E43.93007
G1 X47.392 Y59.751 E44.03609
G1 X47.345 Y57.052 E44.13939
G1 X47.22 Y54.32 E44.24405
G1 X47.02 Y51.623 E44.34755
G1 X46.739 Y48.873 E44.45334
G1 X46.387 Y46.196 E44.55667
G1 X45.954 Y43.491 E44.66151
G1 X45.444 Y40.797 E44.76644
G1 X44.865 Y38.151 E44.87009
G1 X44.208 Y35.507 E44.97435
G1 X43.291 Y32.254 E45.1037
G1 X42.911 Y30.988 E45.15428
G1 X42.798 Y30.47 E45.17457
G1 X42.763 Y29.94 E45.1949
G1 X42.808 Y29.412 E45.21518
G1 X42.933 Y28.896 E45.2355
G1 X43.133 Y28.404 E45.25582
G1 X43.405 Y27.948 E45.27614
G0 F1285.7 X43.506 Y28.446
G1 F900 X43.783 Y28.026 E45.29539
G1 X44.122 Y27.654 E45.31466
G1 X44.517 Y27.341 E45.33394
G1 X44.956 Y27.094 E45.35322
G1 X45.428 Y26.92 E45.37247
G1 X45.922 Y26.822 E45.39174
G1 X46.229 Y26.802 E45.40352
G1 X47.255 Y26.783 E45.44279
G1 X146.387 Y26.783 E49.23652
G1 X147.085 Y26.793 E49.26324
G1 X147.587 Y26.84 E49.28253
G1 X148.074 Y26.966 E49.30178
G1 X148.536 Y27.168 E49.32108
G1 X148.96 Y27.439 E49.34034
G1 X149.336 Y27.775 E49.35964
G1 X149.654 Y28.165 E49.37889
G1 X149.906 Y28.601 E49.39817
G1 X150.086 Y29.071 E49.41743
G1 X150.21 Y29.787 E49.44524
G1 X150.25 Y30.495 E49.47237
G1 X150.308 Y31.835 E49.5237
G1 X150.505 Y34.586 E49.62925
G1 X150.775 Y37.291 E49.73328
G1 X151.126 Y40.023 E49.8387
G1 X151.55 Y42.713 E49.94291
G1 X152.054 Y45.414 E50.04806
G1 X152.617 Y48.021 E50.15013
G1 X153.287 Y50.75 E50.25767
G1 X154.023 Y53.416 E50.36351
G1 X154.813 Y55.993 E50.46666
G1 X155.693 Y58.597 E50.57185
G1 X156.65 Y61.186 E50.67749
G1 X157.661 Y63.699 E50.78115
G1 X158.758 Y66.218 E50.88629
G1 X159.917 Y68.687 E50.99067
G1 X161.167 Y71.165 E51.09689
G1 X162.447 Y73.534 E51.19994
G1 X163.829 Y75.924 E51.30559
G1 X165.271 Y78.262 E51.41071
G1 X166.767 Y80.545 E51.51517
G1 X168.326 Y82.782 E51.61952
G1 X169.978 Y85.015 E51.72582
G1 X171.64 Y87.134 E51.82888
G1 X173.307 Y89.143 E51.92878
G1 X173.685 Y89.586 E51.95107
G1 X173.999 Y90.024 E51.97169
G1 X174.381 Y90.667 E52.00032
G1 X174.761 Y91.328 E52.02949
G1 X176.27 Y93.861 E52.14233
G1 X176.516 Y94.262 E52.16033
G1 X176.745 Y94.711 E52.17962
G1 X176.845 Y94.988 E52.19089
G1 X177.172 Y96.052 E52.23349
G1 X177.251 Y96.326 E52.2444
G1 X178.091 Y98.946 E52.3497
G1 X178.996 Y101.519 E52.45408
G1 X179.969 Y104.052 E52.55792
G1 X181.043 Y106.628 E52.66473
G1 X182.15 Y109.089 E52.768
G1 X183.353 Y111.569 E52.87348
G1 X184.595 Y113.956 E52.97646
G1 X185.82 Y116.165 E53.07312
G1 X198.758 Y138.808 E54.07114
G1 X199.085 Y139.4 E54.09702
G1 X199.293 Y139.859 E54.11631
G1 X199.426 Y140.344 E54.13556
G1 X199.48 Y140.845 E54.15484
G1 X199.454 Y141.348 E54.17412
G1 X199.349 Y141.841 E54.19341
G1 X199.168 Y142.31 E54.21264
G1 X198.914 Y142.745 E54.23192
G1 X198.595 Y143.135 E54.2512
G1 X198.219 Y143.469 E54.27045
G1 X197.794 Y143.74 E54.28974
