;FLAVOR:Marlin
;TIME:13207
;Filament used: 22.9521m
;Layer height: 0.3
;MINX:9.168
;MINY:24.054
;MINZ:0.26
;MAXX:190.703
;MAXY:194.541
;MAXZ:24.26
;Generated with Cura_SteamEngine 4.9.1
M82 ;absolute extrusion mode
;Begin Start Gcode for Dagoma DiscoEasy 200
;Sliced: 01-08-2021 01:35:15
;Initial extruder: 0

G90 ;Absolute positioning
M106 S255 ;Fan on full
G28 X Y ;Home stop X Y
G1 X100 ;Centre back during cooldown in case of oozing
M109 R90 ;Cooldown in case too hot
G28 ;Centre
G29 ;Auto-level
M104 S205 ;Pre-heat
M107 ;Fan off
G0 X100 Y5 Z0.5 ;Front centre for degunk
M109 S205 ;Wait for initial temp
M83 ;E Relative
G1 E10 F200 ;Degunk
G1 E-3 F5000 ;Retract
G0 Z3 ;Withdraw
M82 ;E absolute
G92 E0 ;E reset
G1 F6000 ;Set feedrate

;Finish Start Gcode for Dagoma DiscoEasy 200

G92 E0
G92 E0
G1 F3000 E-3.5
;LAYER_COUNT:81
;LAYER:0
M107
G0 F1285.7 X11.614 Y55.152 Z0.26
;TYPE:SKIRT
G1 F3000 E0
G1 F900 X107.422 Y24.367 E3.85116
G1 X108.044 Y24.177 E3.87604
G1 X108.512 Y24.076 E3.89437
G1 X108.991 Y24.054 E3.91272
G1 X109.467 Y24.112 E3.93107
G1 X110.103 Y24.323 E3.95671
G1 X111.19 Y24.833 E4.00266
G1 X111.725 Y25.093 E4.02543
G1 X114.243 Y26.23 E4.13116
G1 X116.8 Y27.299 E4.23722
G1 X119.319 Y28.265 E4.34047
G1 X121.936 Y29.188 E4.44666
G1 X124.537 Y30.024 E4.55122
G1 X127.187 Y30.793 E4.65682
G1 X129.838 Y31.482 E4.76164
G1 X133.327 Y32.27 E4.89853
G1 X134.474 Y32.504 E4.94332
G1 X134.934 Y32.639 E4.96167
G1 X135.365 Y32.848 E4.98
G1 X135.852 Y33.199 E5.00298
G1 X136.216 Y33.508 E5.02125
G1 X138.39 Y35.401 E5.13157
G1 X138.955 Y35.906 E5.16057
G1 X139.39 Y36.395 E5.18561
G1 X139.621 Y36.724 E5.201
G1 X140.799 Y38.446 E5.28084
G1 X142.395 Y40.644 E5.38479
G1 X144.085 Y42.839 E5.49081
G1 X145.819 Y44.963 E5.59574
G1 X147.608 Y47.031 E5.70039
G1 X149.478 Y49.074 E5.80638
G1 X151.376 Y51.035 E5.91082
G1 X153.329 Y52.94 E6.01523
G1 X155.377 Y54.828 E6.12183
G1 X157.431 Y56.616 E6.22604
G1 X159.568 Y58.373 E6.33192
G1 X161.748 Y60.065 E6.43752
G1 X163.915 Y61.651 E6.54029
G1 X166.23 Y63.245 E6.64786
G1 X168.499 Y64.716 E6.75134
G1 X170.869 Y66.159 E6.85753
G1 X173.258 Y67.522 E6.96279
G1 X174.805 Y68.357 E7.03007
G1 X175.691 Y68.826 E7.06843
G1 X176.163 Y69.139 E7.0901
G1 X176.565 Y69.474 E7.11013
G1 X177.865 Y70.604 E7.17605
G1 X178.459 Y71.136 E7.20656
G1 X178.788 Y71.484 E7.22489
G1 X179.055 Y71.882 E7.24323
G1 X179.299 Y72.456 E7.2671
G1 X180.102 Y74.898 E7.36548
G1 X181.02 Y77.451 E7.46931
G1 X182.023 Y80.013 E7.5746
G1 X183.095 Y82.538 E7.67958
G1 X184.239 Y85.03 E7.78451
G1 X185.468 Y87.523 E7.89088
G1 X186.721 Y89.893 E7.99348
G1 X188.098 Y92.325 E8.10043
G1 X188.298 Y92.761 E8.11879
G1 X188.424 Y93.223 E8.13711
G1 X188.471 Y93.7 E8.15546
G1 X188.423 Y94.384 E8.1817
G1 X188.202 Y97.172 E8.28873
G1 X188.063 Y99.907 E8.39353
G1 X188.002 Y102.629 E8.49773
G1 X188.018 Y105.413 E8.60427
G1 X188.11 Y108.131 E8.70835
G1 X188.281 Y110.873 E8.81349
G1 X188.608 Y114.331 E8.94641
G1 X188.687 Y115.035 E8.97352
G1 X188.701 Y115.514 E8.99186
G1 X188.628 Y116.054 E9.01272
G1 X188.555 Y116.432 E9.02745
G1 X186.881 Y124.555 E9.34484
G1 X186.719 Y125.284 E9.37342
G1 X186.575 Y125.744 E9.39187
G1 X186.18 Y126.714 E9.43195
G1 X185.184 Y129.258 E9.5365
G1 X184.249 Y131.861 E9.64235
G1 X183.39 Y134.48 E9.74783
G1 X182.613 Y137.101 E9.85245
G1 X181.91 Y139.744 E9.95711
G1 X181.267 Y142.465 E10.06411
G1 X180.724 Y145.111 E10.16749
G1 X180.243 Y147.828 E10.27308
G1 X179.841 Y150.542 E10.37808
G1 X179.515 Y153.286 E10.48383
G1 X179.268 Y156.012 E10.58858
G1 X179.098 Y158.749 E10.69352
G1 X179.006 Y161.464 E10.79748
G1 X179.002 Y161.857 E10.81252
G1 X178.981 Y162.699 E10.84476
G1 X178.919 Y163.244 E10.86575
G1 X178.822 Y163.749 E10.88543
G1 X177.149 Y171.887 E11.20338
G1 X177.005 Y172.538 E11.22889
G1 X176.863 Y172.996 E11.24725
G1 X176.549 Y173.613 E11.27374
G1 X175.491 Y175.489 E11.35616
G1 X174.202 Y177.931 E11.46184
G1 X172.984 Y180.409 E11.56751
G1 X171.858 Y182.871 E11.67111
G1 X170.779 Y185.42 E11.77704
G1 X169.787 Y187.96 E11.8814
G1 X168.841 Y190.602 E11.98879
G1 X168.378 Y192.018 E12.0458
G1 X168.177 Y192.605 E12.06955
G1 X167.984 Y193.044 E12.0879
G1 X167.722 Y193.445 E12.10623
G1 X167.396 Y193.796 E12.12456
G1 X167.017 Y194.089 E12.1429
G1 X166.594 Y194.315 E12.16125
G1 X166.14 Y194.467 E12.17957
G1 X165.666 Y194.541 E12.19793
G1 X165.187 Y194.536 E12.21626
G1 X164.716 Y194.452 E12.23457
G1 X164.264 Y194.29 E12.25295
G1 X163.639 Y193.901 E12.28112
G1 X163.194 Y193.528 E12.30334
G1 X96.962 Y135.839 E15.66468
G1 X94.838 Y134.041 E15.77118
G1 X92.696 Y132.329 E15.87612
G1 X90.471 Y130.652 E15.98275
G1 X88.268 Y129.088 E16.08614
G1 X85.97 Y127.551 E16.19194
G1 X83.656 Y126.097 E16.29653
G1 X81.253 Y124.681 E16.40327
G1 X78.875 Y123.367 E16.50724
G1 X76.437 Y122.111 E16.6122
G1 X73.978 Y120.929 E16.71661
G1 X71.448 Y119.801 E16.82262
G1 X68.685 Y118.664 E16.93696
G1 X67.978 Y118.384 E16.96606
G1 X67.549 Y118.172 E16.98437
G1 X67.062 Y117.812 E17.00755
G1 X66.593 Y117.397 E17.03152
G1 X66.073 Y116.889 E17.05934
G1 X65.493 Y116.135 E17.09574
G1 X64.455 Y114.622 E17.16596
G1 X62.836 Y112.394 E17.27136
G1 X61.176 Y110.241 E17.3754
G1 X59.429 Y108.104 E17.48103
G1 X57.619 Y106.013 E17.58687
G1 X55.766 Y103.989 E17.69188
G1 X53.86 Y102.025 E17.79662
G1 X51.886 Y100.101 E17.90211
G1 X49.882 Y98.256 E18.00636
G1 X47.789 Y96.436 E18.1125
G1 X45.693 Y94.714 E18.21631
G1 X43.49 Y93.006 E18.32299
G1 X41.301 Y91.407 E18.42673
G1 X39.024 Y89.842 E18.53247
G1 X36.721 Y88.349 E18.63751
G1 X34.381 Y86.927 E18.7423
G1 X31.967 Y85.551 E18.84863
G1 X29.567 Y84.272 E18.95271
G1 X26.32 Y82.676 E19.09117
G1 X25.703 Y82.341 E19.11804
G1 X25.334 Y82.036 E19.13636
G1 X25.02 Y81.674 E19.1547
G1 X24.794 Y81.311 E19.17106
G1 X24.484 Y80.718 E19.19667
G1 X23.182 Y78.311 E19.3014
G1 X21.81 Y75.941 E19.4062
G1 X20.352 Y73.574 E19.51259
G1 X18.858 Y71.298 E19.61678
G1 X17.284 Y69.042 E19.72205
G1 X15.645 Y66.832 E19.82734
G1 X13.941 Y64.66 E19.93299
G1 X12.195 Y62.563 E20.03742
G1 X10.348 Y60.467 E20.14433
G1 X10.264 Y60.376 E20.14907
G1 X9.891 Y59.957 E20.17054
G1 X9.603 Y59.573 E20.18891
G1 X9.383 Y59.148 E20.20722
G1 X9.237 Y58.691 E20.22558
G1 X9.168 Y58.217 E20.24392
G1 X9.179 Y57.738 E20.26225
G1 X9.27 Y57.268 E20.28057
G1 X9.438 Y56.819 E20.29892
G1 X9.677 Y56.404 E20.31725
G1 X9.983 Y56.035 E20.33559
G1 X10.345 Y55.721 E20.35393
G1 X10.755 Y55.472 E20.37229
G1 X11.229 Y55.281 E20.39184
G1 X11.614 Y55.152 E20.40738
G0 F1285.7 X11.721 Y55.485
G1 F900 X107.524 Y24.702 E24.25833
G1 X108.146 Y24.512 E24.28322
G1 X108.586 Y24.42 E24.30043
G1 X109.035 Y24.406 E24.31762
G1 X109.479 Y24.473 E24.3348
G1 X109.955 Y24.64 E24.35411
G1 X111.037 Y25.147 E24.39983
G1 X111.6 Y25.42 E24.42378
G1 X114.107 Y26.552 E24.52905
G1 X116.641 Y27.612 E24.63417
G1 X119.232 Y28.606 E24.74037
G1 X121.812 Y29.516 E24.84507
G1 X124.433 Y30.358 E24.95042
G1 X127.087 Y31.128 E25.05617
G1 X129.757 Y31.822 E25.16175
G1 X133.281 Y32.618 E25.30001
G1 X134.404 Y32.847 E25.34387
G1 X134.834 Y32.975 E25.36104
G1 X135.461 Y33.337 E25.38875
G1 X135.969 Y33.757 E25.41397
G1 X138.157 Y35.662 E25.52499
G1 X138.722 Y36.167 E25.55399
G1 X139.104 Y36.597 E25.57601
G1 X139.332 Y36.921 E25.59117
G1 X140.507 Y38.639 E25.67082
G1 X142.115 Y40.853 E25.77554
G1 X143.817 Y43.064 E25.88232
G1 X145.563 Y45.203 E25.98799
G1 X147.33 Y47.245 E26.09133
G1 X149.234 Y49.325 E26.19924
G1 X151.11 Y51.264 E26.30249
G1 X153.114 Y53.218 E26.40961
G1 X155.121 Y55.069 E26.51409
G1 X157.228 Y56.902 E26.62097
G1 X159.337 Y58.637 E26.72548
G1 X161.52 Y60.331 E26.83123
G1 X163.743 Y61.958 E26.93665
G1 X166.01 Y63.519 E27.04199
G1 X168.337 Y65.028 E27.14813
G1 X170.698 Y66.465 E27.2539
G1 X173.091 Y67.83 E27.35933
G1 X174.62 Y68.655 E27.42582
G1 X175.527 Y69.135 E27.46509
G1 X176.121 Y69.556 E27.49295
G1 X176.362 Y69.76 E27.50504
G1 X177.661 Y70.892 E27.57098
G1 X178.225 Y71.397 E27.59995
G1 X178.532 Y71.725 E27.61714
G1 X178.775 Y72.102 E27.63431
G1 X178.969 Y72.572 E27.65376
G1 X179.761 Y74.983 E27.75088
G1 X180.692 Y77.574 E27.85625
G1 X181.7 Y80.148 E27.96204
G1 X182.775 Y82.679 E28.06727
G1 X183.927 Y85.189 E28.17296
G1 X185.143 Y87.657 E28.27825
G1 X186.441 Y90.111 E28.38449
G1 X187.793 Y92.498 E28.48948
G1 X187.979 Y92.907 E28.50667
G1 X188.089 Y93.342 E28.52384
G1 X188.11 Y93.978 E28.5482
G1 X188.071 Y94.393 E28.56415
G1 X187.855 Y97.126 E28.66907
G1 X187.712 Y99.93 E28.77651
G1 X187.652 Y102.629 E28.87983
G1 X187.668 Y105.392 E28.98557
G1 X187.762 Y108.183 E29.09244
G1 X187.932 Y110.896 E29.19647
G1 X188.263 Y114.394 E29.33093
G1 X188.339 Y115.074 E29.35712
G1 X188.32 Y115.777 E29.38403
G1 X188.217 Y116.335 E29.40575
G1 X186.539 Y124.479 E29.72396
G1 X186.377 Y125.208 E29.75254
G1 X186.251 Y125.612 E29.76873
G1 X185.856 Y126.582 E29.80882
G1 X184.848 Y129.155 E29.91457
G1 X183.918 Y131.744 E30.01985
G1 X183.07 Y134.331 E30.12403
G1 X182.272 Y137.022 E30.23145
G1 X181.564 Y139.683 E30.33683
G1 X180.928 Y142.376 E30.44272
G1 X180.378 Y145.055 E30.54739
G1 X179.903 Y147.737 E30.65162
G1 X179.489 Y150.534 E30.75983
G1 X179.172 Y153.202 E30.86265
G1 X178.919 Y155.997 E30.97005
G1 X178.75 Y158.698 E31.07362
G1 X178.655 Y161.524 E31.18183
G1 X178.652 Y161.848 E31.19423
G1 X178.631 Y162.69 E31.22646
G1 X178.574 Y163.187 E31.24561
G1 X178.479 Y163.678 E31.26474
G1 X176.807 Y171.811 E31.5825
G1 X176.663 Y172.462 E31.60802
G1 X176.419 Y173.119 E31.63484
G1 X176.22 Y173.485 E31.65078
G1 X175.174 Y175.338 E31.73221
G1 X173.899 Y177.755 E31.83679
G1 X172.671 Y180.251 E31.94324
G1 X171.529 Y182.748 E32.04832
G1 X170.458 Y185.28 E32.15353
G1 X169.456 Y187.845 E32.25892
G1 X168.523 Y190.449 E32.36478
G1 X168.047 Y191.905 E32.4234
G1 X167.846 Y192.492 E32.44714
G1 X167.663 Y192.902 E32.46433
G1 X167.411 Y193.273 E32.48149
G1 X167.097 Y193.594 E32.49867
G1 X166.731 Y193.854 E32.51586
G1 X166.324 Y194.045 E32.53306
G1 X165.891 Y194.162 E32.55023
G1 X165.443 Y194.199 E32.56743
G1 X164.996 Y194.157 E32.58461
G1 X164.564 Y194.036 E32.60178
G1 X164.16 Y193.84 E32.61896
G1 X163.713 Y193.51 E32.64023
G1 X163.398 Y193.242 E32.65605
G1 X97.188 Y135.572 E36.01628
G1 X95.055 Y133.766 E36.12324
G1 X92.893 Y132.039 E36.22914
G1 X90.697 Y130.383 E36.33439
G1 X88.472 Y128.804 E36.43881
G1 X86.149 Y127.25 E36.54576
G1 X83.825 Y125.79 E36.6508
G1 X81.457 Y124.395 E36.75597
G1 X79.034 Y123.056 E36.86192
G1 X76.606 Y121.804 E36.96646
G1 X74.088 Y120.594 E37.07337
G1 X71.595 Y119.483 E37.17783
G1 X68.85 Y118.353 E37.29143
G1 X68.107 Y118.059 E37.32201
G1 X67.706 Y117.857 E37.33919
G1 X67.282 Y117.54 E37.35945
G1 X66.827 Y117.136 E37.38274
G1 X66.322 Y116.643 E37.40974
G1 X65.779 Y115.933 E37.44395
G1 X64.743 Y114.422 E37.51406
G1 X63.134 Y112.208 E37.6188
G1 X61.431 Y109.999 E37.72555
G1 X59.699 Y107.88 E37.83028
G1 X57.879 Y105.777 E37.93672
G1 X56.028 Y103.756 E38.0416
G1 X54.108 Y101.777 E38.14712
G1 X52.138 Y99.858 E38.25237
G1 X50.118 Y97.998 E38.35745
G1 X48.012 Y96.168 E38.46422
G1 X45.88 Y94.416 E38.56983
G1 X43.745 Y92.76 E38.67323
G1 X41.495 Y91.116 E38.77987
G1 X39.202 Y89.539 E38.88637
G1 X36.923 Y88.063 E38.99029
G1 X34.535 Y86.612 E39.09722
G1 X32.136 Y85.244 E39.20291
G1 X29.742 Y83.968 E39.30673
G1 X26.469 Y82.359 E39.4463
G1 X25.88 Y82.037 E39.47199
G1 X25.538 Y81.746 E39.48917
G1 X25.254 Y81.399 E39.50633
G1 X25.104 Y81.149 E39.51749
G1 X24.794 Y80.556 E39.5431
G1 X23.486 Y78.14 E39.64824
G1 X22.098 Y75.741 E39.75431
G1 X20.651 Y73.393 E39.85985
G1 X19.141 Y71.092 E39.96518
G1 X17.572 Y68.844 E40.07009
G1 X15.902 Y66.591 E40.17742
G1 X14.223 Y64.451 E40.28151
G1 X12.446 Y62.317 E40.38779
G1 X10.648 Y60.277 E40.49185
G1 X10.525 Y60.143 E40.49881
G1 X10.152 Y59.724 E40.52028
G1 X9.884 Y59.363 E40.53749
G1 X9.685 Y58.961 E40.55465
G1 X9.56 Y58.53 E40.57183
G1 X9.513 Y58.083 E40.58903
G1 X9.546 Y57.635 E40.60622
G1 X9.658 Y57.201 E40.62337
G1 X9.846 Y56.793 E40.64056
G1 X10.102 Y56.424 E40.65775
G1 X10.42 Y56.107 E40.67493
G1 X10.789 Y55.851 E40.69212
G1 X11.347 Y55.61 E40.71538
G1 X11.721 Y55.485 E40.73047
G0 F1285.7 X11.828 Y55.818
G1 F900 X107.627 Y25.037 E44.58125
G1 X108.249 Y24.847 E44.60614
G1 X108.657 Y24.764 E44.62208
G1 X109.074 Y24.76 E44.63804
G1 X109.483 Y24.836 E44.65396
G1 X109.806 Y24.957 E44.66716
G1 X110.885 Y25.462 E44.71275
G1 X111.459 Y25.741 E44.73717
G1 X113.94 Y26.861 E44.84135
G1 X116.54 Y27.948 E44.94919
G1 X119.102 Y28.931 E45.05421
G1 X121.7 Y29.847 E45.15963
G1 X124.339 Y30.695 E45.26571
G1 X127.002 Y31.468 E45.37183
G1 X129.655 Y32.158 E45.47674
G1 X133.23 Y32.965 E45.61699
G1 X134.334 Y33.19 E45.66011
G1 X134.732 Y33.312 E45.67604
G1 X135.244 Y33.612 E45.69875
G1 X135.741 Y34.023 E45.72343
G1 X137.923 Y35.923 E45.83416
G1 X138.488 Y36.428 E45.86316
G1 X139.027 Y37.095 E45.89597
G1 X140.215 Y38.832 E45.97651
G1 X141.851 Y41.085 E46.08306
G1 X143.531 Y43.267 E46.18845
G1 X145.277 Y45.406 E46.29412
G1 X147.109 Y47.523 E46.40126
G1 X148.94 Y49.524 E46.50506
G1 X150.879 Y51.528 E46.61177
G1 X152.879 Y53.478 E46.71867
G1 X154.876 Y55.32 E46.82264
G1 X157.003 Y57.171 E46.93055
G1 X159.114 Y58.907 E47.03514
G1 X161.326 Y60.624 E47.1423
G1 X163.531 Y62.237 E47.24686
G1 X165.824 Y63.816 E47.3534
G1 X168.134 Y65.314 E47.45876
G1 X170.513 Y66.762 E47.56535
G1 X172.925 Y68.138 E47.67162
G1 X174.472 Y68.973 E47.73889
G1 X175.363 Y69.445 E47.77748
G1 X175.9 Y69.828 E47.80272
G1 X176.132 Y70.024 E47.81434
G1 X177.428 Y71.153 E47.88012
G1 X177.992 Y71.658 E47.90909
G1 X178.274 Y71.964 E47.92502
G1 X178.493 Y72.319 E47.94098
G1 X178.652 Y72.726 E47.9577
G1 X179.431 Y75.1 E48.05332
G1 X180.373 Y77.721 E48.15991
G1 X181.372 Y80.271 E48.26472
G1 X182.455 Y82.82 E48.37071
G1 X183.608 Y85.333 E48.47652
G1 X184.833 Y87.819 E48.58258
G1 X186.126 Y90.262 E48.68836
G1 X187.489 Y92.67 E48.79425
G1 X187.658 Y93.051 E48.8102
G1 X187.752 Y93.457 E48.82615
G1 X187.761 Y93.946 E48.84486
G1 X187.722 Y94.361 E48.86082
G1 X187.505 Y97.116 E48.96658
G1 X187.363 Y99.892 E49.07295
G1 X187.302 Y102.617 E49.17726
G1 X187.318 Y105.406 E49.284
G1 X187.412 Y108.182 E49.39029
G1 X187.585 Y110.95 E49.49643
G1 X187.912 Y114.409 E49.62939
G1 X187.991 Y115.113 E49.65651
G1 X187.975 Y115.718 E49.67967
G1 X187.874 Y116.268 E49.70107
G1 X186.197 Y124.403 E50.01894
G1 X186.035 Y125.132 E50.04751
G1 X185.926 Y125.48 E50.06147
G1 X185.531 Y126.45 E50.10155
G1 X184.525 Y129.02 E50.20717
G1 X183.592 Y131.617 E50.31278
G1 X182.721 Y134.274 E50.41978
G1 X181.947 Y136.884 E50.52397
G1 X181.229 Y139.581 E50.63077
G1 X180.589 Y142.294 E50.73745
G1 X180.033 Y144.999 E50.84313
G1 X179.553 Y147.712 E50.94857
G1 X179.147 Y150.456 E51.05472
G1 X178.817 Y153.231 E51.16167
G1 X178.572 Y155.943 E51.26588
G1 X178.399 Y158.716 E51.37221
G1 X178.306 Y161.491 E51.47847
G1 X178.302 Y161.839 E51.49178
G1 X178.281 Y162.681 E51.52402
G1 X178.217 Y163.196 E51.54388
G1 X178.136 Y163.608 E51.55995
G1 X176.466 Y171.736 E51.8775
G1 X176.322 Y172.387 E51.90301
G1 X176.111 Y172.952 E51.92609
G1 X175.915 Y173.313 E51.94182
G1 X174.887 Y175.133 E52.02181
G1 X173.581 Y177.608 E52.1289
G1 X172.359 Y180.093 E52.23488
G1 X171.197 Y182.634 E52.34181
G1 X170.135 Y185.146 E52.44618
G1 X169.136 Y187.703 E52.55124
G1 X168.182 Y190.366 E52.65949
G1 X167.716 Y191.792 E52.7169
G1 X167.515 Y192.379 E52.74065
G1 X167.343 Y192.758 E52.75658
G1 X167.101 Y193.098 E52.77255
G1 X166.8 Y193.385 E52.78846
G1 X166.449 Y193.61 E52.80442
G1 X166.061 Y193.763 E52.82038
G1 X165.652 Y193.84 E52.83631
G1 X165.235 Y193.838 E52.85227
G1 X164.827 Y193.756 E52.86819
G1 X164.441 Y193.597 E52.88417
G1 X163.935 Y193.239 E52.90789
G1 X163.627 Y192.978 E52.92334
G1 X97.391 Y135.285 E56.2849
G1 X95.286 Y133.503 E56.39044
G1 X93.117 Y131.77 E56.49669
G1 X90.917 Y130.111 E56.60214
G1 X88.642 Y128.496 E56.70891
G1 X86.36 Y126.97 E56.81397
G1 X84.004 Y125.489 E56.92046
G1 X81.635 Y124.093 E57.02569
G1 X79.193 Y122.745 E57.13244
G1 X76.733 Y121.476 E57.23837
G1 X74.279 Y120.297 E57.34256
G1 X71.695 Y119.145 E57.45083
G1 X68.951 Y118.016 E57.56439
G1 X68.236 Y117.733 E57.59381
G1 X67.669 Y117.402 E57.61894
G1 X67.06 Y116.876 E57.64974
G1 X66.57 Y116.396 E57.67599
G1 X66.065 Y115.732 E57.70791
G1 X65.035 Y114.228 E57.77767
