;FLAVOR:Marlin
;TIME:12808
;Filament used: 10.1523m
;Layer height: 0.2
;MINX:3.512
;MINY:17.881
;MINZ:0.26
;MAXX:178.81
;MAXY:196.998
;MAXZ:7.66
;Generated with Cura_SteamEngine 4.9.1
M82 ;absolute extrusion mode
;Begin Start Gcode for Dagoma DiscoEasy 200
;Sliced: 13-07-2021 17:13:34
;Initial extruder: 0

G90 ;Absolute positioning
M106 S255 ;Fan on full
G28 X Y ;Home stop X Y
G1 X100 ;Centre back during cooldown in case of oozing
M109 R90 ;Cooldown in case too hot
G28 ;Centre
G29 ;Auto-level
M104 S205 ;Pre-heat
M107 ;Fan off
G0 X100 Y5 Z0.5 ;Front centre for degunk
M109 S205 ;Wait for initial temp
M83 ;E Relative
G1 E10 F200 ;Degunk
G1 E-3 F5000 ;Retract
G0 Z3 ;Withdraw
M82 ;E absolute
G92 E0 ;E reset
G1 F6000 ;Set feedrate

;Finish Start Gcode for Dagoma DiscoEasy 200

G92 E0
G92 E0
G1 F3000 E-3.5
;LAYER_COUNT:38
;LAYER:0
M107
G0 F1285.7 X29.93 Y19.708 Z0.26
;TYPE:SKIRT
G1 F3000 E0
G1 F900 X30.257 Y19.258 E0.02129
G1 X30.645 Y18.859 E0.04259
G1 X31.087 Y18.52 E0.0639
G1 X31.572 Y18.248 E0.08518
G1 X32.091 Y18.049 E0.10646
G1 X32.634 Y17.925 E0.12777
G1 X33.189 Y17.881 E0.14908
G1 X33.744 Y17.917 E0.17036
G1 X34.288 Y18.031 E0.19163
G1 X34.811 Y18.223 E0.21295
G1 X35.3 Y18.487 E0.23422
G1 X35.885 Y18.944 E0.26263
G1 X36.281 Y19.333 E0.28387
G1 X177.248 Y164.534 E8.02861
G1 X177.753 Y165.068 E8.05674
G1 X178.106 Y165.499 E8.07806
G1 X178.393 Y165.976 E8.09936
G1 X178.608 Y166.489 E8.12065
G1 X178.749 Y167.027 E8.14193
G1 X178.81 Y167.58 E8.16322
G1 X178.792 Y168.136 E8.18451
G1 X178.694 Y168.684 E8.20582
G1 X178.519 Y169.212 E8.2271
G1 X178.27 Y169.71 E8.24841
G1 X177.952 Y170.167 E8.26972
G1 X177.572 Y170.573 E8.291
G1 X177.138 Y170.921 E8.31229
G1 X176.658 Y171.203 E8.33359
G1 X176.059 Y171.44 E8.35825
G1 X175.447 Y171.613 E8.38258
G1 X79.861 Y196.72 E12.1647
G1 X79.183 Y196.888 E12.19143
G1 X78.635 Y196.983 E12.21271
G1 X78.078 Y196.998 E12.23404
G1 X77.526 Y196.934 E12.2553
G1 X76.988 Y196.79 E12.27662
G1 X76.476 Y196.572 E12.29791
G1 X76.001 Y196.282 E12.31921
G1 X75.525 Y195.881 E12.34303
G1 X74.784 Y195.146 E12.38297
G1 X5.044 Y123.311 E16.2145
G1 X4.565 Y122.803 E16.24122
G1 X4.213 Y122.372 E16.26252
G1 X3.927 Y121.895 E16.2838
G1 X3.712 Y121.382 E16.30509
G1 X3.572 Y120.843 E16.3264
G1 X3.512 Y120.29 E16.34769
G1 X3.531 Y119.734 E16.36898
G1 X3.619 Y119.229 E16.3886
G1 X3.856 Y118.257 E16.42688
G1 X29.305 Y21.372 E20.2604
G1 X29.484 Y20.724 E20.28613
G1 X29.67 Y20.2 E20.30741
G1 X29.93 Y19.708 E20.32871
G0 F1285.7 X30.253 Y19.851
G1 F900 X30.573 Y19.428 E20.34901
G1 X30.952 Y19.057 E20.3693
G1 X31.383 Y18.747 E20.38962
G1 X31.855 Y18.505 E20.40992
G1 X32.359 Y18.338 E20.43024
G1 X32.882 Y18.247 E20.45055
G1 X33.412 Y18.236 E20.47084
G1 X33.939 Y18.305 E20.49118
G1 X34.448 Y18.452 E20.51146
G1 X34.93 Y18.674 E20.53176
G1 X35.374 Y18.966 E20.5521
G1 X35.759 Y19.307 E20.57178
G1 X36.063 Y19.611 E20.58824
G1 X176.994 Y164.775 E28.331
G1 X177.499 Y165.309 E28.35912
G1 X177.834 Y165.721 E28.37944
G1 X178.103 Y166.178 E28.39974
G1 X178.3 Y166.671 E28.42006
G1 X178.421 Y167.188 E28.44038
G1 X178.463 Y167.717 E28.46068
G1 X178.425 Y168.246 E28.48098
G1 X178.308 Y168.764 E28.5013
G1 X178.115 Y169.258 E28.5216
G1 X177.85 Y169.717 E28.54188
G1 X177.519 Y170.132 E28.5622
G1 X177.129 Y170.492 E28.58251
G1 X176.69 Y170.79 E28.60282
G1 X176.211 Y171.018 E28.62312
G1 X175.69 Y171.185 E28.64406
G1 X175.327 Y171.283 E28.65844
G1 X79.777 Y196.381 E32.43914
G1 X79.099 Y196.549 E32.46587
G1 X78.576 Y196.637 E32.48617
G1 X78.045 Y196.646 E32.50649
G1 X77.519 Y196.575 E32.5268
G1 X77.01 Y196.426 E32.5471
G1 X76.529 Y196.203 E32.56739
G1 X76.086 Y195.909 E32.58774
G1 X75.771 Y195.632 E32.60379
G1 X75.035 Y194.902 E32.64346
G1 X5.298 Y123.071 E36.4748
G1 X4.819 Y122.563 E36.50152
G1 X4.485 Y122.151 E36.52182
G1 X4.217 Y121.693 E36.54212
G1 X4.021 Y121.2 E36.56243
G1 X3.9 Y120.683 E36.58275
G1 X3.859 Y120.154 E36.60305
G1 X3.898 Y119.625 E36.62335
G1 X3.959 Y119.311 E36.63559
G1 X4.195 Y118.345 E36.67365
G1 X29.642 Y21.465 E40.50697
G1 X29.821 Y20.817 E40.53269
G1 X30.001 Y20.318 E40.55299
G1 X30.253 Y19.851 E40.5733
G0 F1285.7 X30.576 Y19.997
G1 F900 X30.887 Y19.601 E40.59257
G1 X31.257 Y19.26 E40.61183
G1 X31.676 Y18.981 E40.63109
G1 X32.134 Y18.772 E40.65036
G1 X32.62 Y18.638 E40.66965
G1 X33.12 Y18.583 E40.6889
G1 X33.623 Y18.607 E40.70817
G1 X34.116 Y18.71 E40.72745
G1 X34.586 Y18.891 E40.74672
G1 X35.022 Y19.143 E40.76599
G1 X35.518 Y19.561 E40.79082
G1 X35.812 Y19.854 E40.8067
G1 X176.74 Y165.015 E48.5493
G1 X177.245 Y165.549 E48.57743
G1 X177.561 Y165.942 E48.59672
G1 X177.811 Y166.379 E48.61599
G1 X177.988 Y166.85 E48.63525
G1 X178.089 Y167.343 E48.65451
G1 X178.111 Y167.847 E48.67381
G1 X178.053 Y168.347 E48.69308
G1 X177.916 Y168.831 E48.71233
G1 X177.705 Y169.288 E48.73159
G1 X177.424 Y169.706 E48.75086
G1 X177.08 Y170.075 E48.77017
G1 X176.683 Y170.384 E48.78942
G1 X176.241 Y170.626 E48.80871
G1 X175.685 Y170.822 E48.83127
G1 X175.238 Y170.945 E48.84901
G1 X79.693 Y196.041 E52.6295
G1 X79.015 Y196.209 E52.65623
G1 X78.518 Y196.291 E52.67551
G1 X78.014 Y196.293 E52.6948
G1 X77.517 Y196.216 E52.71404
G1 X77.037 Y196.061 E52.73335
G1 X76.589 Y195.832 E52.7526
G1 X76.017 Y195.384 E52.78041
G1 X75.286 Y194.659 E52.81981
G1 X5.553 Y122.831 E56.65096
G1 X5.074 Y122.323 E56.67768
G1 X4.759 Y121.931 E56.69692
G1 X4.509 Y121.493 E56.71622
G1 X4.332 Y121.021 E56.73552
G1 X4.232 Y120.528 E56.75477
G1 X4.211 Y120.025 E56.77403
G1 X4.299 Y119.394 E56.79841
G1 X4.533 Y118.434 E56.83623
G1 X29.98 Y21.559 E60.66936
G1 X30.159 Y20.911 E60.69509
G1 X30.331 Y20.437 E60.71438
G1 X30.576 Y19.997 E60.73366
G1 F3000 E57.23366
;MESH:support_half_hex_26.stl
G0 F1285.7 X32.43 Y22.205
G0 X33.421 Y22.465
G0 X89.807 Y90.759
;TYPE:WALL-INNER
G1 F3000 E60.73366
G1 F900 X37.515 Y36.898 E63.60654
G1 X36.922 Y37.053 E63.62999
G1 X17.85 Y109.661 E66.50293
G1 X89.807 Y90.759 E69.35011
G0 F1285.7 X160.678 Y163.759
G1 F900 X108.386 Y109.897 E72.22302
G1 X107.793 Y110.052 E72.24648
G1 X88.721 Y182.66 E75.11941
G1 X160.678 Y163.759 E77.96658
G0 F1285.7 X173.667 Y167.532
G1 F900 X78.401 Y192.556 E81.73605
G1 X7.95 Y119.989 E85.60663
G1 X33.408 Y23.068 E89.44157
G1 X33.486 Y22.769 E89.45339
G1 X33.701 Y22.991 E89.46007
G1 X173.748 Y167.243 E97.15423
G1 X173.956 Y167.457 E97.16565
G1 X173.667 Y167.532 E97.17213
G0 F1285.7 X174.287 Y167.705
;TYPE:WALL-OUTER
G1 F900 X78.3 Y192.918 E100.97011
G1 X7.589 Y120.084 E104.85496
G1 X33.24 Y22.429 E108.71894
G1 X33.318 Y22.13 E108.73077
G1 X33.533 Y22.352 E108.73745
G1 X174.368 Y167.416 E116.4749
G1 X174.576 Y167.63 E116.48632
G1 X174.287 Y167.705 E116.4928
G0 F1285.7 X174.094 Y167.755
G0 X174.032 Y167.515
G0 X160.119 Y163.827
G0 X160.057 Y163.586
G1 F900 X108.356 Y110.332 E119.33326
G1 X108.285 Y110.259 E119.33716
G1 X108.059 Y110.318 E119.3461
G1 X108.033 Y110.417 E119.35002
G1 X89.177 Y182.204 E122.19046
G1 X160.057 Y163.586 E124.99502
G0 F1285.7 X159.918 Y163.443
G0 X160.097 Y163.27
G0 X108.342 Y110.055
G0 X89.248 Y90.827
G0 X89.186 Y90.586
G1 F900 X37.485 Y37.333 E127.83545
G1 X37.414 Y37.26 E127.83935
G1 X37.188 Y37.319 E127.84829
G1 X37.162 Y37.418 E127.85221
G1 X18.306 Y109.205 E130.69265
G1 X89.186 Y90.586 E133.49722
G0 F1285.7 X89.047 Y90.443
G0 X89.226 Y90.27
G0 X90.456 Y90.94
;TYPE:SKIN
G1 F900 X37.62 Y36.519 E136.39998
G1 X36.644 Y36.775 E136.43859
G1 X17.374 Y110.137 E139.34136
G1 X90.456 Y90.94 E142.23305
G0 F1285.7 X107.515 Y109.774
G1 F900 X88.245 Y183.136 E145.13582
G1 X161.327 Y163.94 E148.0275
G1 X108.491 Y109.518 E150.93029
G1 X107.515 Y109.774 E150.96891
G0 F1285.7 X8.328 Y119.889
G1 F900 X33.662 Y23.439 E154.78521
G1 X173.307 Y167.276 E162.45725
G1 X78.507 Y192.177 E166.20827
G1 X8.328 Y119.889 E170.06394
G0 F1285.7 X33.721 Y23.822
G1 F900 X36.867 Y26.968 E170.2342
G1 X36.929 Y27.03
G0 F1285.7 X33.103 Y26.174
G1 F900 X135.826 Y128.897 E175.7937
G1 X135.888 Y128.959
G0 F1285.7 X131.243 Y132.728
G1 F900 X167.225 Y168.71 E177.74109
G0 F1285.7 X167.617 Y168.607
G1 F900 X114.756 Y115.746 E180.602
G1 X114.694 Y115.684
G0 F1285.7 X119.333 Y111.908
G1 F900 X33.206 Y25.781 E185.2633
G0 F1285.7 X33.309 Y25.39
G1 F900 X102.84 Y94.92 E189.02638
G1 X102.902 Y94.982
G0 F1285.7 X90.576 Y91.071
G1 F900 X168.009 Y168.504 E193.21715
G0 F1285.7 X168.401 Y168.401
G1 F900 X81.796 Y81.796 E197.90433
G1 X81.734 Y81.734
G0 F1285.7 X86.346 Y77.932
G1 F900 X33.412 Y24.998 E200.76918
G0 F1285.7 X33.515 Y24.605
G1 F900 X69.854 Y60.944 E202.7359
G1 X69.916 Y61.006
G0 F1285.7 X65.295 Y64.8
G1 F900 X168.793 Y168.298 E208.33734
G0 F1285.7 X169.185 Y168.195
G1 F900 X48.793 Y47.803 E214.85311
G1 X48.731 Y47.741
G0 F1285.7 X53.361 Y43.956
G1 F900 X33.618 Y24.214 E215.9216
G1 X33.556 Y24.152
G0 F1285.7 X33 Y26.566
G1 F900 X152.319 Y145.885 E222.37929
G1 X152.381 Y145.947
G0 F1285.7 X147.73 Y149.71
G1 F900 X166.833 Y168.813 E223.41317
G0 F1285.7 X166.441 Y168.916
G1 F900 X161.564 Y164.039 E223.67712
G0 F1285.7 X161.172 Y164.142
G1 F900 X166.049 Y169.019 E223.94107
G0 F1285.7 X165.657 Y169.122
G1 F900 X160.781 Y164.246 E224.20497
G0 F1285.7 X160.388 Y164.348
G1 F900 X165.265 Y169.225 E224.46892
G0 F1285.7 X164.873 Y169.328
G1 F900 X159.997 Y164.451 E224.73284
G0 F1285.7 X159.604 Y164.554
G1 F900 X164.481 Y169.431 E224.99679
G0 F1285.7 X164.089 Y169.534
G1 F900 X159.212 Y164.657 E225.26074
G0 F1285.7 X158.821 Y164.76
G1 F900 X163.697 Y169.637 E225.52466
G0 F1285.7 X163.305 Y169.74
G1 F900 X158.428 Y164.863 E225.78861
G0 F1285.7 X158.036 Y164.966
G1 F900 X162.913 Y169.843 E226.05256
G0 F1285.7 X162.521 Y169.946
G1 F900 X157.645 Y165.069 E226.31648
G0 F1285.7 X157.252 Y165.172
G1 F900 X162.129 Y170.049 E226.58043
G0 F1285.7 X161.737 Y170.151
G1 F900 X156.861 Y165.275 E226.84432
G0 F1285.7 X156.468 Y165.378
G1 F900 X161.345 Y170.255 E227.10827
G0 F1285.7 X160.953 Y170.358
G1 F900 X156.076 Y165.481 E227.37222
G0 F1285.7 X155.685 Y165.584
G1 F900 X160.561 Y170.46 E227.63612
G0 F1285.7 X160.169 Y170.564
G1 F900 X155.292 Y165.687 E227.90007
G0 F1285.7 X154.9 Y165.79
G1 F900 X159.777 Y170.666 E228.16399
G0 F1285.7 X159.385 Y170.769
G1 F900 X154.508 Y165.892 E228.42794
G0 F1285.7 X154.116 Y165.996
G1 F900 X158.993 Y170.873 E228.69189
G0 F1285.7 X158.601 Y170.975
G1 F900 X153.725 Y166.099 E228.95579
G0 F1285.7 X153.332 Y166.201
G1 F900 X158.209 Y171.078 E229.21973
G0 F1285.7 X157.817 Y171.182
G1 F900 X152.94 Y166.305 E229.48368
G0 F1285.7 X152.549 Y166.408
G1 F900 X157.425 Y171.284 E229.74758
G0 F1285.7 X157.033 Y171.387
G1 F900 X152.156 Y166.51 E230.01153
G0 F1285.7 X151.764 Y166.614
G1 F900 X156.641 Y171.49 E230.27545
G0 F1285.7 X156.249 Y171.593
G1 F900 X151.372 Y166.716 E230.5394
G0 F1285.7 X150.98 Y166.819
G1 F900 X155.857 Y171.696 E230.80335
G0 F1285.7 X155.465 Y171.799
G1 F900 X150.588 Y166.923 E231.06727
G0 F1285.7 X150.196 Y167.025
G1 F900 X155.073 Y171.902 E231.33122
G0 F1285.7 X154.681 Y172.005
G1 F900 X149.804 Y167.128 E231.59517
G0 F1285.7 X149.412 Y167.231
G1 F900 X154.289 Y172.108 E231.85912
G0 F1285.7 X153.897 Y172.211
G1 F900 X149.02 Y167.334 E232.12307
G0 F1285.7 X148.628 Y167.437
G1 F900 X153.505 Y172.314 E232.38702
G0 F1285.7 X153.113 Y172.417
G1 F900 X148.236 Y167.54 E232.65097
G0 F1285.7 X147.844 Y167.643
G1 F900 X152.721 Y172.52 E232.91492
G0 F1285.7 X152.329 Y172.623
G1 F900 X147.452 Y167.746 E233.17887
G0 F1285.7 X147.06 Y167.849
G1 F900 X151.937 Y172.726 E233.44282
G0 F1285.7 X151.545 Y172.828
G1 F900 X146.668 Y167.952 E233.70674
G0 F1285.7 X146.276 Y168.055
G1 F900 X151.153 Y172.932 E233.97069
G0 F1285.7 X150.761 Y173.035
G1 F900 X145.884 Y168.158 E234.23464
G0 F1285.7 X145.492 Y168.261
G1 F900 X150.369 Y173.137 E234.49856
G0 F1285.7 X149.977 Y173.241
G1 F900 X145.1 Y168.364 E234.76251
G0 F1285.7 X144.708 Y168.467
G1 F900 X149.585 Y173.344 E235.02646
G0 F1285.7 X149.193 Y173.446
G1 F900 X144.316 Y168.57 E235.29038
G0 F1285.7 X143.924 Y168.673
G1 F900 X148.801 Y173.55 E235.55433
G0 F1285.7 X148.408 Y173.652
G1 F900 X143.532 Y168.776 E235.81823
G0 F1285.7 X143.14 Y168.879
G1 F900 X148.017 Y173.755 E236.08215
G0 F1285.7 X147.625 Y173.859
G1 F900 X142.748 Y168.982 E236.3461
G0 F1285.7 X142.356 Y169.085
G1 F900 X147.233 Y173.961 E236.61002
G0 F1285.7 X146.841 Y174.064
G1 F900 X141.964 Y169.188 E236.87394
G0 F1285.7 X141.572 Y169.291
G1 F900 X146.448 Y174.167 E237.13784
G0 F1285.7 X146.057 Y174.27
G1 F900 X141.18 Y169.393 E237.40179
G0 F1285.7 X140.788 Y169.497
G1 F900 X145.665 Y174.373 E237.66571
G0 F1285.7 X145.272 Y174.476
G1 F900 X140.396 Y169.6 E237.92961
G0 F1285.7 X140.004 Y169.702
G1 F900 X144.881 Y174.579 E238.19356
G0 F1285.7 X144.489 Y174.682
G1 F900 X139.612 Y169.806 E238.45748
G0 F1285.7 X139.22 Y169.908
G1 F900 X144.097 Y174.785 E238.72143
G0 F1285.7 X143.705 Y174.888
G1 F900 X138.828 Y170.011 E238.98538
G0 F1285.7 X138.436 Y170.115
G1 F900 X143.312 Y174.991 E239.24927
G0 F1285.7 X142.921 Y175.094
G1 F900 X138.044 Y170.217 E239.51322
G0 F1285.7 X137.652 Y170.32
G1 F900 X142.529 Y175.197 E239.77717
G0 F1285.7 X142.136 Y175.3
G1 F900 X137.26 Y170.424 E240.04107
G0 F1285.7 X136.868 Y170.526
G1 F900 X141.745 Y175.403 E240.30502
G0 F1285.7 X141.352 Y175.506
G1 F900 X136.476 Y170.629 E240.56894
G0 F1285.7 X136.084 Y170.732
G1 F900 X140.961 Y175.609 E240.83289
G0 F1285.7 X140.569 Y175.712
G1 F900 X135.692 Y170.835 E241.09684
G0 F1285.7 X135.3 Y170.938
G1 F900 X140.176 Y175.815 E241.36076
G0 F1285.7 X139.785 Y175.918
G1 F900 X134.908 Y171.041 E241.62471
G0 F1285.7 X134.516 Y171.144
G1 F900 X139.393 Y176.021 E241.88866
G0 F1285.7 X139 Y176.124
G1 F900 X134.124 Y171.247 E242.15258
G0 F1285.7 X133.732 Y171.35
G1 F900 X138.609 Y176.227 E242.41653
G0 F1285.7 X138.216 Y176.329
G1 F900 X133.34 Y171.453 E242.68043
G0 F1285.7 X132.948 Y171.556
G1 F900 X137.825 Y176.433 E242.94438
G0 F1285.7 X137.433 Y176.536
G1 F900 X132.556 Y171.659 E243.20833
G0 F1285.7 X132.164 Y171.762
G1 F900 X137.04 Y176.638 E243.47222
G0 F1285.7 X136.649 Y176.742
G1 F900 X131.772 Y171.865 E243.73617
G0 F1285.7 X131.38 Y171.968
G1 F900 X136.256 Y176.844 E244.00007
G0 F1285.7 X135.864 Y176.947
G1 F900 X130.987 Y172.07 E244.26401
G0 F1285.7 X130.596 Y172.174
G1 F900 X135.473 Y177.051 E244.52796
G0 F1285.7 X135.08 Y177.153
G1 F900 X130.204 Y172.277 E244.79186
G0 F1285.7 X129.812 Y172.379
G1 F900 X134.688 Y177.256 E245.05578
G0 F1285.7 X134.297 Y177.36
G1 F900 X129.42 Y172.483 E245.31973
G0 F1285.7 X129.027 Y172.585
G1 F900 X133.904 Y177.462 E245.58368
G0 F1285.7 X133.513 Y177.565
G1 F900 X128.636 Y172.688 E245.84763
G0 F1285.7 X128.244 Y172.792
G1 F900 X133.12 Y177.668 E246.11153
G0 F1285.7 X132.728 Y177.771
G1 F900 X127.851 Y172.894 E246.37547
G0 F1285.7 X127.46 Y172.997
G1 F900 X132.337 Y177.874 E246.63942
G0 F1285.7 X131.944 Y177.977
G1 F900 X127.068 Y173.101 E246.90332
G0 F1285.7 X126.676 Y173.203
G1 F900 X131.552 Y178.08 E247.16724
G0 F1285.7 X131.161 Y178.183
G1 F900 X126.284 Y173.306 E247.43119
G0 F1285.7 X125.891 Y173.409
G1 F900 X130.768 Y178.286 E247.69514
G0 F1285.7 X130.377 Y178.389
G1 F900 X125.5 Y173.512 E247.95909
G0 F1285.7 X125.108 Y173.615
G1 F900 X129.984 Y178.492 E248.22301
G0 F1285.7 X129.592 Y178.595
G1 F900 X124.715 Y173.718 E248.48696
G0 F1285.7 X124.324 Y173.821
G1 F900 X129.201 Y178.698 E248.75091
G0 F1285.7 X128.808 Y178.801
G1 F900 X123.932 Y173.924 E249.01483
G0 F1285.7 X123.54 Y174.027
G1 F900 X128.416 Y178.904 E249.27876
G0 F1285.7 X128.024 Y179.006
G1 F900 X123.148 Y174.13 E249.54265
G0 F1285.7 X122.755 Y174.233
G1 F900 X127.632 Y179.11 E249.8066
G0 F1285.7 X127.241 Y179.213
G1 F900 X122.364 Y174.336 E250.07055
G0 F1285.7 X121.972 Y174.439
G1 F900 X126.848 Y179.315 E250.33445
G0 F1285.7 X126.456 Y179.419
G1 F900 X121.579 Y174.542 E250.5984
G0 F1285.7 X121.188 Y174.645
G1 F900 X126.065 Y179.522 E250.86235
G0 F1285.7 X125.672 Y179.624
G1 F900 X120.795 Y174.748 E251.12627
G0 F1285.7 X120.404 Y174.851
G1 F900 X125.28 Y179.728 E251.39019
G0 F1285.7 X124.888 Y179.83
G1 F900 X120.012 Y174.954 E251.65409
G0 F1285.7 X119.619 Y175.057
G1 F900 X124.496 Y179.933 E251.91801
G0 F1285.7 X124.105 Y180.037
G1 F900 X119.228 Y175.16 E252.18196
G0 F1285.7 X118.836 Y175.263
G1 F900 X123.712 Y180.139 E252.44585
