;FLAVOR:Marlin
;TIME:12897
;Filament used: 10.0783m
;Layer height: 0.2
;MINX:6.188
;MINY:29.256
;MINZ:0.26
;MAXX:184.834
;MAXY:200.97
;MAXZ:7.86
;Generated with Cura_SteamEngine 4.9.1
M82 ;absolute extrusion mode
;Begin Start Gcode for Dagoma DiscoEasy 200
;Sliced: 13-07-2021 16:59:41
;Initial extruder: 0

G90 ;Absolute positioning
M106 S255 ;Fan on full
G28 X Y ;Home stop X Y
G1 X100 ;Centre back during cooldown in case of oozing
M109 R90 ;Cooldown in case too hot
G28 ;Centre
G29 ;Auto-level
M104 S205 ;Pre-heat
M107 ;Fan off
G0 X100 Y5 Z0.5 ;Front centre for degunk
M109 S205 ;Wait for initial temp
M83 ;E Relative
G1 E10 F200 ;Degunk
G1 E-3 F5000 ;Retract
G0 Z3 ;Withdraw
M82 ;E absolute
G92 E0 ;E reset
G1 F6000 ;Set feedrate

;Finish Start Gcode for Dagoma DiscoEasy 200

G92 E0
G92 E0
G1 F3000 E-3.5
;LAYER_COUNT:39
;LAYER:0
M107
G0 F1285.7 X26.625 Y30.39 Z0.26
;TYPE:SKIRT
G1 F3000 E0
G1 F900 X27.044 Y30.025 E0.02127
G1 X27.512 Y29.723 E0.04258
G1 X28.018 Y29.492 E0.06387
G1 X28.552 Y29.335 E0.08517
G1 X29.103 Y29.256 E0.10647
G1 X29.659 Y29.258 E0.12775
G1 X30.21 Y29.338 E0.14906
G1 X30.743 Y29.497 E0.17034
G1 X31.248 Y29.731 E0.19164
G1 X31.87 Y30.159 E0.22054
G1 X32.43 Y30.631 E0.24857
G1 X183.011 Y161.505 E7.88356
G1 X183.544 Y161.982 E7.91094
G1 X183.931 Y162.382 E7.93224
G1 X184.257 Y162.834 E7.95356
G1 X184.514 Y163.327 E7.97484
G1 X184.699 Y163.852 E7.99614
G1 X184.806 Y164.398 E8.01744
G1 X184.834 Y164.953 E8.0387
G1 X184.782 Y165.507 E8.06
G1 X184.652 Y166.048 E8.08129
G1 X184.445 Y166.565 E8.1026
G1 X184.166 Y167.046 E8.12388
G1 X183.821 Y167.483 E8.14519
G1 X183.418 Y167.866 E8.16647
G1 X182.963 Y168.187 E8.18778
G1 X182.266 Y168.518 E8.2173
G1 X181.418 Y168.821 E8.25177
G1 X87.684 Y200.579 E12.03922
G1 X87.048 Y200.784 E12.06479
G1 X86.507 Y200.916 E12.0861
G1 X85.953 Y200.97 E12.1074
G1 X85.398 Y200.943 E12.12867
G1 X84.851 Y200.838 E12.14998
G1 X84.326 Y200.655 E12.17126
G1 X83.832 Y200.399 E12.19255
G1 X83.413 Y200.101 E12.21223
G1 X82.893 Y199.665 E12.2382
G1 X7.995 Y134.568 E16.03583
G1 X7.481 Y134.109 E16.0622
G1 X7.094 Y133.71 E16.08347
G1 X6.767 Y133.259 E16.10479
G1 X6.509 Y132.766 E16.12608
G1 X6.324 Y132.241 E16.14739
G1 X6.216 Y131.696 E16.16865
G1 X6.188 Y131.14 E16.18995
G1 X6.249 Y130.528 E16.21349
G1 X6.405 Y129.67 E16.24686
G1 X25.446 Y32.964 E20.01881
G1 X25.581 Y32.323 E20.04388
G1 X25.735 Y31.789 E20.06515
G1 X25.963 Y31.281 E20.08646
G1 X26.262 Y30.812 E20.10775
G1 X26.625 Y30.39 E20.12905
G0 F1285.7 X26.943 Y30.568
G1 F900 X27.354 Y30.232 E20.14936
G1 X27.811 Y29.962 E20.16968
G1 X28.303 Y29.763 E20.18999
G1 X28.819 Y29.641 E20.21028
G1 X29.348 Y29.597 E20.23059
G1 X29.878 Y29.633 E20.25092
G1 X30.396 Y29.749 E20.27124
G1 X30.89 Y29.94 E20.29151
G1 X31.351 Y30.204 E20.31184
G1 X31.645 Y30.427 E20.32596
G1 X32.2 Y30.895 E20.35374
G1 X182.778 Y161.766 E27.98858
G1 X183.311 Y162.243 E28.01595
G1 X183.678 Y162.626 E28.03625
G1 X183.984 Y163.059 E28.05654
G1 X184.222 Y163.534 E28.07688
G1 X184.386 Y164.039 E28.09719
G1 X184.472 Y164.562 E28.11748
G1 X184.478 Y165.093 E28.1378
G1 X184.405 Y165.619 E28.15812
G1 X184.253 Y166.127 E28.17842
G1 X184.027 Y166.607 E28.19872
G1 X183.732 Y167.048 E28.21902
G1 X183.373 Y167.439 E28.23934
G1 X182.96 Y167.773 E28.25967
G1 X182.502 Y168.04 E28.27995
G1 X182.148 Y168.189 E28.29465
G1 X181.306 Y168.49 E28.32887
G1 X87.576 Y200.246 E32.11615
G1 X86.94 Y200.451 E32.14173
G1 X86.425 Y200.575 E32.162
G1 X85.896 Y200.621 E32.18232
G1 X85.366 Y200.586 E32.20265
G1 X84.848 Y200.473 E32.22294
G1 X84.352 Y200.283 E32.24326
G1 X83.891 Y200.021 E32.26356
G1 X83.494 Y199.715 E32.28274
G1 X83.087 Y199.37 E32.30316
G1 X8.228 Y134.307 E36.0988
G1 X7.714 Y133.848 E36.12518
G1 X7.346 Y133.466 E36.14547
G1 X7.039 Y133.033 E36.16579
G1 X6.801 Y132.559 E36.18609
G1 X6.637 Y132.054 E36.20641
G1 X6.551 Y131.53 E36.22673
G1 X6.544 Y131 E36.24701
G1 X6.594 Y130.59 E36.26282
G1 X6.748 Y129.738 E36.29595
G1 X25.789 Y33.037 E40.06771
G1 X25.924 Y32.396 E40.09278
G1 X26.072 Y31.886 E40.1131
G1 X26.295 Y31.404 E40.13343
G1 X26.587 Y30.962 E40.1537
G1 X26.943 Y30.568 E40.17402
G0 F1285.7 X27.26 Y30.752
G1 F900 X27.661 Y30.448 E40.19328
G1 X28.106 Y30.211 E40.21258
G1 X28.582 Y30.047 E40.23184
G1 X29.078 Y29.961 E40.25111
G1 X29.582 Y29.954 E40.2704
G1 X30.08 Y30.027 E40.28966
G1 X30.56 Y30.177 E40.3089
G1 X31.011 Y30.402 E40.32819
G1 X31.419 Y30.694 E40.34739
G1 X31.971 Y31.16 E40.37504
G1 X182.544 Y162.027 E48.00963
G1 X183.077 Y162.504 E48.037
G1 X183.425 Y162.869 E48.0563
G1 X183.71 Y163.284 E48.07557
G1 X183.926 Y163.738 E48.09481
G1 X184.068 Y164.222 E48.11411
G1 X184.132 Y164.721 E48.13337
G1 X184.115 Y165.224 E48.15263
G1 X184.019 Y165.719 E48.17192
G1 X183.847 Y166.192 E48.19118
G1 X183.601 Y166.632 E48.21048
G1 X183.29 Y167.027 E48.22972
G1 X182.919 Y167.368 E48.249
G1 X182.5 Y167.647 E48.26826
G1 X182.03 Y167.859 E48.288
G1 X181.194 Y168.158 E48.32197
G1 X87.469 Y199.913 E52.10906
G1 X86.833 Y200.118 E52.13464
G1 X86.343 Y200.234 E52.15391
G1 X85.841 Y200.271 E52.17317
G1 X85.339 Y200.228 E52.19245
G1 X84.85 Y200.107 E52.21173
G1 X84.387 Y199.909 E52.231
G1 X83.855 Y199.558 E52.25539
G1 X83.346 Y199.131 E52.28082
G1 X8.461 Y134.046 E56.07777
G1 X7.947 Y133.587 E56.10414
G1 X7.599 Y133.223 E56.12341
G1 X7.314 Y132.808 E56.14268
G1 X7.097 Y132.354 E56.16193
G1 X6.955 Y131.871 E56.1812
G1 X6.891 Y131.371 E56.20049
G1 X6.938 Y130.653 E56.22803
G1 X7.092 Y129.806 E56.26097
G1 X26.131 Y33.109 E60.03257
G1 X26.266 Y32.468 E60.05764
G1 X26.409 Y31.985 E60.07692
G1 X26.626 Y31.53 E60.09621
G1 X26.912 Y31.116 E60.11546
G1 X27.26 Y30.752 E60.13474
G1 F3000 E56.63474
;MESH:support_half_hex_09.stl
G0 F1285.7 X28.62 Y33.59
G0 X29.601 Y33.782
G0 X34.208 Y47.214
;TYPE:WALL-INNER
G1 F3000 E60.13474
G1 F900 X19.877 Y119.997 E62.97359
G1 X89.864 Y96.285 E65.8015
G1 X89.982 Y95.688 E65.82479
G1 X34.208 Y47.214 E68.65272
G0 F1285.7 X110.015 Y113.099
G1 F900 X95.685 Y185.884 E71.49164
G1 X165.672 Y162.172 E74.31956
G1 X165.79 Y161.575 E74.34284
G1 X110.015 Y113.099 E77.17085
G0 F1285.7 X179.663 Y164.771
G1 F900 X85.974 Y196.513 E80.95647
G1 X10.622 Y131.024 E84.77705
G1 X29.65 Y34.39 E88.5462
G1 X29.708 Y34.094 E88.55775
G1 X29.935 Y34.292 E88.56428
G1 X179.721 Y164.475 E96.15896
G1 X179.722 Y164.476 E96.15902
G1 X179.95 Y164.674 E96.17057
G1 X179.663 Y164.771 E96.17714
G0 F1285.7 X180.303 Y164.897
;TYPE:WALL-OUTER
G1 F900 X85.902 Y196.881 E99.99154
G1 X10.267 Y131.145 E103.8265
G1 X29.439 Y33.777 E107.62427
G1 X29.497 Y33.481 E107.63582
G1 X29.724 Y33.679 E107.64234
G1 X180.361 Y164.601 E115.28017
G1 X180.362 Y164.602 E115.28022
G1 X180.59 Y164.8 E115.29178
G1 X180.303 Y164.897 E115.29834
G0 F1285.7 X180.114 Y164.961
G0 X180.268 Y164.856
G0 X110.116 Y113.393
G0 X110.225 Y113.713
G1 F900 X96.112 Y185.396 E118.09428
G1 X165.293 Y161.957 E120.88963
G1 X165.39 Y161.924 E120.89355
G1 X165.435 Y161.697 E120.90241
G1 X165.358 Y161.63 E120.90631
G1 X110.225 Y113.713 E123.70174
G0 F1285.7 X110.187 Y113.909
G0 X109.942 Y113.86
G0 X89.829 Y95.743
G0 X34.581 Y47.64
G0 X34.418 Y47.827
G1 F900 X20.304 Y119.509 E126.49764
G1 X89.485 Y96.07 E129.293
G1 X89.582 Y96.037 E129.29692
G1 X89.627 Y95.81 E129.30577
G1 X89.55 Y95.743 E129.30968
G1 X34.418 Y47.827 E132.10505
G0 F1285.7 X34.38 Y48.023
G0 X34.135 Y47.974
G0 X33.988 Y46.573
;TYPE:SKIN
G1 F900 X19.43 Y120.508 E134.98884
G1 X90.159 Y96.544 E137.84674
G1 X90.353 Y95.56 E137.88513
G1 X33.988 Y46.573 E140.743
G0 F1285.7 X29.929 Y34.737
G1 F900 X179.28 Y164.542 E148.31564
G1 X86.05 Y196.128 E152.08271
G1 X10.995 Y130.897 E155.88823
G1 X29.929 Y34.737 E159.63889
G0 F1285.7 X109.795 Y112.458
G1 F900 X95.238 Y186.395 E162.52274
G1 X165.967 Y162.431 E165.38065
G1 X166.161 Y161.447 E165.41903
G1 X109.795 Y112.458 E168.27698
G0 F1285.7 X178.869 Y164.515
G1 F900 X177.939 Y163.584 E168.32734
G1 X177.877 Y163.522
G0 F1285.7 X178.499 Y164.64
G1 F900 X174.156 Y160.297 E168.56239
G1 X174.094 Y160.235
G0 F1285.7 X170.374 Y157.01
G1 F900 X178.13 Y164.765 E168.98213
G0 F1285.7 X177.76 Y164.89
G1 F900 X166.592 Y153.722 E169.58656
G1 X166.53 Y153.66
G0 F1285.7 X162.809 Y150.435
G1 F900 X177.39 Y165.016 E170.3757
G0 F1285.7 X177.021 Y165.141
G1 F900 X159.027 Y147.148 E171.34953
G1 X158.965 Y147.086
G0 F1285.7 X155.245 Y143.86
G1 F900 X176.651 Y165.267 E172.50808
G0 F1285.7 X176.281 Y165.392
G1 F900 X151.462 Y140.573 E173.85131
G1 X151.4 Y140.511
G0 F1285.7 X147.681 Y137.286
G1 F900 X175.911 Y165.517 E175.37918
G0 F1285.7 X175.542 Y165.642
G1 F900 X143.899 Y133.999 E177.09174
G1 X143.837 Y133.937
G0 F1285.7 X140.116 Y130.712
G1 F900 X175.172 Y165.767 E178.98899
G0 F1285.7 X174.802 Y165.892
G1 F900 X136.334 Y127.424 E181.07093
G1 X136.272 Y127.362
G0 F1285.7 X132.552 Y124.137
G1 F900 X174.433 Y166.018 E183.33758
G0 F1285.7 X174.063 Y166.143
G1 F900 X128.769 Y120.85 E185.78892
G1 X128.707 Y120.788
G0 F1285.7 X124.987 Y117.562
G1 F900 X173.693 Y166.269 E188.42498
G0 F1285.7 X173.323 Y166.394
G1 F900 X121.205 Y114.275 E191.2457
G1 X121.143 Y114.213
G0 F1285.7 X117.422 Y110.988
G1 F900 X172.954 Y166.519 E194.25114
G0 F1285.7 X172.584 Y166.644
G1 F900 X113.64 Y107.7 E197.44126
G1 X113.578 Y107.638
G0 F1285.7 X109.858 Y104.413
G1 F900 X172.214 Y166.769 E200.81605
G0 F1285.7 X171.845 Y166.895
G1 F900 X106.075 Y101.126 E204.37558
G1 X106.013 Y101.064
G0 F1285.7 X102.293 Y97.838
G1 F900 X162.602 Y158.147 E207.63958
G1 X162.664 Y158.209
G0 F1285.7 X158.819 Y154.859
G1 F900 X98.511 Y94.552 E210.90349
G1 X98.449 Y94.49
G0 F1285.7 X94.729 Y91.264
G1 F900 X155.035 Y151.571 E214.16736
G1 X155.097 Y151.633
G0 F1285.7 X151.252 Y148.283
G1 F900 X90.947 Y87.977 E217.43117
G1 X90.885 Y87.915
G0 F1285.7 X87.165 Y84.69
G1 F900 X147.469 Y144.995 E220.69493
G1 X147.531 Y145.057
G0 F1285.7 X143.686 Y141.707
G1 F900 X83.382 Y81.402 E223.95868
G1 X83.32 Y81.34
G0 F1285.7 X79.6 Y78.115
G1 F900 X139.903 Y138.418 E227.22236
G1 X139.965 Y138.48
G0 F1285.7 X136.12 Y135.13
G1 F900 X75.818 Y74.828 E230.48598
G1 X75.756 Y74.766
G0 F1285.7 X72.035 Y71.54
G1 F900 X132.337 Y131.842 E233.7496
G1 X132.399 Y131.904
G0 F1285.7 X128.554 Y128.554
G1 F900 X68.253 Y68.253 E237.01317
G1 X68.191 Y68.191
G0 F1285.7 X64.471 Y64.966
G1 F900 X124.771 Y125.266 E240.27668
G1 X124.833 Y125.328
G0 F1285.7 X120.988 Y121.978
G1 F900 X60.688 Y61.678 E243.54019
G1 X60.626 Y61.616
G0 F1285.7 X56.906 Y58.391
G1 F900 X117.205 Y118.69 E246.80365
G1 X117.267 Y118.752
G0 F1285.7 X113.422 Y115.402
G1 F900 X53.124 Y55.104 E250.06706
G1 X53.062 Y55.042
G0 F1285.7 X49.342 Y51.817
G1 F900 X109.693 Y112.168 E253.33333
G0 F1285.7 X109.612 Y112.582
G1 F900 X45.56 Y48.53 E256.7999
G1 X45.498 Y48.468
G0 F1285.7 X41.777 Y45.242
G1 F900 X109.53 Y112.995 E260.46678
G0 F1285.7 X109.448 Y113.408
G1 F900 X37.995 Y41.955 E264.33391
G1 X37.933 Y41.893
G0 F1285.7 X34.213 Y38.668
G1 F900 X109.367 Y113.822 E268.40134
G0 F1285.7 X109.286 Y114.235
G1 F900 X30.431 Y35.38 E272.66907
G0 F1285.7 X29.957 Y35.402
G1 F900 X86.947 Y92.391 E275.75342
G1 X87.009 Y92.453
G0 F1285.7 X90.446 Y95.891
G1 F900 X109.204 Y114.649 E276.76863
G0 F1285.7 X109.123 Y115.063
G1 F900 X90.365 Y96.305 E277.78383
G0 F1285.7 X90.245 Y96.679
G1 F900 X109.042 Y115.476 E278.80115
G0 F1285.7 X108.96 Y115.889
G1 F900 X89.875 Y96.805 E279.83403
G0 F1285.7 X89.505 Y96.93
G1 F900 X108.878 Y116.303 E280.88252
G0 F1285.7 X108.797 Y116.717
G1 F900 X89.135 Y97.055 E281.94665
G0 F1285.7 X88.765 Y97.18
G1 F900 X108.716 Y117.13 E283.0264
G0 F1285.7 X108.634 Y117.544
G1 F900 X88.396 Y97.306 E284.1217
G0 F1285.7 X88.027 Y97.431
G1 F900 X108.553 Y117.958 E285.23262
G0 F1285.7 X108.472 Y118.371
G1 F900 X87.657 Y97.556 E286.35916
G0 F1285.7 X87.287 Y97.681
G1 F900 X108.39 Y118.784 E287.50128
G0 F1285.7 X108.308 Y119.198
G1 F900 X86.917 Y97.807 E288.65899
G0 F1285.7 X86.547 Y97.932
G1 F900 X108.227 Y119.612 E289.83234
G0 F1285.7 X108.146 Y120.025
G1 F900 X86.178 Y98.058 E291.02125
G0 F1285.7 X85.808 Y98.183
G1 F900 X108.065 Y120.439 E292.2258
G0 F1285.7 X107.983 Y120.853
G1 F900 X85.439 Y98.308 E293.44593
G0 F1285.7 X85.069 Y98.433
G1 F900 X107.901 Y121.265 E294.68163
G0 F1285.7 X107.82 Y121.679
G1 F900 X84.699 Y98.558 E295.93297
G0 F1285.7 X84.329 Y98.683
G1 F900 X107.739 Y122.093 E297.19995
G0 F1285.7 X107.657 Y122.506
G1 F900 X83.959 Y98.808 E298.48251
G0 F1285.7 X83.59 Y98.934
G1 F900 X107.576 Y122.92 E299.78067
G0 F1285.7 X107.495 Y123.334
G1 F900 X83.22 Y99.06 E301.09443
G0 F1285.7 X82.85 Y99.185
G1 F900 X107.413 Y123.747 E302.42379
G0 F1285.7 X107.331 Y124.16
G1 F900 X82.481 Y99.31 E303.7687
G0 F1285.7 X82.111 Y99.435
G1 F900 X107.25 Y124.574 E305.12926
G0 F1285.7 X107.169 Y124.988
G1 F900 X81.741 Y99.56 E306.50545
G0 F1285.7 X81.372 Y99.686
G1 F900 X107.087 Y125.401 E307.89718
G0 F1285.7 X107.006 Y125.815
G1 F900 X81.002 Y99.811 E309.30455
G0 F1285.7 X80.632 Y99.936
G1 F900 X106.925 Y126.229 E310.72756
G0 F1285.7 X106.843 Y126.642
G1 F900 X80.262 Y100.061 E312.16616
G0 F1285.7 X79.893 Y100.187
G1 F900 X106.761 Y127.055 E313.62029
G0 F1285.7 X106.68 Y127.469
G1 F900 X79.523 Y100.312 E315.09006
G0 F1285.7 X79.153 Y100.437
G1 F900 X106.599 Y127.883 E316.57547
G0 F1285.7 X106.517 Y128.296
G1 F900 X78.784 Y100.563 E318.07642
G0 F1285.7 X78.414 Y100.688
G1 F900 X106.436 Y128.71 E319.593
G0 F1285.7 X106.355 Y129.124
G1 F900 X78.044 Y100.813 E321.12523
G0 F1285.7 X77.674 Y100.938
G1 F900 X106.273 Y129.537 E322.67305
G0 F1285.7 X106.191 Y129.95
G1 F900 X77.305 Y101.063 E324.23642
G0 F1285.7 X76.935 Y101.189
G1 F900 X106.11 Y130.364 E325.81541
G0 F1285.7 X106.029 Y130.777
G1 F900 X76.566 Y101.314 E327.40998
G0 F1285.7 X76.196 Y101.44
G1 F900 X105.947 Y131.191 E329.02014
G0 F1285.7 X105.866 Y131.605
G1 F900 X75.826 Y101.565 E330.64595
G0 F1285.7 X75.456 Y101.69
G1 F900 X105.784 Y132.018 E332.28734
G0 F1285.7 X105.703 Y132.431
G1 F900 X75.086 Y101.815 E333.94434
G0 F1285.7 X74.717 Y101.94
G1 F900 X105.621 Y132.845 E335.61693
G0 F1285.7 X105.54 Y133.259
G1 F900 X74.348 Y102.066 E337.30511
G0 F1285.7 X73.978 Y102.191
G1 F900 X105.459 Y133.672 E339.0089
G0 F1285.7 X105.378 Y134.086
G1 F900 X73.608 Y102.316 E340.72834
G0 F1285.7 X73.238 Y102.442
G1 F900 X105.296 Y134.5 E342.46336
G0 F1285.7 X105.214 Y134.913
G1 F900 X72.868 Y102.567 E344.21396
G0 F1285.7 X72.498 Y102.692
G1 F900 X105.133 Y135.326 E345.98018
G0 F1285.7 X105.052 Y135.74
G1 F900 X72.129 Y102.817 E347.76202
G0 F1285.7 X71.76 Y102.943
G1 F900 X104.97 Y136.154 E349.55941
G0 F1285.7 X104.889 Y136.567
G1 F900 X71.39 Y103.068 E351.37242
G0 F1285.7 X71.02 Y103.193
G1 F900 X104.808 Y136.981 E353.20107
G0 F1285.7 X104.726 Y137.394
G1 F900 X70.65 Y103.318 E355.04531
G0 F1285.7 X70.28 Y103.444
G1 F900 X104.644 Y137.808 E356.90513
G0 F1285.7 X104.563 Y138.221
G1 F900 X69.91 Y103.569 E358.78057
G0 F1285.7 X69.541 Y103.695
G1 F900 X104.482 Y138.635 E360.67159
G0 F1285.7 X104.4 Y139.049
G1 F900 X69.172 Y103.82 E362.5782
G0 F1285.7 X68.802 Y103.945
G1 F900 X104.319 Y139.462 E364.50043
G0 F1285.7 X104.238 Y139.876
G1 F900 X68.432 Y104.07 E366.43829
G0 F1285.7 X68.062 Y104.195
G1 F900 X104.156 Y140.289 E368.39175
G0 F1285.7 X104.074 Y140.702
G1 F900 X67.692 Y104.32 E370.36079
G0 F1285.7 X67.322 Y104.446
G1 F900 X103.993 Y141.116 E372.34544
G0 F1285.7 X103.912 Y141.53
G1 F900 X66.953 Y104.571 E374.34571
G0 F1285.7 X66.584 Y104.697
G1 F900 X103.83 Y141.943 E376.36151
G0 F1285.7 X103.749 Y142.357
G1 F900 X66.214 Y104.822 E378.39295
G0 F1285.7 X65.844 Y104.947
G1 F900 X103.667 Y142.77 E380.43998
G0 F1285.7 X103.586 Y143.184
G1 F900 X65.474 Y105.072 E382.50265
G0 F1285.7 X65.104 Y105.197
G1 F900 X103.504 Y143.597 E384.58091
G0 F1285.7 X103.423 Y144.011
G1 F900 X64.735 Y105.323 E386.67475
G0 F1285.7 X64.365 Y105.448
G1 F900 X103.342 Y144.425 E388.78424
G0 F1285.7 X103.26 Y144.838
G1 F900 X63.995 Y105.573 E390.90931
G0 F1285.7 X63.626 Y105.699
G1 F900 X103.179 Y145.252 E393.04997
G0 F1285.7 X103.097 Y145.665
G1 F900 X63.256 Y105.824 E395.20621
G0 F1285.7 X62.886 Y105.949
G1 F900 X103.016 Y146.079 E397.3781
G0 F1285.7 X102.934 Y146.492
G1 F900 X62.517 Y106.075 E399.56552
G0 F1285.7 X62.147 Y106.2
G1 F900 X102.853 Y146.906 E401.76858
G0 F1285.7 X102.772 Y147.32
