;FLAVOR:Marlin
;TIME:23244
;Filament used: 23.8691m
;Layer height: 0.3
;MINX:6.448
;MINY:12.09
;MINZ:0.26
;MAXX:201.138
;MAXY:186.143
;MAXZ:23.66
;Generated with Cura_SteamEngine 4.9.1
M82 ;absolute extrusion mode
;Begin Start Gcode for Dagoma DiscoEasy 200
;Sliced: 28-06-2021 23:18:47
;Initial extruder: 0

G90 ;Absolute positioning
M106 S255 ;Fan on full
G28 X Y ;Home stop X Y
G1 X100 ;Centre back during cooldown in case of oozing
M109 R90 ;Cooldown in case too hot
G28 ;Centre
G29 ;Auto-level
M104 S205 ;Pre-heat
M107 ;Fan off
G0 X100 Y5 Z0.5 ;Front centre for degunk
M109 S205 ;Wait for initial temp
M83 ;E Relative
G1 E10 F200 ;Degunk
G1 E-3 F5000 ;Retract
G0 Z3 ;Withdraw
M82 ;E absolute
G92 E0 ;E reset
G1 F6000 ;Set feedrate

;Finish Start Gcode for Dagoma DiscoEasy 200

G92 E0
G92 E0
G1 F3000 E-3.5
;LAYER_COUNT:79
;LAYER:0
M107
G0 F1285.7 X47.872 Y15.057 Z0.26
;TYPE:SKIRT
G1 F3000 E0
G1 F900 X48.042 Y14.528 E0.02126
G1 X48.287 Y14.028 E0.04257
G1 X48.6 Y13.568 E0.06387
G1 X48.976 Y13.158 E0.08515
G1 X49.407 Y12.806 E0.10645
G1 X49.884 Y12.519 E0.12776
G1 X50.397 Y12.304 E0.14904
G1 X50.936 Y12.164 E0.17035
G1 X51.461 Y12.104 E0.19058
G1 X51.655 Y12.097 E0.198
G1 X52.216 Y12.09 E0.21948
G1 X150.971 Y12.09 E3.99878
G1 X151.668 Y12.1 E4.02546
G1 X152.222 Y12.148 E4.04674
G1 X152.764 Y12.275 E4.06804
G1 X153.282 Y12.478 E4.08934
G1 X153.765 Y12.753 E4.11061
G1 X154.205 Y13.095 E4.13193
G1 X154.59 Y13.496 E4.15321
G1 X154.915 Y13.948 E4.17451
G1 X155.171 Y14.442 E4.1958
G1 X155.354 Y14.968 E4.21712
G1 X155.459 Y15.514 E4.2384
G1 X155.486 Y16.07 E4.2597
G1 X155.456 Y16.464 E4.27482
G1 X155.104 Y19.228 E4.38145
G1 X154.837 Y21.954 E4.48627
G1 X154.648 Y24.669 E4.59043
G1 X154.536 Y27.377 E4.69415
G1 X154.501 Y30.095 E4.79817
G1 X154.543 Y32.842 E4.90331
G1 X154.66 Y35.523 E5.00601
G1 X154.855 Y38.229 E5.10984
G1 X155.13 Y40.968 E5.21518
G1 X155.477 Y43.653 E5.31879
G1 X155.899 Y46.321 E5.42216
G1 X156.402 Y49.011 E5.52689
G1 X156.973 Y51.644 E5.63
G1 X157.621 Y54.278 E5.73381
G1 X158.353 Y56.922 E5.8388
G1 X159.155 Y59.532 E5.94329
G1 X160.021 Y62.09 E6.04664
G1 X160.969 Y64.651 E6.15115
G1 X161.985 Y67.172 E6.25517
G1 X163.058 Y69.63 E6.35781
G1 X164.23 Y72.124 E6.46326
G1 X165.445 Y74.526 E6.56628
G1 X167.41 Y78.1 E6.72236
G1 X200.341 Y135.139 E9.2429
G1 X200.659 Y135.711 E9.26794
G1 X200.894 Y136.216 E9.28926
G1 X201.054 Y136.748 E9.31052
G1 X201.136 Y137.299 E9.33184
G1 X201.138 Y137.855 E9.35312
G1 X201.061 Y138.406 E9.37441
G1 X200.906 Y138.941 E9.39572
G1 X200.675 Y139.447 E9.41701
G1 X200.375 Y139.915 E9.43828
G1 X200.01 Y140.336 E9.45961
G1 X199.589 Y140.7 E9.48091
G1 X199.121 Y141 E9.50218
G1 X198.614 Y141.229 E9.52347
G1 X198.079 Y141.384 E9.54479
G1 X197.45 Y141.465 E9.56906
G1 X196.76 Y141.481 E9.59547
G1 X193.931 Y141.494 E9.70374
G1 X191.229 Y141.545 E9.80716
G1 X188.484 Y141.673 E9.91232
G1 X185.776 Y141.877 E10.01625
G1 X183.08 Y142.156 E10.11998
G1 X180.41 Y142.511 E10.22305
G1 X177.673 Y142.952 E10.32915
G1 X175.029 Y143.456 E10.43216
G1 X172.387 Y144.037 E10.53568
G1 X169.755 Y144.694 E10.6395
G1 X167.12 Y145.432 E10.74422
G1 X164.522 Y146.24 E10.84834
G1 X161.947 Y147.121 E10.95249
G1 X159.416 Y148.068 E11.05591
G1 X156.862 Y149.107 E11.16143
G1 X154.406 Y150.188 E11.26412
G1 X151.93 Y151.361 E11.36897
G1 X149.537 Y152.581 E11.47176
G1 X147.136 Y153.891 E11.57643
G1 X144.781 Y155.264 E11.68076
G1 X142.455 Y156.709 E11.78555
G1 X140.207 Y158.195 E11.88868
G1 X137.992 Y159.752 E11.99229
G1 X135.802 Y161.385 E12.09684
G1 X133.669 Y163.072 E12.20091
G1 X131.578 Y164.824 E12.30531
G1 X129.549 Y166.624 E12.40911
G1 X127.574 Y168.478 E12.51278
G1 X125.653 Y170.388 E12.61645
G1 X123.769 Y172.368 E12.72104
G1 X121.943 Y174.401 E12.82562
G1 X120.179 Y176.481 E12.92999
G1 X118.484 Y178.596 E13.03372
G1 X116.858 Y180.75 E13.137
G1 X114.892 Y183.529 E13.26727
G1 X114.271 Y184.44 E13.30946
G1 X113.926 Y184.876 E13.33074
G1 X113.522 Y185.258 E13.35202
G1 X113.067 Y185.578 E13.37331
G1 X112.57 Y185.83 E13.39463
G1 X112.043 Y186.009 E13.41593
G1 X111.222 Y186.13 E13.44769
G1 X111.041 Y186.136 E13.45462
G1 X110.48 Y186.143 E13.47609
G1 X10.945 Y186.143 E17.28525
G1 X10.265 Y186.133 E17.31128
G1 X9.711 Y186.084 E17.33256
G1 X9.169 Y185.957 E17.35386
G1 X8.651 Y185.754 E17.37515
G1 X8.168 Y185.479 E17.39643
G1 X7.728 Y185.137 E17.41775
G1 X7.343 Y184.736 E17.43903
G1 X7.019 Y184.284 E17.46031
G1 X6.763 Y183.79 E17.4816
G1 X6.58 Y183.264 E17.50292
G1 X6.474 Y182.718 E17.5242
G1 X6.448 Y182.162 E17.5455
G1 X6.502 Y181.608 E17.5668
G1 X6.634 Y181.068 E17.58808
G1 X6.948 Y180.352 E17.618
G1 X7.455 Y179.457 E17.65736
G1 X46.709 Y112.843 E20.61634
G1 X48.092 Y110.42 E20.72311
G1 X49.363 Y108.036 E20.8265
G1 X50.568 Y105.615 E20.92999
G1 X51.718 Y103.128 E21.03485
G1 X52.792 Y100.626 E21.13905
G1 X53.796 Y98.092 E21.24336
G1 X54.718 Y95.551 E21.34681
G1 X55.576 Y92.965 E21.45108
G1 X56.353 Y90.378 E21.55445
G1 X57.068 Y87.733 E21.65931
G1 X57.698 Y85.11 E21.76254
G1 X58.264 Y82.419 E21.86778
G1 X58.745 Y79.749 E21.9716
G1 X59.152 Y77.075 E22.07511
G1 X59.483 Y74.383 E22.17891
G1 X59.738 Y71.68 E22.28281
G1 X59.919 Y68.934 E22.38813
G1 X60.019 Y66.257 E22.49065
G1 X60.045 Y63.503 E22.59605
G1 X59.993 Y60.827 E22.69848
G1 X59.863 Y58.079 E22.80376
G1 X59.658 Y55.37 E22.90773
G1 X59.376 Y52.671 E23.01158
G1 X59.018 Y49.974 E23.1157
G1 X58.583 Y47.289 E23.21979
G1 X58.077 Y44.636 E23.32315
G1 X57.486 Y41.958 E23.4281
G1 X56.833 Y39.345 E23.53117
G1 X56.101 Y36.741 E23.63469
G1 X55.288 Y34.128 E23.73942
G1 X54.402 Y31.545 E23.84392
G1 X53.443 Y28.984 E23.94858
G1 X52.422 Y26.478 E24.05213
G1 X51.325 Y23.989 E24.15623
G1 X50.158 Y21.53 E24.26039
G1 X48.931 Y19.125 E24.36372
G1 X48.251 Y17.863 E24.41858
G1 X48.199 Y17.763 E24.42289
G1 X47.978 Y17.252 E24.4442
G1 X47.833 Y16.715 E24.46548
G1 X47.767 Y16.162 E24.4868
G1 X47.78 Y15.606 E24.50808
G1 X47.872 Y15.057 E24.52938
G0 F1285.7 X48.243 Y15.022
G1 F900 X48.425 Y14.523 E24.54971
G1 X48.679 Y14.057 E24.57002
G1 X49.001 Y13.635 E24.59034
G1 X49.382 Y13.266 E24.61063
G1 X49.814 Y12.958 E24.63094
G1 X50.288 Y12.718 E24.65127
G1 X50.792 Y12.553 E24.67157
G1 X51.477 Y12.454 E24.69805
G1 X51.659 Y12.447 E24.70502
G1 X52.22 Y12.44 E24.72649
G1 X150.966 Y12.44 E28.50546
G1 X151.663 Y12.45 E28.53213
G1 X152.191 Y12.498 E28.55242
G1 X152.706 Y12.624 E28.57271
G1 X153.197 Y12.826 E28.59303
G1 X153.652 Y13.1 E28.61336
G1 X154.06 Y13.439 E28.63366
G1 X154.413 Y13.835 E28.65396
G1 X154.703 Y14.28 E28.67429
G1 X154.922 Y14.763 E28.69458
G1 X155.067 Y15.274 E28.71491
G1 X155.133 Y15.8 E28.7352
G1 X155.109 Y16.42 E28.75894
G1 X154.753 Y19.219 E28.86692
G1 X154.487 Y21.931 E28.97121
G1 X154.298 Y24.631 E29.07479
G1 X154.187 Y27.359 E29.17927
G1 X154.151 Y30.095 E29.28399
G1 X154.192 Y32.827 E29.38855
G1 X154.312 Y35.563 E29.49336
G1 X154.509 Y38.29 E29.59799
G1 X154.779 Y40.978 E29.70138
G1 X155.128 Y43.683 E29.80575
G1 X155.558 Y46.399 E29.91099
G1 X156.059 Y49.08 E30.01536
G1 X156.632 Y51.725 E30.11893
G1 X157.287 Y54.386 E30.22381
G1 X158.015 Y57.018 E30.32832
G1 X158.814 Y59.615 E30.4323
G1 X159.69 Y62.202 E30.53683
G1 X160.637 Y64.761 E30.64125
G1 X161.665 Y67.312 E30.7465
G1 X162.754 Y69.807 E30.85068
G1 X163.907 Y72.26 E30.95441
G1 X165.145 Y74.708 E31.05939
G1 X167.092 Y78.25 E31.21407
G1 X200.035 Y135.309 E33.7355
G1 X200.353 Y135.881 E33.76055
G1 X200.575 Y136.363 E33.78085
G1 X200.722 Y136.873 E33.80117
G1 X200.792 Y137.399 E33.82147
G1 X200.781 Y137.93 E33.8418
G1 X200.691 Y138.453 E33.86211
G1 X200.523 Y138.956 E33.8824
G1 X200.282 Y139.429 E33.90272
G1 X199.972 Y139.86 E33.92304
G1 X199.602 Y140.239 E33.94331
G1 X199.178 Y140.559 E33.96364
G1 X198.711 Y140.812 E33.98396
G1 X198.212 Y140.991 E34.00425
G1 X197.434 Y141.115 E34.0344
G1 X196.754 Y141.131 E34.06043
G1 X193.926 Y141.144 E34.16866
G1 X191.207 Y141.195 E34.27273
G1 X188.474 Y141.323 E34.37743
G1 X185.751 Y141.527 E34.48193
G1 X183.033 Y141.809 E34.58651
G1 X180.342 Y142.166 E34.6904
G1 X177.654 Y142.6 E34.7946
G1 X174.963 Y143.113 E34.89943
G1 X172.269 Y143.706 E35.005
G1 X169.668 Y144.354 E35.10758
G1 X167.031 Y145.093 E35.21239
G1 X164.416 Y145.907 E35.3172
G1 X161.811 Y146.798 E35.42256
G1 X159.273 Y147.748 E35.52627
G1 X156.761 Y148.769 E35.63004
G1 X154.258 Y149.872 E35.73472
G1 X151.792 Y151.04 E35.83914
G1 X149.353 Y152.283 E35.9439
G1 X146.95 Y153.594 E36.04866
G1 X144.59 Y154.97 E36.1532
G1 X142.288 Y156.4 E36.25692
G1 X140.023 Y157.897 E36.36082
G1 X137.791 Y159.465 E36.46521
G1 X135.564 Y161.127 E36.57155
G1 X133.458 Y162.792 E36.67429
G1 X131.348 Y164.56 E36.77964
G1 X129.325 Y166.355 E36.88314
G1 X127.317 Y168.239 E36.98851
G1 X125.382 Y170.163 E37.09294
G1 X123.519 Y172.122 E37.1964
G1 X121.681 Y174.168 E37.30165
G1 X119.919 Y176.245 E37.40589
G1 X118.212 Y178.376 E37.51038
G1 X116.589 Y180.525 E37.61344
G1 X114.584 Y183.359 E37.74629
G1 X113.982 Y184.243 E37.78722
G1 X113.651 Y184.658 E37.80754
G1 X113.262 Y185.018 E37.82782
G1 X112.823 Y185.316 E37.84813
G1 X112.344 Y185.544 E37.86843
G1 X111.836 Y185.699 E37.88875
G1 X111.208 Y185.78 E37.91299
G1 X111.037 Y185.786 E37.91954
G1 X110.476 Y185.793 E37.94101
G1 X10.95 Y185.793 E41.74982
G1 X10.27 Y185.783 E41.77584
G1 X9.742 Y185.735 E41.79613
G1 X9.226 Y185.608 E41.81647
G1 X8.736 Y185.406 E41.83675
G1 X8.281 Y185.132 E41.85708
G1 X7.873 Y184.793 E41.87738
G1 X7.52 Y184.397 E41.89768
G1 X7.231 Y183.952 E41.91799
G1 X7.011 Y183.469 E41.9383
G1 X6.867 Y182.958 E41.95862
G1 X6.801 Y182.432 E41.9789
G1 X6.815 Y181.901 E41.99923
G1 X6.908 Y181.379 E42.01952
G1 X7.079 Y180.876 E42.03986
G1 X7.253 Y180.525 E42.05485
G1 X7.756 Y179.634 E42.094
G1 X47.038 Y112.973 E45.05508
G1 X48.399 Y110.588 E45.16017
G1 X49.672 Y108.199 E45.26376
G1 X50.893 Y105.747 E45.36859
G1 X52.038 Y103.271 E45.47298
G1 X53.107 Y100.781 E45.57669
G1 X54.126 Y98.21 E45.68252
G1 X55.047 Y95.67 E45.78592
G1 X55.908 Y93.075 E45.89055
G1 X56.694 Y90.46 E45.99505
G1 X57.403 Y87.837 E46.09904
G1 X58.048 Y85.146 E46.20494
G1 X58.608 Y82.491 E46.30878
G1 X59.087 Y79.83 E46.41225
G1 X59.497 Y77.131 E46.51672
G1 X59.834 Y74.389 E46.62245
G1 X60.088 Y71.701 E46.72577
G1 X60.266 Y69.005 E46.82917
G1 X60.37 Y66.237 E46.93518
G1 X60.395 Y63.502 E47.03985
G1 X60.343 Y60.804 E47.14312
G1 X60.214 Y58.073 E47.24775
G1 X60.006 Y55.339 E47.35268
G1 X59.724 Y52.627 E47.45703
G1 X59.367 Y49.947 E47.5605
G1 X58.927 Y47.23 E47.66583
G1 X58.412 Y44.53 E47.77102
G1 X57.834 Y41.908 E47.87377
G1 X57.176 Y39.275 E47.97763
G1 X56.427 Y36.61 E48.08357
G1 X55.618 Y34.011 E48.18774
G1 X54.729 Y31.419 E48.29261
G1 X53.775 Y28.872 E48.3967
G1 X52.734 Y26.317 E48.50228
G1 X51.655 Y23.87 E48.60462
G1 X50.466 Y21.363 E48.71081
G1 X49.238 Y18.955 E48.81425
G1 X48.562 Y17.701 E48.86877
G1 X48.51 Y17.601 E48.87309
G1 X48.301 Y17.113 E48.8934
G1 X48.168 Y16.6 E48.91368
G1 X48.113 Y16.072 E48.934
G1 X48.139 Y15.542 E48.95431
G1 X48.243 Y15.022 E48.9746
G0 F1285.7 X48.618 Y14.993
G1 F900 X48.811 Y14.528 E48.99387
G1 X49.075 Y14.1 E49.01311
G1 X49.404 Y13.718 E49.03241
G1 X49.789 Y13.393 E49.05169
G1 X50.22 Y13.134 E49.07093
G1 X50.687 Y12.945 E49.09021
G1 X51.178 Y12.833 E49.10948
G1 X51.663 Y12.797 E49.1281
G1 X52.224 Y12.79 E49.14957
G1 X150.961 Y12.79 E52.92818
G1 X151.658 Y12.8 E52.95486
G1 X152.159 Y12.847 E52.97412
G1 X152.647 Y12.973 E52.99341
G1 X153.108 Y13.175 E53.01267
G1 X153.532 Y13.446 E53.03193
G1 X153.908 Y13.782 E53.05122
G1 X154.226 Y14.172 E53.07048
G1 X154.478 Y14.608 E53.08975
G1 X154.658 Y15.079 E53.10905
G1 X154.761 Y15.571 E53.12829
G1 X154.785 Y16.074 E53.14756
G1 X154.762 Y16.376 E53.15915
G1 X154.406 Y19.176 E53.26717
G1 X154.138 Y21.91 E53.3723
G1 X153.948 Y24.626 E53.47649
G1 X153.837 Y27.339 E53.5804
G1 X153.801 Y30.097 E53.68596
G1 X153.842 Y32.848 E53.79125
G1 X153.962 Y35.567 E53.89541
G1 X154.16 Y38.315 E54.00084
G1 X154.432 Y41.023 E54.105
G1 X154.784 Y43.748 E54.21015
G1 X155.21 Y46.443 E54.31457
G1 X155.716 Y49.15 E54.41996
G1 X156.294 Y51.815 E54.52431
G1 X156.943 Y54.454 E54.62832
G1 X157.679 Y57.113 E54.7339
G1 X158.49 Y59.752 E54.83956
G1 X159.355 Y62.305 E54.94271
G1 X160.316 Y64.902 E55.04869
G1 X161.339 Y67.441 E55.15344
G1 X162.436 Y69.954 E55.25838
G1 X163.598 Y72.425 E55.36288
G1 X164.833 Y74.867 E55.4676
G1 X166.772 Y78.395 E55.62167
G1 X199.729 Y135.479 E58.14419
G1 X200.047 Y136.051 E58.16923
G1 X200.256 Y136.509 E58.1885
G1 X200.39 Y136.995 E58.20779
G1 X200.445 Y137.495 E58.22704
G1 X200.421 Y137.998 E58.24632
G1 X200.318 Y138.491 E58.26559
G1 X200.137 Y138.961 E58.28486
G1 X199.885 Y139.397 E58.30414
G1 X199.567 Y139.788 E58.32342
G1 X199.191 Y140.123 E58.3427
G1 X198.767 Y140.395 E58.36197
G1 X198.306 Y140.596 E58.38122
G1 X197.818 Y140.722 E58.40051
G1 X197.243 Y140.772 E58.4226
G1 X196.704 Y140.782 E58.44323
G1 X193.925 Y140.794 E58.54958
G1 X191.219 Y140.845 E58.65315
G1 X188.433 Y140.975 E58.75989
G1 X185.724 Y141.178 E58.86385
G1 X182.986 Y141.463 E58.9692
G1 X180.31 Y141.818 E59.07251
G1 X177.573 Y142.259 E59.1786
G1 X174.892 Y142.77 E59.28305
G1 X172.212 Y143.36 E59.38807
G1 X169.566 Y144.019 E59.49242
G1 X166.934 Y144.757 E59.59703
G1 X164.298 Y145.577 E59.70268
G1 X161.729 Y146.457 E59.8066
G1 X159.118 Y147.433 E59.91328
G1 X156.617 Y148.45 E60.0166
G1 X154.092 Y149.562 E60.12218
G1 X151.653 Y150.718 E60.22548
G1 X149.168 Y151.984 E60.33221
G1 X146.802 Y153.275 E60.43535
G1 X144.414 Y154.668 E60.54115
G1 X142.095 Y156.108 E60.64562
G1 X139.815 Y157.615 E60.75021
G1 X137.574 Y159.19 E60.85504
G1 X135.387 Y160.821 E60.95944
G1 X133.223 Y162.532 E61.06502
G1 X131.122 Y164.292 E61.1699
G1 X129.083 Y166.101 E61.27422
G1 X127.078 Y167.984 E61.37948
G1 X125.129 Y169.922 E61.48467
G1 X123.27 Y171.876 E61.58788
G1 X121.417 Y173.939 E61.694
G1 X119.645 Y176.027 E61.79881
G1 X117.939 Y178.156 E61.90321
G1 X116.295 Y180.334 E62.00765
G1 X114.316 Y183.132 E62.1388
G1 X113.693 Y184.046 E62.18113
G1 X113.377 Y184.438 E62.2004
G1 X113.004 Y184.776 E62.21966
G1 X112.581 Y185.05 E62.23895
G1 X112.121 Y185.254 E62.25821
G1 X111.634 Y185.382 E62.27748
G1 X111.118 Y185.434 E62.29733
G1 X110.472 Y185.443 E62.32205
G1 X10.955 Y185.443 E66.13052
G1 X10.275 Y185.433 E66.15654
G1 X9.774 Y185.385 E66.1758
G1 X9.286 Y185.259 E66.19509
G1 X8.825 Y185.058 E66.21434
G1 X8.401 Y184.786 E66.23362
G1 X8.025 Y184.45 E66.25291
G1 X7.708 Y184.06 E66.27215
G1 X7.456 Y183.624 E66.29142
G1 X7.276 Y183.153 E66.31072
G1 X7.173 Y182.66 E66.32999
G1 X7.149 Y182.157 E66.34926
G1 X7.204 Y181.657 E66.36851
G1 X7.339 Y181.172 E66.38778
G1 X7.557 Y180.697 E66.40778
G1 X8.058 Y179.812 E66.4467
G1 X47.317 Y113.189 E69.40607
G1 X48.699 Y110.768 E69.51276
G1 X49.996 Y108.335 E69.61827
G1 X51.197 Y105.922 E69.72142
G1 X52.357 Y103.414 E69.82717
G1 X53.433 Y100.906 E69.93161
G1 X54.459 Y98.317 E70.03818
G1 X55.384 Y95.768 E70.14196
G1 X56.233 Y93.208 E70.24518
G1 X57.034 Y90.542 E70.35171
G1 X57.746 Y87.909 E70.45609
G1 X58.38 Y85.266 E70.56011
G1 X58.951 Y82.557 E70.66606
G1 X59.435 Y79.869 E70.77058
G1 X59.847 Y77.157 E70.87556
G1 X60.178 Y74.468 E70.97924
G1 X60.437 Y71.718 E71.08495
G1 X60.616 Y69.006 E71.18896
G1 X60.719 Y66.253 E71.29439
G1 X60.745 Y63.499 E71.39979
G1 X60.693 Y60.779 E71.5039
G1 X60.564 Y58.064 E71.60792
G1 X60.355 Y55.314 E71.71346
G1 X60.071 Y52.58 E71.81866
G1 X59.711 Y49.88 E71.9229
G1 X59.275 Y47.184 E72.02741
G1 X58.755 Y44.458 E72.13362
G1 X58.172 Y41.816 E72.23716
G1 X57.517 Y39.196 E72.34051
G1 X56.752 Y36.473 E72.44875
G1 X55.952 Y33.904 E72.55172
G1 X55.064 Y31.314 E72.6565
G1 X54.095 Y28.728 E72.76219
G1 X53.071 Y26.216 E72.866
G1 X51.972 Y23.721 E72.97034
G1 X50.77 Y21.188 E73.07763
G1 X49.56 Y18.815 E73.17957
G1 X48.872 Y17.54 E73.23502
G1 X48.82 Y17.44 E73.23933
G1 X48.624 Y16.976 E73.25861
G1 X48.504 Y16.487 E73.27788
G1 X48.462 Y15.985 E73.29715
G1 X48.5 Y15.483 E73.31642
G1 X48.618 Y14.993 E73.33571
G0 F1285.7 X75.231 Y59.85
;TYPE:SUPPORT
G1 F900 X75.423 Y59.868 E73.34309
G1 X78.17 Y64.668 E73.55474
G1 X78.215 Y64.756 E73.55852
G1 X77.992 Y64.979 E73.57059
G1 X76.719 Y65.087 E73.61948
G1 X75.44 Y62.784 E73.72029
G1 X75.445 Y62.397 E73.73511
