;FLAVOR:Marlin
;TIME:13069
;Filament used: 22.706m
;Layer height: 0.3
;MINX:19.64
;MINY:17.662
;MINZ:0.26
;MAXX:192.615
;MAXY:194.922
;MAXZ:24.56
;Generated with Cura_SteamEngine 4.9.1
M82 ;absolute extrusion mode
;Begin Start Gcode for Dagoma DiscoEasy 200
;Sliced: 01-08-2021 01:40:24
;Initial extruder: 0

G90 ;Absolute positioning
M106 S255 ;Fan on full
G28 X Y ;Home stop X Y
G1 X100 ;Centre back during cooldown in case of oozing
M109 R90 ;Cooldown in case too hot
G28 ;Centre
G29 ;Auto-level
M104 S205 ;Pre-heat
M107 ;Fan off
G0 X100 Y5 Z0.5 ;Front centre for degunk
M109 S205 ;Wait for initial temp
M83 ;E Relative
G1 E10 F200 ;Degunk
G1 E-3 F5000 ;Retract
G0 Z3 ;Withdraw
M82 ;E absolute
G92 E0 ;E reset
G1 F6000 ;Set feedrate

;Finish Start Gcode for Dagoma DiscoEasy 200

G92 E0
G92 E0
G1 F3000 E-3.5
;LAYER_COUNT:82
;LAYER:0
M107
G0 F1285.7 X21.385 Y43.882 Z0.26
;TYPE:SKIRT
G1 F3000 E0
G1 F900 X22.52 Y43.397 E0.04724
G1 X25.093 Y42.254 E0.15498
G1 X27.527 Y41.09 E0.25823
G1 X29.999 Y39.82 E0.36459
G1 X32.401 Y38.501 E0.46946
G1 X34.77 Y37.109 E0.57461
G1 X37.081 Y35.663 E0.67894
G1 X39.392 Y34.124 E0.7852
G1 X39.922 Y33.753 E0.80996
G1 X40.689 Y33.288 E0.84428
G1 X41.241 Y33.099 E0.86661
G1 X41.519 Y33.029 E0.87758
G1 X42.19 Y32.878 E0.9039
G1 X43.028 Y32.76 E0.93629
G1 X43.427 Y32.752 E0.95156
G1 X45.565 Y32.737 E1.03338
G1 X48.301 Y32.64 E1.13815
G1 X51.035 Y32.466 E1.243
G1 X53.789 Y32.213 E1.34883
G1 X56.512 Y31.884 E1.4538
G1 X59.219 Y31.48 E1.55854
G1 X61.905 Y31 E1.66296
G1 X64.647 Y30.43 E1.77014
G1 X67.252 Y29.812 E1.8726
G1 X69.95 Y29.089 E1.97949
G1 X72.561 Y28.311 E2.08376
G1 X75.199 Y27.442 E2.19005
G1 X77.749 Y26.522 E2.29379
G1 X80.321 Y25.511 E2.39955
G1 X82.873 Y24.422 E2.50574
G1 X85.324 Y23.295 E2.60898
G1 X87.826 Y22.057 E2.71581
G1 X91.301 Y20.185 E2.86686
G1 X92.291 Y19.625 E2.91039
G1 X92.911 Y19.364 E2.93613
G1 X93.779 Y19.114 E2.9707
G1 X94.28 Y18.987 E2.99048
G1 X94.753 Y18.911 E3.00882
G1 X95.16 Y18.908 E3.02439
G1 X95.937 Y18.958 E3.05419
G1 X98.683 Y19.097 E3.15941
G1 X101.418 Y19.158 E3.26411
G1 X104.19 Y19.141 E3.37019
G1 X106.925 Y19.047 E3.47492
G1 X109.66 Y18.876 E3.57979
G1 X112.375 Y18.629 E3.68412
G1 X115.135 Y18.298 E3.7905
G1 X117.989 Y17.873 E3.90093
G1 X119.049 Y17.7 E3.94203
G1 X119.527 Y17.662 E3.96038
G1 X120.004 Y17.704 E3.97871
G1 X120.468 Y17.825 E3.99706
G1 X120.905 Y18.021 E4.01539
G1 X121.517 Y18.475 E4.04455
G1 X121.824 Y18.776 E4.061
G1 X191.065 Y90.129 E7.86599
G1 X191.545 Y90.639 E7.8928
G1 X191.843 Y91.014 E7.91113
G1 X192.075 Y91.433 E7.92946
G1 X192.233 Y91.885 E7.94778
G1 X192.315 Y92.357 E7.96611
G1 X192.306 Y92.952 E7.98889
G1 X192.261 Y93.327 E8.00334
G1 X191.966 Y96.08 E8.1093
G1 X191.752 Y98.809 E8.21406
G1 X191.616 Y101.54 E8.3187
G1 X191.557 Y104.27 E8.4232
G1 X191.576 Y107.049 E8.52955
G1 X191.671 Y109.783 E8.63425
G1 X191.844 Y112.517 E8.73908
G1 X192.096 Y115.271 E8.84492
G1 X192.423 Y117.988 E8.94965
G1 X192.515 Y118.614 E8.97386
G1 X192.593 Y119.219 E8.99721
G1 X192.615 Y119.698 E9.01556
G1 X192.531 Y120.286 E9.03829
G1 X192.32 Y121.128 E9.07151
G1 X192.184 Y121.607 E9.09056
G1 X191.945 Y122.188 E9.11461
G1 X191.829 Y122.399 E9.12382
G1 X190.607 Y124.523 E9.2176
G1 X189.32 Y126.913 E9.32148
G1 X188.081 Y129.379 E9.42709
G1 X186.907 Y131.893 E9.53328
G1 X185.834 Y134.373 E9.63669
G1 X184.797 Y136.96 E9.74335
G1 X183.87 Y139.482 E9.84618
G1 X182.979 Y142.136 E9.95332
G1 X182.184 Y144.743 E10.05762
G1 X181.456 Y147.4 E10.16305
G1 X180.8 Y150.086 E10.26886
G1 X180.228 Y152.768 E10.37381
G1 X179.732 Y155.451 E10.47823
G1 X179.306 Y158.187 E10.5842
G1 X178.964 Y160.894 E10.68861
G1 X178.694 Y163.63 E10.79383
G1 X178.504 Y166.368 E10.89886
G1 X178.365 Y170.365 E11.05192
G1 X178.352 Y171.319 E11.08843
G1 X178.264 Y171.985 E11.11414
G1 X178.022 Y172.936 E11.15169
G1 X177.735 Y173.797 E11.18643
G1 X177.323 Y174.433 E11.21543
G1 X176.72 Y175.141 E11.25102
G1 X176.046 Y175.911 E11.29018
G1 X174.284 Y178.042 E11.396
G1 X172.597 Y180.205 E11.50097
G1 X170.972 Y182.415 E11.60595
G1 X169.419 Y184.656 E11.71029
G1 X167.905 Y186.978 E11.81638
G1 X166.47 Y189.323 E11.92159
G1 X165.243 Y191.452 E12.01563
G1 X164.899 Y192.068 E12.04263
G1 X164.631 Y192.465 E12.06096
G1 X164.301 Y192.813 E12.07931
G1 X163.918 Y193.1 E12.09763
G1 X163.493 Y193.321 E12.11596
G1 X163.037 Y193.467 E12.13428
G1 X162.562 Y193.536 E12.15265
G1 X162.083 Y193.525 E12.17099
G1 X161.613 Y193.434 E12.18931
G1 X161.164 Y193.267 E12.20764
G1 X160.749 Y193.027 E12.22599
G1 X160.491 Y192.825 E12.23853
G1 X160.042 Y192.43 E12.26141
G1 X157.916 Y190.615 E12.36839
G1 X155.781 Y188.893 E12.47336
G1 X153.62 Y187.25 E12.57725
G1 X151.365 Y185.634 E12.68342
G1 X149.083 Y184.092 E12.78882
G1 X146.755 Y182.616 E12.89431
G1 X145.199 Y181.679 E12.96382
G1 X144.445 Y181.188 E12.99825
G1 X144.261 Y181.019 E13.00781
G1 X143.253 Y180.009 E13.06242
G1 X143.036 Y179.789 E13.07425
G1 X140.922 Y177.677 E13.18861
G1 X139.125 Y175.879 E13.28589
G1 X138.237 Y174.964 E13.33468
G1 X137.739 Y174.436 E13.36246
G1 X137.437 Y174.056 E13.38104
G1 X136.797 Y173.095 E13.42522
G1 X136.624 Y172.825 E13.43749
G1 X135.05 Y170.525 E13.54415
G1 X133.464 Y168.342 E13.64742
G1 X131.782 Y166.158 E13.75291
G1 X130.06 Y164.05 E13.85708
G1 X128.221 Y161.923 E13.96468
G1 X126.401 Y159.933 E14.06789
G1 X124.497 Y157.969 E14.17257
G1 X122.486 Y156.008 E14.28006
G1 X120.504 Y154.181 E14.38322
G1 X118.431 Y152.377 E14.48839
G1 X116.27 Y150.6 E14.59546
G1 X114.153 Y148.958 E14.69799
G1 X111.911 Y147.318 E14.80429
G1 X111.635 Y147.125 E14.81718
G1 X111.191 Y146.804 E14.83815
G1 X110.877 Y146.541 E14.85382
G1 X110.276 Y145.959 E14.88584
G1 X108.254 Y143.944 E14.99509
G1 X108.215 Y143.913 E14.99699
G1 X107.447 Y143.139 E15.03872
G1 X107.29 Y142.987 E15.04708
G1 X106.415 Y142.105 E15.09463
G1 X105.387 Y141.064 E15.15062
G1 X104.448 Y140.13 E15.2013
G1 X104.031 Y139.685 E15.22464
G1 X103.554 Y139.12 E15.25294
G1 X101.749 Y137.049 E15.35807
G1 X99.889 Y135.033 E15.46304
G1 X97.999 Y133.096 E15.56661
G1 X95.967 Y131.129 E15.67484
G1 X93.983 Y129.314 E15.77775
G1 X91.893 Y127.509 E15.88343
G1 X89.764 Y125.772 E15.98858
G1 X87.577 Y124.088 E16.09422
G1 X85.375 Y122.491 E16.19832
G1 X83.093 Y120.931 E16.3041
G1 X80.784 Y119.448 E16.40912
G1 X78.407 Y118.014 E16.51536
G1 X76.076 Y116.695 E16.61786
G1 X73.603 Y115.388 E16.7249
G1 X71.136 Y114.171 E16.83018
G1 X69.778 Y113.547 E16.88737
G1 X68.945 Y113.1 E16.92355
G1 X68.576 Y112.788 E16.94204
G1 X68.04 Y112.252 E16.97105
G1 X67.149 Y111.334 E17.02001
G1 X66.722 Y110.885 E17.04372
G1 X66.299 Y110.326 E17.07055
G1 X65.61 Y109.154 E17.12258
G1 X64.167 Y106.776 E17.22903
G1 X62.673 Y104.464 E17.33437
G1 X61.118 Y102.202 E17.43942
G1 X59.495 Y99.977 E17.54481
G1 X57.817 Y97.808 E17.64976
G1 X56.08 Y95.69 E17.75459
G1 X54.266 Y93.601 E17.86047
G1 X52.411 Y91.582 E17.96539
G1 X50.492 Y89.611 E18.07067
G1 X48.523 Y87.7 E18.17568
G1 X46.5 Y85.843 E18.28077
G1 X44.438 Y84.057 E18.38516
G1 X42.304 Y82.309 E18.49073
G1 X40.117 Y80.62 E18.59648
G1 X37.917 Y79.018 E18.70063
G1 X35.638 Y77.455 E18.80639
G1 X33.332 Y75.968 E18.91139
G1 X32.693 Y75.581 E18.93998
G1 X31.77 Y75.005 E18.98162
G1 X31.264 Y74.603 E19.00635
G1 X30.782 Y74.124 E19.03236
G1 X29.671 Y72.983 E19.0933
G1 X29.197 Y72.483 E19.11967
G1 X28.897 Y72.109 E19.13802
G1 X28.664 Y71.69 E19.15637
G1 X28.467 Y71.098 E19.18024
G1 X27.869 Y68.607 E19.27828
G1 X27.151 Y65.944 E19.38383
G1 X26.372 Y63.349 E19.48752
G1 X25.498 Y60.714 E19.59376
G1 X24.561 Y58.134 E19.69881
G1 X23.552 Y55.583 E19.80379
G1 X22.47 Y53.058 E19.90892
G1 X21.317 Y50.567 E20.01397
G1 X20.163 Y48.241 E20.11333
G1 X19.773 Y47.394 E20.14902
G1 X19.667 Y46.927 E20.16735
G1 X19.64 Y46.449 E20.18567
G1 X19.693 Y45.972 E20.20404
G1 X19.824 Y45.512 E20.22234
G1 X20.03 Y45.079 E20.24069
G1 X20.305 Y44.686 E20.25905
G1 X20.641 Y44.345 E20.27737
G1 X21.029 Y44.064 E20.2957
G1 X21.385 Y43.882 E20.311
G0 F1285.7 X21.522 Y44.204
G1 F900 X22.662 Y43.717 E20.35844
G1 X25.215 Y42.583 E20.46535
G1 X27.724 Y41.383 E20.57178
G1 X30.142 Y40.141 E20.67581
G1 X32.577 Y38.804 E20.78212
G1 X34.947 Y37.411 E20.88733
G1 X37.291 Y35.944 E20.99315
G1 X39.562 Y34.431 E21.09758
G1 X40.117 Y34.044 E21.12348
G1 X40.859 Y33.595 E21.15667
G1 X41.531 Y33.386 E21.1836
G1 X42.257 Y33.222 E21.21208
G1 X43.034 Y33.109 E21.24213
G1 X43.43 Y33.102 E21.25729
G1 X45.581 Y33.087 E21.33961
G1 X48.299 Y32.991 E21.44369
G1 X51.09 Y32.813 E21.55072
G1 X53.793 Y32.564 E21.6546
G1 X56.571 Y32.229 E21.76168
G1 X59.258 Y31.828 E21.86565
G1 X62.01 Y31.336 E21.97264
G1 X64.681 Y30.781 E22.07704
G1 X67.363 Y30.145 E22.18252
G1 X70.031 Y29.43 E22.28823
G1 X72.692 Y28.637 E22.39449
G1 X75.296 Y27.779 E22.49941
G1 X77.884 Y26.845 E22.60471
G1 X80.457 Y25.834 E22.7105
G1 X83.001 Y24.748 E22.81636
G1 X85.497 Y23.6 E22.9215
G1 X87.967 Y22.378 E23.02696
G1 X91.481 Y20.486 E23.1797
G1 X92.463 Y19.93 E23.22288
G1 X93.008 Y19.701 E23.2455
G1 X93.964 Y19.427 E23.28356
G1 X94.809 Y19.258 E23.31654
G1 X95.138 Y19.257 E23.32913
G1 X95.896 Y19.306 E23.3582
G1 X98.694 Y19.447 E23.46542
G1 X101.413 Y19.508 E23.5695
G1 X104.169 Y19.491 E23.67497
G1 X106.959 Y19.396 E23.7818
G1 X109.675 Y19.225 E23.88595
G1 X112.451 Y18.973 E23.99262
G1 X115.189 Y18.644 E24.09816
G1 X118.005 Y18.225 E24.20711
G1 X119.106 Y18.045 E24.2498
G1 X119.553 Y18.012 E24.26696
G1 X120 Y18.059 E24.28416
G1 X120.431 Y18.185 E24.30134
G1 X120.833 Y18.385 E24.31853
G1 X121.273 Y18.726 E24.33983
G1 X121.573 Y19.02 E24.3559
G1 X190.81 Y90.368 E28.16065
G1 X191.29 Y90.878 E28.18746
G1 X191.567 Y91.231 E28.20463
G1 X191.778 Y91.628 E28.22183
G1 X191.915 Y92.056 E28.23903
G1 X191.974 Y92.501 E28.25621
G1 X191.917 Y93.253 E28.28507
G1 X191.616 Y96.066 E28.39334
G1 X191.405 Y98.762 E28.49683
G1 X191.265 Y101.567 E28.60431
G1 X191.207 Y104.27 E28.70777
G1 X191.226 Y107.065 E28.81474
G1 X191.319 Y109.765 E28.91813
G1 X191.497 Y112.571 E29.02573
G1 X191.743 Y115.261 E29.1291
G1 X192.078 Y118.042 E29.2363
G1 X192.168 Y118.659 E29.26016
G1 X192.246 Y119.264 E29.28351
G1 X192.264 Y119.713 E29.3007
G1 X192.191 Y120.201 E29.31959
G1 X191.98 Y121.043 E29.35281
G1 X191.847 Y121.51 E29.37139
G1 X191.638 Y122.02 E29.39248
G1 X191.526 Y122.224 E29.40139
G1 X190.302 Y124.352 E29.49534
G1 X188.998 Y126.774 E29.60061
G1 X187.78 Y129.198 E29.70442
G1 X186.583 Y131.76 E29.81264
G1 X185.507 Y134.246 E29.91631
G1 X184.476 Y136.82 E30.02242
G1 X183.531 Y139.391 E30.12725
G1 X182.644 Y142.034 E30.23394
G1 X181.842 Y144.663 E30.33913
G1 X181.12 Y147.301 E30.4438
G1 X180.453 Y150.031 E30.55135
G1 X179.89 Y152.672 E30.65469
G1 X179.385 Y155.402 E30.76093
G1 X178.961 Y158.124 E30.86636
G1 X178.616 Y160.854 E30.97167
G1 X178.345 Y163.603 E31.07738
G1 X178.154 Y166.361 E31.18318
G1 X178.015 Y170.36 E31.33631
G1 X178.002 Y171.314 E31.37282
G1 X177.925 Y171.899 E31.39541
G1 X177.686 Y172.84 E31.43256
G1 X177.407 Y173.672 E31.46614
G1 X177.056 Y174.206 E31.4906
G1 X176.456 Y174.911 E31.52603
G1 X175.777 Y175.686 E31.56546
G1 X174.018 Y177.814 E31.67112
G1 X172.319 Y179.993 E31.77686
G1 X170.682 Y182.219 E31.8826
G1 X169.124 Y184.468 E31.9873
G1 X167.62 Y186.774 E32.09267
G1 X166.165 Y189.151 E32.19932
G1 X164.938 Y191.281 E32.29339
G1 X164.594 Y191.897 E32.32039
G1 X164.341 Y192.268 E32.33758
G1 X164.026 Y192.588 E32.35476
G1 X163.66 Y192.848 E32.37194
G1 X163.253 Y193.039 E32.38915
G1 X162.819 Y193.154 E32.40633
G1 X162.372 Y193.191 E32.4235
G1 X161.925 Y193.148 E32.44068
G1 X161.493 Y193.026 E32.45786
G1 X161.089 Y192.83 E32.47505
G1 X160.722 Y192.562 E32.49244
G1 X160.269 Y192.164 E32.51551
G1 X158.153 Y190.357 E32.622
G1 X156.002 Y188.623 E32.72774
G1 X153.786 Y186.937 E32.8343
G1 X151.579 Y185.356 E32.93819
G1 X149.272 Y183.797 E33.04475
G1 X146.93 Y182.312 E33.15087
G1 X145.357 Y181.365 E33.22114
G1 X145.014 Y181.163 E33.23637
G1 X144.509 Y180.772 E33.26081
G1 X143.502 Y179.763 E33.31537
G1 X143.285 Y179.543 E33.32719
G1 X141.2 Y177.46 E33.43998
G1 X139.376 Y175.636 E33.5387
G1 X138.491 Y174.723 E33.58736
G1 X137.993 Y174.195 E33.61514
G1 X137.728 Y173.862 E33.63142
G1 X137.092 Y172.906 E33.67537
G1 X136.916 Y172.632 E33.68783
G1 X135.357 Y170.354 E33.79347
G1 X133.732 Y168.116 E33.89931
G1 X132.064 Y165.95 E34.00393
G1 X130.316 Y163.809 E34.10971
G1 X128.496 Y161.705 E34.21617
G1 X126.662 Y159.701 E34.32013
G1 X124.727 Y157.705 E34.42652
G1 X122.738 Y155.766 E34.53282
G1 X120.741 Y153.924 E34.63679
G1 X118.634 Y152.091 E34.74367
G1 X116.525 Y150.356 E34.84818
G1 X114.341 Y148.662 E34.95396
G1 X112.087 Y147.013 E35.06084
G1 X111.84 Y146.841 E35.07236
G1 X111.396 Y146.52 E35.09332
G1 X111.12 Y146.289 E35.1071
G1 X110.523 Y145.712 E35.13887
G1 X108.524 Y143.72 E35.24687
G1 X108.463 Y143.667 E35.24996
G1 X107.651 Y142.849 E35.29407
G1 X107.538 Y142.74 E35.30008
G1 X106.664 Y141.86 E35.34754
G1 X105.616 Y140.798 E35.40464
G1 X104.702 Y139.889 E35.45398
G1 X104.299 Y139.459 E35.47653
G1 X103.847 Y138.924 E35.50333
G1 X102.004 Y136.81 E35.61066
G1 X100.149 Y134.799 E35.71536
G1 X98.203 Y132.805 E35.82199
G1 X96.238 Y130.903 E35.92665
G1 X94.22 Y129.057 E36.03131
G1 X92.113 Y127.236 E36.13789
G1 X89.971 Y125.49 E36.24364
G1 X87.803 Y123.821 E36.34835
G1 X85.567 Y122.198 E36.45409
G1 X83.269 Y120.628 E36.5606
G1 X80.969 Y119.15 E36.66522
G1 X78.617 Y117.731 E36.77034
G1 X76.196 Y116.362 E36.87678
G1 X73.794 Y115.092 E36.98076
G1 X71.28 Y113.852 E37.08804
G1 X69.93 Y113.231 E37.14491
G1 X69.125 Y112.798 E37.17989
G1 X68.824 Y112.54 E37.19506
G1 X68.291 Y112.008 E37.22388
G1 X67.402 Y111.093 E37.2727
G1 X66.975 Y110.644 E37.29641
G1 X66.6 Y110.149 E37.32018
G1 X65.891 Y108.943 E37.37372
G1 X64.454 Y106.574 E37.47975
G1 X62.975 Y104.286 E37.58402
G1 X61.393 Y101.984 E37.69091
G1 X59.775 Y99.767 E37.79595
G1 X58.101 Y97.604 E37.90062
G1 X56.332 Y95.446 E38.0074
G1 X54.525 Y93.365 E38.11288
G1 X52.672 Y91.348 E38.2177
G1 X50.773 Y89.397 E38.32189
G1 X48.755 Y87.439 E38.42949
G1 X46.737 Y85.586 E38.53434
G1 X44.641 Y83.77 E38.64047
G1 X42.53 Y82.042 E38.74487
G1 X40.327 Y80.339 E38.85144
G1 X38.111 Y78.726 E38.95633
G1 X35.856 Y77.18 E39.06096
G1 X33.517 Y75.671 E39.16748
G1 X32.878 Y75.284 E39.19607
G1 X31.955 Y74.708 E39.23771
G1 X31.511 Y74.355 E39.25942
G1 X31.033 Y73.88 E39.28521
G1 X29.925 Y72.742 E39.34599
G1 X29.451 Y72.242 E39.37236
G1 X29.172 Y71.89 E39.38954
G1 X28.96 Y71.494 E39.40673
G1 X28.806 Y71.011 E39.42614
G1 X28.213 Y68.537 E39.5235
G1 X27.489 Y65.853 E39.62988
G1 X26.71 Y63.257 E39.73361
G1 X25.82 Y60.573 E39.84182
G1 X24.895 Y58.028 E39.94545
G1 X23.878 Y55.458 E40.05123
G1 X22.789 Y52.916 E40.15706
G1 X21.628 Y50.406 E40.26289
G1 X20.476 Y48.085 E40.36205
G1 X20.099 Y47.262 E40.3967
G1 X20.006 Y46.822 E40.41391
G1 X19.994 Y46.373 E40.4311
G1 X20.061 Y45.929 E40.44828
G1 X20.205 Y45.504 E40.46545
G1 X20.422 Y45.111 E40.48263
G1 X20.706 Y44.763 E40.49982
G1 X21.047 Y44.471 E40.51701
G1 X21.522 Y44.204 E40.53786
G0 F1285.7 X21.66 Y44.526
G1 F900 X22.804 Y44.037 E40.58547
G1 X25.366 Y42.899 E40.69275
G1 X27.85 Y41.711 E40.79813
G1 X30.346 Y40.429 E40.90551
G1 X32.738 Y39.115 E41.00995
G1 X35.115 Y37.719 E41.11545
G1 X37.485 Y36.235 E41.22246
G1 X39.782 Y34.705 E41.32808
G1 X40.312 Y34.335 E41.35282
G1 X41.027 Y33.904 E41.38477
G1 X41.618 Y33.725 E41.4084
G1 X42.256 Y33.58 E41.43344
G1 X43.041 Y33.459 E41.46383
G1 X43.432 Y33.452 E41.4788
G1 X45.56 Y33.437 E41.56024
G1 X48.336 Y33.339 E41.66654
G1 X51.106 Y33.162 E41.77277
G1 X53.867 Y32.909 E41.87887
G1 X56.595 Y32.579 E41.98403
G1 X59.337 Y32.17 E42.09013
G1 X62.068 Y31.682 E42.1963
G1 X64.765 Y31.121 E42.30172
G1 X67.424 Y30.49 E42.4063
G1 X70.153 Y29.76 E42.51441
G1 X72.769 Y28.98 E42.61888
G1 X75.413 Y28.109 E42.72541
G1 X78.02 Y27.168 E42.83148
G1 X80.58 Y26.161 E42.93676
G1 X83.142 Y25.069 E43.04334
G1 X85.656 Y23.912 E43.14925
G1 X88.121 Y22.693 E43.25449
G1 X91.646 Y20.795 E43.4077
G1 X92.636 Y20.234 E43.45125
G1 X93.105 Y20.037 E43.47072
G1 X93.973 Y19.787 E43.50528
G1 X94.862 Y19.605 E43.54001
G1 X95.115 Y19.606 E43.54969
G1 X95.894 Y19.656 E43.57957
G1 X98.668 Y19.797 E43.68586
G1 X101.407 Y19.858 E43.79071
G1 X104.183 Y19.841 E43.89695
