;FLAVOR:Marlin
;TIME:23873
;Filament used: 25.7966m
;Layer height: 0.3
;MINX:15.171
;MINY:9.165
;MINZ:0.26
;MAXX:188.521
;MAXY:186.519
;MAXZ:29.36
;Generated with Cura_SteamEngine 4.9.1
M82 ;absolute extrusion mode
;Begin Start Gcode for Dagoma DiscoEasy 200
;Sliced: 26-07-2021 01:57:38
;Initial extruder: 0

G90 ;Absolute positioning
M106 S255 ;Fan on full
G28 X Y ;Home stop X Y
G1 X100 ;Centre back during cooldown in case of oozing
M109 R90 ;Cooldown in case too hot
G28 ;Centre
G29 ;Auto-level
M104 S205 ;Pre-heat
M107 ;Fan off
G0 X100 Y5 Z0.5 ;Front centre for degunk
M109 S205 ;Wait for initial temp
M83 ;E Relative
G1 E10 F200 ;Degunk
G1 E-3 F5000 ;Retract
G0 Z3 ;Withdraw
M82 ;E absolute
G92 E0 ;E reset
G1 F6000 ;Set feedrate

;Finish Start Gcode for Dagoma DiscoEasy 200

G92 E0
G92 E0
G1 F3000 E-3.5
;LAYER_COUNT:98
;LAYER:0
M107
G0 F1285.7 X40.861 Y11.279 Z0.26
;TYPE:SKIRT
G1 F3000 E0
G1 F900 X41.026 Y10.829 E0.01834
G1 X41.263 Y10.413 E0.03666
G1 X41.566 Y10.042 E0.055
G1 X41.926 Y9.726 E0.07333
G1 X42.334 Y9.475 E0.09166
G1 X42.778 Y9.294 E0.11001
G1 X43.246 Y9.19 E0.12836
G1 X43.724 Y9.165 E0.14667
G1 X44.2 Y9.22 E0.16501
G1 X44.661 Y9.354 E0.18338
G1 X45.092 Y9.561 E0.20168
G1 X45.63 Y9.97 E0.22755
G1 X46.35 Y10.665 E0.26584
G1 X113.063 Y77.386 E3.87665
G1 X115.004 Y79.274 E3.98028
G1 X117.062 Y81.165 E4.08723
G1 X119.135 Y82.964 E4.19227
G1 X121.257 Y84.702 E4.29724
G1 X123.425 Y86.379 E4.40214
G1 X125.634 Y87.99 E4.50677
G1 X127.912 Y89.553 E4.61249
G1 X130.231 Y91.051 E4.71815
G1 X132.571 Y92.469 E4.82286
G1 X134.953 Y93.822 E4.92769
G1 X136.463 Y94.636 E4.99334
G1 X137.126 Y95.013 E5.02253
G1 X137.737 Y95.472 E5.05178
G1 X137.975 Y95.691 E5.06415
G1 X138.584 Y96.262 E5.0961
G1 X138.672 Y96.359 E5.10111
G1 X139.594 Y97.238 E5.14986
G1 X139.979 Y97.656 E5.17161
G1 X140.326 Y98.075 E5.19243
G1 X140.538 Y98.367 E5.20624
G1 X142.061 Y100.773 E5.31521
G1 X143.604 Y103.06 E5.42079
G1 X145.186 Y105.269 E5.52477
G1 X146.872 Y107.487 E5.63139
G1 X148.581 Y109.609 E5.73566
G1 X150.361 Y111.694 E5.84058
G1 X152.196 Y113.728 E5.94542
G1 X154.104 Y115.724 E6.05109
G1 X156.073 Y117.669 E6.157
G1 X158.071 Y119.536 E6.26165
G1 X160.096 Y121.322 E6.36498
G1 X162.254 Y123.12 E6.47248
G1 X164.394 Y124.803 E6.57667
G1 X166.592 Y126.433 E6.68139
G1 X168.872 Y128.027 E6.78785
G1 X171.193 Y129.551 E6.89411
G1 X172.421 Y130.333 E6.94983
G1 X173.144 Y130.869 E6.98427
G1 X173.817 Y131.51 E7.01984
G1 X174.66 Y132.333 E7.06493
G1 X175.127 Y132.793 E7.09001
G1 X175.643 Y133.386 E7.12009
G1 X176.009 Y133.936 E7.14538
G1 X176.438 Y134.775 E7.18144
G1 X177.749 Y137.255 E7.28879
G1 X179.094 Y139.632 E7.39331
G1 X180.513 Y141.981 E7.49834
G1 X181.992 Y144.282 E7.60302
G1 X183.537 Y146.542 E7.70778
G1 X185.157 Y148.773 E7.8133
G1 X186.841 Y150.96 E7.91893
G1 X187.884 Y152.253 E7.98251
G1 X188.153 Y152.65 E8.00086
G1 X188.352 Y153.086 E8.0192
G1 X188.476 Y153.549 E8.03754
G1 X188.521 Y154.026 E8.05588
G1 X188.486 Y154.503 E8.07418
G1 X188.373 Y154.969 E8.09253
G1 X188.184 Y155.409 E8.11086
G1 X187.924 Y155.812 E8.12921
G1 X187.601 Y156.166 E8.14755
G1 X187.224 Y156.461 E8.16587
G1 X186.59 Y156.774 E8.19293
G1 X185.618 Y157.112 E8.23231
G1 X183.039 Y158.047 E8.3373
G1 X180.476 Y159.06 E8.44276
G1 X177.951 Y160.142 E8.54789
G1 X175.46 Y161.293 E8.65291
G1 X172.989 Y162.521 E8.7585
G1 X170.595 Y163.796 E8.8623
G1 X168.201 Y165.16 E8.96775
G1 X165.464 Y166.829 E9.09043
G1 X164.841 Y167.113 E9.11663
G1 X164.317 Y167.271 E9.13758
G1 X162.436 Y167.806 E9.21242
G1 X160.611 Y168.296 E9.28473
G1 X160.167 Y168.408 E9.30226
G1 X158.282 Y168.914 E9.37695
G1 X157.247 Y169.166 E9.41772
G1 X156.581 Y169.255 E9.44343
G1 X153.815 Y169.482 E9.54964
G1 X151.091 Y169.784 E9.65452
G1 X148.385 Y170.162 E9.75909
G1 X145.65 Y170.623 E9.86523
G1 X142.974 Y171.152 E9.96962
G1 X140.334 Y171.754 E10.07325
G1 X137.611 Y172.454 E10.18084
G1 X134.976 Y173.212 E10.28577
G1 X132.393 Y174.035 E10.38952
G1 X129.752 Y174.959 E10.4966
G1 X127.208 Y175.932 E10.60083
G1 X124.684 Y176.98 E10.70542
G1 X122.168 Y178.109 E10.81095
G1 X119.676 Y179.312 E10.91685
G1 X117.508 Y180.432 E11.01024
G1 X117.23 Y180.58 E11.02229
G1 X116.7 Y180.797 E11.04421
G1 X115.958 Y181.018 E11.07384
G1 X114.41 Y181.457 E11.13541
G1 X112.675 Y181.922 E11.20416
G1 X112.066 Y182.076 E11.2282
G1 X110.313 Y182.547 E11.29766
G1 X109.125 Y182.833 E11.34442
G1 X108.399 Y182.913 E11.37238
G1 X107.911 Y182.904 E11.39105
G1 X105.162 Y182.895 E11.49626
G1 X102.426 Y182.963 E11.601
G1 X99.66 Y183.11 E11.707
G1 X96.966 Y183.33 E11.81044
G1 X94.208 Y183.634 E11.91663
G1 X91.483 Y184.012 E12.02191
G1 X89.89 Y184.277 E12.08371
G1 X88.999 Y184.371 E12.118
G1 X88.522 Y184.322 E12.13635
G1 X87.845 Y184.106 E12.16354
G1 X87.726 Y184.05 E12.16858
G1 X85.321 Y182.864 E12.2712
G1 X82.813 Y181.712 E12.37682
G1 X80.313 Y180.651 E12.48075
G1 X77.702 Y179.627 E12.58808
G1 X75.173 Y178.718 E12.69093
G1 X72.513 Y177.845 E12.79807
G1 X69.896 Y177.068 E12.90254
G1 X67.713 Y176.491 E12.98895
G1 X66.586 Y176.184 E13.03365
G1 X65.858 Y175.889 E13.06371
G1 X65.742 Y175.832 E13.06866
G1 X65.221 Y175.558 E13.09119
G1 X64.812 Y175.296 E13.10978
G1 X64.296 Y174.9 E13.13467
G1 X63.838 Y174.53 E13.1572
G1 X63.492 Y174.199 E13.17553
G1 X63.24 Y173.869 E13.19142
G1 X62.561 Y172.832 E13.23885
G1 X62.433 Y172.65 E13.24737
G1 X61.637 Y171.39 E13.3044
G1 X60.127 Y169.074 E13.41021
G1 X58.586 Y166.851 E13.51372
G1 X56.948 Y164.625 E13.61949
G1 X55.245 Y162.441 E13.72548
G1 X53.502 Y160.335 E13.83009
G1 X51.695 Y158.272 E13.93505
G1 X49.813 Y156.241 E14.04101
G1 X47.942 Y154.332 E14.14331
G1 X45.895 Y152.36 E14.25208
G1 X43.913 Y150.556 E14.35465
G1 X41.789 Y148.731 E14.46182
G1 X39.692 Y147.028 E14.5652
G1 X37.489 Y145.341 E14.67139
G1 X35.271 Y143.74 E14.77607
G1 X32.993 Y142.191 E14.88149
G1 X30.697 Y140.723 E14.98579
G1 X30.021 Y140.313 E15.01604
G1 X29.5 Y139.97 E15.03991
G1 X28.831 Y139.458 E15.07215
G1 X28.134 Y138.84 E15.1078
G1 X27.881 Y138.508 E15.12378
G1 X27.081 Y137.276 E15.17999
G1 X26.589 Y136.497 E15.21525
G1 X26.499 Y136.344 E15.22205
G1 X26.119 Y135.649 E15.25236
G1 X25.806 Y134.936 E15.28216
G1 X25.523 Y134.015 E15.31903
G1 X24.69 Y131.441 E15.42257
G1 X23.757 Y128.811 E15.52936
G1 X22.764 Y126.248 E15.63455
G1 X21.699 Y123.713 E15.73978
G1 X20.572 Y121.23 E15.84413
G1 X19.354 Y118.735 E15.95038
G1 X18.094 Y116.331 E16.05425
G1 X16.74 Y113.916 E16.16021
G1 X15.738 Y112.225 E16.23543
G1 X15.369 Y111.536 E16.26534
G1 X15.231 Y111.077 E16.28368
G1 X15.171 Y110.602 E16.30201
G1 X15.233 Y109.872 E16.33004
G1 X15.383 Y109.245 E16.35472
G1 X15.84 Y107.488 E16.42419
G1 X16.489 Y104.839 E16.52857
G1 X17.07 Y102.14 E16.63422
G1 X17.581 Y99.394 E16.74112
G1 X17.998 Y96.734 E16.84416
G1 X18.365 Y93.844 E16.95564
G1 X18.456 Y93.209 E16.98019
G1 X18.692 Y92.206 E17.01962
G1 X18.846 Y91.604 E17.0434
G1 X19.154 Y90.432 E17.08978
G1 X19.165 Y90.361 E17.09253
G1 X19.546 Y88.931 E17.14916
G1 X19.919 Y87.436 E17.20813
G1 X20.131 Y86.614 E17.24062
G1 X20.561 Y84.999 E17.30458
G1 X20.749 Y84.335 E17.33099
G1 X20.852 Y84.035 E17.34312
G1 X21.398 Y82.694 E17.39853
G1 X21.437 Y82.603 E17.40232
G1 X22.444 Y80.024 E17.50828
G1 X23.37 Y77.432 E17.61361
G1 X24.219 Y74.831 E17.71832
G1 X24.989 Y72.223 E17.82239
G1 X25.476 Y70.42 E17.89386
G1 X27.128 Y64.064 E18.14518
G1 X27.79 Y61.358 E18.25179
G1 X28.356 Y58.729 E18.35471
G1 X28.864 Y55.992 E18.46124
G1 X29.284 Y53.311 E18.56509
G1 X29.634 Y50.568 E18.67092
G1 X29.905 Y47.838 E18.77591
G1 X30.074 Y45.448 E18.8676
G1 X30.156 Y44.84 E18.89108
G1 X30.251 Y44.445 E18.90662
G1 X30.506 Y43.487 E18.94456
G1 X31.364 Y40.192 E19.07487
G1 X31.571 Y39.444 E19.10457
G1 X31.739 Y38.991 E19.12306
G1 X32.225 Y37.954 E19.16689
G1 X33.344 Y35.475 E19.27097
G1 X34.441 Y32.851 E19.37981
G1 X35.397 Y30.363 E19.48182
G1 X36.315 Y27.763 E19.58734
G1 X37.154 Y25.152 E19.69229
G1 X37.933 Y22.47 E19.79917
G1 X38.279 Y21.174 E19.85051
G1 X40.672 Y11.969 E20.21449
G1 X40.861 Y11.279 E20.24186
G0 F1285.7 X41.199 Y11.372
G1 F900 X41.355 Y10.951 E20.25905
G1 X41.584 Y10.565 E20.27622
G1 X41.878 Y10.225 E20.29342
G1 X42.227 Y9.943 E20.3106
G1 X42.62 Y9.726 E20.32778
G1 X43.046 Y9.583 E20.34497
G1 X43.49 Y9.518 E20.36215
G1 X43.939 Y9.532 E20.37934
G1 X44.378 Y9.626 E20.39652
G1 X44.794 Y9.796 E20.41372
G1 X45.387 Y10.222 E20.44166
G1 X46.103 Y10.913 E20.47974
G1 X112.816 Y77.634 E24.09055
G1 X114.778 Y79.542 E24.19528
G1 X116.826 Y81.425 E24.30175
G1 X118.891 Y83.216 E24.40636
G1 X121.053 Y84.987 E24.51331
G1 X123.215 Y86.659 E24.61791
G1 X125.44 Y88.281 E24.72328
G1 X127.71 Y89.839 E24.82865
G1 X130.044 Y91.348 E24.93501
G1 X132.386 Y92.766 E25.03979
G1 X134.799 Y94.136 E25.14598
G1 X136.278 Y94.934 E25.21029
G1 X136.924 Y95.299 E25.23868
G1 X137.5 Y95.73 E25.26622
G1 X137.736 Y95.946 E25.27846
G1 X138.345 Y96.517 E25.31041
G1 X138.425 Y96.607 E25.31502
G1 X139.353 Y97.491 E25.36406
G1 X139.717 Y97.888 E25.38468
G1 X140.056 Y98.297 E25.40501
G1 X140.242 Y98.554 E25.41715
G1 X141.772 Y100.969 E25.52655
G1 X143.304 Y103.242 E25.63145
G1 X144.919 Y105.497 E25.7376
G1 X146.562 Y107.659 E25.84152
G1 X148.323 Y109.845 E25.94895
G1 X150.083 Y111.907 E26.05269
G1 X151.965 Y113.993 E26.16021
G1 X153.852 Y115.967 E26.26472
G1 X155.817 Y117.908 E26.37042
G1 X157.831 Y119.791 E26.47594
G1 X159.904 Y121.619 E26.58171
G1 X162.006 Y123.37 E26.6864
G1 X164.196 Y125.092 E26.79302
G1 X166.393 Y126.722 E26.89771
G1 X168.649 Y128.299 E27.00305
G1 X171.036 Y129.867 E27.11235
G1 X172.226 Y130.624 E27.16632
G1 X172.903 Y131.122 E27.19848
G1 X173.573 Y131.76 E27.23389
G1 X174.418 Y132.586 E27.27911
G1 X174.865 Y133.025 E27.30309
G1 X175.376 Y133.612 E27.33287
G1 X175.698 Y134.095 E27.35509
G1 X176.145 Y134.97 E27.39269
G1 X177.426 Y137.395 E27.49764
G1 X178.799 Y139.82 E27.60429
G1 X180.197 Y142.136 E27.70782
G1 X181.706 Y144.482 E27.81457
G1 X183.265 Y146.763 E27.9203
G1 X184.889 Y148.999 E28.02606
G1 X186.577 Y151.191 E28.13194
G1 X187.611 Y152.473 E28.19497
G1 X187.861 Y152.846 E28.21215
G1 X188.041 Y153.257 E28.22932
G1 X188.145 Y153.694 E28.24651
G1 X188.17 Y154.143 E28.26372
G1 X188.115 Y154.588 E28.28088
G1 X187.982 Y155.017 E28.29807
G1 X187.775 Y155.416 E28.31527
G1 X187.501 Y155.771 E28.33244
G1 X187.168 Y156.073 E28.34964
G1 X186.787 Y156.31 E28.36681
G1 X186.475 Y156.443 E28.37979
G1 X185.535 Y156.77 E28.41788
G1 X182.903 Y157.724 E28.52502
G1 X180.34 Y158.738 E28.6305
G1 X177.809 Y159.822 E28.73587
G1 X175.3 Y160.981 E28.84164
G1 X172.872 Y162.187 E28.94539
G1 X170.399 Y163.504 E29.05261
G1 X168.021 Y164.86 E29.15737
G1 X165.282 Y166.53 E29.28014
G1 X164.734 Y166.78 E29.30319
G1 X164.22 Y166.935 E29.32373
G1 X162.307 Y167.478 E29.39984
G1 X160.525 Y167.957 E29.47045
G1 X160.059 Y168.075 E29.48885
G1 X158.199 Y168.574 E29.56255
G1 X157.164 Y168.826 E29.60331
G1 X156.548 Y168.906 E29.62709
G1 X153.82 Y169.13 E29.73184
G1 X151.039 Y169.439 E29.83892
G1 X148.313 Y169.819 E29.94425
G1 X145.593 Y170.278 E30.04982
G1 X142.897 Y170.811 E30.15499
G1 X140.237 Y171.417 E30.25939
G1 X137.536 Y172.111 E30.36612
G1 X134.883 Y172.875 E30.47177
G1 X132.239 Y173.717 E30.57796
G1 X129.685 Y174.611 E30.68152
G1 X127.061 Y175.614 E30.78902
G1 X124.549 Y176.657 E30.89311
G1 X122.014 Y177.794 E30.99944
G1 X119.52 Y178.999 E31.10544
G1 X117.024 Y180.287 E31.21293
G1 X116.6 Y180.462 E31.23048
G1 X115.863 Y180.681 E31.2599
G1 X114.32 Y181.119 E31.32129
G1 X112.589 Y181.583 E31.38987
G1 X111.951 Y181.744 E31.41505
G1 X110.231 Y182.207 E31.48322
G1 X109.043 Y182.493 E31.52998
G1 X108.405 Y182.563 E31.55454
G1 X107.917 Y182.554 E31.57322
G1 X105.155 Y182.545 E31.67892
G1 X102.399 Y182.613 E31.78443
G1 X99.681 Y182.758 E31.88859
G1 X96.903 Y182.984 E31.99526
G1 X94.156 Y183.287 E32.10102
G1 X91.447 Y183.663 E32.20569
G1 X89.838 Y183.931 E32.26811
G1 X88.977 Y184.02 E32.30123
G1 X88.531 Y183.967 E32.31842
G1 X87.992 Y183.789 E32.34015
G1 X87.881 Y183.736 E32.34485
G1 X85.479 Y182.551 E32.44735
G1 X82.953 Y181.392 E32.55371
G1 X80.435 Y180.323 E32.6584
G1 X77.837 Y179.304 E32.7652
G1 X75.258 Y178.377 E32.87008
G1 X72.664 Y177.525 E32.97457
G1 X69.984 Y176.729 E33.08156
G1 X67.804 Y176.153 E33.16785
G1 X66.678 Y175.846 E33.21251
G1 X66.007 Y175.573 E33.24024
G1 X65.905 Y175.522 E33.2446
G1 X65.384 Y175.248 E33.26713
G1 X65.024 Y175.018 E33.28348
G1 X64.516 Y174.628 E33.30799
G1 X64.058 Y174.258 E33.33052
G1 X63.735 Y173.946 E33.3477
G1 X63.532 Y173.677 E33.3606
G1 X62.789 Y172.542 E33.41252
G1 X62.729 Y172.463 E33.41631
G1 X61.933 Y171.203 E33.47335
G1 X60.422 Y168.886 E33.57921
G1 X58.852 Y166.62 E33.68471
G1 X57.226 Y164.411 E33.78968
G1 X55.524 Y162.23 E33.89555
G1 X53.77 Y160.11 E34.00085
G1 X51.952 Y158.033 E34.10648
G1 X50.072 Y156.005 E34.21231
G1 X48.167 Y154.061 E34.31647
G1 X46.169 Y152.137 E34.42262
G1 X44.112 Y150.264 E34.52909
G1 X42.05 Y148.493 E34.63311
G1 X39.882 Y146.732 E34.74
G1 X37.697 Y145.059 E34.84532
G1 X35.478 Y143.458 E34.95003
G1 X33.176 Y141.893 E35.05656
G1 X30.889 Y140.43 E35.16046
G1 X30.208 Y140.017 E35.19094
G1 X29.712 Y139.692 E35.21363
G1 X29.052 Y139.187 E35.24543
G1 X28.378 Y138.588 E35.27994
G1 X28.175 Y138.317 E35.2929
G1 X27.377 Y137.089 E35.34895
G1 X26.885 Y136.31 E35.38421
G1 X26.806 Y136.176 E35.39016
G1 X26.432 Y135.491 E35.42003
G1 X26.14 Y134.834 E35.44754
G1 X25.857 Y133.913 E35.48441
G1 X25.013 Y131.303 E35.58939
G1 X24.074 Y128.657 E35.69684
G1 X23.104 Y126.154 E35.79957
G1 X22.021 Y123.575 E35.90661
G1 X20.886 Y121.074 E36.01172
G1 X19.665 Y118.575 E36.11816
G1 X18.411 Y116.182 E36.22155
G1 X17.028 Y113.715 E36.32979
G1 X16.05 Y112.065 E36.40319
G1 X15.684 Y111.381 E36.43288
G1 X15.562 Y110.949 E36.45006
G1 X15.518 Y110.502 E36.46725
G1 X15.575 Y109.946 E36.48864
G1 X15.722 Y109.329 E36.51291
G1 X16.178 Y107.576 E36.58223
G1 X16.838 Y104.887 E36.68819
G1 X17.414 Y102.209 E36.79302
G1 X17.914 Y99.522 E36.89762
G1 X18.347 Y96.764 E37.00446
G1 X18.715 Y93.866 E37.11625
G1 X18.797 Y93.289 E37.13855
G1 X19.031 Y92.293 E37.17771
G1 X19.184 Y91.693 E37.20141
G1 X19.48 Y90.569 E37.24589
G1 X19.503 Y90.451 E37.25049
G1 X19.876 Y89.052 E37.3059
G1 X20.258 Y87.523 E37.36621
G1 X20.469 Y86.704 E37.39858
G1 X20.898 Y85.094 E37.46234
G1 X21.086 Y84.43 E37.48875
G1 X21.176 Y84.167 E37.49939
G1 X21.72 Y82.831 E37.55459
G1 X21.76 Y82.737 E37.5585
G1 X22.779 Y80.128 E37.66569
G1 X23.706 Y77.533 E37.77115
G1 X24.542 Y74.971 E37.87428
G1 X25.334 Y72.289 E37.9813
G1 X25.814 Y70.511 E38.05178
G1 X27.467 Y64.152 E38.30322
G1 X28.13 Y61.441 E38.41003
G1 X28.698 Y58.804 E38.51326
G1 X29.205 Y56.069 E38.61971
G1 X29.633 Y53.34 E38.72543
G1 X29.982 Y50.608 E38.83083
G1 X30.254 Y47.865 E38.93632
G1 X30.423 Y45.477 E39.02793
G1 X30.497 Y44.921 E39.0494
G1 X30.589 Y44.536 E39.06455
G1 X30.84 Y43.591 E39.10197
G1 X31.701 Y40.286 E39.23267
G1 X31.908 Y39.538 E39.26237
G1 X32.056 Y39.139 E39.27866
G1 X32.542 Y38.102 E39.32248
G1 X33.666 Y35.612 E39.42703
G1 X34.753 Y33.011 E39.53491
G1 X35.733 Y30.463 E39.63939
G1 X36.646 Y27.877 E39.74434
G1 X37.488 Y25.256 E39.84969
G1 X38.269 Y22.568 E39.95682
G1 X38.623 Y21.244 E40.00927
G1 X41.01 Y12.062 E40.37234
G1 X41.199 Y11.372 E40.39971
G0 F1285.7 X41.536 Y11.464
G1 F900 X41.684 Y11.075 E40.41564
G1 X41.904 Y10.721 E40.43159
G1 X42.187 Y10.415 E40.44754
G1 X42.523 Y10.169 E40.46348
G1 X42.9 Y9.992 E40.47942
G1 X43.304 Y9.889 E40.49537
G1 X43.72 Y9.866 E40.51132
G1 X44.133 Y9.922 E40.52727
G1 X44.527 Y10.056 E40.54319
G1 X44.889 Y10.263 E40.55915
G1 X45.144 Y10.474 E40.57182
G1 X45.855 Y11.16 E40.60963
G1 X112.568 Y77.881 E44.22044
G1 X114.545 Y79.804 E44.32598
G1 X116.587 Y81.681 E44.43213
G1 X118.67 Y83.488 E44.53766
G1 X120.827 Y85.254 E44.64434
G1 X123.017 Y86.949 E44.75033
G1 X125.229 Y88.561 E44.85507
G1 X127.5 Y90.12 E44.96049
G1 X129.868 Y91.65 E45.06838
G1 X132.217 Y93.074 E45.17351
G1 X134.604 Y94.429 E45.27855
G1 X136.131 Y95.252 E45.34493
G1 X136.723 Y95.585 E45.37092
G1 X137.264 Y95.988 E45.39674
G1 X137.497 Y96.201 E45.40882
G1 X138.106 Y96.772 E45.44077
G1 X138.176 Y96.852 E45.44484
G1 X139.112 Y97.744 E45.49432
G1 X139.454 Y98.12 E45.51377
G1 X139.786 Y98.52 E45.53367
