;FLAVOR:Marlin
;TIME:11221
;Filament used: 13.6642m
;Layer height: 0.3
;MINX:37.541
;MINY:11.559
;MINZ:0.26
;MAXX:192.457
;MAXY:184.847
;MAXZ:7.76
;Generated with Cura_SteamEngine 4.9.1
M82 ;absolute extrusion mode
;Begin Start Gcode for Dagoma DiscoEasy 200
;Sliced: 08-07-2021 02:10:56
;Initial extruder: 0

G90 ;Absolute positioning
M106 S255 ;Fan on full
G28 X Y ;Home stop X Y
G1 X100 ;Centre back during cooldown in case of oozing
M109 R90 ;Cooldown in case too hot
G28 ;Centre
G29 ;Auto-level
M104 S205 ;Pre-heat
M107 ;Fan off
G0 X100 Y5 Z0.5 ;Front centre for degunk
M109 S205 ;Wait for initial temp
M83 ;E Relative
G1 E10 F200 ;Degunk
G1 E-3 F5000 ;Retract
G0 Z3 ;Withdraw
M82 ;E absolute
G92 E0 ;E reset
G1 F6000 ;Set feedrate

;Finish Start Gcode for Dagoma DiscoEasy 200

G92 E0
G92 E0
G1 F3000 E-3.5
;LAYER_COUNT:26
;LAYER:0
M107
G0 F1285.7 X84.949 Y14.01 Z0.26
;TYPE:SKIRT
G1 F3000 E0
G1 F900 X85.281 Y13.455 E0.02475
G1 X85.6 Y12.999 E0.04605
G1 X85.981 Y12.594 E0.06733
G1 X86.416 Y12.247 E0.08862
G1 X86.897 Y11.966 E0.10994
G1 X87.412 Y11.757 E0.13121
G1 X87.953 Y11.624 E0.15253
G1 X88.55 Y11.569 E0.17547
G1 X89.237 Y11.559 E0.20177
G1 X187.949 Y11.559 E3.97943
G1 X188.639 Y11.569 E4.00584
G1 X189.193 Y11.617 E4.02712
G1 X189.735 Y11.744 E4.04842
G1 X190.253 Y11.947 E4.06971
G1 X190.737 Y12.223 E4.09104
G1 X191.176 Y12.564 E4.11231
G1 X191.562 Y12.965 E4.13361
G1 X191.886 Y13.418 E4.15492
G1 X192.142 Y13.912 E4.17622
G1 X192.325 Y14.437 E4.19749
G1 X192.431 Y14.983 E4.21878
G1 X192.457 Y15.539 E4.24008
G1 X192.403 Y16.093 E4.26138
G1 X192.271 Y16.633 E4.28266
G1 X191.966 Y17.334 E4.31191
G1 X191.606 Y17.977 E4.34011
G1 X97.867 Y180.338 E11.51482
G1 X97.519 Y180.92 E11.54077
G1 X97.2 Y181.375 E11.56203
G1 X96.819 Y181.781 E11.58334
G1 X96.383 Y182.128 E11.60467
G1 X95.903 Y182.408 E11.62593
G1 X95.34 Y182.632 E11.64912
G1 X94.658 Y182.829 E11.67629
G1 X88.232 Y184.55 E11.93087
G1 X87.513 Y184.732 E11.95926
G1 X86.965 Y184.829 E11.98055
G1 X86.409 Y184.847 E12.00184
G1 X85.856 Y184.785 E12.02314
G1 X85.318 Y184.645 E12.04441
G1 X84.805 Y184.429 E12.06572
G1 X84.328 Y184.141 E12.08704
G1 X83.898 Y183.789 E12.10831
G1 X83.522 Y183.378 E12.12962
G1 X83.186 Y182.877 E12.15271
G1 X82.693 Y182 E12.19121
G1 X38.309 Y99.619 E15.77234
G1 X37.976 Y98.981 E15.79988
G1 X37.754 Y98.471 E15.82117
G1 X37.608 Y97.934 E15.84247
G1 X37.541 Y97.381 E15.86378
G1 X37.553 Y96.825 E15.88507
G1 X37.645 Y96.276 E15.90637
G1 X37.814 Y95.746 E15.92766
G1 X38.027 Y95.301 E15.94654
G1 X38.389 Y94.651 E15.97501
G1 X84.949 Y14.01 E19.53856
G0 F1285.7 X85.249 Y14.189
G1 F900 X85.581 Y13.634 E19.56331
G1 X85.887 Y13.201 E19.5836
G1 X86.254 Y12.818 E19.6039
G1 X86.675 Y12.495 E19.62421
G1 X87.14 Y12.238 E19.64454
G1 X87.638 Y12.055 E19.66484
G1 X88.157 Y11.948 E19.68512
G1 X88.555 Y11.919 E19.7004
G1 X89.242 Y11.909 E19.72669
G1 X187.944 Y11.909 E23.50397
G1 X188.634 Y11.919 E23.53038
G1 X189.163 Y11.967 E23.5507
G1 X189.678 Y12.093 E23.57099
G1 X190.169 Y12.296 E23.59133
G1 X190.623 Y12.569 E23.6116
G1 X191.032 Y12.908 E23.63193
G1 X191.384 Y13.305 E23.65224
G1 X191.674 Y13.749 E23.67253
G1 X191.893 Y14.233 E23.69286
G1 X192.038 Y14.743 E23.71315
G1 X192.104 Y15.27 E23.73348
G1 X192.09 Y15.8 E23.75377
G1 X191.997 Y16.323 E23.7741
G1 X191.826 Y16.825 E23.79439
G1 X191.66 Y17.163 E23.8088
G1 X191.303 Y17.802 E23.83681
G1 X97.566 Y180.158 E31.01131
G1 X97.218 Y180.74 E31.03726
G1 X96.913 Y181.174 E31.05756
G1 X96.545 Y181.557 E31.07789
G1 X96.124 Y181.88 E31.0982
G1 X95.66 Y182.136 E31.11848
G1 X95.094 Y182.342 E31.14153
G1 X94.564 Y182.492 E31.16261
G1 X88.146 Y184.21 E31.41687
G1 X87.427 Y184.392 E31.44525
G1 X86.904 Y184.483 E31.46557
G1 X86.374 Y184.495 E31.48586
G1 X85.847 Y184.427 E31.50619
G1 X85.337 Y184.28 E31.5265
G1 X84.855 Y184.059 E31.5468
G1 X84.411 Y183.768 E31.56711
G1 X84.017 Y183.413 E31.58741
G1 X83.679 Y183.004 E31.60771
G1 X83.491 Y182.705 E31.62123
G1 X83.001 Y181.834 E31.65948
G1 X38.619 Y99.457 E35.24043
G1 X38.286 Y98.819 E35.26798
G1 X38.077 Y98.331 E35.28829
G1 X37.943 Y97.818 E35.30858
G1 X37.887 Y97.29 E35.3289
G1 X37.912 Y96.76 E35.34921
G1 X38.016 Y96.24 E35.3695
G1 X38.197 Y95.741 E35.38982
G1 X38.332 Y95.471 E35.40137
G1 X38.692 Y94.826 E35.42964
G1 X85.249 Y14.189 E38.993
G0 F1285.7 X85.549 Y14.369
G1 F900 X85.881 Y13.814 E39.01774
G1 X86.173 Y13.404 E39.03701
G1 X86.526 Y13.045 E39.05628
G1 X86.932 Y12.746 E39.07557
G1 X87.38 Y12.515 E39.09486
G1 X87.858 Y12.358 E39.11412
G1 X88.56 Y12.269 E39.1412
G1 X89.247 Y12.259 E39.16749
G1 X187.939 Y12.259 E42.94439
G1 X188.629 Y12.269 E42.97079
G1 X189.13 Y12.317 E42.99006
G1 X189.618 Y12.442 E43.00933
G1 X190.08 Y12.644 E43.02863
G1 X190.503 Y12.916 E43.04788
G1 X190.879 Y13.251 E43.06715
G1 X191.197 Y13.642 E43.08644
G1 X191.449 Y14.078 E43.10571
G1 X191.629 Y14.548 E43.12497
G1 X191.732 Y15.041 E43.14424
G1 X191.756 Y15.544 E43.16351
G1 X191.701 Y16.044 E43.18276
G1 X191.567 Y16.53 E43.20206
G1 X191.355 Y16.993 E43.22155
G1 X191 Y17.627 E43.24935
G1 X97.266 Y179.978 E50.42363
G1 X96.918 Y180.56 E50.44958
G1 X96.626 Y180.971 E50.46887
G1 X96.273 Y181.33 E50.48814
G1 X95.868 Y181.628 E50.50738
G1 X95.42 Y181.859 E50.52667
G1 X94.904 Y182.033 E50.54751
G1 X94.438 Y182.163 E50.56603
G1 X88.06 Y183.871 E50.81871
G1 X87.341 Y184.053 E50.84709
G1 X86.845 Y184.137 E50.86635
G1 X86.341 Y184.142 E50.88564
G1 X85.843 Y184.068 E50.9049
G1 X85.363 Y183.915 E50.92418
G1 X84.913 Y183.688 E50.94347
G1 X84.505 Y183.394 E50.96272
G1 X84.149 Y183.038 E50.98198
G1 X83.796 Y182.533 E51.00556
G1 X83.309 Y181.668 E51.04355
G1 X38.929 Y99.295 E54.62434
G1 X38.596 Y98.657 E54.65188
G1 X38.399 Y98.194 E54.67114
G1 X38.278 Y97.705 E54.69042
G1 X38.236 Y97.203 E54.70969
G1 X38.274 Y96.701 E54.72896
G1 X38.39 Y96.211 E54.74823
G1 X38.638 Y95.642 E54.77198
G1 X38.995 Y95.001 E54.80006
G1 X85.549 Y14.369 E58.3632
G1 F3000 E54.8632
;MESH:support_half_hex_01.stl
G0 F1285.7 X87.743 Y15.639
G0 X88.617 Y16.142
G0 X93.854 Y178.489
;TYPE:WALL-INNER
G1 F3000 E58.3632
G1 F900 X86.815 Y180.375 E58.64208
G1 X42.001 Y97.195 E62.25793
G1 X88.902 Y15.959 E65.84773
G1 X187.388 Y15.959 E69.61674
G1 X187.389 Y15.959 E69.61678
G1 X187.691 Y15.959 E69.62833
G1 X187.54 Y16.221 E69.6349
G1 X93.854 Y178.489 E76.8055
G0 F1285.7 X94.068 Y178.768
;TYPE:WALL-OUTER
G1 F900 X86.651 Y180.755 E77.09936
G1 X41.629 Y97.19 E80.73196
G1 X88.715 Y15.634 E84.3359
G1 X187.951 Y15.634 E88.13361
G1 X187.952 Y15.634 E88.13365
G1 X188.254 Y15.634 E88.14521
G1 X188.103 Y15.896 E88.15177
G1 X94.068 Y178.768 E95.34907
G0 F1285.7 X93.875 Y178.819
G0 X93.629 Y178.198
;TYPE:SKIN
G1 F900 X86.986 Y179.977 E95.61225
G1 X42.39 Y97.201 E99.21054
G1 X89.098 Y16.299 E102.78557
G1 X187.101 Y16.299 E106.5361
G1 X93.629 Y178.198 E113.69038
G0 F1285.7 X87.196 Y179.757
G1 F900 X86.87 Y179.43 E113.70805
G0 F1285.7 X87.587 Y179.652
G1 F900 X86.291 Y178.357 E113.77816
G1 X86.229 Y178.295
G0 F1285.7 X85.714 Y177.284
G1 F900 X87.977 Y179.547 E113.90064
G0 F1285.7 X88.367 Y179.443
G1 F900 X85.135 Y176.211 E114.07556
G1 X85.073 Y176.149
G0 F1285.7 X84.557 Y175.137
G1 F900 X88.758 Y179.338 E114.30292
G0 F1285.7 X89.148 Y179.233
G1 F900 X83.979 Y174.064 E114.58268
G1 X83.917 Y174.002
G0 F1285.7 X83.401 Y172.991
G1 F900 X89.538 Y179.129 E114.91485
G0 F1285.7 X89.929 Y179.024
G1 F900 X82.822 Y171.918 E115.29946
G1 X82.76 Y171.856
G0 F1285.7 X82.245 Y170.845
G1 F900 X90.319 Y178.919 E115.73643
G0 F1285.7 X90.71 Y178.815
G1 F900 X81.666 Y169.772 E116.22588
G1 X81.604 Y169.71
G0 F1285.7 X81.088 Y168.698
G1 F900 X91.1 Y178.711 E116.76777
G0 F1285.7 X91.491 Y178.606
G1 F900 X80.51 Y167.626 E117.36205
G1 X80.448 Y167.564
G0 F1285.7 X79.932 Y166.552
G1 F900 X91.881 Y178.502 E118.00877
G0 F1285.7 X92.271 Y178.397
G1 F900 X79.353 Y165.479 E118.70791
G1 X79.291 Y165.417
G0 F1285.7 X78.775 Y164.406
G1 F900 X92.662 Y178.292 E119.45946
G0 F1285.7 X93.052 Y178.188
G1 F900 X78.197 Y163.333 E120.26343
G1 X78.135 Y163.271
G0 F1285.7 X77.619 Y162.259
G1 F900 X93.442 Y178.083 E121.11982
G0 F1285.7 X93.668 Y177.814
G1 F900 X77.041 Y161.187 E122.0197
G1 X76.979 Y161.125
G0 F1285.7 X76.462 Y160.113
G1 F900 X93.849 Y177.5 E122.9607
G0 F1285.7 X94.031 Y177.186
G1 F900 X75.884 Y159.04 E123.94282
G1 X75.822 Y158.978
G0 F1285.7 X75.306 Y157.967
G1 F900 X94.212 Y176.872 E124.96601
G0 F1285.7 X94.393 Y176.558
G1 F900 X74.728 Y156.894 E126.03027
G1 X74.666 Y156.832
G0 F1285.7 X74.15 Y155.82
G1 F900 X94.574 Y176.244 E127.13565
G0 F1285.7 X94.755 Y175.931
G1 F900 X73.572 Y154.748 E128.2821
G1 X73.51 Y154.686
G0 F1285.7 X72.993 Y153.674
G1 F900 X94.936 Y175.617 E129.46968
G0 F1285.7 X95.117 Y175.303
G1 F900 X72.415 Y152.601 E130.69834
G1 X72.353 Y152.539
G0 F1285.7 X71.837 Y151.528
G1 F900 X95.298 Y174.989 E131.96808
G0 F1285.7 X95.479 Y174.675
G1 F900 X71.259 Y150.455 E133.2789
G1 X71.197 Y150.393
G0 F1285.7 X70.68 Y149.381
G1 F900 X95.661 Y174.362 E134.6309
G0 F1285.7 X95.842 Y174.048
G1 F900 X70.103 Y148.309 E136.02393
G1 X70.041 Y148.247
G0 F1285.7 X69.524 Y147.235
G1 F900 X96.023 Y173.734 E137.45809
G0 F1285.7 X96.204 Y173.42
G1 F900 X68.946 Y146.162 E138.93333
G1 X68.884 Y146.1
G0 F1285.7 X68.368 Y145.089
G1 F900 X96.386 Y173.107 E140.4497
G0 F1285.7 X96.567 Y172.793
G1 F900 X67.79 Y144.016 E142.00714
G1 X67.728 Y143.954
G0 F1285.7 X67.211 Y142.943
G1 F900 X96.748 Y172.479 E143.6057
G0 F1285.7 X96.929 Y172.165
G1 F900 X66.634 Y141.87 E145.2453
G1 X66.572 Y141.808
G0 F1285.7 X66.055 Y140.796
G1 F900 X97.11 Y171.851 E146.92604
G0 F1285.7 X97.292 Y171.538
G1 F900 X65.477 Y139.723 E148.64791
G1 X65.415 Y139.661
G0 F1285.7 X64.899 Y138.65
G1 F900 X97.473 Y171.224 E150.41085
G0 F1285.7 X97.654 Y170.91
G1 F900 X64.321 Y137.577 E152.21488
G1 X64.259 Y137.515
G0 F1285.7 X63.742 Y136.504
G1 F900 X97.835 Y170.596 E154.06001
G0 F1285.7 X98.017 Y170.283
G1 F900 X63.165 Y135.431 E155.94624
G1 X63.103 Y135.369
G0 F1285.7 X62.586 Y134.358
G1 F900 X98.198 Y169.969 E157.87358
G0 F1285.7 X98.379 Y169.655
G1 F900 X62.009 Y133.285 E159.84197
G1 X61.947 Y133.223
G0 F1285.7 X61.43 Y132.211
G1 F900 X98.56 Y169.341 E161.85149
G0 F1285.7 X98.741 Y169.027
G1 F900 X60.852 Y131.138 E163.90209
G1 X60.79 Y131.076
G0 F1285.7 X60.274 Y130.065
G1 F900 X98.922 Y168.714 E165.9938
G0 F1285.7 X99.103 Y168.4
G1 F900 X59.696 Y128.992 E168.12658
G1 X59.634 Y128.93
G0 F1285.7 X59.117 Y127.919
G1 F900 X99.284 Y168.086 E170.30047
G0 F1285.7 X99.465 Y167.772
G1 F900 X58.539 Y126.846 E172.51544
G1 X58.477 Y126.784
G0 F1285.7 X57.961 Y125.773
G1 F900 X99.646 Y167.458 E174.77149
G0 F1285.7 X99.828 Y167.145
G1 F900 X57.383 Y124.699 E177.06869
G1 X57.321 Y124.637
G0 F1285.7 X56.805 Y123.627
G1 F900 X100.009 Y166.831 E179.40695
G0 F1285.7 X100.19 Y166.517
G1 F900 X56.227 Y122.553 E181.78631
G1 X56.165 Y122.491
G0 F1285.7 X55.648 Y121.48
G1 F900 X100.371 Y166.203 E184.20677
G0 F1285.7 X100.553 Y165.89
G1 F900 X55.07 Y120.407 E186.66837
G1 X55.008 Y120.345
G0 F1285.7 X54.492 Y119.334
G1 F900 X100.734 Y165.576 E189.17105
G0 F1285.7 X100.915 Y165.262
G1 F900 X53.914 Y118.26 E191.71483
G1 X53.852 Y118.198
G0 F1285.7 X53.336 Y117.188
G1 F900 X101.096 Y164.948 E194.29966
G0 F1285.7 X101.277 Y164.634
G1 F900 X52.757 Y116.114 E196.92562
G1 X52.695 Y116.052
G0 F1285.7 X52.179 Y115.041
G1 F900 X101.459 Y164.321 E199.59272
G0 F1285.7 X101.64 Y164.007
G1 F900 X51.601 Y113.968 E202.3009
G1 X51.539 Y113.906
G0 F1285.7 X51.023 Y112.895
G1 F900 X101.821 Y163.693 E205.05015
G0 F1285.7 X102.002 Y163.379
G1 F900 X50.444 Y111.821 E207.84053
G1 X50.382 Y111.759
G0 F1285.7 X49.867 Y110.749
G1 F900 X102.184 Y163.065 E210.67197
G0 F1285.7 X102.365 Y162.751
G1 F900 X49.288 Y109.675 E213.54454
G1 X49.226 Y109.613
G0 F1285.7 X48.71 Y108.602
G1 F900 X102.546 Y162.437 E216.45818
G0 F1285.7 X102.727 Y162.124
G1 F900 X48.132 Y107.529 E219.41293
G1 X48.07 Y107.467
G0 F1285.7 X47.554 Y106.456
G1 F900 X102.908 Y161.81 E222.40876
G0 F1285.7 X103.089 Y161.496
G1 F900 X46.975 Y105.382 E225.44572
G1 X46.913 Y105.32
G0 F1285.7 X46.398 Y104.31
G1 F900 X103.27 Y161.182 E228.52371
G0 F1285.7 X103.451 Y160.868
G1 F900 X45.819 Y103.236 E231.64283
G1 X45.757 Y103.174
G0 F1285.7 X45.241 Y102.163
G1 F900 X103.632 Y160.554 E234.80302
G0 F1285.7 X103.813 Y160.241
G1 F900 X44.663 Y101.09 E238.00432
G1 X44.601 Y101.028
G0 F1285.7 X44.085 Y100.017
G1 F900 X103.995 Y159.927 E241.24673
G0 F1285.7 X104.176 Y159.613
G1 F900 X43.506 Y98.944 E244.53024
G1 X43.444 Y98.882
G0 F1285.7 X42.929 Y97.871
G1 F900 X104.357 Y159.299 E247.8548
G0 F1285.7 X104.538 Y158.985
G1 F900 X42.637 Y97.084 E251.20496
G0 F1285.7 X42.818 Y96.77
G1 F900 X104.72 Y158.672 E254.55517
G0 F1285.7 X104.901 Y158.358
G1 F900 X42.999 Y96.457 E257.90536
G0 F1285.7 X43.18 Y96.143
G1 F900 X105.082 Y158.044 E261.25555
G0 F1285.7 X105.263 Y157.73
G1 F900 X43.361 Y95.829 E264.60574
G0 F1285.7 X43.542 Y95.515
G1 F900 X105.444 Y157.416 E267.95593
G0 F1285.7 X105.626 Y157.103
G1 F900 X43.723 Y95.201 E271.30617
G0 F1285.7 X43.905 Y94.888
G1 F900 X105.807 Y156.789 E274.65636
G0 F1285.7 X105.988 Y156.475
G1 F900 X44.086 Y94.574 E278.00655
G0 F1285.7 X44.267 Y94.26
G1 F900 X106.169 Y156.161 E281.35673
G0 F1285.7 X106.35 Y155.848
G1 F900 X44.448 Y93.946 E284.70695
G0 F1285.7 X44.63 Y93.632
G1 F900 X106.532 Y155.534 E288.05716
G0 F1285.7 X106.713 Y155.22
G1 F900 X44.811 Y93.319 E291.40735
G0 F1285.7 X44.992 Y93.005
G1 F900 X106.894 Y154.906 E294.75754
G0 F1285.7 X107.075 Y154.592
G1 F900 X45.173 Y92.691 E298.10773
G0 F1285.7 X45.354 Y92.377
G1 F900 X107.256 Y154.279 E301.45794
G0 F1285.7 X107.437 Y153.965
G1 F900 X45.536 Y92.063 E304.80813
G0 F1285.7 X45.717 Y91.749
G1 F900 X107.618 Y153.651 E308.15832
G0 F1285.7 X107.799 Y153.337
G1 F900 X45.898 Y91.435 E311.50851
G0 F1285.7 X46.079 Y91.122
G1 F900 X107.981 Y153.024 E314.85872
G0 F1285.7 X108.162 Y152.71
G1 F900 X46.26 Y90.808 E318.20894
G0 F1285.7 X46.442 Y90.494
G1 F900 X108.343 Y152.396 E321.55913
G0 F1285.7 X108.524 Y152.082
G1 F900 X46.623 Y90.18 E324.90931
G0 F1285.7 X46.804 Y89.866
G1 F900 X108.705 Y151.768 E328.2595
G0 F1285.7 X108.887 Y151.455
G1 F900 X46.985 Y89.552 E331.60974
G0 F1285.7 X47.166 Y89.239
G1 F900 X109.068 Y151.141 E334.95996
G0 F1285.7 X109.249 Y150.827
G1 F900 X47.347 Y88.925 E338.31017
G0 F1285.7 X47.528 Y88.611
G1 F900 X109.43 Y150.513 E341.66039
G0 F1285.7 X109.611 Y150.199
G1 F900 X47.709 Y88.297 E345.0106
G0 F1285.7 X47.89 Y87.983
G1 F900 X109.793 Y149.886 E348.36087
G0 F1285.7 X109.974 Y149.572
G1 F900 X48.072 Y87.67 E351.71109
G0 F1285.7 X48.253 Y87.356
G1 F900 X110.155 Y149.258 E355.0613
G0 F1285.7 X110.336 Y148.944
G1 F900 X48.434 Y87.042 E358.41152
G0 F1285.7 X48.615 Y86.728
G1 F900 X110.517 Y148.631 E361.76176
G0 F1285.7 X110.698 Y148.317
G1 F900 X48.797 Y86.415 E365.11195
G0 F1285.7 X48.978 Y86.101
G1 F900 X110.88 Y148.003 E368.46216
G0 F1285.7 X111.061 Y147.689
G1 F900 X49.159 Y85.787 E371.81238
G0 F1285.7 X49.34 Y85.473
G1 F900 X111.242 Y147.375 E375.16259
G0 F1285.7 X111.423 Y147.061
G1 F900 X49.521 Y85.159 E378.51281
G0 F1285.7 X49.703 Y84.846
G1 F900 X111.604 Y146.747 E381.86297
G0 F1285.7 X111.785 Y146.434
G1 F900 X49.884 Y84.532 E385.21316
G0 F1285.7 X50.065 Y84.218
G1 F900 X111.966 Y146.12 E388.56335
G0 F1285.7 X112.148 Y145.806
G1 F900 X50.246 Y83.904 E391.91356
G0 F1285.7 X50.427 Y83.59
G1 F900 X112.329 Y145.492 E395.26378
G0 F1285.7 X112.51 Y145.178
G1 F900 X50.609 Y83.277 E398.61394
G0 F1285.7 X50.79 Y82.963
G1 F900 X112.691 Y144.864 E401.9641
G0 F1285.7 X112.872 Y144.551
G1 F900 X50.971 Y82.649 E405.31429
G0 F1285.7 X51.152 Y82.335
G1 F900 X113.054 Y144.237 E408.6645
G0 F1285.7 X113.235 Y143.923
G1 F900 X51.333 Y82.022 E412.01469
G0 F1285.7 X51.514 Y81.708
G1 F900 X113.416 Y143.609 E415.36488
G0 F1285.7 X113.597 Y143.295
G1 F900 X51.695 Y81.394 E418.71507
G0 F1285.7 X51.876 Y81.08
G1 F900 X113.778 Y142.981 E422.06525
G0 F1285.7 X113.96 Y142.668
G1 F900 X52.057 Y80.766 E425.4155
G0 F1285.7 X52.239 Y80.453
G1 F900 X114.141 Y142.354 E428.76568
G0 F1285.7 X114.322 Y142.04
G1 F900 X52.42 Y80.139 E432.11587
G0 F1285.7 X52.601 Y79.825
G1 F900 X114.503 Y141.726 E435.46606
G0 F1285.7 X114.684 Y141.413
G1 F900 X52.782 Y79.511 E438.81628
