;FLAVOR:Marlin
;TIME:12927
;Filament used: 10.1259m
;Layer height: 0.2
;MINX:5.358
;MINY:24.9
;MINZ:0.26
;MAXX:184.674
;MAXY:199.969
;MAXZ:7.66
;Generated with Cura_SteamEngine 4.9.1
M82 ;absolute extrusion mode
;Begin Start Gcode for Dagoma DiscoEasy 200
;Sliced: 13-07-2021 17:05:55
;Initial extruder: 0

G90 ;Absolute positioning
M106 S255 ;Fan on full
G28 X Y ;Home stop X Y
G1 X100 ;Centre back during cooldown in case of oozing
M109 R90 ;Cooldown in case too hot
G28 ;Centre
G29 ;Auto-level
M104 S205 ;Pre-heat
M107 ;Fan off
G0 X100 Y5 Z0.5 ;Front centre for degunk
M109 S205 ;Wait for initial temp
M83 ;E Relative
G1 E10 F200 ;Degunk
G1 E-3 F5000 ;Retract
G0 Z3 ;Withdraw
M82 ;E absolute
G92 E0 ;E reset
G1 F6000 ;Set feedrate

;Finish Start Gcode for Dagoma DiscoEasy 200

G92 E0
G92 E0
G1 F3000 E-3.5
;LAYER_COUNT:38
;LAYER:0
M107
G0 F1285.7 X31.162 Y26.292 Z0.26
;TYPE:SKIRT
G1 F3000 E0
G1 F900 X31.548 Y25.891 E0.0213
G1 X31.988 Y25.55 E0.0426
G1 X32.472 Y25.276 E0.06389
G1 X32.99 Y25.074 E0.08517
G1 X33.532 Y24.947 E0.10647
G1 X34.087 Y24.9 E0.12779
G1 X34.642 Y24.933 E0.14906
G1 X35.187 Y25.045 E0.17036
G1 X35.711 Y25.234 E0.19167
G1 X36.202 Y25.496 E0.21297
G1 X36.721 Y25.887 E0.23784
G1 X37.129 Y26.262 E0.25905
G1 X182.996 Y166.486 E8.00236
G1 X183.531 Y167.014 E8.03112
G1 X183.898 Y167.432 E8.05241
G1 X184.201 Y167.899 E8.07371
G1 X184.434 Y168.404 E8.095
G1 X184.593 Y168.937 E8.11628
G1 X184.674 Y169.488 E8.1376
G1 X184.674 Y170.044 E8.15888
G1 X184.596 Y170.595 E8.18017
G1 X184.439 Y171.129 E8.20147
G1 X184.207 Y171.635 E8.22278
G1 X183.905 Y172.102 E8.24406
G1 X183.539 Y172.522 E8.26538
G1 X183.118 Y172.884 E8.28663
G1 X182.648 Y173.183 E8.30795
G1 X181.939 Y173.479 E8.33735
G1 X181.409 Y173.633 E8.35847
G1 X84.197 Y199.68 E12.20995
G1 X83.521 Y199.852 E12.23665
G1 X82.973 Y199.95 E12.25795
G1 X82.417 Y199.969 E12.27924
G1 X81.864 Y199.908 E12.30053
G1 X81.325 Y199.768 E12.32185
G1 X80.812 Y199.553 E12.34313
G1 X80.335 Y199.266 E12.36444
G1 X79.934 Y198.942 E12.38417
G1 X79.189 Y198.252 E12.42303
G1 X7.012 Y128.867 E16.25453
G1 X6.496 Y128.356 E16.28232
G1 X6.13 Y127.937 E16.30361
G1 X5.828 Y127.47 E16.3249
G1 X5.595 Y126.965 E16.34618
G1 X5.438 Y126.431 E16.36748
G1 X5.358 Y125.881 E16.38875
G1 X5.358 Y125.324 E16.41007
G1 X5.452 Y124.71 E16.43384
G1 X5.694 Y123.691 E16.47392
G1 X30.224 Y28.401 E20.23951
G1 X30.397 Y27.762 E20.26485
G1 X30.58 Y27.237 E20.28612
G1 X30.837 Y26.744 E20.3074
G1 X31.162 Y26.292 E20.32871
G0 F1285.7 X31.479 Y26.46
G1 F900 X31.856 Y26.087 E20.349
G1 X32.286 Y25.775 E20.36933
G1 X32.757 Y25.531 E20.38963
G1 X33.259 Y25.361 E20.40992
G1 X33.782 Y25.268 E20.43024
G1 X34.312 Y25.254 E20.45053
G1 X34.839 Y25.321 E20.47086
G1 X35.349 Y25.465 E20.49115
G1 X35.833 Y25.685 E20.51149
G1 X36.277 Y25.974 E20.53177
G1 X36.704 Y26.343 E20.55336
G1 X36.917 Y26.544 E20.56457
G1 X182.75 Y166.735 E28.30607
G1 X183.285 Y167.263 E28.33483
G1 X183.634 Y167.663 E28.35515
G1 X183.918 Y168.111 E28.37545
G1 X184.132 Y168.597 E28.39577
G1 X184.271 Y169.109 E28.41607
G1 X184.331 Y169.636 E28.43637
G1 X184.312 Y170.166 E28.45667
G1 X184.213 Y170.688 E28.477
G1 X184.037 Y171.188 E28.49729
G1 X183.788 Y171.657 E28.51761
G1 X183.471 Y172.083 E28.53793
G1 X183.094 Y172.456 E28.55823
G1 X182.665 Y172.769 E28.57855
G1 X182.194 Y173.013 E28.59885
G1 X181.65 Y173.201 E28.62087
G1 X181.271 Y173.308 E28.63595
G1 X84.11 Y199.341 E32.48541
G1 X83.434 Y199.513 E32.5121
G1 X82.912 Y199.605 E32.53239
G1 X82.381 Y199.617 E32.55271
G1 X81.855 Y199.55 E32.573
G1 X81.344 Y199.404 E32.59334
G1 X80.862 Y199.183 E32.61363
G1 X80.418 Y198.893 E32.63393
G1 X80.172 Y198.685 E32.64626
G1 X79.431 Y197.999 E32.6849
G1 X7.259 Y128.619 E36.51613
G1 X6.743 Y128.108 E36.54393
G1 X6.395 Y127.707 E36.56425
G1 X6.111 Y127.259 E36.58455
G1 X5.898 Y126.773 E36.60485
G1 X5.76 Y126.26 E36.62518
G1 X5.7 Y125.733 E36.64548
G1 X5.721 Y125.203 E36.66578
G1 X5.793 Y124.791 E36.68179
G1 X6.033 Y123.778 E36.72163
G1 X30.561 Y28.493 E40.48701
G1 X30.734 Y27.854 E40.51235
G1 X30.911 Y27.353 E40.53268
G1 X31.161 Y26.885 E40.55299
G1 X31.479 Y26.46 E40.5733
G0 F1285.7 X31.794 Y26.632
G1 F900 X32.162 Y26.289 E40.59255
G1 X32.58 Y26.008 E40.61183
G1 X33.037 Y25.797 E40.63109
G1 X33.522 Y25.66 E40.65038
G1 X34.022 Y25.602 E40.66964
G1 X34.525 Y25.624 E40.68891
G1 X35.019 Y25.725 E40.70821
G1 X35.49 Y25.903 E40.72748
G1 X35.927 Y26.153 E40.74674
G1 X36.406 Y26.545 E40.77043
G1 X36.674 Y26.796 E40.78448
G1 X182.504 Y166.984 E48.52582
G1 X183.039 Y167.512 E48.55458
G1 X183.368 Y167.893 E48.57385
G1 X183.633 Y168.322 E48.59315
G1 X183.827 Y168.786 E48.61239
G1 X183.945 Y169.276 E48.63168
G1 X183.984 Y169.778 E48.65095
G1 X183.943 Y170.28 E48.67022
G1 X183.823 Y170.769 E48.68949
G1 X183.628 Y171.233 E48.70876
G1 X183.361 Y171.66 E48.72803
G1 X183.031 Y172.04 E48.74729
G1 X182.644 Y172.363 E48.76658
G1 X182.211 Y172.621 E48.78587
G1 X181.735 Y172.809 E48.80545
G1 X181.219 Y172.959 E48.82602
G1 X84.024 Y199.002 E52.67684
G1 X83.348 Y199.174 E52.70353
G1 X82.852 Y199.259 E52.72279
G1 X82.348 Y199.265 E52.74208
G1 X81.85 Y199.19 E52.76135
G1 X81.37 Y199.038 E52.78062
G1 X80.92 Y198.812 E52.79989
G1 X80.409 Y198.428 E52.82435
G1 X79.674 Y197.747 E52.8627
G1 X7.505 Y128.37 E56.69377
G1 X6.989 Y127.859 E56.72156
G1 X6.66 Y127.477 E56.74085
G1 X6.396 Y127.049 E56.7601
G1 X6.203 Y126.583 E56.7794
G1 X6.086 Y126.094 E56.79864
G1 X6.048 Y125.592 E56.81791
G1 X6.133 Y124.871 E56.84569
G1 X6.372 Y123.866 E56.88522
G1 X30.899 Y28.584 E60.65049
G1 X31.072 Y27.945 E60.67583
G1 X31.242 Y27.471 E60.6951
G1 X31.485 Y27.03 E60.71437
G1 X31.794 Y26.632 E60.73365
G1 F3000 E57.23365
;MESH:support_half_hex_16.stl
G0 F1285.7 X33.361 Y29.195
G0 X34.328 Y29.443
G0 X38.18 Y43.016
;TYPE:WALL-INNER
G1 F3000 E60.73365
G1 F900 X19.634 Y115.066 E63.58085
G1 X92.147 Y95.636 E66.45378
G1 X92.299 Y95.042 E66.47725
G1 X38.18 Y43.016 E69.35016
G0 F1285.7 X111.528 Y113.526
G1 F900 X92.982 Y185.576 E72.19736
G1 X165.495 Y166.146 E75.07029
G1 X165.647 Y165.552 E75.09375
G1 X111.528 Y113.526 E77.96666
G0 F1285.7 X179.495 Y169.591
G1 F900 X82.703 Y195.527 E81.80152
G1 X9.789 Y125.435 E85.67211
G1 X34.344 Y30.048 E89.44154
G1 X34.418 Y29.759 E89.45295
G1 X34.633 Y29.966 E89.45944
G1 X179.571 Y169.297 E97.15344
G1 X179.794 Y169.511 E97.16527
G1 X179.495 Y169.591 E97.17195
G0 F1285.7 X180.135 Y169.756
;TYPE:WALL-OUTER
G1 F900 X82.61 Y195.888 E101.03585
G1 X9.427 Y125.537 E104.92073
G1 X34.168 Y29.428 E108.71869
G1 X34.242 Y29.139 E108.7301
G1 X34.457 Y29.346 E108.73659
G1 X180.211 Y169.462 E116.47392
G1 X180.434 Y169.676 E116.48575
G1 X180.135 Y169.756 E116.49244
G0 F1285.7 X179.942 Y169.807
G0 X180.1 Y169.714
G0 X111.613 Y113.822
G0 X111.704 Y114.146
G1 F900 X93.435 Y185.118 E119.29704
G1 X165.128 Y165.907 E122.13749
G1 X165.227 Y165.881 E122.14141
G1 X165.285 Y165.655 E122.15034
G1 X165.211 Y165.584 E122.15427
G1 X111.704 Y114.146 E124.9947
G0 F1285.7 X111.655 Y114.339
G0 X111.414 Y114.277
G0 X92.142 Y95.086
G0 X38.265 Y43.312
G0 X38.356 Y43.636
G1 F900 X20.087 Y114.608 E127.7993
G1 X91.78 Y95.397 E130.63975
G1 X91.879 Y95.371 E130.64367
G1 X91.937 Y95.145 E130.6526
G1 X91.863 Y95.074 E130.65652
G1 X38.356 Y43.636 E133.49695
G0 F1285.7 X38.307 Y43.829
G0 X38.066 Y43.767
G0 X37.996 Y42.367
;TYPE:SKIN
G1 F900 X19.16 Y115.546 E136.38876
G1 X92.427 Y95.913 E139.29158
G1 X92.678 Y94.935 E139.33022
G1 X37.996 Y42.367 E142.23304
G0 F1285.7 X34.603 Y30.407
G1 F900 X179.125 Y169.338 E149.90495
G1 X82.8 Y195.15 E153.72131
G1 X10.168 Y125.328 E157.57696
G1 X34.603 Y30.407 E161.32797
G0 F1285.7 X111.344 Y112.877
G1 F900 X92.508 Y186.056 E164.21978
G1 X165.775 Y166.423 E167.1226
G1 X166.026 Y165.445 E167.16124
G1 X111.344 Y112.877 E170.06405
G0 F1285.7 X178.695 Y169.29
G1 F900 X174.853 Y165.448 E170.27199
G1 X174.791 Y165.386
G0 F1285.7 X175.962 Y170.022
G1 F900 X85.308 Y79.368 E175.1783
G1 X85.246 Y79.306
G0 F1285.7 X81.402 Y83.877
G1 F900 X33.364 Y35.839 E177.77818
G0 F1285.7 X33.466 Y35.446
G1 F900 X111.123 Y113.103 E181.98107
G0 F1285.7 X111.224 Y112.709
G1 F900 X33.567 Y35.052 E186.18397
G0 F1285.7 X33.668 Y34.658
G1 F900 X119.749 Y120.739 E190.84278
G1 X119.811 Y120.801
G0 F1285.7 X123.684 Y116.26
G1 F900 X177.133 Y169.708 E193.73548
G0 F1285.7 X177.523 Y169.603
G1 F900 X136.476 Y128.556 E195.957
G1 X136.414 Y128.494
G0 F1285.7 X132.561 Y133.056
G1 F900 X33.77 Y34.265 E201.30369
G0 F1285.7 X33.871 Y33.871
G1 F900 X145.372 Y145.372 E207.33827
G1 X145.434 Y145.434
G0 F1285.7 X149.268 Y140.854
G1 F900 X177.913 Y169.499 E208.88857
G0 F1285.7 X178.304 Y169.394
G1 F900 X162.061 Y153.151 E209.76766
G1 X161.999 Y153.089
G0 F1285.7 X158.184 Y157.689
G1 F900 X33.972 Y33.477 E216.49018
G0 F1285.7 X34.074 Y33.084
G1 F900 X172.058 Y171.068 E223.95805
G0 F1285.7 X171.667 Y171.172
G1 F900 X166.136 Y165.641 E224.25739
G0 F1285.7 X166.035 Y166.035
G1 F900 X171.277 Y171.277 E224.54109
G0 F1285.7 X170.887 Y171.382
G1 F900 X165.935 Y166.43 E224.8091
G0 F1285.7 X165.633 Y166.623
G1 F900 X170.496 Y171.486 E225.07229
G0 F1285.7 X170.106 Y171.591
G1 F900 X165.243 Y166.728 E225.33549
G0 F1285.7 X164.852 Y166.832
G1 F900 X169.716 Y171.696 E225.59873
G0 F1285.7 X169.325 Y171.8
G1 F900 X164.461 Y166.936 E225.86198
G0 F1285.7 X164.071 Y167.041
G1 F900 X168.935 Y171.905 E226.12522
G0 F1285.7 X168.545 Y172.01
G1 F900 X163.681 Y167.145 E226.3885
G0 F1285.7 X163.29 Y167.25
G1 F900 X168.154 Y172.114 E226.65174
G0 F1285.7 X167.764 Y172.219
G1 F900 X162.9 Y167.355 E226.91499
G0 F1285.7 X162.51 Y167.459
G1 F900 X167.374 Y172.324 E227.17826
G0 F1285.7 X166.983 Y172.428
G1 F900 X162.119 Y167.564 E227.44151
G0 F1285.7 X161.729 Y167.669
G1 F900 X166.593 Y172.533 E227.70475
G0 F1285.7 X166.203 Y172.637
G1 F900 X161.339 Y167.773 E227.968
G0 F1285.7 X160.948 Y167.878
G1 F900 X165.812 Y172.741 E228.23122
G0 F1285.7 X165.421 Y172.846
G1 F900 X160.558 Y167.983 E228.49441
G0 F1285.7 X160.168 Y168.087
G1 F900 X165.031 Y172.951 E228.75763
G0 F1285.7 X164.641 Y173.055
G1 F900 X159.777 Y168.192 E229.02085
G0 F1285.7 X159.387 Y168.297
G1 F900 X164.251 Y173.16 E229.28407
G0 F1285.7 X163.86 Y173.265
G1 F900 X158.997 Y168.401 E229.54728
G0 F1285.7 X158.606 Y168.505
G1 F900 X163.47 Y173.369 E229.81053
G0 F1285.7 X163.08 Y173.474
G1 F900 X158.215 Y168.61 E230.0738
G0 F1285.7 X157.825 Y168.714
G1 F900 X162.689 Y173.579 E230.33708
G0 F1285.7 X162.299 Y173.683
G1 F900 X157.435 Y168.819 E230.60032
G0 F1285.7 X157.044 Y168.924
G1 F900 X161.909 Y173.788 E230.8636
G0 F1285.7 X161.518 Y173.893
G1 F900 X156.654 Y169.028 E231.12687
G0 F1285.7 X156.264 Y169.133
G1 F900 X161.128 Y173.997 E231.39011
G0 F1285.7 X160.738 Y174.102
G1 F900 X155.873 Y169.238 E231.65339
G0 F1285.7 X155.483 Y169.342
G1 F900 X160.347 Y174.207 E231.91666
G0 F1285.7 X159.957 Y174.311
G1 F900 X155.093 Y169.447 E232.17991
G0 F1285.7 X154.702 Y169.552
G1 F900 X159.566 Y174.415 E232.44312
G0 F1285.7 X159.176 Y174.52
G1 F900 X154.312 Y169.656 E232.70637
G0 F1285.7 X153.922 Y169.761
G1 F900 X158.785 Y174.624 E232.96956
G0 F1285.7 X158.395 Y174.729
G1 F900 X153.531 Y169.866 E233.23278
G0 F1285.7 X153.141 Y169.97
G1 F900 X158.005 Y174.834 E233.49603
G0 F1285.7 X157.614 Y174.938
G1 F900 X152.75 Y170.074 E233.75927
G0 F1285.7 X152.36 Y170.179
G1 F900 X157.224 Y175.043 E234.02252
G0 F1285.7 X156.834 Y175.148
G1 F900 X151.969 Y170.284 E234.28579
G0 F1285.7 X151.579 Y170.388
G1 F900 X156.443 Y175.252 E234.54904
G0 F1285.7 X156.053 Y175.357
G1 F900 X151.189 Y170.493 E234.81228
G0 F1285.7 X150.799 Y170.597
G1 F900 X155.663 Y175.462 E235.07556
G0 F1285.7 X155.272 Y175.566
G1 F900 X150.408 Y170.702 E235.3388
G0 F1285.7 X150.018 Y170.807
G1 F900 X154.882 Y175.671 E235.60205
G0 F1285.7 X154.492 Y175.776
G1 F900 X149.628 Y170.911 E235.86532
G0 F1285.7 X149.237 Y171.016
G1 F900 X154.101 Y175.88 E236.12857
G0 F1285.7 X153.71 Y175.984
G1 F900 X148.847 Y171.121 E236.39176
G0 F1285.7 X148.457 Y171.225
G1 F900 X153.32 Y176.089 E236.65498
G0 F1285.7 X152.93 Y176.194
G1 F900 X148.066 Y171.33 E236.91822
G0 F1285.7 X147.676 Y171.435
G1 F900 X152.539 Y176.298 E237.18142
G0 F1285.7 X152.149 Y176.403
G1 F900 X147.286 Y171.539 E237.44463
G0 F1285.7 X146.895 Y171.644
G1 F900 X151.759 Y176.507 E237.70785
G0 F1285.7 X151.368 Y176.612
G1 F900 X146.504 Y171.748 E237.9711
G0 F1285.7 X146.114 Y171.853
G1 F900 X150.978 Y176.717 E238.23434
G0 F1285.7 X150.588 Y176.821
G1 F900 X145.724 Y171.957 E238.49759
G0 F1285.7 X145.333 Y172.062
G1 F900 X150.197 Y176.926 E238.76084
G0 F1285.7 X149.807 Y177.031
G1 F900 X144.943 Y172.167 E239.02408
G0 F1285.7 X144.553 Y172.271
G1 F900 X149.417 Y177.135 E239.28733
G0 F1285.7 X149.026 Y177.24
G1 F900 X144.162 Y172.376 E239.55057
G0 F1285.7 X143.772 Y172.481
G1 F900 X148.636 Y177.345 E239.81382
G0 F1285.7 X148.246 Y177.449
G1 F900 X143.382 Y172.585 E240.07707
G0 F1285.7 X142.991 Y172.69
G1 F900 X147.856 Y177.554 E240.34034
G0 F1285.7 X147.464 Y177.658
G1 F900 X142.601 Y172.794 E240.60356
G0 F1285.7 X142.211 Y172.899
G1 F900 X147.074 Y177.763 E240.86678
G0 F1285.7 X146.684 Y177.867
G1 F900 X141.82 Y173.004 E241.13
G0 F1285.7 X141.43 Y173.108
G1 F900 X146.294 Y177.972 E241.39324
G0 F1285.7 X145.903 Y178.077
G1 F900 X141.04 Y173.213 E241.65646
G0 F1285.7 X140.649 Y173.317
G1 F900 X145.513 Y178.181 E241.91971
G0 F1285.7 X145.123 Y178.286
G1 F900 X140.258 Y173.422 E242.18298
G0 F1285.7 X139.868 Y173.526
G1 F900 X144.732 Y178.391 E242.44625
G0 F1285.7 X144.342 Y178.495
G1 F900 X139.478 Y173.631 E242.7095
G0 F1285.7 X139.087 Y173.736
G1 F900 X143.952 Y178.6 E242.97277
G0 F1285.7 X143.561 Y178.704
G1 F900 X138.697 Y173.84 E243.23602
G0 F1285.7 X138.307 Y173.945
G1 F900 X143.171 Y178.809 E243.49926
G0 F1285.7 X142.781 Y178.914
G1 F900 X137.916 Y174.05 E243.76254
G0 F1285.7 X137.526 Y174.154
G1 F900 X142.39 Y179.018 E244.02578
G0 F1285.7 X142 Y179.123
G1 F900 X137.136 Y174.259 E244.28903
G0 F1285.7 X136.745 Y174.364
G1 F900 X141.61 Y179.228 E244.5523
G0 F1285.7 X141.219 Y179.332
G1 F900 X136.355 Y174.468 E244.81555
G0 F1285.7 X135.965 Y174.573
G1 F900 X140.828 Y179.436 E245.07874
G0 F1285.7 X140.438 Y179.541
G1 F900 X135.574 Y174.678 E245.34196
G0 F1285.7 X135.184 Y174.782
G1 F900 X140.048 Y179.646 E245.6052
G0 F1285.7 X139.657 Y179.75
G1 F900 X134.793 Y174.886 E245.86845
G0 F1285.7 X134.403 Y174.991
G1 F900 X139.267 Y179.855 E246.13169
G0 F1285.7 X138.877 Y179.96
G1 F900 X134.012 Y175.095 E246.39499
G0 F1285.7 X133.622 Y175.2
G1 F900 X138.486 Y180.064 E246.65824
G0 F1285.7 X138.096 Y180.169
G1 F900 X133.232 Y175.305 E246.92149
G0 F1285.7 X132.842 Y175.409
G1 F900 X137.706 Y180.274 E247.18476
G0 F1285.7 X137.315 Y180.378
G1 F900 X132.451 Y175.514 E247.448
G0 F1285.7 X132.061 Y175.619
G1 F900 X136.925 Y180.483 E247.71125
G0 F1285.7 X136.535 Y180.588
G1 F900 X131.671 Y175.723 E247.97452
G0 F1285.7 X131.28 Y175.828
G1 F900 X136.144 Y180.692 E248.23777
G0 F1285.7 X135.754 Y180.797
G1 F900 X130.89 Y175.933 E248.50102
G0 F1285.7 X130.5 Y176.037
G1 F900 X135.364 Y180.901 E248.76426
G0 F1285.7 X134.973 Y181.005
G1 F900 X130.109 Y176.142 E249.02748
G0 F1285.7 X129.719 Y176.247
G1 F900 X134.582 Y181.11 E249.29067
G0 F1285.7 X134.192 Y181.215
G1 F900 X129.329 Y176.351 E249.55389
G0 F1285.7 X128.938 Y176.456
G1 F900 X133.802 Y181.319 E249.81711
G0 F1285.7 X133.411 Y181.424
G1 F900 X128.547 Y176.56 E250.08036
G0 F1285.7 X128.157 Y176.664
G1 F900 X133.021 Y181.529 E250.34363
G0 F1285.7 X132.631 Y181.633
G1 F900 X127.767 Y176.769 E250.60687
G0 F1285.7 X127.376 Y176.874
G1 F900 X132.24 Y181.738 E250.87012
G0 F1285.7 X131.85 Y181.843
G1 F900 X126.986 Y176.978 E251.13339
G0 F1285.7 X126.596 Y177.083
G1 F900 X131.46 Y181.947 E251.39664
G0 F1285.7 X131.07 Y182.052
G1 F900 X126.205 Y177.188 E251.65991
G0 F1285.7 X125.815 Y177.292
G1 F900 X130.679 Y182.157 E251.92318
G0 F1285.7 X130.289 Y182.261
G1 F900 X125.425 Y177.397 E252.18643
G0 F1285.7 X125.034 Y177.502
G1 F900 X129.899 Y182.366 E252.4497
G0 F1285.7 X129.508 Y182.471
G1 F900 X124.644 Y177.606 E252.71298
G0 F1285.7 X124.254 Y177.711
G1 F900 X129.118 Y182.575 E252.97622
G0 F1285.7 X128.727 Y182.679
G1 F900 X123.863 Y177.816 E253.23944
G0 F1285.7 X123.473 Y177.92
