;FLAVOR:Marlin
;TIME:12889
;Filament used: 22.504m
;Layer height: 0.3
;MINX:17.692
;MINY:14.91
;MINZ:0.26
;MAXX:193.178
;MAXY:188.846
;MAXZ:24.56
;Generated with Cura_SteamEngine 4.9.1
M82 ;absolute extrusion mode
;Begin Start Gcode for Dagoma DiscoEasy 200
;Sliced: 01-08-2021 01:28:45
;Initial extruder: 0

G90 ;Absolute positioning
M106 S255 ;Fan on full
G28 X Y ;Home stop X Y
G1 X100 ;Centre back during cooldown in case of oozing
M109 R90 ;Cooldown in case too hot
G28 ;Centre
G29 ;Auto-level
M104 S205 ;Pre-heat
M107 ;Fan off
G0 X100 Y5 Z0.5 ;Front centre for degunk
M109 S205 ;Wait for initial temp
M83 ;E Relative
G1 E10 F200 ;Degunk
G1 E-3 F5000 ;Retract
G0 Z3 ;Withdraw
M82 ;E absolute
G92 E0 ;E reset
G1 F6000 ;Set feedrate

;Finish Start Gcode for Dagoma DiscoEasy 200

G92 E0
G92 E0
G1 F3000 E-3.5
;LAYER_COUNT:82
;LAYER:0
M107
G0 F1285.7 X19.398 Y41.149 Z0.26
;TYPE:SKIRT
G1 F3000 E0
G1 F900 X20.534 Y40.645 E0.04756
G1 X23.032 Y39.493 E0.15283
G1 X25.478 Y38.283 E0.25727
G1 X27.916 Y36.987 E0.36293
G1 X30.303 Y35.63 E0.46801
G1 X32.65 Y34.208 E0.57303
G1 X34.981 Y32.705 E0.67917
G1 X37.234 Y31.158 E0.78376
G1 X38.925 Y29.93 E0.86374
G1 X39.348 Y29.667 E0.8828
G1 X40.007 Y29.39 E0.91016
G1 X40.617 Y29.22 E0.93439
G1 X41.25 Y29.06 E0.95938
G1 X41.894 Y28.973 E0.98425
G1 X42.507 Y28.96 E1.00771
G1 X44.104 Y28.951 E1.06883
G1 X46.843 Y28.858 E1.17371
G1 X49.573 Y28.689 E1.27839
G1 X52.297 Y28.442 E1.38306
G1 X55.049 Y28.114 E1.48912
G1 X57.76 Y27.713 E1.594
G1 X60.469 Y27.233 E1.69929
G1 X63.129 Y26.686 E1.80322
G1 X65.843 Y26.045 E1.90994
G1 X68.452 Y25.351 E2.01325
G1 X71.139 Y24.554 E2.12051
G1 X73.712 Y23.711 E2.22413
G1 X76.328 Y22.771 E2.33051
G1 X78.884 Y21.771 E2.43555
G1 X81.367 Y20.717 E2.53878
G1 X83.904 Y19.554 E2.64558
G1 X86.352 Y18.347 E2.75003
G1 X88.804 Y17.051 E2.85617
G1 X90.944 Y15.846 E2.95016
G1 X91.172 Y15.714 E2.96024
G1 X91.754 Y15.459 E2.98456
G1 X92.417 Y15.267 E3.01097
G1 X93.101 Y15.092 E3.03799
G1 X93.71 Y15.001 E3.06156
G1 X94.095 Y15.01 E3.0763
G1 X94.813 Y15.075 E3.10389
G1 X96.264 Y15.227 E3.15972
G1 X99.029 Y15.438 E3.26584
G1 X101.797 Y15.57 E3.37189
G1 X104.498 Y15.624 E3.47528
G1 X107.267 Y15.599 E3.58125
G1 X110.006 Y15.498 E3.68614
G1 X112.769 Y15.317 E3.79211
G1 X115.493 Y15.062 E3.89681
G1 X116.794 Y14.922 E3.94689
G1 X117.273 Y14.91 E3.96522
G1 X117.748 Y14.978 E3.98359
G1 X118.204 Y15.125 E4.00192
G1 X118.63 Y15.344 E4.02025
G1 X119.104 Y15.717 E4.04334
G1 X119.711 Y16.307 E4.07573
G1 X189.597 Y86.369 E7.86282
G1 X190.094 Y86.881 E7.89012
G1 X190.398 Y87.251 E7.90845
G1 X190.636 Y87.667 E7.92679
G1 X190.802 Y88.116 E7.94511
G1 X190.891 Y88.587 E7.96345
G1 X190.905 Y88.947 E7.97724
G1 X190.875 Y90.294 E8.0288
G1 X190.853 Y93.1 E8.13619
G1 X190.908 Y95.789 E8.23912
G1 X191.044 Y98.6 E8.34682
G1 X191.253 Y101.3 E8.45046
G1 X191.544 Y104.058 E8.55659
G1 X191.907 Y106.765 E8.66111
G1 X192.346 Y109.448 E8.76516
G1 X193.124 Y113.363 E8.91791
G1 X193.178 Y113.839 E8.93624
G1 X193.097 Y114.606 E8.96576
G1 X192.89 Y115.452 E8.99909
G1 X192.728 Y116.069 E9.0235
G1 X192.538 Y116.756 E9.05078
G1 X192.465 Y116.984 E9.05994
G1 X192.253 Y117.437 E9.07908
G1 X192.087 Y117.725 E9.09181
G1 X190.725 Y120.156 E9.19844
G1 X189.459 Y122.574 E9.3029
G1 X188.248 Y125.054 E9.40852
G1 X187.108 Y127.571 E9.51426
G1 X186.049 Y130.091 E9.61887
G1 X185.038 Y132.701 E9.72598
G1 X184.145 Y135.224 E9.82841
G1 X183.294 Y137.859 E9.93438
G1 X182.518 Y140.515 E10.04027
G1 X181.837 Y143.115 E10.14313
G1 X181.207 Y145.83 E10.24979
G1 X180.648 Y148.587 E10.35744
G1 X180.201 Y151.189 E10.45848
G1 X179.801 Y153.965 E10.56581
G1 X179.488 Y156.683 E10.67052
G1 X179.252 Y159.409 E10.77523
G1 X179.093 Y162.142 E10.88
G1 X179.011 Y164.917 E10.98624
G1 X179.004 Y165.949 E11.02574
G1 X178.935 Y166.663 E11.05319
G1 X178.768 Y167.404 E11.08226
G1 X178.563 Y168.138 E11.11142
G1 X178.395 Y168.587 E11.12977
G1 X178.155 Y169.002 E11.14812
G1 X177.948 Y169.266 E11.16095
G1 X177.077 Y170.25 E11.21124
G1 X175.284 Y172.33 E11.31634
G1 X173.556 Y174.454 E11.42112
G1 X171.882 Y176.636 E11.52637
G1 X170.265 Y178.87 E11.63191
G1 X168.72 Y181.138 E11.73693
G1 X167.23 Y183.463 E11.84261
G1 X165.828 Y185.796 E11.94678
G1 X165.333 Y186.67 E11.98522
G1 X164.895 Y187.421 E12.01849
G1 X164.62 Y187.814 E12.03684
G1 X164.284 Y188.155 E12.05516
G1 X163.896 Y188.436 E12.0735
G1 X163.466 Y188.648 E12.09185
G1 X163.007 Y188.786 E12.11019
G1 X162.532 Y188.846 E12.12851
G1 X162.053 Y188.825 E12.14686
G1 X161.584 Y188.726 E12.1652
G1 X161.138 Y188.551 E12.18354
G1 X160.728 Y188.303 E12.20188
G1 X160.411 Y188.037 E12.21771
G1 X159.757 Y187.403 E12.25257
G1 X159.196 Y186.841 E12.28296
G1 X157.258 Y184.952 E12.38653
G1 X155.195 Y183.054 E12.49381
G1 X153.126 Y181.256 E12.59871
G1 X151.026 Y179.532 E12.70269
G1 X148.837 Y177.837 E12.80864
G1 X146.798 Y176.364 E12.9049
G1 X146.094 Y175.844 E12.9384
G1 X145.738 Y175.539 E12.95634
G1 X145.317 Y175.126 E12.97891
G1 X143.955 Y173.76 E13.05273
G1 X143.281 Y173.09 E13.0891
G1 X142.269 Y172.094 E13.14344
G1 X140.293 Y170.107 E13.25068
G1 X139.65 Y169.479 E13.28507
G1 X139.265 Y169.088 E13.30607
G1 X138.748 Y168.55 E13.33463
G1 X138.489 Y168.24 E13.35009
G1 X137.867 Y167.376 E13.39083
G1 X137.47 Y166.809 E13.41732
G1 X135.807 Y164.572 E13.52399
G1 X134.093 Y162.394 E13.63006
G1 X132.352 Y160.309 E13.73401
G1 X130.541 Y158.262 E13.83861
G1 X128.645 Y156.235 E13.94482
G1 X127.423 Y154.987 E14.01167
G1 X125.151 Y152.709 E14.13479
G1 X123.134 Y150.745 E14.24253
G1 X121.141 Y148.908 E14.34626
G1 X119.051 Y147.09 E14.45227
G1 X116.937 Y145.352 E14.557
G1 X114.787 Y143.686 E14.66109
G1 X112.458 Y142 E14.77112
G1 X111.987 Y141.651 E14.79356
G1 X111.555 Y141.274 E14.8155
G1 X111.277 Y141.001 E14.83041
G1 X109.776 Y139.499 E14.91168
G1 X108.889 Y138.622 E14.95941
G1 X108.153 Y137.903 E14.99879
G1 X105.155 Y134.887 E15.16153
G1 X104.641 Y134.356 E15.18981
G1 X104.528 Y134.232 E15.19623
G1 X104.082 Y133.714 E15.22239
G1 X102.257 Y131.657 E15.32763
G1 X100.396 Y129.674 E15.4317
G1 X98.449 Y127.715 E15.5374
G1 X96.444 Y125.809 E15.64327
G1 X94.404 Y123.976 E15.74822
G1 X92.323 Y122.211 E15.85265
G1 X90.158 Y120.476 E15.95883
G1 X87.962 Y118.817 E16.06415
G1 X85.765 Y117.252 E16.16738
G1 X83.446 Y115.698 E16.27421
G1 X81.141 Y114.246 E16.37847
G1 X78.768 Y112.842 E16.48398
G1 X76.379 Y111.52 E16.58847
G1 X73.931 Y110.254 E16.69395
G1 X70.395 Y108.574 E16.84376
G1 X69.394 Y108.123 E16.88578
G1 X68.975 Y107.891 E16.90411
G1 X68.578 Y107.57 E16.92365
G1 X67.998 Y107.01 E16.9545
G1 X67.585 Y106.587 E16.97712
G1 X67.187 Y106.072 E17.00203
G1 X66.429 Y104.819 E17.05808
G1 X66.331 Y104.652 E17.06549
G1 X64.861 Y102.307 E17.1714
G1 X63.311 Y99.984 E17.27828
G1 X61.744 Y97.775 E17.38192
G1 X60.078 Y95.559 E17.48802
G1 X58.383 Y93.433 E17.59208
G1 X56.601 Y91.325 E17.69771
G1 X54.757 Y89.263 E17.80357
G1 X52.871 Y87.271 E17.90855
G1 X50.963 Y85.368 E18.01168
G1 X48.922 Y83.441 E18.1191
G1 X46.886 Y81.629 E18.22341
G1 X44.777 Y79.852 E18.32895
G1 X42.647 Y78.16 E18.43305
G1 X40.436 Y76.503 E18.53879
G1 X38.17 Y74.905 E18.64491
G1 X35.938 Y73.421 E18.74748
G1 X33.539 Y71.923 E18.85572
G1 X32.077 Y71.057 E18.92075
G1 X31.234 Y70.567 E18.95806
G1 X30.726 Y70.191 E18.98225
G1 X30.315 Y69.796 E19.00406
G1 X29.574 Y69.053 E19.04422
G1 X29.116 Y68.581 E19.06939
G1 X28.812 Y68.211 E19.08772
G1 X28.574 Y67.795 E19.10606
G1 X28.447 Y67.476 E19.1192
G1 X28.19 Y66.693 E19.15074
G1 X27.297 Y64.103 E19.25558
G1 X26.315 Y61.5 E19.36205
G1 X25.285 Y58.985 E19.46605
G1 X24.173 Y56.476 E19.57108
G1 X22.991 Y53.996 E19.67622
G1 X21.739 Y51.554 E19.78124
G1 X20.414 Y49.136 E19.88676
G1 X19.034 Y46.784 E19.99112
G1 X18.608 Y46.1 E20.02195
G1 X18.103 Y45.264 E20.05933
G1 X17.89 Y44.834 E20.0777
G1 X17.752 Y44.375 E20.09604
G1 X17.692 Y43.9 E20.11436
G1 X17.711 Y43.421 E20.13271
G1 X17.81 Y42.952 E20.15105
G1 X17.985 Y42.506 E20.16939
G1 X18.232 Y42.096 E20.1877
G1 X18.543 Y41.732 E20.20603
G1 X18.911 Y41.425 E20.22437
G1 X19.398 Y41.149 E20.24579
G0 F1285.7 X19.54 Y41.469
G1 F900 X20.676 Y40.965 E20.29335
G1 X23.163 Y39.819 E20.39814
G1 X25.654 Y38.585 E20.50453
G1 X28.094 Y37.288 E20.61028
G1 X30.477 Y35.934 E20.71517
G1 X32.836 Y34.505 E20.82072
G1 X35.158 Y33.007 E20.92647
G1 X37.434 Y31.444 E21.03213
G1 X39.13 Y30.213 E21.11233
G1 X39.523 Y29.97 E21.13001
G1 X40.102 Y29.727 E21.15404
G1 X40.703 Y29.559 E21.17792
G1 X41.336 Y29.399 E21.20291
G1 X41.902 Y29.323 E21.22477
G1 X42.509 Y29.31 E21.248
G1 X44.083 Y29.301 E21.30824
G1 X46.877 Y29.206 E21.41522
G1 X49.589 Y29.038 E21.51921
G1 X52.37 Y28.786 E21.62607
G1 X55.072 Y28.464 E21.73021
G1 X57.838 Y28.055 E21.83721
G1 X60.524 Y27.579 E21.94161
G1 X63.211 Y27.027 E22.04659
G1 X65.911 Y26.389 E22.15276
G1 X68.574 Y25.68 E22.25822
G1 X71.206 Y24.9 E22.36328
G1 X73.86 Y24.031 E22.47015
G1 X76.443 Y23.102 E22.5752
G1 X78.993 Y22.104 E22.67999
G1 X81.52 Y21.031 E22.78506
G1 X84.049 Y19.873 E22.8915
G1 X86.543 Y18.643 E22.99792
G1 X88.954 Y17.369 E23.10228
G1 X91.091 Y16.165 E23.19615
G1 X91.347 Y16.017 E23.20747
G1 X91.859 Y15.793 E23.22885
G1 X92.511 Y15.604 E23.25483
G1 X93.187 Y15.432 E23.28153
G1 X93.754 Y15.349 E23.30346
G1 X94.064 Y15.358 E23.31533
G1 X94.777 Y15.423 E23.34273
G1 X96.239 Y15.576 E23.39898
G1 X99.02 Y15.788 E23.50572
G1 X101.737 Y15.918 E23.60981
G1 X104.529 Y15.974 E23.71668
G1 X107.283 Y15.949 E23.82208
G1 X110.006 Y15.848 E23.92636
G1 X112.787 Y15.667 E24.03302
G1 X115.547 Y15.408 E24.1391
G1 X116.832 Y15.27 E24.18856
G1 X117.281 Y15.261 E24.20575
G1 X117.724 Y15.333 E24.22292
G1 X118.148 Y15.482 E24.24012
G1 X118.538 Y15.703 E24.25728
G1 X118.86 Y15.968 E24.27324
G1 X119.464 Y16.554 E24.30544
G1 X189.346 Y86.612 E28.09231
G1 X189.843 Y87.124 E28.11962
G1 X190.126 Y87.473 E28.13681
G1 X190.342 Y87.866 E28.15398
G1 X190.486 Y88.292 E28.17119
G1 X190.555 Y88.939 E28.19609
G1 X190.525 Y90.292 E28.24788
G1 X190.503 Y93.121 E28.35615
G1 X190.559 Y95.826 E28.45969
G1 X190.694 Y98.609 E28.56632
G1 X190.904 Y101.329 E28.67072
G1 X191.193 Y104.068 E28.77612
G1 X191.564 Y106.833 E28.88288
G1 X192.003 Y109.52 E28.98708
G1 X192.781 Y113.432 E29.13972
G1 X192.829 Y113.878 E29.15689
G1 X192.757 Y114.523 E29.18172
G1 X192.552 Y115.363 E29.21481
G1 X192.391 Y115.976 E29.23907
G1 X192.201 Y116.663 E29.26635
G1 X191.95 Y117.263 E29.29124
G1 X191.766 Y117.582 E29.30533
G1 X190.416 Y119.993 E29.41108
G1 X189.14 Y122.429 E29.51632
G1 X187.928 Y124.912 E29.62206
G1 X186.791 Y127.42 E29.72744
G1 X185.727 Y129.953 E29.83258
G1 X184.704 Y132.595 E29.941
G1 X183.818 Y135.098 E30.04262
G1 X182.96 Y137.754 E30.14943
G1 X182.185 Y140.405 E30.25513
G1 X181.49 Y143.063 E30.36027
G1 X180.865 Y145.757 E30.46611
G1 X180.313 Y148.476 E30.57228
G1 X179.844 Y151.207 E30.67833
G1 X179.455 Y153.91 E30.78284
G1 X179.144 Y156.606 E30.8867
G1 X178.902 Y159.395 E30.99383
G1 X178.743 Y162.145 E31.09925
G1 X178.661 Y164.905 E31.20492
G1 X178.654 Y165.946 E31.24476
G1 X178.588 Y166.619 E31.27064
G1 X178.429 Y167.317 E31.29803
G1 X178.226 Y168.044 E31.32692
G1 X178.066 Y168.463 E31.34408
G1 X177.686 Y169.034 E31.37033
G1 X176.815 Y170.018 E31.42062
G1 X175.028 Y172.092 E31.52539
G1 X173.252 Y174.275 E31.63309
G1 X171.605 Y176.422 E31.73665
G1 X169.984 Y178.661 E31.84243
G1 X168.416 Y180.963 E31.94902
G1 X166.941 Y183.263 E32.05359
G1 X165.52 Y185.629 E32.15921
G1 X165.031 Y186.494 E32.19723
G1 X164.593 Y187.245 E32.23051
G1 X164.333 Y187.611 E32.24769
G1 X164.013 Y187.926 E32.26487
G1 X163.642 Y188.178 E32.28203
G1 X163.232 Y188.361 E32.29922
G1 X162.796 Y188.469 E32.31641
G1 X162.348 Y188.497 E32.33358
G1 X161.901 Y188.446 E32.3508
G1 X161.472 Y188.316 E32.36796
G1 X161.071 Y188.113 E32.38516
G1 X160.655 Y187.786 E32.40541
G1 X160.005 Y187.156 E32.44005
G1 X159.469 Y186.619 E32.46908
G1 X157.464 Y184.666 E32.5762
G1 X155.434 Y182.797 E32.6818
G1 X153.368 Y181.002 E32.78654
G1 X151.213 Y179.234 E32.89321
G1 X149.07 Y177.574 E32.99695
G1 X147.006 Y176.082 E33.09441
G1 X146.302 Y175.562 E33.12791
G1 X145.983 Y175.289 E33.14398
G1 X145.565 Y174.879 E33.16638
G1 X144.203 Y173.513 E33.24021
G1 X143.528 Y172.842 E33.27663
G1 X142.518 Y171.847 E33.33089
G1 X140.568 Y169.887 E33.4367
G1 X139.899 Y169.233 E33.4725
G1 X139.517 Y168.846 E33.49331
G1 X139 Y168.308 E33.52186
G1 X138.773 Y168.035 E33.53545
G1 X138.153 Y167.175 E33.57602
G1 X137.733 Y166.575 E33.60405
G1 X136.083 Y164.356 E33.70988
G1 X134.387 Y162.202 E33.81479
G1 X132.602 Y160.063 E33.92141
G1 X130.794 Y158.019 E34.02584
G1 X128.904 Y155.999 E34.13171
G1 X127.673 Y154.742 E34.19904
G1 X125.395 Y152.458 E34.32249
G1 X123.387 Y150.503 E34.42974
G1 X121.36 Y148.634 E34.53526
G1 X119.293 Y146.836 E34.6401
G1 X117.163 Y145.086 E34.7456
G1 X114.972 Y143.388 E34.85168
G1 X112.667 Y141.719 E34.96059
G1 X112.196 Y141.37 E34.98302
G1 X111.8 Y141.024 E35.00314
G1 X111.525 Y140.754 E35.01789
G1 X110.024 Y139.252 E35.09916
G1 X109.145 Y138.384 E35.14643
G1 X108.401 Y137.657 E35.18624
G1 X105.407 Y134.643 E35.34882
G1 X104.893 Y134.112 E35.3771
G1 X104.794 Y134.004 E35.38271
G1 X104.348 Y133.486 E35.40887
G1 X102.526 Y131.433 E35.51392
G1 X100.635 Y129.417 E35.6197
G1 X98.69 Y127.462 E35.72523
G1 X96.664 Y125.535 E35.83224
G1 X94.654 Y123.73 E35.93562
G1 X92.541 Y121.937 E36.04168
G1 X90.378 Y120.203 E36.14777
G1 X88.166 Y118.533 E36.25384
G1 X85.953 Y116.956 E36.35783
G1 X83.642 Y115.408 E36.46428
G1 X81.311 Y113.939 E36.56972
G1 X78.957 Y112.547 E36.67438
G1 X76.54 Y111.208 E36.78012
G1 X74.086 Y109.939 E36.88585
G1 X70.557 Y108.263 E37.03536
G1 X69.538 Y107.804 E37.07813
G1 X69.146 Y107.584 E37.09533
G1 X68.821 Y107.318 E37.11141
G1 X68.185 Y106.702 E37.14529
G1 X67.836 Y106.343 E37.16445
G1 X67.486 Y105.891 E37.18633
G1 X66.73 Y104.642 E37.2422
G1 X66.592 Y104.408 E37.2526
G1 X65.142 Y102.096 E37.35704
G1 X63.635 Y99.837 E37.46096
G1 X62.012 Y97.549 E37.56831
G1 X60.368 Y95.363 E37.67299
G1 X58.621 Y93.171 E37.78026
G1 X56.888 Y91.121 E37.88299
G1 X55.024 Y89.037 E37.98999
G1 X53.125 Y87.031 E38.0957
G1 X51.169 Y85.08 E38.20142
G1 X49.184 Y83.206 E38.3059
G1 X47.114 Y81.363 E38.41196
G1 X44.993 Y79.577 E38.51808
G1 X42.864 Y77.886 E38.62212
G1 X40.638 Y76.217 E38.7286
G1 X38.396 Y74.636 E38.83359
G1 X36.086 Y73.1 E38.93975
G1 X33.755 Y71.645 E39.04491
G1 X32.234 Y70.743 E39.11258
G1 X31.41 Y70.264 E39.14905
G1 X30.964 Y69.934 E39.17029
G1 X30.56 Y69.547 E39.1917
G1 X29.825 Y68.809 E39.23156
G1 X29.367 Y68.337 E39.25673
G1 X29.084 Y67.989 E39.27389
G1 X28.78 Y67.366 E39.30042
G1 X28.523 Y66.583 E39.33196
G1 X27.631 Y63.996 E39.43668
G1 X26.646 Y61.386 E39.54344
G1 X25.593 Y58.815 E39.64977
G1 X24.496 Y56.34 E39.75337
G1 X23.306 Y53.843 E39.85922
G1 X22.044 Y51.383 E39.96503
G1 X20.717 Y48.961 E40.07072
G1 X19.343 Y46.618 E40.17467
G1 X18.908 Y45.919 E40.20618
G1 X18.403 Y45.083 E40.24355
G1 X18.206 Y44.679 E40.26075
G1 X18.083 Y44.247 E40.27794
G1 X18.039 Y43.8 E40.29513
G1 X18.075 Y43.353 E40.31229
G1 X18.189 Y42.919 E40.32947
G1 X18.379 Y42.512 E40.34666
G1 X18.638 Y42.145 E40.36385
G1 X18.957 Y41.829 E40.38103
G1 X19.54 Y41.469 E40.40725
G0 F1285.7 X19.682 Y41.789
G1 F900 X20.818 Y41.285 E40.45481
G1 X23.323 Y40.131 E40.56036
G1 X25.804 Y38.902 E40.66632
G1 X28.247 Y37.604 E40.77219
G1 X30.673 Y36.226 E40.87896
G1 X33.038 Y34.793 E40.98479
G1 X35.336 Y33.31 E41.08945
G1 X37.637 Y31.73 E41.19627
G1 X39.336 Y30.496 E41.27663
G1 X39.698 Y30.274 E41.29288
G1 X40.196 Y30.064 E41.31357
G1 X40.789 Y29.898 E41.33713
G1 X41.422 Y29.738 E41.36212
G1 X41.909 Y29.672 E41.38093
G1 X42.511 Y29.66 E41.40397
G1 X44.097 Y29.651 E41.46467
G1 X46.873 Y29.557 E41.57096
G1 X49.645 Y29.385 E41.67725
G1 X52.369 Y29.138 E41.78193
G1 X55.134 Y28.809 E41.88849
G1 X57.876 Y28.403 E41.99457
G1 X60.622 Y27.917 E42.10129
G1 X63.261 Y27.374 E42.2044
G1 X66.005 Y26.726 E42.3123
G1 X68.686 Y26.012 E42.41847
G1 X71.313 Y25.234 E42.52332
G1 X73.945 Y24.371 E42.62933
G1 X76.577 Y23.425 E42.73636
G1 X79.128 Y22.427 E42.84119
G1 X81.69 Y21.339 E42.94771
G1 X84.179 Y20.199 E43.05248
G1 X86.691 Y18.961 E43.15965
G1 X89.132 Y17.67 E43.26533
G1 X91.266 Y16.468 E43.35906
G1 X91.963 Y16.127 E43.38876
