;FLAVOR:Marlin
;TIME:24456
;Filament used: 26.0714m
;Layer height: 0.3
;MINX:13.199
;MINY:8.28
;MINZ:0.26
;MAXX:188.078
;MAXY:187.725
;MAXZ:29.06
;Generated with Cura_SteamEngine 4.9.1
M82 ;absolute extrusion mode
;Begin Start Gcode for Dagoma DiscoEasy 200
;Sliced: 26-07-2021 01:58:34
;Initial extruder: 0

G90 ;Absolute positioning
M106 S255 ;Fan on full
G28 X Y ;Home stop X Y
G1 X100 ;Centre back during cooldown in case of oozing
M109 R90 ;Cooldown in case too hot
G28 ;Centre
G29 ;Auto-level
M104 S205 ;Pre-heat
M107 ;Fan off
G0 X100 Y5 Z0.5 ;Front centre for degunk
M109 S205 ;Wait for initial temp
M83 ;E Relative
G1 E10 F200 ;Degunk
G1 E-3 F5000 ;Retract
G0 Z3 ;Withdraw
M82 ;E absolute
G92 E0 ;E reset
G1 F6000 ;Set feedrate

;Finish Start Gcode for Dagoma DiscoEasy 200

G92 E0
G92 E0
G1 F3000 E-3.5
;LAYER_COUNT:97
;LAYER:0
M107
G0 F1285.7 X27.2 Y26.904 Z0.26
;TYPE:SKIRT
G1 F3000 E0
G1 F900 X27.74 Y26.37 E0.02906
G1 X28.455 Y25.723 E0.06597
G1 X30.488 Y23.833 E0.1722
G1 X32.461 Y21.893 E0.27809
G1 X34.342 Y19.934 E0.38202
G1 X36.217 Y17.869 E0.48876
G1 X37.989 Y15.801 E0.59299
G1 X39.72 Y13.666 E0.69817
G1 X41.048 Y11.926 E0.78194
G1 X41.559 Y11.343 E0.81161
G1 X41.94 Y11.052 E0.82995
G1 X42.364 Y10.829 E0.84829
G1 X42.819 Y10.679 E0.86662
G1 X43.292 Y10.607 E0.88493
G1 X43.772 Y10.614 E0.9033
G1 X44.243 Y10.701 E0.92163
G1 X44.693 Y10.865 E0.93996
G1 X45.11 Y11.101 E0.9583
G1 X45.39 Y11.319 E0.97188
G1 X47.512 Y13.19 E1.08015
G1 X49.621 Y14.946 E1.18517
G1 X51.796 Y16.655 E1.29103
G1 X53.985 Y18.277 E1.39529
G1 X56.229 Y19.843 E1.50001
G1 X58.638 Y21.424 E1.61028
G1 X59.128 Y21.742 E1.63264
G1 X59.658 Y22.176 E1.65886
G1 X59.908 Y22.418 E1.67217
G1 X60.977 Y23.437 E1.72869
G1 X61.574 Y24.034 E1.761
G1 X61.684 Y24.129 E1.76656
G1 X62.257 Y24.693 E1.79733
G1 X62.318 Y24.764 E1.80091
G1 X63.642 Y26.089 E1.8726
G1 X64.622 Y27.095 E1.92634
G1 X65.114 Y27.616 E1.95377
G1 X65.456 Y28.057 E1.97512
G1 X65.702 Y28.447 E1.99277
G1 X67.226 Y30.802 E2.10012
G1 X68.764 Y33.037 E2.20395
G1 X70.396 Y35.268 E2.30973
G1 X72.073 Y37.431 E2.41447
G1 X73.832 Y39.574 E2.52058
G1 X75.63 Y41.639 E2.62536
G1 X77.471 Y43.639 E2.72939
G1 X79.392 Y45.609 E2.83469
G1 X81.386 Y47.544 E2.94102
G1 X83.396 Y49.386 E3.04536
G1 X85.48 Y51.19 E3.15084
G1 X87.583 Y52.908 E3.25477
G1 X89.79 Y54.61 E3.36143
G1 X91.998 Y56.215 E3.46589
G1 X92.743 Y56.721 E3.50036
G1 X92.842 Y56.801 E3.50523
G1 X93.889 Y57.526 E3.55396
G1 X94.278 Y57.849 E3.57331
G1 X94.525 Y58.094 E3.58663
G1 X95.773 Y59.298 E3.65299
G1 X95.829 Y59.361 E3.65622
G1 X96.943 Y60.436 E3.71546
G1 X97.23 Y60.727 E3.7311
G1 X97.702 Y61.214 E3.75706
G1 X98.956 Y62.486 E3.82541
G1 X99.601 Y63.128 E3.86024
G1 X100.044 Y63.605 E3.88515
G1 X100.208 Y63.8 E3.8949
G1 X102.027 Y65.907 E4.00143
G1 X103.891 Y67.947 E4.10718
G1 X105.781 Y69.902 E4.21125
G1 X107.771 Y71.845 E4.31768
G1 X109.789 Y73.708 E4.42279
G1 X111.845 Y75.501 E4.52719
G1 X113.967 Y77.251 E4.63245
G1 X116.136 Y78.936 E4.73756
G1 X118.35 Y80.558 E4.84259
G1 X120.609 Y82.117 E4.94763
G1 X122.902 Y83.607 E5.05228
G1 X125.271 Y85.051 E5.15846
G1 X127.654 Y86.413 E5.2635
G1 X130.075 Y87.708 E5.36857
G1 X132.511 Y88.924 E5.47277
G1 X134.812 Y89.978 E5.56962
G1 X135.54 Y90.32 E5.6004
G1 X135.956 Y90.559 E5.61876
G1 X136.325 Y90.864 E5.63709
G1 X136.742 Y91.377 E5.66239
G1 X136.955 Y91.711 E5.67755
G1 X138.478 Y94.035 E5.78388
G1 X139.442 Y95.404 E5.84796
G1 X139.501 Y95.504 E5.8524
G1 X140.301 Y96.657 E5.90611
G1 X140.572 Y97.072 E5.92507
G1 X142.137 Y99.394 E6.03224
G1 X143.723 Y101.608 E6.13646
G1 X145.399 Y103.818 E6.24261
G1 X147.115 Y105.943 E6.34713
G1 X148.884 Y108.018 E6.45148
G1 X150.738 Y110.07 E6.55732
G1 X152.637 Y112.058 E6.66253
G1 X154.588 Y113.985 E6.76747
G1 X156.62 Y115.885 E6.87394
G1 X158.627 Y117.655 E6.97635
G1 X160.785 Y119.453 E7.08384
G1 X162.931 Y121.141 E7.18833
G1 X165.133 Y122.776 E7.29329
G1 X167.384 Y124.348 E7.39836
G1 X170.009 Y126.067 E7.51844
G1 X170.908 Y126.636 E7.55916
G1 X171.291 Y126.925 E7.57752
G1 X171.671 Y127.34 E7.59905
G1 X171.967 Y127.778 E7.61928
G1 X173.116 Y129.577 E7.70097
G1 X174.322 Y131.333 E7.7825
G1 X175.072 Y132.44 E7.83367
G1 X175.246 Y132.732 E7.84668
G1 X175.563 Y133.345 E7.87309
G1 X175.892 Y134.221 E7.9089
G1 X176.811 Y136.83 E8.01476
G1 X177.773 Y139.341 E8.11766
G1 X178.852 Y141.93 E8.225
G1 X179.965 Y144.401 E8.32872
G1 X181.177 Y146.903 E8.43511
G1 X182.434 Y149.321 E8.5394
G1 X183.786 Y151.748 E8.64572
G1 X185.174 Y154.084 E8.74971
G1 X187.083 Y157.072 E8.8854
G1 X187.607 Y157.861 E8.92165
G1 X187.838 Y158.281 E8.93999
G1 X187.996 Y158.734 E8.95835
G1 X188.076 Y159.206 E8.97668
G1 X188.078 Y159.685 E8.99501
G1 X187.999 Y160.158 E9.01336
G1 X187.843 Y160.611 E9.03169
G1 X187.614 Y161.032 E9.05004
G1 X187.318 Y161.409 E9.06838
G1 X186.964 Y161.731 E9.08669
G1 X186.561 Y161.991 E9.10505
G1 X186.116 Y162.181 E9.12356
G1 X185.08 Y162.524 E9.16533
G1 X184.345 Y162.755 E9.19481
G1 X181.774 Y163.648 E9.29897
G1 X179.169 Y164.634 E9.40556
G1 X176.638 Y165.676 E9.51031
G1 X174.159 Y166.78 E9.61416
G1 X171.668 Y167.973 E9.71986
G1 X169.2 Y169.245 E9.82612
G1 X166.823 Y170.554 E9.92996
G1 X165.45 Y171.357 E9.99084
G1 X164.866 Y171.666 E10.01612
G1 X164.141 Y171.95 E10.04592
G1 X163.75 Y172.084 E10.06174
G1 X162.532 Y172.474 E10.11068
G1 X162.084 Y172.579 E10.12829
G1 X161.408 Y172.681 E10.15445
G1 X160.646 Y172.774 E10.18383
G1 X160.406 Y172.793 E10.19304
G1 X159.096 Y172.841 E10.24321
G1 X159.032 Y172.85 E10.24568
G1 X157.053 Y172.934 E10.32149
G1 X154.287 Y173.131 E10.42761
G1 X151.57 Y173.4 E10.5321
G1 X148.82 Y173.752 E10.6382
G1 X146.141 Y174.173 E10.74198
G1 X143.421 Y174.678 E10.84785
G1 X140.707 Y175.262 E10.95409
G1 X138.109 Y175.899 E11.05646
G1 X135.417 Y176.639 E11.1633
G1 X132.785 Y177.445 E11.26864
G1 X130.184 Y178.323 E11.3737
G1 X127.619 Y179.269 E11.47833
G1 X125.056 Y180.298 E11.58402
G1 X122.542 Y181.392 E11.68895
G1 X120.07 Y182.551 E11.79343
G1 X117.577 Y183.806 E11.90024
G1 X116.907 Y184.162 E11.92928
G1 X116.45 Y184.382 E11.94869
G1 X115.749 Y184.654 E11.97746
G1 X115.462 Y184.744 E11.98897
G1 X114.19 Y185.07 E12.03923
G1 X113.311 Y185.302 E12.07402
G1 X112.735 Y185.408 E12.09643
G1 X111.877 Y185.486 E12.1294
G1 X111.381 Y185.477 E12.14839
G1 X108.63 Y185.468 E12.25367
G1 X105.897 Y185.536 E12.35829
G1 X103.127 Y185.684 E12.46445
G1 X100.434 Y185.904 E12.56785
G1 X97.676 Y186.208 E12.67404
G1 X94.943 Y186.587 E12.77963
G1 X92.245 Y187.041 E12.88433
G1 X89.177 Y187.654 E13.00406
G1 X88.548 Y187.725 E13.02829
G1 X88.07 Y187.689 E13.04663
G1 X87.605 Y187.575 E13.06495
G1 X87.165 Y187.384 E13.08331
G1 X86.763 Y187.124 E13.10163
G1 X86.498 Y186.892 E13.11511
G1 X85.763 Y186.163 E13.15473
G1 X16.043 Y114.349 E16.98515
G1 X15.557 Y113.834 E17.01225
G1 X15.258 Y113.46 E17.03057
G1 X15.026 Y113.04 E17.04893
G1 X14.867 Y112.589 E17.06723
G1 X14.784 Y112.117 E17.08557
G1 X14.779 Y111.681 E17.10226
G1 X14.839 Y110.726 E17.13888
G1 X14.907 Y109.87 E17.17174
G1 X15.043 Y107.147 E17.27608
G1 X15.103 Y104.409 E17.38089
G1 X15.085 Y101.638 E17.48693
G1 X14.99 Y98.904 E17.59163
G1 X14.817 Y96.165 E17.69666
G1 X14.566 Y93.418 E17.80222
G1 X14.244 Y90.739 E17.90548
G1 X13.827 Y87.941 E18.01374
G1 X13.418 Y85.621 E18.1039
G1 X13.321 Y85.109 E18.12384
G1 X13.299 Y84.977 E18.12896
G1 X13.226 Y84.462 E18.14887
G1 X13.199 Y83.97 E18.16772
G1 X13.219 Y83.326 E18.19238
G1 X13.25 Y82.834 E18.21125
G1 X13.315 Y82.128 E18.23838
G1 X13.47 Y80.678 E18.29419
G1 X13.621 Y78.862 E18.36392
G1 X13.696 Y77.844 E18.40299
G1 X13.771 Y77.371 E18.42132
G1 X13.926 Y76.91 E18.43993
G1 X14.265 Y76.13 E18.47248
G1 X14.48 Y75.667 E18.49201
G1 X15.01 Y74.653 E18.5358
G1 X16.249 Y72.199 E18.641
G1 X17.417 Y69.713 E18.74612
G1 X18.515 Y67.194 E18.85128
G1 X19.543 Y64.644 E18.9565
G1 X20.488 Y62.08 E19.06107
G1 X21.384 Y59.43 E19.16813
G1 X22.178 Y56.842 E19.27173
G1 X22.903 Y54.215 E19.37602
G1 X23.565 Y51.525 E19.48203
G1 X24.151 Y48.822 E19.58788
G1 X24.651 Y46.13 E19.69266
G1 X25.079 Y43.412 E19.79796
G1 X25.424 Y40.734 E19.90129
G1 X25.702 Y37.962 E20.00791
G1 X25.843 Y35.941 E20.08544
G1 X25.854 Y35.868 E20.08827
G1 X25.951 Y34.48 E20.14151
G1 X26.009 Y33.883 E20.16447
G1 X26.239 Y31.121 E20.27053
G1 X26.348 Y29.124 E20.34707
G1 X26.447 Y28.257 E20.38047
G1 X26.597 Y27.802 E20.3988
G1 X26.821 Y27.378 E20.41715
G1 X27.2 Y26.904 E20.44038
G0 F1285.7 X27.746 Y26.851
G1 F900 X28.035 Y26.573 E20.45572
G1 X28.719 Y25.955 E20.491
G1 X30.724 Y24.092 E20.59574
G1 X32.711 Y22.137 E20.70242
G1 X34.624 Y20.146 E20.80809
G1 X36.446 Y18.139 E20.91182
G1 X38.261 Y16.021 E21.01857
G1 X40.003 Y13.872 E21.12443
G1 X41.322 Y12.143 E21.20766
G1 X41.815 Y11.584 E21.23618
G1 X42.176 Y11.317 E21.25337
G1 X42.579 Y11.119 E21.27055
G1 X43.011 Y10.996 E21.28774
G1 X43.457 Y10.95 E21.3049
G1 X43.905 Y10.985 E21.32209
G1 X44.34 Y11.098 E21.33929
G1 X44.747 Y11.286 E21.35645
G1 X45.158 Y11.581 E21.37581
G1 X47.287 Y13.458 E21.48443
G1 X49.391 Y15.21 E21.58921
G1 X51.582 Y16.931 E21.69583
G1 X53.803 Y18.577 E21.80163
G1 X56.046 Y20.143 E21.90632
G1 X58.338 Y21.649 E22.01127
G1 X58.484 Y21.741 E22.01787
G1 X58.938 Y22.036 E22.03859
G1 X59.421 Y22.433 E22.06252
G1 X59.667 Y22.671 E22.07562
G1 X60.686 Y23.642 E22.12949
G1 X61.358 Y24.314 E22.16586
G1 X61.438 Y24.378 E22.16978
G1 X62.011 Y24.942 E22.20055
G1 X62.073 Y25.015 E22.20421
G1 X63.392 Y26.333 E22.27557
G1 X64.368 Y27.335 E22.3291
G1 X64.86 Y27.856 E22.35652
G1 X65.408 Y28.637 E22.39304
G1 X66.925 Y30.98 E22.49986
G1 X68.501 Y33.271 E22.60627
G1 X70.094 Y35.45 E22.70957
G1 X71.823 Y37.68 E22.81756
G1 X73.546 Y39.778 E22.92145
G1 X75.356 Y41.858 E23.02697
G1 X77.244 Y43.909 E23.13366
G1 X79.145 Y45.858 E23.23785
G1 X81.109 Y47.765 E23.34261
G1 X83.189 Y49.67 E23.45055
G1 X85.24 Y51.445 E23.55435
G1 X87.375 Y53.19 E23.65988
G1 X89.58 Y54.89 E23.76643
G1 X91.789 Y56.496 E23.87095
G1 X92.546 Y57.01 E23.90596
G1 X92.641 Y57.088 E23.91067
G1 X93.69 Y57.814 E23.95949
G1 X94.279 Y58.343 E23.98979
G1 X95.53 Y59.55 E24.05631
G1 X95.582 Y59.61 E24.05935
G1 X96.694 Y60.683 E24.11849
G1 X96.979 Y60.97 E24.13397
G1 X97.469 Y61.476 E24.16092
G1 X98.709 Y62.734 E24.22852
G1 X99.354 Y63.376 E24.26335
G1 X99.776 Y63.83 E24.28707
G1 X99.943 Y64.029 E24.29701
G1 X101.745 Y66.117 E24.40256
G1 X103.629 Y68.178 E24.50942
G1 X105.55 Y70.165 E24.61519
G1 X107.536 Y72.104 E24.72141
G1 X109.551 Y73.966 E24.82641
G1 X111.62 Y75.769 E24.93143
G1 X113.74 Y77.517 E25.03659
G1 X115.924 Y79.214 E25.14243
G1 X118.154 Y80.848 E25.24823
G1 X120.413 Y82.408 E25.35329
G1 X122.73 Y83.913 E25.45903
G1 X125.084 Y85.348 E25.56453
G1 X127.458 Y86.704 E25.66916
G1 X129.938 Y88.031 E25.7768
G1 X132.354 Y89.236 E25.88012
G1 X134.664 Y90.295 E25.97737
G1 X135.392 Y90.637 E26.00815
G1 X135.779 Y90.863 E26.02531
G1 X136.121 Y91.154 E26.04249
G1 X136.447 Y91.565 E26.06257
G1 X136.662 Y91.902 E26.07786
G1 X138.195 Y94.241 E26.18489
G1 X139.156 Y95.606 E26.24877
G1 X139.204 Y95.689 E26.25244
G1 X139.969 Y96.79 E26.30375
G1 X140.282 Y97.267 E26.32558
G1 X141.854 Y99.599 E26.43321
G1 X143.444 Y101.819 E26.53771
G1 X145.129 Y104.04 E26.6444
G1 X146.86 Y106.185 E26.74989
G1 X148.621 Y108.25 E26.85375
G1 X150.476 Y110.303 E26.95964
G1 X152.386 Y112.301 E27.06542
G1 X154.351 Y114.243 E27.17114
G1 X156.361 Y116.123 E27.27647
G1 X158.435 Y117.952 E27.38229
G1 X160.537 Y119.703 E27.48699
G1 X162.733 Y121.43 E27.5939
G1 X164.917 Y123.052 E27.69801
G1 X167.201 Y124.647 E27.80462
G1 X169.784 Y126.338 E27.92277
G1 X170.721 Y126.931 E27.96521
G1 X171.078 Y127.204 E27.98241
G1 X171.5 Y127.703 E28.00742
G1 X171.672 Y127.966 E28.01945
G1 X172.833 Y129.783 E28.10196
G1 X174.032 Y131.53 E28.18305
G1 X174.782 Y132.637 E28.23422
G1 X174.935 Y132.893 E28.24564
G1 X175.252 Y133.506 E28.27205
G1 X175.55 Y134.302 E28.30458
G1 X176.474 Y136.928 E28.41111
G1 X177.462 Y139.503 E28.51666
G1 X178.536 Y142.079 E28.62347
G1 X179.642 Y144.536 E28.72658
G1 X180.875 Y147.082 E28.83484
G1 X182.112 Y149.463 E28.93752
G1 X183.476 Y151.912 E29.0448
G1 X184.879 Y154.271 E29.14984
G1 X186.81 Y157.295 E29.28715
G1 X187.315 Y158.055 E29.32207
G1 X187.53 Y158.45 E29.33928
G1 X187.67 Y158.876 E29.35644
G1 X187.734 Y159.321 E29.37365
G1 X187.717 Y159.769 E29.3908
G1 X187.621 Y160.208 E29.408
G1 X187.449 Y160.623 E29.42519
G1 X187.206 Y161 E29.44236
G1 X186.901 Y161.329 E29.45953
G1 X186.542 Y161.599 E29.47672
G1 X186.006 Y161.849 E29.49935
G1 X184.975 Y162.19 E29.54091
G1 X184.268 Y162.413 E29.56928
G1 X181.604 Y163.337 E29.67719
G1 X179.084 Y164.291 E29.78031
G1 X176.505 Y165.353 E29.88704
G1 X173.978 Y166.478 E29.9929
G1 X171.513 Y167.659 E30.0975
G1 X169.055 Y168.925 E30.20331
G1 X166.635 Y170.259 E30.30906
G1 X165.279 Y171.052 E30.36918
G1 X164.729 Y171.344 E30.39301
G1 X164.019 Y171.622 E30.42219
G1 X163.643 Y171.751 E30.4374
G1 X162.425 Y172.141 E30.48635
G1 X162.032 Y172.233 E30.50179
G1 X161.282 Y172.345 E30.53081
G1 X160.604 Y172.427 E30.55695
G1 X160.393 Y172.443 E30.56505
G1 X159.144 Y172.489 E30.61288
G1 X159.017 Y172.501 E30.61776
G1 X157.016 Y172.586 E30.69441
G1 X154.263 Y172.782 E30.80003
G1 X151.526 Y173.053 E30.90529
G1 X148.756 Y173.407 E31.01215
G1 X146.063 Y173.83 E31.11648
G1 X143.346 Y174.336 E31.22224
G1 X140.66 Y174.914 E31.32739
G1 X138.037 Y175.556 E31.43073
G1 X135.286 Y176.313 E31.53993
G1 X132.713 Y177.101 E31.64291
G1 X130.062 Y177.995 E31.74997
G1 X127.48 Y178.948 E31.8553
G1 X124.928 Y179.972 E31.96053
G1 X122.397 Y181.074 E32.06618
G1 X119.906 Y182.241 E32.17145
G1 X117.43 Y183.488 E32.27754
G1 X116.75 Y183.85 E32.30702
G1 X116.051 Y184.167 E32.3364
G1 X115.375 Y184.405 E32.36382
G1 X114.082 Y184.736 E32.4149
G1 X113.221 Y184.963 E32.44898
G1 X112.692 Y185.061 E32.46957
G1 X111.883 Y185.136 E32.50066
G1 X111.387 Y185.127 E32.51964
G1 X108.623 Y185.118 E32.62542
G1 X105.871 Y185.186 E32.73077
G1 X103.148 Y185.332 E32.83513
G1 X100.371 Y185.558 E32.94176
G1 X97.624 Y185.861 E33.04752
G1 X94.906 Y186.239 E33.15254
G1 X92.187 Y186.696 E33.25805
G1 X89.116 Y187.309 E33.3779
G1 X88.516 Y187.375 E33.401
G1 X88.069 Y187.334 E33.41817
G1 X87.636 Y187.215 E33.43536
G1 X87.232 Y187.02 E33.45253
G1 X86.744 Y186.643 E33.47613
G1 X86.014 Y185.919 E33.51547
G1 X16.298 Y114.109 E37.34568
G1 X15.812 Y113.594 E37.37277
G1 X15.534 Y113.241 E37.38997
G1 X15.323 Y112.845 E37.40714
G1 X15.185 Y112.418 E37.42432
G1 X15.128 Y111.703 E37.45176
G1 X15.188 Y110.753 E37.48819
G1 X15.254 Y109.914 E37.5204
G1 X15.394 Y107.12 E37.62746
G1 X15.453 Y104.414 E37.73104
G1 X15.435 Y101.606 E37.8385
G1 X15.342 Y98.922 E37.94128
G1 X15.166 Y96.147 E38.04769
G1 X14.913 Y93.379 E38.15406
G1 X14.581 Y90.617 E38.26053
G1 X14.184 Y87.955 E38.36353
G1 X13.756 Y85.524 E38.45799
G1 X13.646 Y84.928 E38.48118
G1 X13.573 Y84.413 E38.50109
G1 X13.549 Y83.981 E38.51765
G1 X13.573 Y83.257 E38.54537
G1 X13.599 Y82.866 E38.56037
G1 X13.663 Y82.165 E38.5873
G1 X13.82 Y80.694 E38.64392
G1 X13.97 Y78.891 E38.71316
G1 X14.045 Y77.87 E38.75234
G1 X14.117 Y77.427 E38.76951
G1 X14.247 Y77.05 E38.78477
G1 X14.584 Y76.275 E38.81711
G1 X14.79 Y75.829 E38.83592
G1 X15.32 Y74.815 E38.8797
G1 X16.558 Y72.364 E38.98479
G1 X17.734 Y69.86 E39.09066
G1 X18.839 Y67.323 E39.19655
G1 X19.882 Y64.737 E39.30327
G1 X20.817 Y62.203 E39.40663
G1 X21.704 Y59.578 E39.51267
G1 X22.515 Y56.938 E39.61836
G1 X23.248 Y54.282 E39.7238
G1 X23.903 Y51.615 E39.8289
G1 X24.494 Y48.891 E39.93557
G1 X25 Y46.169 E40.04153
G1 X25.424 Y43.472 E40.14601
G1 X25.776 Y40.744 E40.25127
G1 X26.048 Y38.02 E40.35604
G1 X26.192 Y35.966 E40.43484
G1 X26.203 Y35.898 E40.43747
G1 X26.299 Y34.514 E40.49056
G1 X26.361 Y33.878 E40.51502
G1 X26.589 Y31.134 E40.62039
G1 X26.697 Y29.148 E40.69651
G1 X26.794 Y28.311 E40.72875
G1 X26.942 Y27.887 E40.74594
G1 X27.163 Y27.496 E40.76313
G1 X27.746 Y26.851 E40.7964
G0 F1285.7 X27.504 Y27.621
G1 F900 X27.994 Y27.097 E40.82386
G1 X28.27 Y26.833 E40.83847
G1 X28.954 Y26.215 E40.87375
G1 X30.978 Y24.333 E40.97952
G1 X32.962 Y22.382 E41.08601
G1 X34.871 Y20.394 E41.19148
G1 X36.723 Y18.354 E41.29693
G1 X38.533 Y16.242 E41.40337
G1 X40.277 Y14.09 E41.50938
G1 X41.597 Y12.36 E41.59266
