;FLAVOR:Marlin
;TIME:12946
;Filament used: 22.7989m
;Layer height: 0.3
;MINX:25.411
;MINY:16.362
;MINZ:0.26
;MAXX:194.039
;MAXY:199.305
;MAXZ:24.56
;Generated with Cura_SteamEngine 4.9.1
M82 ;absolute extrusion mode
;Begin Start Gcode for Dagoma DiscoEasy 200
;Sliced: 01-08-2021 01:46:08
;Initial extruder: 0

G90 ;Absolute positioning
M106 S255 ;Fan on full
G28 X Y ;Home stop X Y
G1 X100 ;Centre back during cooldown in case of oozing
M109 R90 ;Cooldown in case too hot
G28 ;Centre
G29 ;Auto-level
M104 S205 ;Pre-heat
M107 ;Fan off
G0 X100 Y5 Z0.5 ;Front centre for degunk
M109 S205 ;Wait for initial temp
M83 ;E Relative
G1 E10 F200 ;Degunk
G1 E-3 F5000 ;Retract
G0 Z3 ;Withdraw
M82 ;E absolute
G92 E0 ;E reset
G1 F6000 ;Set feedrate

;Finish Start Gcode for Dagoma DiscoEasy 200

G92 E0
G92 E0
G1 F3000 E-3.5
;LAYER_COUNT:82
;LAYER:0
M107
G0 F1285.7 X26.631 Y33.303 Z0.26
;TYPE:SKIRT
G1 F3000 E0
G1 F900 X27.045 Y33.061 E0.01835
G1 X27.499 Y32.89 E0.03692
G1 X28.278 Y32.669 E0.06791
G1 X29.294 Y32.398 E0.10815
G1 X31.948 Y31.608 E0.21412
G1 X34.555 Y30.753 E0.31912
G1 X37.126 Y29.825 E0.42372
G1 X39.677 Y28.824 E0.52859
G1 X42.185 Y27.756 E0.63291
G1 X44.695 Y26.604 E0.7386
G1 X47.17 Y25.381 E0.84425
G1 X49.618 Y24.084 E0.95027
G1 X51.816 Y22.843 E1.04687
G1 X52.252 Y22.643 E1.06523
G1 X52.862 Y22.495 E1.08925
G1 X53.654 Y22.394 E1.1198
G1 X54.193 Y22.341 E1.14053
G1 X54.832 Y22.349 E1.16499
G1 X55.257 Y22.403 E1.18138
G1 X57.305 Y22.698 E1.26057
G1 X60.02 Y23.01 E1.36515
G1 X62.752 Y23.246 E1.4701
G1 X65.483 Y23.405 E1.57479
G1 X68.252 Y23.487 E1.6808
G1 X70.989 Y23.491 E1.78554
G1 X73.723 Y23.417 E1.89021
G1 X76.492 Y23.265 E1.99634
G1 X79.223 Y23.036 E2.10122
G1 X81.943 Y22.731 E2.20597
G1 X84.676 Y22.346 E2.31159
G1 X87.356 Y21.891 E2.41562
G1 X90.043 Y21.357 E2.52046
G1 X92.772 Y20.732 E2.6276
G1 X95.385 Y20.057 E2.73088
G1 X98.063 Y19.282 E2.83757
G1 X100.666 Y18.449 E2.94217
G1 X103.244 Y17.543 E3.04674
G1 X104.174 Y17.184 E3.08489
G1 X104.251 Y17.161 E3.08797
G1 X105.493 Y16.694 E3.13875
G1 X106.134 Y16.534 E3.16403
G1 X106.954 Y16.427 E3.19568
G1 X107.554 Y16.368 E3.21875
G1 X108.033 Y16.362 E3.23708
G1 X108.751 Y16.507 E3.26511
G1 X109.993 Y16.929 E3.31531
G1 X110.307 Y17.041 E3.32807
G1 X112.914 Y17.885 E3.43294
G1 X115.528 Y18.65 E3.53717
G1 X118.219 Y19.356 E3.64364
G1 X120.914 Y19.983 E3.74953
G1 X123.553 Y20.515 E3.85255
G1 X126.307 Y20.992 E3.95952
G1 X129.048 Y21.388 E4.0655
G1 X129.742 Y21.478 E4.09228
G1 X130.21 Y21.579 E4.11061
G1 X130.655 Y21.756 E4.12894
G1 X131.065 Y22.005 E4.14729
G1 X131.609 Y22.523 E4.17604
G1 X131.883 Y22.862 E4.19272
G1 X133.682 Y25.032 E4.30059
G1 X135.468 Y27.065 E4.40415
G1 X137.337 Y29.077 E4.50925
G1 X139.269 Y31.039 E4.61462
G1 X141.252 Y32.946 E4.71991
G1 X143.282 Y34.788 E4.82481
G1 X145.363 Y36.573 E4.92973
G1 X148.001 Y38.698 E5.05937
G1 X148.49 Y39.196 E5.08608
G1 X148.814 Y39.619 E5.10647
G1 X149.873 Y41.082 E5.17559
G1 X150.184 Y41.492 E5.19528
G1 X150.253 Y41.605 E5.20035
G1 X151.603 Y43.458 E5.28809
G1 X151.979 Y43.992 E5.31308
G1 X153.393 Y45.932 E5.40495
G1 X153.883 Y46.626 E5.43746
G1 X154.169 Y47.051 E5.45707
G1 X154.304 Y47.292 E5.46764
G1 X154.745 Y48.181 E5.50562
G1 X155.996 Y50.616 E5.61038
G1 X157.324 Y53.03 E5.71582
G1 X158.719 Y55.399 E5.82103
G1 X160.177 Y57.727 E5.92615
G1 X161.7 Y60.01 E6.03118
G1 X163.28 Y62.241 E6.1358
G1 X164.932 Y64.438 E6.241
G1 X166.656 Y66.602 E6.34688
G1 X168.424 Y68.695 E6.45173
G1 X170.228 Y70.713 E6.55532
G1 X172.17 Y72.765 E6.66344
G1 X174.083 Y74.674 E6.76686
G1 X176.502 Y76.944 E6.89382
G1 X177.028 Y77.421 E6.92099
G1 X177.367 Y77.787 E6.94008
G1 X177.979 Y78.574 E6.97824
G1 X178.659 Y79.485 E7.02174
G1 X179.769 Y81.011 E7.09395
G1 X180.173 Y81.551 E7.11976
G1 X180.225 Y81.637 E7.12361
G1 X181.839 Y83.855 E7.22859
G1 X182.101 Y84.233 E7.24619
G1 X182.882 Y85.31 E7.2971
G1 X183.23 Y85.946 E7.32484
G1 X183.322 Y86.18 E7.33447
G1 X184.357 Y88.718 E7.43936
G1 X185.478 Y91.254 E7.54547
G1 X186.65 Y93.72 E7.64996
G1 X187.893 Y96.151 E7.75445
G1 X189.223 Y98.584 E7.86056
G1 X190.6 Y100.94 E7.965
G1 X191.921 Y103.058 E8.06052
G1 X192.139 Y103.484 E8.07884
G1 X192.33 Y104.098 E8.10345
G1 X192.417 Y104.569 E8.12178
G1 X192.425 Y105.039 E8.13976
G1 X192.245 Y107.824 E8.24657
G1 X192.148 Y110.557 E8.35122
G1 X192.126 Y113.331 E8.45739
G1 X192.181 Y116.018 E8.56024
G1 X192.32 Y118.835 E8.66818
G1 X192.528 Y121.527 E8.7715
G1 X192.818 Y124.265 E8.87687
G1 X193.084 Y126.16 E8.9501
G1 X193.263 Y127.535 E9.00317
G1 X193.285 Y128.014 E9.02152
G1 X193.227 Y128.489 E9.03983
G1 X193.054 Y129.04 E9.06193
G1 X192.764 Y129.716 E9.09008
G1 X192.258 Y130.851 E9.13764
G1 X191.945 Y131.524 E9.16604
G1 X191.611 Y132.073 E9.19064
G1 X190.809 Y133.108 E9.24075
G1 X189.155 Y135.302 E9.3459
G1 X187.576 Y137.53 E9.4504
G1 X186.03 Y139.844 E9.5569
G1 X184.581 Y142.153 E9.66123
G1 X183.188 Y144.52 E9.76633
G1 X181.86 Y146.926 E9.8715
G1 X180.605 Y149.364 E9.97644
G1 X179.41 Y151.853 E10.0821
G1 X178.299 Y154.348 E10.18662
G1 X177.24 Y156.917 E10.29296
G1 X176.278 Y159.46 E10.39701
G1 X175.373 Y162.064 E10.50251
G1 X174.547 Y164.683 E10.60761
G1 X173.794 Y167.324 E10.71271
G1 X173.118 Y169.974 E10.81737
G1 X172.504 Y172.7 E10.92431
G1 X171.992 Y175.336 E11.02707
G1 X171.833 Y176.29 E11.06408
G1 X171.658 Y177.261 E11.10184
G1 X171.471 Y177.884 E11.12673
G1 X171.188 Y178.543 E11.15418
G1 X170.557 Y179.964 E11.21368
G1 X170.27 Y180.584 E11.23983
G1 X170.033 Y181 E11.25815
G1 X169.73 Y181.372 E11.27651
G1 X169.116 Y181.874 E11.30686
G1 X167.292 Y183.161 E11.39229
G1 X165.097 Y184.806 E11.49727
G1 X162.937 Y186.523 E11.60286
G1 X160.834 Y188.293 E11.70806
G1 X158.82 Y190.088 E11.8113
G1 X156.778 Y192.012 E11.91867
G1 X154.857 Y193.931 E12.02258
G1 X152.955 Y195.94 E12.12846
G1 X151.142 Y197.966 E12.2325
G1 X150.494 Y198.651 E12.26859
G1 X150.1 Y198.924 E12.28693
G1 X149.666 Y199.127 E12.30527
G1 X149.204 Y199.255 E12.32361
G1 X148.727 Y199.305 E12.34197
G1 X148.249 Y199.275 E12.3603
G1 X147.783 Y199.167 E12.3786
G1 X147.34 Y198.982 E12.39698
G1 X146.935 Y198.726 E12.41531
G1 X146.415 Y198.218 E12.44313
G1 X146.151 Y197.883 E12.45945
G1 X92.483 Y126.208 E15.88614
G1 X90.778 Y123.996 E15.99302
G1 X89.06 Y121.895 E16.09688
G1 X87.235 Y119.786 E16.20362
G1 X85.399 Y117.782 E16.30763
G1 X83.466 Y115.787 E16.41394
G1 X81.529 Y113.9 E16.51742
G1 X79.479 Y112.012 E16.62408
G1 X77.422 Y110.223 E16.72841
G1 X75.296 Y108.476 E16.83371
G1 X73.118 Y106.789 E16.93914
G1 X70.871 Y105.146 E17.04567
G1 X69.886 Y104.461 E17.09159
G1 X69.402 Y104.066 E17.11549
G1 X68.949 Y103.516 E17.14276
G1 X68.848 Y103.375 E17.1494
G1 X68.318 Y102.589 E17.18568
G1 X68.058 Y102.11 E17.20654
G1 X67.981 Y101.929 E17.21406
G1 X67.041 Y99.636 E17.3089
G1 X65.936 Y97.142 E17.4133
G1 X64.745 Y94.652 E17.51893
G1 X63.486 Y92.196 E17.62455
G1 X62.158 Y89.777 E17.73015
G1 X60.791 Y87.448 E17.8335
G1 X59.318 Y85.093 E17.9398
G1 X57.794 Y82.802 E18.04511
G1 X56.219 Y80.574 E18.14952
G1 X54.569 Y78.375 E18.25473
G1 X52.848 Y76.211 E18.36055
G1 X51.099 Y74.135 E18.46443
G1 X49.259 Y72.074 E18.57016
G1 X47.341 Y70.043 E18.67707
G1 X45.456 Y68.157 E18.77912
G1 X43.431 Y66.241 E18.8858
G1 X41.363 Y64.395 E18.99189
G1 X39.289 Y62.645 E19.09574
G1 X37.61 Y61.301 E19.17804
G1 X37.218 Y60.935 E19.19857
G1 X36.661 Y60.251 E19.23233
G1 X36.223 Y59.65 E19.26078
G1 X35.975 Y59.24 E19.27912
G1 X35.818 Y58.858 E19.29493
G1 X35.525 Y57.967 E19.33082
G1 X34.628 Y55.363 E19.43622
G1 X33.658 Y52.791 E19.54142
G1 X32.619 Y50.252 E19.64641
G1 X31.51 Y47.749 E19.75118
G1 X30.328 Y45.268 E19.85635
G1 X29.07 Y42.813 E19.96192
G1 X27.757 Y40.418 E20.06644
G1 X26.364 Y38.04 E20.17191
G1 X25.822 Y37.142 E20.21205
G1 X25.609 Y36.712 E20.23042
G1 X25.471 Y36.254 E20.24872
G1 X25.411 Y35.778 E20.26708
G1 X25.43 Y35.299 E20.28543
G1 X25.529 Y34.831 E20.30373
G1 X25.704 Y34.385 E20.32207
G1 X25.951 Y33.974 E20.34042
G1 X26.263 Y33.61 E20.35877
G1 X26.631 Y33.303 E20.37711
G0 F1285.7 X26.677 Y33.708
G1 F900 X27.047 Y33.454 E20.39428
G1 X27.594 Y33.227 E20.41695
G1 X28.369 Y33.007 E20.44778
G1 X29.407 Y32.73 E20.48889
G1 X32.046 Y31.944 E20.59427
G1 X34.652 Y31.09 E20.69922
G1 X37.23 Y30.159 E20.80411
G1 X39.83 Y29.139 E20.911
G1 X42.326 Y28.077 E21.0148
G1 X44.868 Y26.909 E21.12186
G1 X47.333 Y25.691 E21.22709
G1 X49.74 Y24.416 E21.33132
G1 X51.988 Y23.147 E21.43012
G1 X52.397 Y22.962 E21.44729
G1 X52.907 Y22.842 E21.46735
G1 X53.688 Y22.742 E21.49748
G1 X54.227 Y22.689 E21.5182
G1 X54.789 Y22.697 E21.53971
G1 X55.207 Y22.75 E21.55584
G1 X57.25 Y23.044 E21.63483
G1 X59.948 Y23.354 E21.73876
G1 X62.738 Y23.596 E21.84593
G1 X65.486 Y23.755 E21.95127
G1 X68.241 Y23.837 E22.05675
G1 X70.998 Y23.841 E22.16226
G1 X73.753 Y23.767 E22.26773
G1 X76.503 Y23.615 E22.37313
G1 X79.256 Y23.384 E22.47886
G1 X81.991 Y23.078 E22.58418
G1 X84.72 Y22.694 E22.68965
G1 X87.442 Y22.231 E22.79531
G1 X90.12 Y21.699 E22.8998
G1 X92.803 Y21.085 E23.00513
G1 X95.502 Y20.387 E23.11182
G1 X98.147 Y19.622 E23.21719
G1 X100.789 Y18.777 E23.32334
G1 X103.356 Y17.874 E23.42748
G1 X104.3 Y17.51 E23.4662
G1 X104.384 Y17.486 E23.46955
G1 X105.617 Y17.022 E23.51996
G1 X106.179 Y16.881 E23.54214
G1 X107.086 Y16.764 E23.57713
G1 X107.588 Y16.716 E23.59643
G1 X108.037 Y16.714 E23.61362
G1 X108.639 Y16.839 E23.63715
G1 X109.876 Y17.258 E23.68713
G1 X110.207 Y17.376 E23.70058
G1 X112.819 Y18.222 E23.80565
G1 X115.452 Y18.992 E23.91063
G1 X118.119 Y19.692 E24.01615
G1 X120.834 Y20.324 E24.12283
G1 X123.5 Y20.861 E24.22691
G1 X126.232 Y21.335 E24.33302
G1 X129.017 Y21.737 E24.44071
G1 X129.697 Y21.825 E24.46695
G1 X130.135 Y21.922 E24.48412
G1 X130.549 Y22.095 E24.50129
G1 X130.926 Y22.339 E24.51847
G1 X131.337 Y22.743 E24.54053
G1 X131.634 Y23.111 E24.55863
G1 X133.398 Y25.24 E24.66444
G1 X135.191 Y27.28 E24.76837
G1 X137.113 Y29.348 E24.87642
G1 X139.005 Y31.271 E24.97966
G1 X141.004 Y33.193 E25.08578
G1 X143.047 Y35.047 E25.19136
G1 X145.162 Y36.861 E25.298
G1 X147.783 Y38.972 E25.42679
G1 X148.212 Y39.409 E25.45022
G1 X148.53 Y39.824 E25.47023
G1 X149.564 Y41.252 E25.5377
G1 X149.901 Y41.699 E25.55913
G1 X149.963 Y41.802 E25.56373
G1 X151.317 Y43.66 E25.65171
G1 X151.697 Y44.199 E25.67695
G1 X153.107 Y46.134 E25.76857
G1 X153.595 Y46.825 E25.80095
G1 X153.893 Y47.271 E25.82148
G1 X153.99 Y47.448 E25.8292
G1 X154.415 Y48.305 E25.86581
G1 X155.699 Y50.803 E25.97329
G1 X157.013 Y53.191 E26.0776
G1 X158.411 Y55.567 E26.1831
G1 X159.886 Y57.921 E26.28941
G1 X161.419 Y60.22 E26.39516
G1 X163 Y62.451 E26.49981
G1 X164.657 Y64.654 E26.6053
G1 X166.395 Y66.836 E26.71206
G1 X168.161 Y68.926 E26.81677
G1 X170 Y70.983 E26.92236
G1 X171.881 Y72.971 E27.0271
G1 X173.845 Y74.93 E27.13326
G1 X176.299 Y77.233 E27.26205
G1 X176.793 Y77.681 E27.28757
G1 X177.091 Y78.002 E27.30434
G1 X177.698 Y78.784 E27.34222
G1 X178.376 Y79.691 E27.38556
G1 X179.541 Y81.293 E27.46136
G1 X179.889 Y81.755 E27.4835
G1 X179.938 Y81.838 E27.48718
G1 X181.554 Y84.058 E27.59227
G1 X181.818 Y84.44 E27.61004
G1 X182.598 Y85.516 E27.6609
G1 X182.904 Y86.074 E27.68525
G1 X182.996 Y86.308 E27.69487
G1 X184.039 Y88.867 E27.80063
G1 X185.153 Y91.387 E27.90607
G1 X186.336 Y93.874 E28.01147
G1 X187.594 Y96.336 E28.11727
G1 X188.905 Y98.733 E28.22183
G1 X190.298 Y101.116 E28.32746
G1 X191.624 Y103.243 E28.42338
G1 X191.917 Y103.915 E28.45144
G1 X192.071 Y104.632 E28.4795
G1 X192.076 Y105.017 E28.49424
G1 X191.894 Y107.839 E28.60246
G1 X191.798 Y110.541 E28.70593
G1 X191.776 Y113.352 E28.81351
G1 X191.832 Y116.053 E28.9169
G1 X191.969 Y118.844 E29.02384
G1 X192.179 Y121.556 E29.12793
G1 X192.472 Y124.322 E29.23438
G1 X192.737 Y126.205 E29.30715
G1 X192.916 Y127.58 E29.36022
G1 X192.934 Y128.029 E29.37741
G1 X192.872 Y128.473 E29.39457
G1 X192.732 Y128.902 E29.41184
G1 X192.444 Y129.574 E29.43982
G1 X191.941 Y130.704 E29.48715
G1 X191.628 Y131.377 E29.51556
G1 X191.334 Y131.859 E29.53716
G1 X190.532 Y132.894 E29.58727
G1 X188.883 Y135.083 E29.69216
G1 X187.268 Y137.36 E29.79899
G1 X185.749 Y139.633 E29.90361
G1 X184.281 Y141.975 E30.00939
G1 X182.886 Y144.343 E30.11457
G1 X181.549 Y146.767 E30.22051
G1 X180.284 Y149.223 E30.32623
G1 X179.102 Y151.686 E30.43078
G1 X177.96 Y154.25 E30.5382
G1 X176.913 Y156.79 E30.64334
G1 X175.951 Y159.331 E30.74732
G1 X175.043 Y161.944 E30.85318
G1 X174.208 Y164.592 E30.95944
G1 X173.465 Y167.197 E31.0631
G1 X172.767 Y169.936 E31.17127
G1 X172.172 Y172.578 E31.27492
G1 X171.637 Y175.33 E31.3822
G1 X171.489 Y176.228 E31.41703
G1 X171.314 Y177.199 E31.45479
G1 X171.15 Y177.746 E31.47665
G1 X170.869 Y178.401 E31.50392
G1 X170.239 Y179.817 E31.56323
G1 X169.952 Y180.437 E31.58938
G1 X169.728 Y180.826 E31.60656
G1 X169.439 Y181.169 E31.62372
G1 X168.909 Y181.591 E31.64965
G1 X167.091 Y182.875 E31.73483
G1 X164.88 Y184.532 E31.84057
G1 X162.722 Y186.247 E31.94605
G1 X160.607 Y188.027 E32.05184
G1 X158.567 Y189.845 E32.15642
G1 X156.538 Y191.757 E32.26311
G1 X154.585 Y193.708 E32.36876
G1 X152.725 Y195.672 E32.47227
G1 X150.881 Y197.733 E32.57811
G1 X150.249 Y198.399 E32.61324
G1 X149.876 Y198.648 E32.63041
G1 X149.464 Y198.827 E32.6476
G1 X149.027 Y198.93 E32.66478
G1 X148.579 Y198.954 E32.68195
G1 X148.133 Y198.899 E32.69915
G1 X147.704 Y198.765 E32.71635
G1 X147.306 Y198.558 E32.73352
G1 X146.951 Y198.283 E32.7507
G1 X146.474 Y197.729 E32.77868
G1 X92.76 Y125.995 E36.20822
G1 X91.046 Y123.772 E36.31565
G1 X89.315 Y121.654 E36.42033
G1 X87.51 Y119.569 E36.52587
G1 X85.619 Y117.505 E36.633
G1 X83.732 Y115.557 E36.73679
G1 X81.763 Y113.639 E36.84198
G1 X79.735 Y111.771 E36.9475
G1 X77.628 Y109.939 E37.05435
G1 X75.502 Y108.192 E37.15966
G1 X73.329 Y106.509 E37.26484
G1 X71.126 Y104.898 E37.36929
G1 X70.089 Y104.177 E37.41762
G1 X69.63 Y103.799 E37.44038
G1 X69.227 Y103.303 E37.46483
G1 X69.138 Y103.18 E37.47064
G1 X68.608 Y102.394 E37.50692
G1 X68.318 Y101.83 E37.53119
G1 X67.36 Y99.491 E37.62792
G1 X66.252 Y96.992 E37.73254
G1 X65.06 Y94.498 E37.83832
G1 X63.791 Y92.023 E37.94476
G1 X62.49 Y89.653 E38.04823
G1 X61.076 Y87.245 E38.1551
G1 X59.61 Y84.9 E38.26093
G1 X58.096 Y82.624 E38.36554
G1 X56.487 Y80.348 E38.47221
G1 X54.843 Y78.157 E38.57704
G1 X53.127 Y75.999 E38.68255
G1 X51.361 Y73.904 E38.78741
G1 X49.49 Y71.808 E38.89494
G1 X47.63 Y69.838 E38.99862
G1 X45.66 Y67.867 E39.10527
G1 X43.675 Y65.989 E39.20984
G1 X41.639 Y64.171 E39.3143
G1 X39.478 Y62.347 E39.42252
G1 X37.829 Y61.028 E39.50333
G1 X37.242 Y60.433 E39.53532
G1 X36.899 Y59.985 E39.55691
G1 X36.506 Y59.444 E39.5825
G1 X36.276 Y59.059 E39.59966
G1 X36.15 Y58.749 E39.61247
G1 X35.858 Y57.858 E39.64835
G1 X34.972 Y55.286 E39.75246
G1 X33.977 Y52.646 E39.86043
G1 X32.938 Y50.107 E39.96541
G1 X31.833 Y47.613 E40.06981
G1 X30.635 Y45.101 E40.17631
G1 X29.39 Y42.669 E40.28087
G1 X28.06 Y40.243 E40.38675
G1 X26.683 Y37.892 E40.49102
G1 X26.121 Y36.961 E40.53264
G1 X25.924 Y36.557 E40.54984
G1 X25.802 Y36.125 E40.56702
G1 X25.758 Y35.679 E40.58417
G1 X25.794 Y35.231 E40.60137
G1 X25.909 Y34.797 E40.61855
G1 X26.098 Y34.39 E40.63572
G1 X26.357 Y34.023 E40.65291
G1 X26.677 Y33.708 E40.6701
G0 F1285.7 X27.093 Y33.836
G1 F900 X27.69 Y33.564 E40.6952
G1 X28.459 Y33.346 E40.72579
G1 X29.454 Y33.08 E40.76521
G1 X32.154 Y32.277 E40.87301
G1 X34.768 Y31.42 E40.97828
G1 X37.378 Y30.478 E41.08447
G1 X39.953 Y29.467 E41.19034
G1 X42.467 Y28.397 E41.2949
G1 X45.032 Y27.219 E41.40292
G1 X47.481 Y26.009 E41.50746
G1 X49.924 Y24.715 E41.61325
G1 X52.16 Y23.452 E41.71153
G1 X52.541 Y23.283 E41.72748
G1 X52.952 Y23.189 E41.74362
G1 X53.722 Y23.09 E41.77333
G1 X54.261 Y23.037 E41.79406
G1 X55.119 Y23.091 E41.82696
G1 X57.2 Y23.39 E41.90741
G1 X59.95 Y23.706 E42.01335
G1 X62.723 Y23.946 E42.11986
G1 X65.455 Y24.105 E42.22459
G1 X68.231 Y24.187 E42.33088
G1 X71.007 Y24.191 E42.43711
G1 X73.746 Y24.117 E42.54197
G1 X76.554 Y23.962 E42.6496
G1 X79.286 Y23.733 E42.75451
G1 X82.01 Y23.428 E42.85941
G1 X84.792 Y23.037 E42.96692
G1 X87.501 Y22.576 E43.07209
G1 X90.191 Y22.041 E43.17705
G1 X92.892 Y21.424 E43.28308
G1 X95.62 Y20.718 E43.39091
G1 X98.25 Y19.957 E43.49569
G1 X100.869 Y19.119 E43.60093
G1 X103.497 Y18.195 E43.70753
