;FLAVOR:Marlin
;TIME:13142
;Filament used: 10.2121m
;Layer height: 0.2
;MINX:4.374
;MINY:25.844
;MINZ:0.26
;MAXX:184.923
;MAXY:197.475
;MAXZ:7.86
;Generated with Cura_SteamEngine 4.9.1
M82 ;absolute extrusion mode
;Begin Start Gcode for Dagoma DiscoEasy 200
;Sliced: 13-07-2021 17:08:10
;Initial extruder: 0

G90 ;Absolute positioning
M106 S255 ;Fan on full
G28 X Y ;Home stop X Y
G1 X100 ;Centre back during cooldown in case of oozing
M109 R90 ;Cooldown in case too hot
G28 ;Centre
G29 ;Auto-level
M104 S205 ;Pre-heat
M107 ;Fan off
G0 X100 Y5 Z0.5 ;Front centre for degunk
M109 S205 ;Wait for initial temp
M83 ;E Relative
G1 E10 F200 ;Degunk
G1 E-3 F5000 ;Retract
G0 Z3 ;Withdraw
M82 ;E absolute
G92 E0 ;E reset
G1 F6000 ;Set feedrate

;Finish Start Gcode for Dagoma DiscoEasy 200

G92 E0
G92 E0
G1 F3000 E-3.5
;LAYER_COUNT:39
;LAYER:0
M107
G0 F1285.7 X21.679 Y26.703 Z0.26
;TYPE:SKIRT
G1 F3000 E0
G1 F900 X22.136 Y26.385 E0.02131
G1 X22.633 Y26.136 E0.04258
G1 X23.161 Y25.96 E0.06388
G1 X23.709 Y25.862 E0.08518
G1 X24.265 Y25.844 E0.10647
G1 X24.818 Y25.905 E0.12776
G1 X25.357 Y26.045 E0.14908
G1 X25.87 Y26.261 E0.17038
G1 X26.524 Y26.68 E0.2001
G1 X27.269 Y27.272 E0.23652
G1 X183.034 Y155.781 E7.96443
G1 X183.555 Y156.223 E7.99058
G1 X183.952 Y156.613 E8.01188
G1 X184.29 Y157.055 E8.03317
G1 X184.56 Y157.541 E8.05445
G1 X184.759 Y158.061 E8.07575
G1 X184.88 Y158.604 E8.09704
G1 X184.923 Y159.159 E8.11835
G1 X184.886 Y159.714 E8.13963
G1 X184.769 Y160.258 E8.16093
G1 X184.576 Y160.78 E8.18223
G1 X184.311 Y161.269 E8.20351
G1 X183.977 Y161.714 E8.22481
G1 X183.584 Y162.108 E8.2461
G1 X183.138 Y162.441 E8.2674
G1 X182.446 Y162.792 E8.2971
G1 X181.554 Y163.136 E8.33368
G1 X88.613 Y197.048 E12.11986
G1 X87.996 Y197.263 E12.14487
G1 X87.459 Y197.408 E12.16616
G1 X86.906 Y197.475 E12.18747
G1 X86.35 Y197.461 E12.20876
G1 X85.802 Y197.368 E12.23003
G1 X85.272 Y197.198 E12.25133
G1 X84.772 Y196.953 E12.27264
G1 X84.223 Y196.571 E12.29823
G1 X83.854 Y196.275 E12.31634
G1 X6.277 Y132.273 E16.16513
G1 X5.741 Y131.818 E16.19203
G1 X5.344 Y131.429 E16.2133
G1 X5.007 Y130.986 E16.2346
G1 X4.736 Y130.5 E16.2559
G1 X4.538 Y129.98 E16.27719
G1 X4.417 Y129.437 E16.29848
G1 X4.374 Y128.882 E16.31979
G1 X4.422 Y128.236 E16.34458
G1 X4.506 Y127.666 E16.36663
G1 X20.19 Y29.673 E20.1645
G1 X20.298 Y29.052 E20.18862
G1 X20.433 Y28.512 E20.20992
G1 X20.643 Y27.997 E20.23121
G1 X20.925 Y27.517 E20.25251
G1 X21.273 Y27.083 E20.2738
G1 X21.679 Y26.703 E20.29508
G0 F1285.7 X21.996 Y26.9
G1 F900 X22.443 Y26.613 E20.31541
G1 X22.928 Y26.397 E20.33573
G1 X23.439 Y26.257 E20.35601
G1 X23.966 Y26.194 E20.37632
G1 X24.497 Y26.212 E20.39665
G1 X25.019 Y26.309 E20.41697
G1 X25.52 Y26.483 E20.43727
G1 X25.989 Y26.73 E20.45755
G1 X26.307 Y26.954 E20.47244
G1 X27.046 Y27.542 E20.50858
G1 X182.807 Y156.048 E28.2363
G1 X183.328 Y156.49 E28.26245
G1 X183.706 Y156.863 E28.28277
G1 X184.024 Y157.288 E28.30309
G1 X184.274 Y157.756 E28.32339
G1 X184.45 Y158.256 E28.34368
G1 X184.55 Y158.778 E28.36402
G1 X184.571 Y159.308 E28.38431
G1 X184.511 Y159.835 E28.40461
G1 X184.373 Y160.348 E28.42494
G1 X184.16 Y160.834 E28.44525
G1 X183.876 Y161.282 E28.46555
G1 X183.528 Y161.683 E28.48587
G1 X183.124 Y162.027 E28.50618
G1 X182.673 Y162.306 E28.52647
G1 X182.32 Y162.466 E28.5413
G1 X181.498 Y162.784 E28.57503
G1 X88.498 Y196.718 E32.36362
G1 X87.881 Y196.933 E32.38863
G1 X87.368 Y197.069 E32.40894
G1 X86.841 Y197.127 E32.42923
G1 X86.31 Y197.105 E32.44956
G1 X85.789 Y197.004 E32.46987
G1 X85.29 Y196.825 E32.49016
G1 X84.822 Y196.574 E32.51049
G1 X84.371 Y196.242 E32.53192
G1 X84.077 Y196.005 E32.54637
G1 X6.504 Y132.006 E36.39497
G1 X5.968 Y131.551 E36.42187
G1 X5.59 Y131.178 E36.4422
G1 X5.273 Y130.753 E36.46249
G1 X5.023 Y130.285 E36.48279
G1 X4.846 Y129.785 E36.50309
G1 X4.747 Y129.263 E36.52342
G1 X4.726 Y128.733 E36.54372
G1 X4.781 Y128.193 E36.56449
G1 X4.851 Y127.721 E36.58276
G1 X20.535 Y29.733 E40.38044
G1 X20.643 Y29.112 E40.40456
G1 X20.773 Y28.598 E40.42485
G1 X20.979 Y28.108 E40.44519
G1 X21.256 Y27.656 E40.46548
G1 X21.597 Y27.25 E40.48577
G1 X21.996 Y26.9 E40.50608
G0 F1285.7 X22.311 Y27.104
G1 F900 X22.747 Y26.852 E40.52536
G1 X23.217 Y26.671 E40.54463
G1 X23.709 Y26.567 E40.56388
G1 X24.212 Y26.542 E40.58315
G1 X24.713 Y26.598 E40.60244
G1 X25.199 Y26.731 E40.62172
G1 X25.657 Y26.94 E40.64099
G1 X26.089 Y27.229 E40.66088
G1 X26.824 Y27.812 E40.69678
G1 X182.581 Y156.315 E48.42431
G1 X183.102 Y156.757 E48.45046
G1 X183.459 Y157.112 E48.46973
G1 X183.755 Y157.519 E48.48899
G1 X183.983 Y157.968 E48.50826
G1 X184.138 Y158.448 E48.52756
G1 X184.214 Y158.945 E48.5468
G1 X184.211 Y159.449 E48.56609
G1 X184.129 Y159.946 E48.58537
G1 X183.969 Y160.423 E48.60462
G1 X183.735 Y160.869 E48.6239
G1 X183.434 Y161.273 E48.64318
G1 X183.073 Y161.624 E48.66245
G1 X182.661 Y161.913 E48.68171
G1 X182.194 Y162.139 E48.70156
G1 X181.314 Y162.479 E48.73766
G1 X88.383 Y196.387 E52.52343
G1 X87.766 Y196.602 E52.54844
G1 X87.279 Y196.73 E52.56771
G1 X86.777 Y196.778 E52.58701
G1 X86.275 Y196.747 E52.60625
G1 X85.783 Y196.637 E52.62555
G1 X85.316 Y196.451 E52.64478
G1 X84.787 Y196.122 E52.66863
G1 X84.327 Y195.758 E52.69107
G1 X6.73 Y131.739 E56.54087
G1 X6.194 Y131.284 E56.56777
G1 X5.837 Y130.929 E56.58704
G1 X5.541 Y130.522 E56.6063
G1 X5.313 Y130.073 E56.62557
G1 X5.159 Y129.594 E56.64483
G1 X5.082 Y129.096 E56.66411
G1 X5.098 Y128.475 E56.68788
G1 X5.191 Y127.813 E56.71347
G1 X20.88 Y29.793 E60.51239
G1 X20.988 Y29.172 E60.53652
G1 X21.113 Y28.684 E60.55579
G1 X21.314 Y28.222 E60.57508
G1 X21.586 Y27.798 E60.59435
G1 X21.921 Y27.422 E60.61363
G1 X22.311 Y27.104 E60.63288
G1 F3000 E57.13288
;MESH:support_half_hex_19.stl
G0 F1285.7 X23.375 Y30.238
G0 X24.361 Y30.395
G0 X17.632 Y117.484
;TYPE:WALL-INNER
G1 F3000 E60.63288
G1 F900 X87.187 Y92.104 E63.46639
G1 X87.289 Y91.504 E63.48968
G1 X29.902 Y44.158 E66.33682
G1 X29.333 Y44.374 E66.36011
G1 X17.632 Y117.484 E69.1936
G0 F1285.7 X96.112 Y182.232
G1 F900 X165.668 Y156.852 E72.02714
G1 X165.77 Y156.252 E72.05043
G1 X108.382 Y108.906 E74.8976
G1 X107.813 Y109.122 E74.92089
G1 X96.112 Y182.232 E77.75438
G0 F1285.7 X179.745 Y159.113
G1 F900 X86.821 Y193.019 E81.53987
G1 X8.803 Y128.653 E85.41055
G1 X24.436 Y30.979 E89.19606
G1 X24.484 Y30.678 E89.20772
G1 X24.719 Y30.872 E89.21431
G1 X179.796 Y158.815 E96.90813
G1 X180.031 Y159.009 E96.91979
G1 X179.745 Y159.113 E96.92638
G0 F1285.7 X180.39 Y159.223
;TYPE:WALL-OUTER
G1 F900 X86.757 Y193.388 E100.74076
G1 X8.453 Y128.786 E104.62562
G1 X24.205 Y30.367 E108.44
G1 X24.253 Y30.066 E108.45167
G1 X24.488 Y30.26 E108.45826
G1 X180.441 Y158.925 E116.19552
G1 X180.676 Y159.119 E116.20718
G1 X180.39 Y159.223 E116.21377
G0 F1285.7 X180.203 Y159.291
G0 X180.357 Y159.183
G0 X96.307 Y181.996
G0 X96.52 Y181.737
G1 F900 X165.283 Y156.646 E119.01501
G1 X165.379 Y156.611 E119.01892
G1 X165.418 Y156.383 E119.02777
G1 X165.339 Y156.318 E119.03169
G1 X108.4 Y109.342 E121.85659
G1 X108.321 Y109.277 E121.86051
G1 X108.104 Y109.359 E121.86938
G1 X108.088 Y109.46 E121.8733
G1 X96.52 Y181.737 E124.67451
G0 F1285.7 X96.707 Y181.669
G0 X96.792 Y181.904
G0 X17.827 Y117.248
G0 X18.04 Y116.989
G1 F900 X86.802 Y91.898 E127.47571
G1 X86.898 Y91.863 E127.47962
G1 X86.937 Y91.635 E127.48848
G1 X86.858 Y91.57 E127.49239
G1 X29.92 Y44.594 E130.31726
G1 X29.841 Y44.529 E130.32118
G1 X29.624 Y44.611 E130.33005
G1 X29.608 Y44.712 E130.33397
G1 X18.04 Y116.989 E133.13518
G0 F1285.7 X18.227 Y116.921
G0 X18.312 Y117.156
G0 X17.205 Y118.002
;TYPE:SKIN
G1 F900 X87.488 Y92.356 E135.99835
G1 X87.658 Y91.367 E136.03675
G1 X29.966 Y43.77 E138.899
G1 X29.028 Y44.126 E138.9374
G1 X17.205 Y118.002 E141.80057
G0 F1285.7 X9.17 Y128.515
G1 F900 X24.726 Y31.318 E145.56759
G1 X179.357 Y158.894 E153.23931
G1 X86.887 Y192.634 E157.0063
G1 X9.17 Y128.515 E160.86207
G0 F1285.7 X107.508 Y108.874
G1 F900 X95.685 Y182.75 E163.72525
G1 X165.969 Y157.104 E166.58845
G1 X166.139 Y156.115 E166.62685
G1 X108.446 Y108.518 E169.48914
G1 X107.508 Y108.874 E169.52753
G0 F1285.7 X108.27 Y109.046
G0 X178.747 Y158.948
G1 F900 X176.733 Y156.934 E169.63653
G1 X176.671 Y156.872
G0 F1285.7 X177.659 Y159.345
G1 F900 X168.245 Y149.931 E170.14603
G1 X168.183 Y149.869
G0 F1285.7 X165.416 Y147.597
G1 F900 X177.296 Y159.477 E170.78899
G0 F1285.7 X176.933 Y159.609
G1 F900 X162.586 Y145.262 E171.56547
G1 X162.524 Y145.2
G0 F1285.7 X159.757 Y142.928
G1 F900 X176.571 Y159.742 E172.47546
G0 F1285.7 X176.208 Y159.874
G1 F900 X156.928 Y140.594 E173.51892
G1 X156.866 Y140.532
G0 F1285.7 X154.098 Y138.259
G1 F900 X175.846 Y160.006 E174.69592
G0 F1285.7 X175.483 Y160.139
G1 F900 X151.269 Y135.925 E176.00642
G1 X151.207 Y135.863
G0 F1285.7 X148.44 Y133.59
G1 F900 X175.12 Y160.271 E177.4504
G0 F1285.7 X174.757 Y160.403
G1 F900 X145.61 Y131.256 E179.02787
G1 X145.548 Y131.194
G0 F1285.7 X142.781 Y128.921
G1 F900 X174.395 Y160.535 E180.73886
G0 F1285.7 X174.033 Y160.668
G1 F900 X139.951 Y126.587 E182.5834
G1 X139.889 Y126.525
G0 F1285.7 X137.122 Y124.253
G1 F900 X173.67 Y160.801 E184.56142
G0 F1285.7 X173.307 Y160.933
G1 F900 X134.293 Y121.918 E186.67294
G1 X134.231 Y121.856
G0 F1285.7 X131.463 Y119.584
G1 F900 X172.944 Y161.065 E188.91794
G0 F1285.7 X172.582 Y161.197
G1 F900 X128.634 Y117.25 E191.29643
G1 X128.572 Y117.188
G0 F1285.7 X125.805 Y114.916
G1 F900 X172.219 Y161.329 E193.80839
G0 F1285.7 X171.856 Y161.462
G1 F900 X122.975 Y112.581 E196.45389
G1 X122.913 Y112.519
G0 F1285.7 X120.146 Y110.247
G1 F900 X164.27 Y154.371 E198.84194
G1 X164.332 Y154.433
G0 F1285.7 X166.255 Y156.356
G1 F900 X171.493 Y161.594 E199.12543
G0 F1285.7 X171.131 Y161.727
G1 F900 X166.183 Y156.779 E199.39322
G0 F1285.7 X166.11 Y157.201
G1 F900 X170.769 Y161.859 E199.64534
G0 F1285.7 X170.406 Y161.991
G1 F900 X165.762 Y157.347 E199.89668
G0 F1285.7 X165.399 Y157.479
G1 F900 X170.043 Y162.124 E200.14805
G0 F1285.7 X169.68 Y162.256
G1 F900 X165.036 Y157.611 E200.39942
G0 F1285.7 X164.673 Y157.744
G1 F900 X169.318 Y162.388 E200.65078
G0 F1285.7 X168.955 Y162.52
G1 F900 X164.311 Y157.877 E200.90209
G0 F1285.7 X163.949 Y158.009
G1 F900 X168.593 Y162.653 E201.15343
G0 F1285.7 X168.23 Y162.785
G1 F900 X163.586 Y158.141 E201.40477
G0 F1285.7 X163.223 Y158.273
G1 F900 X167.867 Y162.918 E201.65614
G0 F1285.7 X167.505 Y163.05
G1 F900 X162.86 Y158.406 E201.90751
G0 F1285.7 X162.498 Y158.538
G1 F900 X167.142 Y163.182 E202.15884
G0 F1285.7 X166.779 Y163.314
G1 F900 X162.135 Y158.67 E202.41018
G0 F1285.7 X161.772 Y158.802
G1 F900 X166.416 Y163.447 E202.66155
G0 F1285.7 X166.054 Y163.579
G1 F900 X161.41 Y158.935 E202.91289
G0 F1285.7 X161.047 Y159.067
G1 F900 X165.692 Y163.712 E203.16428
G0 F1285.7 X165.329 Y163.844
G1 F900 X160.685 Y159.2 E203.41562
G0 F1285.7 X160.322 Y159.332
G1 F900 X164.966 Y163.976 E203.66696
G0 F1285.7 X164.603 Y164.108
G1 F900 X159.959 Y159.464 E203.9183
G0 F1285.7 X159.596 Y159.596
G1 F900 X164.241 Y164.241 E204.16969
G0 F1285.7 X163.878 Y164.373
G1 F900 X159.234 Y159.729 E204.42103
G0 F1285.7 X158.872 Y159.861
G1 F900 X163.515 Y164.505 E204.67235
G0 F1285.7 X163.152 Y164.637
G1 F900 X158.509 Y159.994 E204.92363
G0 F1285.7 X158.146 Y160.126
G1 F900 X162.79 Y164.77 E205.17497
G0 F1285.7 X162.428 Y164.902
G1 F900 X157.783 Y160.258 E205.42634
G0 F1285.7 X157.421 Y160.39
G1 F900 X162.065 Y165.035 E205.6777
G0 F1285.7 X161.702 Y165.167
G1 F900 X157.058 Y160.523 E205.92904
G0 F1285.7 X156.695 Y160.655
G1 F900 X161.339 Y165.299 E206.18038
G0 F1285.7 X160.977 Y165.431
G1 F900 X156.332 Y160.787 E206.43175
G0 F1285.7 X155.97 Y160.92
G1 F900 X160.614 Y165.564 E206.68309
G0 F1285.7 X160.252 Y165.697
G1 F900 X155.608 Y161.052 E206.93445
G0 F1285.7 X155.245 Y161.184
G1 F900 X159.889 Y165.829 E207.18582
G0 F1285.7 X159.526 Y165.961
G1 F900 X154.882 Y161.317 E207.43716
G0 F1285.7 X154.519 Y161.449
G1 F900 X159.164 Y166.093 E207.68852
G0 F1285.7 X158.801 Y166.225
G1 F900 X154.157 Y161.581 E207.93986
G0 F1285.7 X153.794 Y161.713
G1 F900 X158.438 Y166.358 E208.19123
G0 F1285.7 X158.075 Y166.49
G1 F900 X153.431 Y161.846 E208.44257
G0 F1285.7 X153.069 Y161.979
G1 F900 X157.713 Y166.622 E208.69388
G0 F1285.7 X157.351 Y166.755
G1 F900 X152.706 Y162.111 E208.94525
G0 F1285.7 X152.344 Y162.243
G1 F900 X156.988 Y166.887 E209.19659
G0 F1285.7 X156.625 Y167.02
G1 F900 X151.981 Y162.375 E209.44795
G0 F1285.7 X151.618 Y162.507
G1 F900 X156.262 Y167.152 E209.69932
G0 F1285.7 X155.9 Y167.284
G1 F900 X151.255 Y162.64 E209.95068
G0 F1285.7 X150.893 Y162.772
G1 F900 X155.537 Y167.416 E210.20202
G0 F1285.7 X155.174 Y167.548
G1 F900 X150.531 Y162.905 E210.45331
G0 F1285.7 X150.168 Y163.037
G1 F900 X154.812 Y167.681 E210.70465
G0 F1285.7 X154.449 Y167.814
G1 F900 X149.805 Y163.169 E210.95601
G0 F1285.7 X149.442 Y163.302
G1 F900 X154.087 Y167.946 E211.20738
G0 F1285.7 X153.724 Y168.078
G1 F900 X149.08 Y163.434 E211.45872
G0 F1285.7 X148.717 Y163.566
G1 F900 X153.361 Y168.21 E211.71006
G0 F1285.7 X152.998 Y168.343
G1 F900 X148.354 Y163.698 E211.96143
G0 F1285.7 X147.991 Y163.83
G1 F900 X152.636 Y168.475 E212.21282
G0 F1285.7 X152.273 Y168.607
G1 F900 X147.629 Y163.963 E212.46416
G0 F1285.7 X147.267 Y164.096
G1 F900 X151.911 Y168.74 E212.7155
G0 F1285.7 X151.548 Y168.872
G1 F900 X146.904 Y164.228 E212.96684
G0 F1285.7 X146.541 Y164.36
G1 F900 X151.185 Y169.004 E213.21818
G0 F1285.7 X150.823 Y169.137
G1 F900 X146.178 Y164.492 E213.46957
G0 F1285.7 X145.816 Y164.625
G1 F900 X150.46 Y169.269 E213.72091
G0 F1285.7 X150.097 Y169.401
G1 F900 X145.453 Y164.757 E213.97225
G0 F1285.7 X145.09 Y164.889
G1 F900 X149.734 Y169.533 E214.22359
G0 F1285.7 X149.372 Y169.666
G1 F900 X144.728 Y165.022 E214.47493
G0 F1285.7 X144.365 Y165.154
G1 F900 X149.01 Y169.798 E214.72629
G0 F1285.7 X148.647 Y169.931
G1 F900 X144.003 Y165.286 E214.97766
G0 F1285.7 X143.64 Y165.419
G1 F900 X148.284 Y170.063 E215.229
G0 F1285.7 X147.921 Y170.195
G1 F900 X143.277 Y165.551 E215.48034
G0 F1285.7 X142.914 Y165.683
G1 F900 X147.559 Y170.327 E215.7317
G0 F1285.7 X147.196 Y170.46
G1 F900 X142.552 Y165.815 E215.98307
G0 F1285.7 X142.189 Y165.948
G1 F900 X146.833 Y170.592 E216.23441
G0 F1285.7 X146.471 Y170.725
G1 F900 X141.827 Y166.08 E216.48577
G0 F1285.7 X141.464 Y166.213
G1 F900 X146.108 Y170.857 E216.73711
G0 F1285.7 X145.746 Y170.989
G1 F900 X141.101 Y166.345 E216.98848
G0 F1285.7 X140.738 Y166.477
G1 F900 X145.383 Y171.121 E217.23985
G0 F1285.7 X145.02 Y171.254
G1 F900 X140.376 Y166.609 E217.49121
G0 F1285.7 X140.013 Y166.742
G1 F900 X144.657 Y171.386 E217.74255
G0 F1285.7 X144.295 Y171.518
G1 F900 X139.65 Y166.874 E217.99392
G0 F1285.7 X139.288 Y167.007
G1 F900 X143.932 Y171.651 E218.24526
G0 F1285.7 X143.57 Y171.783
G1 F900 X138.925 Y167.139 E218.49662
G0 F1285.7 X138.563 Y167.271
G1 F900 X143.207 Y171.916 E218.74799
G0 F1285.7 X142.844 Y172.048
G1 F900 X138.2 Y167.403 E218.99936
G0 F1285.7 X137.837 Y167.536
G1 F900 X142.482 Y172.18 E219.25072
G0 F1285.7 X142.119 Y172.312
G1 F900 X137.474 Y167.668 E219.50209
G0 F1285.7 X137.112 Y167.8
G1 F900 X141.756 Y172.444 E219.75343
G0 F1285.7 X141.393 Y172.577
G1 F900 X136.749 Y167.932 E220.00479
G0 F1285.7 X136.387 Y168.065
G1 F900 X141.031 Y172.71 E220.25616
G0 F1285.7 X140.668 Y172.842
G1 F900 X136.024 Y168.198 E220.5075
G0 F1285.7 X135.661 Y168.33
G1 F900 X140.306 Y172.974 E220.75887
G0 F1285.7 X139.943 Y173.106
G1 F900 X135.299 Y168.462 E221.0102
G0 F1285.7 X134.936 Y168.594
G1 F900 X139.58 Y173.239 E221.26157
G0 F1285.7 X139.218 Y173.371
G1 F900 X134.573 Y168.726 E221.51296
G0 F1285.7 X134.21 Y168.859
G1 F900 X138.855 Y173.503 E221.76433
G0 F1285.7 X138.493 Y173.636
G1 F900 X133.848 Y168.991 E222.01572
G0 F1285.7 X133.486 Y169.124
G1 F900 X138.13 Y173.768 E222.26706
G0 F1285.7 X137.767 Y173.9
G1 F900 X133.123 Y169.256 E222.5184
G0 F1285.7 X132.76 Y169.388
G1 F900 X137.404 Y174.033 E222.76977
G0 F1285.7 X137.042 Y174.165
G1 F900 X132.397 Y169.521 E223.02113
G0 F1285.7 X132.035 Y169.653
G1 F900 X136.679 Y174.297 E223.27247
G0 F1285.7 X136.316 Y174.429
G1 F900 X131.672 Y169.785 E223.52381
G0 F1285.7 X131.309 Y169.917
G1 F900 X135.954 Y174.562 E223.77521
G0 F1285.7 X135.591 Y174.694
