;FLAVOR:Marlin
;TIME:12908
;Filament used: 22.6061m
;Layer height: 0.3
;MINX:16.895
;MINY:15.328
;MINZ:0.26
;MAXX:186.743
;MAXY:195.515
;MAXZ:24.56
;Generated with Cura_SteamEngine 4.9.1
M82 ;absolute extrusion mode
;Begin Start Gcode for Dagoma DiscoEasy 200
;Sliced: 01-08-2021 01:30:24
;Initial extruder: 0

G90 ;Absolute positioning
M106 S255 ;Fan on full
G28 X Y ;Home stop X Y
G1 X100 ;Centre back during cooldown in case of oozing
M109 R90 ;Cooldown in case too hot
G28 ;Centre
G29 ;Auto-level
M104 S205 ;Pre-heat
M107 ;Fan off
G0 X100 Y5 Z0.5 ;Front centre for degunk
M109 S205 ;Wait for initial temp
M83 ;E Relative
G1 E10 F200 ;Degunk
G1 E-3 F5000 ;Retract
G0 Z3 ;Withdraw
M82 ;E absolute
G92 E0 ;E reset
G1 F6000 ;Set feedrate

;Finish Start Gcode for Dagoma DiscoEasy 200

G92 E0
G92 E0
G1 F3000 E-3.5
;LAYER_COUNT:82
;LAYER:0
M107
G0 F1285.7 X18.172 Y34.82 Z0.26
;TYPE:SKIRT
G1 F3000 E0
G1 F900 X18.792 Y34.507 E0.02658
G1 X19.13 Y34.385 E0.04033
G1 X21.113 Y33.7 E0.12062
G1 X23.666 Y32.736 E0.22505
G1 X26.23 Y31.684 E0.33112
G1 X28.726 Y30.577 E0.43561
G1 X31.202 Y29.393 E0.54064
G1 X33.659 Y28.132 E0.64633
G1 X36.062 Y26.813 E0.75123
G1 X38.435 Y25.419 E0.85656
G1 X39.597 Y24.697 E0.90891
G1 X40.299 Y24.323 E0.93935
G1 X40.858 Y24.167 E0.96156
G1 X42.032 Y23.965 E1.00715
G1 X43.067 Y23.794 E1.0473
G1 X43.271 Y23.766 E1.05518
G1 X43.915 Y23.75 E1.07983
G1 X44.856 Y23.834 E1.11599
G1 X45.771 Y23.929 E1.15119
G1 X48.53 Y24.138 E1.25708
G1 X51.302 Y24.269 E1.36328
G1 X54 Y24.32 E1.46655
G1 X56.77 Y24.293 E1.57256
G1 X59.509 Y24.19 E1.67746
G1 X62.269 Y24.008 E1.78331
G1 X64.965 Y23.752 E1.88695
G1 X67.74 Y23.411 E1.99394
G1 X70.427 Y23.002 E2.09796
G1 X73.148 Y22.509 E2.20379
G1 X75.798 Y21.952 E2.30742
G1 X78.49 Y21.306 E2.41336
G1 X81.137 Y20.59 E2.5183
G1 X83.775 Y19.796 E2.62373
G1 X86.381 Y18.931 E2.72881
G1 X88.97 Y17.99 E2.83423
G1 X91.514 Y16.981 E2.93897
G1 X94.153 Y15.843 E3.04895
G1 X94.373 Y15.751 E3.05808
G1 X94.896 Y15.588 E3.07904
G1 X95.187 Y15.53 E3.0904
G1 X96.118 Y15.37 E3.12655
G1 X96.595 Y15.328 E3.14487
G1 X97.229 Y15.381 E3.16922
G1 X97.594 Y15.447 E3.18342
G1 X100.301 Y16.121 E3.29017
G1 X103.011 Y16.716 E3.39636
G1 X105.672 Y17.218 E3.49999
G1 X108.413 Y17.657 E3.60622
G1 X111.1 Y18.01 E3.70993
G1 X113.854 Y18.293 E3.81588
G1 X116.596 Y18.497 E3.92111
G1 X117.936 Y18.555 E3.97244
G1 X119.113 Y18.621 E4.01755
G1 X119.587 Y18.687 E4.03587
G1 X120.044 Y18.832 E4.05421
G1 X120.471 Y19.05 E4.07256
G1 X120.855 Y19.336 E4.09089
G1 X121.221 Y19.719 E4.11116
G1 X121.516 Y20.071 E4.12874
G1 X124.697 Y23.957 E4.32092
G1 X126.452 Y26.039 E4.42513
G1 X128.306 Y28.118 E4.53173
G1 X130.193 Y30.118 E4.63696
G1 X132.113 Y32.039 E4.7409
G1 X134.112 Y33.931 E4.84624
G1 X136.373 Y35.945 E4.96211
G1 X136.976 Y36.506 E4.99363
G1 X137.249 Y36.822 E5.00961
G1 X138.888 Y38.816 E5.10839
G1 X139.186 Y39.189 E5.12666
G1 X139.926 Y40.105 E5.17173
G1 X140.789 Y41.16 E5.22389
G1 X141.731 Y42.329 E5.28134
G1 X142.891 Y43.749 E5.35151
G1 X143.336 Y44.312 E5.37898
G1 X143.563 Y44.645 E5.3944
G1 X144.072 Y45.519 E5.43311
G1 X144.532 Y46.331 E5.46882
G1 X145.931 Y48.645 E5.5723
G1 X147.46 Y51.017 E5.6803
G1 X148.988 Y53.249 E5.78382
G1 X150.614 Y55.484 E5.88959
G1 X152.297 Y57.665 E5.99502
G1 X153.175 Y58.754 E6.04855
G1 X155.207 Y61.237 E6.17134
G1 X156.983 Y63.346 E6.27686
G1 X158.808 Y65.393 E6.38181
G1 X160.689 Y67.386 E6.48668
G1 X162.644 Y69.343 E6.59255
G1 X164.613 Y71.206 E6.69628
G1 X166.683 Y73.055 E6.8025
G1 X167.294 Y73.589 E6.83355
G1 X167.584 Y73.885 E6.84941
G1 X168.193 Y74.606 E6.88553
G1 X168.565 Y75.062 E6.90805
G1 X168.712 Y75.248 E6.91713
G1 X169.697 Y76.467 E6.9771
G1 X170.909 Y77.957 E7.05061
G1 X171.377 Y78.54 E7.07922
G1 X173.494 Y81.134 E7.20735
G1 X173.904 Y81.653 E7.23266
G1 X174.13 Y81.984 E7.248
G1 X174.577 Y82.75 E7.28194
G1 X175.023 Y83.54 E7.31666
G1 X176.478 Y85.955 E7.42456
G1 X177.94 Y88.231 E7.52808
G1 X179.492 Y90.506 E7.63347
G1 X181.101 Y92.726 E7.7384
G1 X182.799 Y94.935 E7.84503
G1 X183.782 Y96.154 E7.90496
G1 X184.379 Y96.884 E7.94105
G1 X184.805 Y97.419 E7.96722
G1 X185.071 Y97.818 E7.98557
G1 X185.268 Y98.255 E8.00391
G1 X185.389 Y98.718 E8.02223
G1 X185.424 Y99.412 E8.04882
G1 X185.419 Y99.483 E8.05154
G1 X185.284 Y102.203 E8.15577
G1 X185.226 Y104.933 E8.26026
G1 X185.245 Y107.71 E8.36654
G1 X185.342 Y110.446 E8.47131
G1 X185.516 Y113.18 E8.57615
G1 X185.769 Y115.933 E8.68195
G1 X186.097 Y118.645 E8.7865
G1 X186.663 Y122.308 E8.92834
G1 X186.743 Y123.005 E8.95519
G1 X186.705 Y123.482 E8.9735
G1 X186.576 Y123.984 E8.99334
G1 X186.222 Y124.976 E9.03365
G1 X185.781 Y126.139 E9.08125
G1 X185.528 Y126.777 E9.10751
G1 X185.221 Y127.35 E9.13239
G1 X184.632 Y128.203 E9.17206
G1 X184.346 Y128.605 E9.19094
G1 X182.823 Y130.875 E9.29555
G1 X181.345 Y133.219 E9.4016
G1 X179.952 Y135.575 E9.50634
G1 X178.629 Y137.965 E9.61089
G1 X177.342 Y140.453 E9.71809
G1 X176.168 Y142.887 E9.8215
G1 X175.043 Y145.401 E9.92691
G1 X173.982 Y147.958 E10.03285
G1 X173.014 Y150.501 E10.13698
G1 X172.111 Y153.086 E10.24177
G1 X171.269 Y155.733 E10.34807
G1 X170.522 Y158.336 E10.45171
G1 X169.831 Y161.03 E10.55814
G1 X169.221 Y163.712 E10.6634
G1 X168.695 Y166.39 E10.76785
G1 X168.242 Y169.085 E10.87243
G1 X167.857 Y171.859 E10.97961
G1 X167.682 Y173.351 E11.0371
G1 X167.536 Y173.979 E11.06177
G1 X167.16 Y175.035 E11.10467
G1 X166.742 Y176.141 E11.14992
G1 X166.479 Y176.806 E11.17729
G1 X166.266 Y177.236 E11.19565
G1 X165.985 Y177.624 E11.21398
G1 X165.626 Y177.974 E11.23317
G1 X164.767 Y178.676 E11.27563
G1 X164.151 Y179.166 E11.30575
G1 X162.066 Y180.926 E11.41017
G1 X160.004 Y182.768 E11.51598
G1 X157.992 Y184.67 E11.62194
G1 X156.055 Y186.609 E11.72682
G1 X154.174 Y188.601 E11.83167
G1 X152.348 Y190.648 E11.93665
G1 X150.574 Y192.751 E12.04194
G1 X149.362 Y194.271 E12.11634
G1 X148.859 Y194.816 E12.14472
G1 X148.471 Y195.098 E12.16308
G1 X148.042 Y195.312 E12.18142
G1 X147.584 Y195.453 E12.19976
G1 X147.108 Y195.515 E12.21813
G1 X146.63 Y195.497 E12.23644
G1 X146.16 Y195.4 E12.2548
G1 X145.714 Y195.227 E12.27311
G1 X145.302 Y194.982 E12.29146
G1 X144.771 Y194.491 E12.31913
G1 X144.317 Y193.949 E12.34619
G1 X90.413 Y128.083 E15.60337
G1 X88.639 Y125.978 E15.70872
G1 X86.841 Y123.962 E15.8121
G1 X84.9 Y121.904 E15.92036
G1 X83.016 Y120.019 E16.02235
G1 X80.972 Y118.085 E16.13004
G1 X78.94 Y116.27 E16.2343
G1 X76.855 Y114.508 E16.33877
G1 X74.706 Y112.797 E16.4439
G1 X72.49 Y111.132 E16.54997
G1 X70.257 Y109.55 E16.6547
G1 X67.974 Y108.027 E16.75973
G1 X65.655 Y106.574 E16.86446
G1 X63.656 Y105.394 E16.95329
G1 X63.177 Y105.12 E16.97441
G1 X62.783 Y104.848 E16.99273
G1 X62.409 Y104.479 E17.01284
G1 X62.012 Y104.009 E17.03638
G1 X61.495 Y103.331 E17.06901
G1 X61.207 Y102.858 E17.09021
G1 X61.018 Y102.466 E17.10686
G1 X60.158 Y100.609 E17.18518
G1 X58.908 Y98.098 E17.29252
G1 X57.636 Y95.716 E17.39586
G1 X56.27 Y93.323 E17.50131
G1 X54.839 Y90.974 E17.60657
G1 X53.356 Y88.686 E17.71092
G1 X51.79 Y86.416 E17.81646
G1 X50.162 Y84.188 E17.92206
G1 X48.486 Y82.029 E18.02665
G1 X46.729 Y79.894 E18.13247
G1 X44.931 Y77.83 E18.23723
G1 X43.087 Y75.829 E18.34136
G1 X41.149 Y73.842 E18.44758
G1 X39.188 Y71.943 E18.55205
G1 X37.147 Y70.076 E18.65791
G1 X35.072 Y68.283 E18.76286
G1 X32.951 Y66.551 E18.86765
G1 X30.773 Y64.875 E18.97282
G1 X28.095 Y62.941 E19.09924
G1 X27.807 Y62.705 E19.11349
G1 X27.474 Y62.36 E19.13184
G1 X27.204 Y61.964 E19.15018
G1 X26.944 Y61.351 E19.17566
G1 X26.703 Y60.526 E19.20856
G1 X25.899 Y57.905 E19.31347
G1 X25.022 Y55.315 E19.41812
G1 X24.064 Y52.724 E19.52384
G1 X23.021 Y50.136 E19.63062
G1 X21.939 Y47.654 E19.73424
G1 X20.778 Y45.183 E19.83872
G1 X19.534 Y42.722 E19.94425
G1 X18.205 Y40.265 E20.05115
G1 X17.274 Y38.639 E20.12286
G1 X17.071 Y38.205 E20.14119
G1 X16.944 Y37.743 E20.15953
G1 X16.895 Y37.266 E20.17788
G1 X16.925 Y36.788 E20.19621
G1 X17.035 Y36.322 E20.21453
G1 X17.221 Y35.88 E20.23288
G1 X17.477 Y35.475 E20.25122
G1 X17.797 Y35.119 E20.26954
G1 X18.172 Y34.82 E20.28789
G0 F1285.7 X18.209 Y35.226
G1 F900 X18.585 Y34.981 E20.30507
G1 X19.21 Y34.728 E20.33087
G1 X21.239 Y34.027 E20.41302
G1 X23.792 Y33.063 E20.51746
G1 X26.363 Y32.008 E20.62381
G1 X28.877 Y30.893 E20.72906
G1 X31.343 Y29.714 E20.83366
G1 X33.847 Y28.429 E20.94137
G1 X36.223 Y27.124 E21.04511
G1 X38.593 Y25.732 E21.1503
G1 X39.777 Y24.997 E21.20363
G1 X40.453 Y24.638 E21.23292
G1 X40.918 Y24.512 E21.25136
G1 X42.085 Y24.311 E21.29668
G1 X43.115 Y24.14 E21.33663
G1 X43.319 Y24.112 E21.34451
G1 X43.884 Y24.099 E21.36614
G1 X44.82 Y24.182 E21.4021
G1 X45.744 Y24.278 E21.43765
G1 X48.523 Y24.488 E21.54431
G1 X51.245 Y24.617 E21.64859
G1 X54.032 Y24.67 E21.75527
G1 X56.786 Y24.643 E21.86067
G1 X59.509 Y24.54 E21.96495
G1 X62.29 Y24.357 E22.07161
G1 X65.042 Y24.096 E22.1774
G1 X67.767 Y23.761 E22.28247
G1 X70.467 Y23.35 E22.38699
G1 X73.213 Y22.852 E22.49379
G1 X75.917 Y22.284 E22.59953
G1 X78.562 Y21.649 E22.70363
G1 X81.219 Y20.931 E22.80896
G1 X83.908 Y20.121 E22.91643
G1 X86.48 Y19.268 E23.02013
G1 X89.107 Y18.312 E23.12712
G1 X91.639 Y17.308 E23.23136
G1 X94.288 Y16.165 E23.34177
G1 X94.967 Y15.931 E23.36925
G1 X95.246 Y15.874 E23.38015
G1 X96.177 Y15.714 E23.4163
G1 X96.894 Y15.695 E23.44375
G1 X97.51 Y15.787 E23.46758
G1 X100.218 Y16.461 E23.57438
G1 X102.94 Y17.059 E23.68103
G1 X105.621 Y17.565 E23.78545
G1 X108.347 Y18.001 E23.89109
G1 X111.058 Y18.358 E23.99574
G1 X113.827 Y18.642 E24.10226
G1 X116.555 Y18.845 E24.20695
G1 X117.916 Y18.904 E24.25908
G1 X119.093 Y18.97 E24.3042
G1 X119.538 Y19.035 E24.32141
G1 X119.963 Y19.177 E24.33856
G1 X120.357 Y19.393 E24.35575
G1 X120.857 Y19.834 E24.38127
G1 X121.225 Y20.268 E24.40304
G1 X124.403 Y24.151 E24.59507
G1 X126.206 Y26.29 E24.70213
G1 X128.043 Y28.349 E24.80773
G1 X129.921 Y30.34 E24.91247
G1 X131.873 Y32.293 E25.01814
G1 X133.888 Y34.2 E25.12431
G1 X136.115 Y36.184 E25.23846
G1 X136.712 Y36.735 E25.26955
G1 X136.979 Y37.044 E25.28517
G1 X138.615 Y39.035 E25.38379
G1 X138.903 Y39.396 E25.40147
G1 X139.655 Y40.326 E25.44724
G1 X140.516 Y41.379 E25.49929
G1 X141.46 Y42.55 E25.55685
G1 X142.616 Y43.966 E25.62681
G1 X143.061 Y44.529 E25.65427
G1 X143.261 Y44.822 E25.66785
G1 X143.768 Y45.691 E25.70635
G1 X144.235 Y46.515 E25.74259
G1 X145.66 Y48.873 E25.84803
G1 X147.157 Y51.194 E25.95373
G1 X148.686 Y53.428 E26.05733
G1 X150.347 Y55.71 E26.16534
G1 X152.002 Y57.856 E26.26906
G1 X152.916 Y58.99 E26.3248
G1 X154.917 Y61.436 E26.44574
G1 X156.718 Y63.574 E26.55272
G1 X158.558 Y65.638 E26.65854
G1 X160.434 Y67.626 E26.76314
G1 X162.385 Y69.579 E26.86879
G1 X164.405 Y71.491 E26.97523
G1 X166.469 Y73.333 E27.0811
G1 X166.721 Y73.549 E27.0938
G1 X167.317 Y74.111 E27.12515
G1 X167.922 Y74.828 E27.16105
G1 X168.29 Y75.279 E27.18333
G1 X168.42 Y75.444 E27.19137
G1 X169.426 Y76.688 E27.25259
G1 X170.636 Y78.177 E27.32602
G1 X171.106 Y78.761 E27.35471
G1 X173.219 Y81.351 E27.48263
G1 X173.629 Y81.87 E27.50794
G1 X173.828 Y82.161 E27.52143
G1 X174.272 Y82.922 E27.55515
G1 X174.731 Y83.735 E27.59088
G1 X176.165 Y86.115 E27.69721
G1 X177.653 Y88.432 E27.80259
G1 X179.216 Y90.722 E27.9087
G1 X180.816 Y92.929 E28.01302
G1 X182.523 Y95.149 E28.12019
G1 X183.511 Y96.376 E28.18048
G1 X184.105 Y97.102 E28.21638
G1 X184.531 Y97.637 E28.24255
G1 X184.779 Y98.012 E28.25975
G1 X184.956 Y98.424 E28.27691
G1 X185.057 Y98.862 E28.29411
G1 X185.075 Y99.387 E28.31422
G1 X185.07 Y99.458 E28.31694
G1 X184.933 Y102.231 E28.42319
G1 X184.876 Y104.933 E28.52662
G1 X184.895 Y107.726 E28.63351
G1 X184.99 Y110.428 E28.73698
G1 X185.169 Y113.234 E28.84458
G1 X185.416 Y115.924 E28.94796
G1 X185.752 Y118.707 E29.05524
G1 X186.318 Y122.368 E29.197
G1 X186.393 Y123.035 E29.22269
G1 X186.35 Y123.482 E29.23988
G1 X186.246 Y123.867 E29.25514
G1 X185.895 Y124.852 E29.29516
G1 X185.455 Y126.01 E29.34256
G1 X185.202 Y126.648 E29.36883
G1 X184.933 Y127.151 E29.39066
G1 X184.347 Y127.999 E29.43011
G1 X184.061 Y128.4 E29.44896
G1 X182.533 Y130.679 E29.55396
G1 X181.055 Y133.024 E29.66004
G1 X179.651 Y135.398 E29.76559
G1 X178.31 Y137.819 E29.87151
G1 X177.04 Y140.275 E29.97732
G1 X175.853 Y142.734 E30.08181
G1 X174.721 Y145.266 E30.18795
G1 X173.656 Y147.83 E30.29421
G1 X172.689 Y150.373 E30.39832
G1 X171.764 Y153.019 E30.50559
G1 X170.944 Y155.599 E30.6092
G1 X170.182 Y158.254 E30.7149
G1 X169.491 Y160.95 E30.82141
G1 X168.88 Y163.635 E30.92679
G1 X168.35 Y166.333 E31.03202
G1 X167.894 Y169.048 E31.13738
G1 X167.517 Y171.758 E31.24208
G1 X167.335 Y173.31 E31.30189
G1 X167.206 Y173.861 E31.32354
G1 X166.833 Y174.911 E31.36619
G1 X166.416 Y176.013 E31.41128
G1 X166.153 Y176.678 E31.43864
G1 X165.951 Y177.079 E31.45583
G1 X165.682 Y177.438 E31.473
G1 X165.404 Y177.703 E31.48769
G1 X164.549 Y178.402 E31.52996
G1 X163.953 Y178.876 E31.5591
G1 X161.817 Y180.679 E31.66607
G1 X159.737 Y182.538 E31.77283
G1 X157.769 Y184.398 E31.87646
G1 X155.819 Y186.35 E31.98205
G1 X153.906 Y188.375 E32.08866
G1 X152.082 Y190.42 E32.19353
G1 X150.298 Y192.535 E32.29942
G1 X149.092 Y194.048 E32.37346
G1 X148.608 Y194.57 E32.4007
G1 X148.241 Y194.828 E32.41787
G1 X147.912 Y194.987 E32.43186
G1 X147.482 Y195.116 E32.44904
G1 X147.036 Y195.167 E32.46622
G1 X146.588 Y195.138 E32.4834
G1 X146.152 Y195.03 E32.50059
G1 X145.742 Y194.847 E32.51777
G1 X145.371 Y194.594 E32.53495
G1 X145.039 Y194.266 E32.55281
G1 X144.588 Y193.727 E32.57971
G1 X90.707 Y127.889 E35.8355
G1 X88.905 Y125.75 E35.94254
G1 X87.068 Y123.692 E36.04811
G1 X85.188 Y121.698 E36.15298
G1 X83.22 Y119.729 E36.25952
G1 X81.234 Y117.851 E36.36413
G1 X79.189 Y116.023 E36.4691
G1 X77.05 Y114.216 E36.57625
G1 X74.924 Y112.523 E36.68026
G1 X72.692 Y110.846 E36.7871
G1 X70.467 Y109.269 E36.89147
G1 X68.168 Y107.736 E36.99722
G1 X65.806 Y106.256 E37.10389
G1 X63.83 Y105.09 E37.19169
G1 X63.351 Y104.816 E37.21281
G1 X62.983 Y104.559 E37.22999
G1 X62.676 Y104.253 E37.24658
G1 X62.279 Y103.783 E37.27012
G1 X61.775 Y103.121 E37.30196
G1 X61.353 Y102.356 E37.3354
G1 X60.47 Y100.448 E37.41586
G1 X59.231 Y97.96 E37.52222
G1 X57.957 Y95.573 E37.62577
G1 X56.566 Y93.137 E37.73312
G1 X55.158 Y90.824 E37.83675
G1 X53.627 Y88.463 E37.94444
G1 X52.064 Y86.196 E38.04982
G1 X50.458 Y83.999 E38.15396
G1 X48.752 Y81.801 E38.26044
G1 X47.015 Y79.69 E38.36506
G1 X45.186 Y77.591 E38.47161
G1 X43.312 Y75.558 E38.57742
G1 X41.436 Y73.633 E38.68029
G1 X39.419 Y71.681 E38.78771
G1 X37.384 Y69.819 E38.89327
G1 X35.291 Y68.011 E38.99911
G1 X33.159 Y66.27 E39.10445
G1 X30.977 Y64.59 E39.20984
G1 X28.3 Y62.657 E39.3362
G1 X27.728 Y62.117 E39.36631
G1 X27.481 Y61.742 E39.38349
G1 X27.28 Y61.253 E39.40372
G1 X27.039 Y60.428 E39.43661
G1 X26.232 Y57.8 E39.54182
G1 X25.334 Y55.147 E39.64901
G1 X24.384 Y52.58 E39.75376
G1 X23.362 Y50.046 E39.85832
G1 X22.249 Y47.492 E39.96494
G1 X21.101 Y45.047 E40.06831
G1 X19.834 Y42.539 E40.17584
G1 X18.513 Y40.098 E40.28206
G1 X17.578 Y38.465 E40.35407
G1 X17.39 Y38.057 E40.37127
G1 X17.278 Y37.623 E40.38842
G1 X17.244 Y37.175 E40.40561
G1 X17.291 Y36.728 E40.42281
G1 X17.415 Y36.297 E40.43998
G1 X17.614 Y35.894 E40.45718
G1 X17.882 Y35.534 E40.47435
G1 X18.209 Y35.226 E40.49154
G0 F1285.7 X18.621 Y35.363
G1 F900 X19.329 Y35.057 E40.52106
G1 X21.346 Y34.361 E40.60272
G1 X23.938 Y33.382 E40.70875
G1 X26.496 Y32.332 E40.81457
G1 X29.028 Y31.209 E40.92057
G1 X31.511 Y30.022 E41.0259
G1 X33.989 Y28.75 E41.13249
G1 X36.399 Y27.427 E41.23771
G1 X38.799 Y26.017 E41.34423
G1 X39.957 Y25.297 E41.39641
G1 X40.605 Y24.955 E41.42445
G1 X40.977 Y24.857 E41.43918
G1 X42.139 Y24.657 E41.4843
G1 X43.162 Y24.487 E41.52399
G1 X43.853 Y24.447 E41.55047
G1 X44.784 Y24.53 E41.58624
G1 X45.716 Y24.627 E41.6221
G1 X48.482 Y24.836 E41.72826
G1 X51.256 Y24.968 E41.83454
G1 X54.029 Y25.02 E41.94068
G1 X56.804 Y24.993 E42.04688
G1 X59.545 Y24.889 E42.15185
G1 X62.312 Y24.707 E42.25798
G1 X65.047 Y24.448 E42.36311
G1 X67.828 Y24.106 E42.47034
G1 X70.542 Y23.693 E42.5754
G1 X73.279 Y23.197 E42.68185
G1 X75.969 Y22.631 E42.78705
G1 X78.626 Y21.994 E42.89161
G1 X81.343 Y21.259 E42.99933
G1 X84.009 Y20.456 E43.10588
G1 X86.598 Y19.597 E43.21027
G1 X89.225 Y18.642 E43.31724
