;FLAVOR:Marlin
;TIME:12764
;Filament used: 22.5968m
;Layer height: 0.3
;MINX:15.86
;MINY:20.603
;MINZ:0.26
;MAXX:189.24
;MAXY:193.973
;MAXZ:24.56
;Generated with Cura_SteamEngine 4.9.1
M82 ;absolute extrusion mode
;Begin Start Gcode for Dagoma DiscoEasy 200
;Sliced: 01-08-2021 01:32:27
;Initial extruder: 0

G90 ;Absolute positioning
M106 S255 ;Fan on full
G28 X Y ;Home stop X Y
G1 X100 ;Centre back during cooldown in case of oozing
M109 R90 ;Cooldown in case too hot
G28 ;Centre
G29 ;Auto-level
M104 S205 ;Pre-heat
M107 ;Fan off
G0 X100 Y5 Z0.5 ;Front centre for degunk
M109 S205 ;Wait for initial temp
M83 ;E Relative
G1 E10 F200 ;Degunk
G1 E-3 F5000 ;Retract
G0 Z3 ;Withdraw
M82 ;E absolute
G92 E0 ;E reset
G1 F6000 ;Set feedrate

;Finish Start Gcode for Dagoma DiscoEasy 200

G92 E0
G92 E0
G1 F3000 E-3.5
;LAYER_COUNT:82
;LAYER:0
M107
G0 F1285.7 X17.941 Y46.938 Z0.26
;TYPE:SKIRT
G1 F3000 E0
G1 F900 X18.635 Y46.74 E0.02762
G1 X114.282 Y20.854 E3.81967
G1 X114.956 Y20.682 E3.84629
G1 X115.429 Y20.603 E3.86464
G1 X115.908 Y20.603 E3.88297
G1 X116.38 Y20.683 E3.90129
G1 X116.833 Y20.84 E3.91964
G1 X117.352 Y21.139 E3.94256
G1 X118.316 Y21.836 E3.98809
G1 X118.6 Y22.049 E4.00167
G1 X120.832 Y23.62 E4.10613
G1 X123.135 Y25.145 E4.21183
G1 X125.464 Y26.594 E4.31681
G1 X127.82 Y27.968 E4.42118
G1 X130.244 Y29.294 E4.52692
G1 X132.69 Y30.542 E4.63201
G1 X135.183 Y31.727 E4.73764
G1 X135.655 Y31.934 E4.75737
G1 X135.732 Y31.976 E4.76072
G1 X136.947 Y32.522 E4.8117
G1 X137.366 Y32.754 E4.83003
G1 X137.767 Y33.078 E4.84976
G1 X138.38 Y33.672 E4.88242
G1 X138.748 Y34.05 E4.90261
G1 X139.147 Y34.566 E4.92758
G1 X139.33 Y34.869 E4.94112
G1 X140.421 Y36.727 E5.02358
G1 X141.898 Y39.086 E5.13009
G1 X143.403 Y41.345 E5.23397
G1 X145.003 Y43.603 E5.33988
G1 X146.642 Y45.787 E5.44438
G1 X148.363 Y47.948 E5.5501
G1 X150.114 Y50.024 E5.65403
G1 X151.955 Y52.084 E5.75976
G1 X153.857 Y54.096 E5.86572
G1 X155.778 Y56.016 E5.96966
G1 X157.803 Y57.929 E6.07627
G1 X159.838 Y59.743 E6.1806
G1 X161.928 Y61.506 E6.28524
G1 X164.098 Y63.231 E6.39132
G1 X166.279 Y64.869 E6.49571
G1 X168.533 Y66.461 E6.60131
G1 X170.812 Y67.978 E6.70608
G1 X173.139 Y69.433 E6.81111
G1 X174.955 Y70.507 E6.89185
G1 X175.218 Y70.659 E6.90348
G1 X175.735 Y71.041 E6.92808
G1 X176.227 Y71.515 E6.95422
G1 X176.74 Y72.042 E6.98237
G1 X177.045 Y72.412 E7.00072
G1 X177.289 Y72.84 E7.01957
G1 X177.538 Y73.377 E7.04223
G1 X178.191 Y74.849 E7.10385
G1 X179.369 Y77.312 E7.20834
G1 X180.628 Y79.764 E7.31382
G1 X181.959 Y82.185 E7.41955
G1 X183.336 Y84.531 E7.52365
G1 X184.794 Y86.862 E7.62887
G1 X186.318 Y89.151 E7.73411
G1 X187.909 Y91.399 E7.83951
G1 X188.692 Y92.475 E7.89043
G1 X188.94 Y92.885 E7.90877
G1 X189.118 Y93.33 E7.92711
G1 X189.218 Y93.799 E7.94547
G1 X189.24 Y94.277 E7.96378
G1 X189.154 Y94.875 E7.9869
G1 X188.948 Y95.682 E8.01877
G1 X163.096 Y191.2 E11.80572
G1 X162.9 Y191.888 E11.83309
G1 X162.731 Y192.336 E11.85142
G1 X162.489 Y192.75 E11.86977
G1 X162.183 Y193.118 E11.88809
G1 X161.819 Y193.43 E11.90643
G1 X161.409 Y193.677 E11.92475
G1 X160.963 Y193.853 E11.9431
G1 X160.494 Y193.952 E11.96144
G1 X160.015 Y193.973 E11.97979
G1 X159.54 Y193.913 E11.99812
G1 X159.081 Y193.775 E12.01646
G1 X158.651 Y193.563 E12.0348
G1 X158.131 Y193.161 E12.05996
G1 X157.869 Y192.906 E12.07395
G1 X155.86 Y191.005 E12.1798
G1 X153.795 Y189.159 E12.2858
G1 X151.683 Y187.375 E12.3916
G1 X149.558 Y185.681 E12.4956
G1 X147.349 Y184.02 E12.60137
G1 X145.119 Y182.441 E12.70594
G1 X141.93 Y180.338 E12.85213
G1 X141.517 Y180.007 E12.87238
G1 X140.77 Y179.286 E12.91211
G1 X135.148 Y173.658 E13.21654
G1 X134.673 Y173.17 E13.24261
G1 X134.362 Y172.791 E13.26137
G1 X133.762 Y171.916 E13.30197
G1 X132.178 Y169.676 E13.40696
G1 X130.536 Y167.488 E13.51165
G1 X128.811 Y165.32 E13.61768
G1 X127.062 Y163.245 E13.72153
G1 X125.218 Y161.179 E13.82751
G1 X123.303 Y159.15 E13.93428
G1 X121.418 Y157.266 E14.03628
G1 X119.373 Y155.331 E14.14402
G1 X117.349 Y153.524 E14.24785
G1 X115.25 Y151.753 E14.35295
G1 X113.084 Y150.029 E14.4589
G1 X110.908 Y148.394 E14.56306
G1 X108.116 Y146.431 E14.69367
G1 X107.414 Y145.904 E14.72727
G1 X106.711 Y145.224 E14.7647
G1 X101.04 Y139.556 E15.07154
G1 X100.474 Y138.972 E15.10266
G1 X99.87 Y138.316 E15.13679
G1 X97.945 Y136.279 E15.24404
G1 X96.006 Y134.342 E15.34893
G1 X94.014 Y132.46 E15.4538
G1 X91.967 Y130.633 E15.55881
G1 X89.875 Y128.869 E15.66353
G1 X87.704 Y127.143 E15.76967
G1 X85.517 Y125.501 E15.87433
G1 X83.278 Y123.918 E15.97927
G1 X81.001 Y122.403 E16.08393
G1 X78.654 Y120.936 E16.18985
G1 X76.293 Y119.55 E16.29463
G1 X73.878 Y118.223 E16.40008
G1 X71.435 Y116.969 E16.50517
G1 X68.966 Y115.79 E16.60988
G1 X67.303 Y115.065 E16.67931
G1 X67.225 Y115.023 E16.6827
G1 X66.012 Y114.484 E16.73349
G1 X65.591 Y114.254 E16.75185
G1 X65.19 Y113.933 E16.77151
G1 X64.406 Y113.181 E16.81308
G1 X63.546 Y112.324 E16.85955
G1 X63.064 Y111.83 E16.88596
G1 X62.666 Y111.316 E16.91084
G1 X62.091 Y110.37 E16.9532
G1 X61.783 Y109.847 E16.97643
G1 X60.324 Y107.522 E17.08148
G1 X58.795 Y105.232 E17.18685
G1 X57.217 Y103.009 E17.29118
G1 X55.562 Y100.812 E17.39645
G1 X53.84 Y98.654 E17.5021
G1 X52.05 Y96.537 E17.6082
G1 X50.241 Y94.515 E17.71203
G1 X48.338 Y92.508 E17.81787
G1 X46.429 Y90.605 E17.92103
G1 X44.371 Y88.664 E18.02929
G1 X42.37 Y86.885 E18.13175
G1 X40.241 Y85.093 E18.23825
G1 X38.088 Y83.385 E18.34342
G1 X35.897 Y81.745 E18.44816
G1 X33.686 Y80.185 E18.55171
G1 X31.343 Y78.631 E18.65931
G1 X29.029 Y77.186 E18.76371
G1 X27.843 Y76.482 E18.81649
G1 X27.311 Y76.079 E18.84203
G1 X27.004 Y75.785 E18.8583
G1 X25.72 Y74.502 E18.92777
G1 X25.221 Y73.988 E18.95518
G1 X24.917 Y73.617 E18.97354
G1 X24.679 Y73.201 E18.99188
G1 X24.508 Y72.731 E19.01102
G1 X24.181 Y71.517 E19.05913
G1 X24.124 Y71.291 E19.06805
G1 X23.368 Y68.614 E19.17451
G1 X22.557 Y66.029 E19.27819
G1 X21.657 Y63.416 E19.38395
G1 X20.699 Y60.872 E19.48799
G1 X19.654 Y58.322 E19.59345
G1 X18.542 Y55.813 E19.69848
G1 X17.36 Y53.334 E19.80358
G1 X16.285 Y51.236 E19.89379
G1 X15.981 Y50.534 E19.92307
G1 X15.881 Y50.066 E19.94138
G1 X15.86 Y49.587 E19.95973
G1 X15.919 Y49.111 E19.97809
G1 X16.057 Y48.652 E19.99643
G1 X16.268 Y48.222 E20.01476
G1 X16.548 Y47.833 E20.0331
G1 X16.889 Y47.496 E20.05145
G1 X17.281 Y47.221 E20.06978
G1 X17.941 Y46.938 E20.09726
G0 F1285.7 X18.038 Y47.275
G1 F900 X18.726 Y47.078 E20.12465
G1 X114.369 Y21.193 E23.91654
G1 X115.043 Y21.021 E23.94316
G1 X115.486 Y20.95 E23.96033
G1 X115.935 Y20.957 E23.97751
G1 X116.375 Y21.044 E23.99468
G1 X116.793 Y21.208 E24.01186
G1 X117.147 Y21.422 E24.02769
G1 X118.106 Y22.116 E24.07299
G1 X118.399 Y22.335 E24.08699
G1 X120.647 Y23.917 E24.19219
G1 X122.927 Y25.428 E24.29687
G1 X125.288 Y26.897 E24.40328
G1 X127.672 Y28.288 E24.50891
G1 X130.06 Y29.593 E24.61306
G1 X132.551 Y30.865 E24.72009
G1 X134.995 Y32.026 E24.82364
G1 X135.515 Y32.254 E24.84537
G1 X135.592 Y32.297 E24.84875
G1 X136.803 Y32.841 E24.89955
G1 X137.195 Y33.061 E24.91675
G1 X137.524 Y33.329 E24.93299
G1 X138.076 Y33.863 E24.96239
G1 X138.497 Y34.295 E24.98547
G1 X138.847 Y34.747 E25.00735
G1 X139.028 Y35.046 E25.02072
G1 X140.129 Y36.92 E25.1039
G1 X141.591 Y39.255 E25.20933
G1 X143.122 Y41.555 E25.31507
G1 X144.717 Y43.805 E25.42062
G1 X146.368 Y46.005 E25.52588
G1 X148.084 Y48.16 E25.6313
G1 X149.852 Y50.255 E25.73621
G1 X151.722 Y52.347 E25.8436
G1 X153.585 Y54.319 E25.94741
G1 X155.556 Y56.288 E26.05403
G1 X157.528 Y58.152 E26.15788
G1 X159.61 Y60.009 E26.26465
G1 X161.712 Y61.781 E26.36986
G1 X163.879 Y63.505 E26.47583
G1 X166.077 Y65.155 E26.58101
G1 X168.323 Y66.741 E26.68623
G1 X170.618 Y68.269 E26.79175
G1 X172.961 Y69.734 E26.8975
G1 X174.801 Y70.823 E26.97932
G1 X175.042 Y70.962 E26.98997
G1 X175.497 Y71.298 E27.01162
G1 X175.981 Y71.765 E27.03736
G1 X176.49 Y72.286 E27.06523
G1 X176.773 Y72.634 E27.0824
G1 X176.972 Y72.987 E27.0979
G1 X177.218 Y73.52 E27.12037
G1 X177.869 Y74.987 E27.18179
G1 X179.061 Y77.481 E27.28757
G1 X180.315 Y79.922 E27.3926
G1 X181.647 Y82.346 E27.49844
G1 X183.035 Y84.708 E27.60329
G1 X184.497 Y87.047 E27.70885
G1 X186.038 Y89.361 E27.81524
G1 X187.626 Y91.605 E27.92045
G1 X188.409 Y92.681 E27.97138
G1 X188.64 Y93.066 E27.98856
G1 X188.799 Y93.486 E28.00574
G1 X188.881 Y93.928 E28.02295
G1 X188.883 Y94.377 E28.04013
G1 X188.814 Y94.788 E28.05608
G1 X188.61 Y95.591 E28.08779
G1 X162.759 Y191.104 E31.87454
G1 X162.563 Y191.792 E31.90191
G1 X162.402 Y192.211 E31.91909
G1 X162.17 Y192.595 E31.93626
G1 X161.873 Y192.932 E31.95345
G1 X161.521 Y193.211 E31.97064
G1 X161.125 Y193.423 E31.98783
G1 X160.698 Y193.561 E32.005
G1 X160.253 Y193.622 E32.02219
G1 X159.805 Y193.603 E32.03935
G1 X159.367 Y193.505 E32.05653
G1 X158.953 Y193.331 E32.07372
G1 X158.375 Y192.91 E32.10108
G1 X158.109 Y192.652 E32.11526
G1 X156.086 Y190.737 E32.22187
G1 X153.998 Y188.871 E32.32903
G1 X151.916 Y187.114 E32.43329
G1 X149.759 Y185.394 E32.53887
G1 X147.568 Y183.747 E32.64377
G1 X145.319 Y182.154 E32.74924
G1 X142.123 Y180.046 E32.89576
G1 X141.76 Y179.755 E32.91356
G1 X141.018 Y179.039 E32.95302
G1 X135.399 Y173.414 E33.25729
G1 X134.924 Y172.926 E33.28335
G1 X134.651 Y172.593 E33.29983
G1 X134.071 Y171.748 E33.33906
G1 X132.447 Y169.451 E33.44671
G1 X130.81 Y167.27 E33.55107
G1 X129.086 Y165.104 E33.65702
G1 X127.31 Y162.997 E33.76247
G1 X125.471 Y160.935 E33.86821
G1 X123.592 Y158.945 E33.97295
G1 X121.622 Y156.976 E34.07954
G1 X119.635 Y155.097 E34.1842
G1 X117.577 Y153.258 E34.28982
G1 X115.466 Y151.478 E34.39549
G1 X113.325 Y149.773 E34.50024
G1 X111.104 Y148.104 E34.60656
G1 X108.274 Y146.115 E34.73893
G1 X107.657 Y145.652 E34.76845
G1 X106.958 Y144.977 E34.80564
G1 X101.291 Y139.312 E35.11229
G1 X100.732 Y138.735 E35.14304
G1 X100.125 Y138.075 E35.17735
G1 X98.217 Y136.056 E35.28366
G1 X96.265 Y134.106 E35.38925
G1 X94.239 Y132.193 E35.49589
G1 X92.195 Y130.368 E35.60075
G1 X90.09 Y128.594 E35.7061
G1 X87.923 Y126.869 E35.8121
G1 X85.742 Y125.232 E35.91646
G1 X83.464 Y123.621 E36.02324
G1 X81.17 Y122.095 E36.12868
G1 X78.832 Y120.634 E36.23418
G1 X76.484 Y119.255 E36.33839
G1 X74.063 Y117.925 E36.4441
G1 X71.562 Y116.642 E36.55167
G1 X69.136 Y115.483 E36.65457
G1 X67.443 Y114.745 E36.72524
G1 X67.364 Y114.702 E36.72869
G1 X66.154 Y114.164 E36.77936
G1 X65.761 Y113.946 E36.79656
G1 X65.432 Y113.68 E36.81275
G1 X64.653 Y112.933 E36.85406
G1 X63.797 Y112.079 E36.90033
G1 X63.315 Y111.585 E36.92674
G1 X62.965 Y111.134 E36.94859
G1 X62.392 Y110.192 E36.99079
G1 X62.083 Y109.668 E37.01407
G1 X60.615 Y107.327 E37.11981
G1 X59.091 Y105.046 E37.2248
G1 X57.485 Y102.783 E37.33099
G1 X55.823 Y100.576 E37.43673
G1 X54.115 Y98.437 E37.54148
G1 X52.331 Y96.326 E37.64725
G1 X50.508 Y94.289 E37.75187
G1 X48.592 Y92.267 E37.85847
G1 X46.636 Y90.318 E37.96414
G1 X44.649 Y88.444 E38.06867
G1 X42.579 Y86.603 E38.17468
G1 X40.457 Y84.818 E38.2808
G1 X38.306 Y83.111 E38.38589
G1 X36.099 Y81.459 E38.49139
G1 X33.865 Y79.883 E38.59602
G1 X31.553 Y78.349 E38.7022
G1 X29.199 Y76.88 E38.80839
G1 X28.022 Y76.181 E38.86078
G1 X27.552 Y75.825 E38.88334
G1 X27.251 Y75.537 E38.89928
G1 X25.971 Y74.258 E38.96853
G1 X25.472 Y73.744 E38.99595
G1 X25.189 Y73.395 E39.01314
G1 X24.973 Y73.002 E39.0303
G1 X24.846 Y72.641 E39.04495
G1 X24.521 Y71.432 E39.09286
G1 X24.463 Y71.203 E39.1019
G1 X23.711 Y68.538 E39.20787
G1 X22.89 Y65.921 E39.31284
G1 X21.994 Y63.321 E39.41808
G1 X21.025 Y60.746 E39.52337
G1 X19.962 Y58.152 E39.63065
G1 X18.865 Y55.677 E39.73426
G1 X17.675 Y53.18 E39.84011
G1 X16.598 Y51.08 E39.93043
G1 X16.308 Y50.406 E39.95851
G1 X16.222 Y49.965 E39.97571
G1 X16.215 Y49.516 E39.99289
G1 X16.288 Y49.073 E40.01007
G1 X16.438 Y48.65 E40.02725
G1 X16.66 Y48.26 E40.04442
G1 X16.948 Y47.916 E40.06159
G1 X17.293 Y47.628 E40.07879
G1 X17.683 Y47.406 E40.09596
G1 X18.038 Y47.275 E40.11045
G0 F1285.7 X18.134 Y47.611
G1 F900 X18.818 Y47.416 E40.13767
G1 X114.455 Y21.533 E43.92932
G1 X115.129 Y21.361 E43.95594
G1 X115.541 Y21.297 E43.97189
G1 X115.957 Y21.312 E43.98782
G1 X116.363 Y21.407 E44.00378
G1 X116.942 Y21.706 E44.02872
G1 X117.896 Y22.397 E44.0738
G1 X118.155 Y22.591 E44.08618
G1 X120.463 Y24.215 E44.19418
G1 X122.734 Y25.72 E44.29845
G1 X125.096 Y27.19 E44.40491
G1 X127.513 Y28.6 E44.512
G1 X129.903 Y29.906 E44.61623
G1 X132.385 Y31.173 E44.72287
G1 X134.874 Y32.356 E44.82834
G1 X135.374 Y32.575 E44.84923
G1 X135.437 Y32.61 E44.85199
G1 X136.66 Y33.16 E44.90331
G1 X137.022 Y33.367 E44.91926
G1 X137.28 Y33.581 E44.93209
G1 X137.878 Y34.161 E44.96397
G1 X138.246 Y34.539 E44.98416
G1 X138.711 Y35.198 E45.01503
G1 X139.836 Y37.114 E45.10006
G1 X141.299 Y39.449 E45.20551
G1 X142.814 Y41.725 E45.31014
G1 X144.436 Y44.014 E45.4175
G1 X146.094 Y46.224 E45.52323
G1 X147.809 Y48.376 E45.62854
G1 X149.601 Y50.501 E45.73492
G1 X151.437 Y52.555 E45.84035
G1 X153.348 Y54.577 E45.94683
G1 X155.298 Y56.525 E46.05231
G1 X157.334 Y58.449 E46.15951
G1 X159.356 Y60.252 E46.26319
G1 X161.5 Y62.059 E46.37049
G1 X163.661 Y63.779 E46.47619
G1 X165.875 Y65.44 E46.58211
G1 X168.138 Y67.039 E46.68815
G1 X170.423 Y68.561 E46.79322
G1 X172.782 Y70.036 E46.8997
G1 X174.604 Y71.113 E46.98069
G1 X175.259 Y71.554 E47.01091
G1 X175.736 Y72.014 E47.03627
G1 X176.239 Y72.53 E47.06385
G1 X176.499 Y72.855 E47.07978
G1 X176.654 Y73.134 E47.09199
G1 X176.898 Y73.662 E47.11425
G1 X177.553 Y75.137 E47.17601
G1 X178.74 Y77.621 E47.28137
G1 X180.01 Y80.093 E47.38773
G1 X181.345 Y82.522 E47.4938
G1 X182.742 Y84.902 E47.59941
G1 X184.205 Y87.241 E47.70499
G1 X185.752 Y89.564 E47.8118
G1 X187.343 Y91.811 E47.91717
G1 X188.126 Y92.887 E47.96809
G1 X188.337 Y93.246 E47.98403
G1 X188.477 Y93.639 E47.99999
G1 X188.539 Y94.051 E48.01594
G1 X188.475 Y94.702 E48.04097
G1 X188.272 Y95.499 E48.07245
G1 X162.423 Y191.008 E51.85903
G1 X162.227 Y191.696 E51.88641
G1 X162.075 Y192.084 E51.90235
G1 X161.852 Y192.436 E51.9183
G1 X161.565 Y192.738 E51.93425
G1 X161.227 Y192.981 E51.95018
G1 X160.848 Y193.155 E51.96614
G1 X160.443 Y193.253 E51.98208
G1 X160.027 Y193.272 E51.99802
G1 X159.615 Y193.212 E52.01395
G1 X159.221 Y193.074 E52.02993
G1 X158.862 Y192.863 E52.04586
G1 X158.35 Y192.398 E52.07233
G1 X156.313 Y190.47 E52.17967
G1 X154.255 Y188.631 E52.28529
G1 X152.15 Y186.853 E52.39074
G1 X149.978 Y185.121 E52.49705
G1 X147.754 Y183.45 E52.60351
G1 X145.514 Y181.863 E52.70857
G1 X142.316 Y179.754 E52.85517
G1 X142.003 Y179.503 E52.87053
G1 X141.265 Y178.791 E52.90977
G1 X135.649 Y173.17 E53.21385
G1 X135.174 Y172.682 E53.23991
G1 X134.939 Y172.395 E53.25411
G1 X134.339 Y171.52 E53.29471
G1 X132.749 Y169.272 E53.40008
G1 X131.063 Y167.026 E53.50756
G1 X129.365 Y164.891 E53.61196
G1 X127.573 Y162.766 E53.71834
G1 X125.738 Y160.709 E53.82383
G1 X123.829 Y158.687 E53.93025
G1 X121.881 Y156.74 E54.03565
G1 X119.861 Y154.829 E54.14206
G1 X117.808 Y152.995 E54.24741
G1 X115.7 Y151.217 E54.35295
G1 X113.521 Y149.483 E54.45952
G1 X111.3 Y147.814 E54.56584
G1 X108.508 Y145.851 E54.69646
G1 X107.9 Y145.401 E54.7254
G1 X107.205 Y144.729 E54.7624
G1 X101.542 Y139.069 E55.06881
G1 X100.989 Y138.498 E55.09923
G1 X100.379 Y137.835 E55.13371
G1 X98.454 Y135.798 E55.24096
G1 X96.479 Y133.825 E55.3478
G1 X94.502 Y131.958 E55.45186
G1 X92.426 Y130.105 E55.55836
G1 X90.303 Y128.315 E55.66463
G1 X88.167 Y126.616 E55.76908
G1 X85.921 Y124.93 E55.87655
G1 X83.673 Y123.341 E55.9819
G1 X81.355 Y121.798 E56.08847
G1 X79.036 Y120.348 E56.19314
G1 X76.619 Y118.929 E56.3004
G1 X74.222 Y117.613 E56.40504
G1 X71.757 Y116.348 E56.51107
G1 X69.258 Y115.154 E56.61707
G1 X67.583 Y114.424 E56.68699
G1 X67.52 Y114.389 E56.68975
G1 X66.296 Y113.845 E56.74101
G1 X65.933 Y113.64 E56.75696
G1 X65.674 Y113.427 E56.7698
G1 X64.9 Y112.685 E56.81083
G1 X64.047 Y111.835 E56.85691
G1 X63.565 Y111.341 E56.88333
G1 X63.264 Y110.952 E56.90215
G1 X62.694 Y110.015 E56.94412
G1 X62.376 Y109.474 E56.96814
G1 X60.928 Y107.167 E57.07237
G1 X59.376 Y104.843 E57.17932
G1 X57.77 Y102.58 E57.28552
G1 X56.109 Y100.374 E57.3912
G1 X54.375 Y98.203 E57.49753
G1 X52.615 Y96.12 E57.60189
G1 X50.741 Y94.026 E57.70943
G1 X48.846 Y92.026 E57.81487
G1 X46.867 Y90.054 E57.92179
G1 X44.874 Y88.175 E58.02661
