;FLAVOR:Marlin
;TIME:13123
;Filament used: 22.6749m
;Layer height: 0.3
;MINX:21.095
;MINY:19.501
;MINZ:0.26
;MAXX:198.333
;MAXY:198.016
;MAXZ:24.26
;Generated with Cura_SteamEngine 4.9.1
M82 ;absolute extrusion mode
;Begin Start Gcode for Dagoma DiscoEasy 200
;Sliced: 01-08-2021 01:41:47
;Initial extruder: 0

G90 ;Absolute positioning
M106 S255 ;Fan on full
G28 X Y ;Home stop X Y
G1 X100 ;Centre back during cooldown in case of oozing
M109 R90 ;Cooldown in case too hot
G28 ;Centre
G29 ;Auto-level
M104 S205 ;Pre-heat
M107 ;Fan off
G0 X100 Y5 Z0.5 ;Front centre for degunk
M109 S205 ;Wait for initial temp
M83 ;E Relative
G1 E10 F200 ;Degunk
G1 E-3 F5000 ;Retract
G0 Z3 ;Withdraw
M82 ;E absolute
G92 E0 ;E reset
G1 F6000 ;Set feedrate

;Finish Start Gcode for Dagoma DiscoEasy 200

G92 E0
G92 E0
G1 F3000 E-3.5
;LAYER_COUNT:81
;LAYER:0
M107
G0 F1285.7 X22.978 Y45.551 Z0.26
;TYPE:SKIRT
G1 F3000 E0
G1 F900 X24.11 Y45.135 E0.04615
G1 X26.674 Y44.151 E0.15125
G1 X29.213 Y43.094 E0.2565
G1 X31.711 Y41.969 E0.36135
G1 X34.183 Y40.772 E0.46646
G1 X36.616 Y39.506 E0.57142
G1 X39.033 Y38.16 E0.67729
G1 X41.399 Y36.755 E0.7826
G1 X42.633 Y35.984 E0.83828
G1 X43.408 Y35.537 E0.87252
G1 X43.746 Y35.418 E0.88624
G1 X44.572 Y35.185 E0.91908
G1 X45.076 Y35.058 E0.93897
G1 X45.716 Y34.972 E0.96368
G1 X46.23 Y34.961 E0.98336
G1 X48.073 Y34.951 E1.05389
G1 X50.812 Y34.858 E1.15877
G1 X53.538 Y34.689 E1.26329
G1 X56.266 Y34.441 E1.36812
G1 X59.021 Y34.112 E1.47431
G1 X61.729 Y33.712 E1.57906
G1 X64.429 Y33.234 E1.684
G1 X67.144 Y32.674 E1.79009
G1 X69.764 Y32.057 E1.8931
G1 X72.453 Y31.341 E1.99959
G1 X75.074 Y30.563 E2.10422
G1 X77.693 Y29.705 E2.20969
G1 X80.297 Y28.769 E2.31558
G1 X82.84 Y27.774 E2.42009
G1 X85.349 Y26.708 E2.52441
G1 X87.873 Y25.551 E2.63067
G1 X90.321 Y24.344 E2.73512
G1 X92.782 Y23.043 E2.84165
G1 X94.66 Y21.989 E2.92407
G1 X95.016 Y21.783 E2.93981
G1 X95.636 Y21.516 E2.96564
G1 X96.186 Y21.358 E2.98754
G1 X96.969 Y21.158 E3.01847
G1 X97.442 Y21.079 E3.03682
G1 X97.781 Y21.071 E3.0498
G1 X98.944 Y21.112 E3.09433
G1 X101.683 Y21.168 E3.19918
G1 X104.454 Y21.146 E3.30523
G1 X107.191 Y21.048 E3.41004
G1 X109.924 Y20.871 E3.51485
G1 X112.673 Y20.617 E3.6205
G1 X115.405 Y20.284 E3.72582
G1 X118.102 Y19.879 E3.83019
G1 X119.34 Y19.657 E3.87833
G1 X120.071 Y19.538 E3.90667
G1 X120.549 Y19.501 E3.92502
G1 X121.026 Y19.544 E3.94335
G1 X121.49 Y19.665 E3.9617
G1 X121.927 Y19.861 E3.98003
G1 X122.545 Y20.322 E4.00953
G1 X123.276 Y21.039 E4.04872
G1 X193.37 Y92.531 E7.88031
G1 X193.851 Y93.037 E7.90703
G1 X194.151 Y93.411 E7.92538
G1 X194.385 Y93.829 E7.94371
G1 X194.546 Y94.28 E7.96204
G1 X194.641 Y94.942 E7.98763
G1 X194.669 Y96.01 E8.02852
G1 X194.677 Y96.679 E8.05412
G1 X194.786 Y99.45 E8.16025
G1 X194.968 Y102.126 E8.26289
G1 X195.236 Y104.901 E8.36958
G1 X195.578 Y107.626 E8.47469
G1 X195.998 Y110.353 E8.58028
G1 X196.492 Y113.05 E8.68521
G1 X197.051 Y115.683 E8.78822
G1 X198.039 Y119.649 E8.94463
G1 X198.241 Y120.397 E8.97429
G1 X198.327 Y120.868 E8.99261
G1 X198.333 Y121.347 E9.01094
G1 X198.243 Y121.904 E9.03253
G1 X198.128 Y122.374 E9.05105
G1 X197.395 Y125.223 E9.16363
G1 X197.203 Y125.926 E9.19152
G1 X196.963 Y126.528 E9.21632
G1 X196.754 Y126.919 E9.23329
G1 X195.768 Y128.698 E9.31113
G1 X194.486 Y131.172 E9.41776
G1 X193.317 Y133.595 E9.52072
G1 X192.181 Y136.128 E9.62696
G1 X191.128 Y138.663 E9.73201
G1 X190.151 Y141.23 E9.83712
G1 X189.252 Y143.794 E9.9411
G1 X188.41 Y146.44 E10.04736
G1 X187.656 Y149.062 E10.15177
G1 X186.966 Y151.746 E10.25783
G1 X186.356 Y154.422 E10.36286
G1 X185.825 Y157.117 E10.46798
G1 X185.37 Y159.824 E10.57303
G1 X184.991 Y162.535 E10.67779
G1 X184.689 Y165.259 E10.78267
G1 X184.465 Y167.987 E10.88743
G1 X184.316 Y170.747 E10.9932
G1 X184.259 Y172.701 E11.06801
G1 X184.241 Y173.52 E11.09936
G1 X184.176 Y174.071 E11.1206
G1 X184.033 Y174.668 E11.14409
G1 X183.587 Y176.394 E11.21231
G1 X183.407 Y177.043 E11.23809
G1 X183.241 Y177.493 E11.25644
G1 X183.003 Y177.908 E11.27475
G1 X182.526 Y178.457 E11.30258
G1 X180.938 Y180.027 E11.38804
G1 X179.026 Y182.027 E11.49393
G1 X177.189 Y184.062 E11.59885
G1 X175.392 Y186.171 E11.70488
G1 X173.68 Y188.297 E11.80934
G1 X172.019 Y190.485 E11.91447
G1 X170.422 Y192.719 E12.01956
G1 X168.799 Y195.132 E12.13085
G1 X168.499 Y195.506 E12.1492
G1 X168.142 Y195.825 E12.16752
G1 X167.736 Y196.08 E12.18587
G1 X167.294 Y196.265 E12.20421
G1 X166.827 Y196.373 E12.22255
G1 X166.349 Y196.402 E12.24088
G1 X165.872 Y196.352 E12.25923
G1 X165.411 Y196.223 E12.27755
G1 X164.977 Y196.019 E12.2959
G1 X164.49 Y195.665 E12.31895
G1 X164.193 Y195.397 E12.33425
G1 X162.599 Y193.926 E12.41726
G1 X160.533 Y192.124 E12.52218
G1 X158.394 Y190.363 E12.62821
G1 X156.255 Y188.701 E12.73187
G1 X154.019 Y187.063 E12.83795
G1 X151.722 Y185.479 E12.94473
G1 X150.78 Y184.862 E12.98782
G1 X150.504 Y184.676 E13.00056
G1 X150.115 Y184.361 E13.01971
G1 X149.16 Y183.44 E13.07049
G1 X148.724 Y183.026 E13.0935
G1 X147.199 Y181.514 E13.17568
G1 X146.678 Y180.991 E13.20393
G1 X145.199 Y179.534 E13.28338
G1 X143.794 Y178.097 E13.3603
G1 X143.324 Y177.603 E13.38639
G1 X143.019 Y177.222 E13.40507
G1 X142.268 Y176.103 E13.45664
G1 X140.662 Y173.775 E13.56488
G1 X139.071 Y171.606 E13.66782
G1 X137.39 Y169.441 E13.77272
G1 X135.624 Y167.298 E13.87899
G1 X133.815 Y165.225 E13.98428
G1 X131.96 Y163.215 E14.08895
G1 X130.046 Y161.257 E14.19374
G1 X128.036 Y159.314 E14.30072
G1 X126.057 Y157.506 E14.40331
G1 X123.94 Y155.681 E14.51027
G1 X121.818 Y153.951 E14.61505
G1 X119.661 Y152.293 E14.71916
G1 X117.404 Y150.657 E14.82584
G1 X116.781 Y150.225 E14.85485
G1 X116.366 Y149.885 E14.87539
G1 X114.854 Y148.406 E14.95633
G1 X113.963 Y147.529 E15.00417
G1 X113.406 Y147.002 E15.03352
G1 X111.73 Y145.349 E15.12361
G1 X111.67 Y145.279 E15.12713
G1 X110.458 Y144.066 E15.19276
G1 X109.989 Y143.586 E15.21844
G1 X109.524 Y143.095 E15.24432
G1 X109.409 Y142.97 E15.25082
G1 X108.597 Y142.01 E15.29894
G1 X106.807 Y139.958 E15.40315
G1 X104.914 Y137.908 E15.50993
G1 X103.038 Y135.988 E15.61266
G1 X101.005 Y134.022 E15.72089
G1 X99.024 Y132.212 E15.82358
G1 X96.917 Y130.395 E15.93006
G1 X94.805 Y128.674 E16.03432
G1 X92.6 Y126.979 E16.14075
G1 X90.398 Y125.383 E16.24483
G1 X88.117 Y123.827 E16.3505
G1 X85.826 Y122.356 E16.45469
G1 X83.465 Y120.934 E16.56017
G1 X81.062 Y119.577 E16.66578
G1 X78.633 Y118.294 E16.77091
G1 X76.188 Y117.09 E16.87521
G1 X73.571 Y115.894 E16.98532
G1 X73.089 Y115.683 E17.00546
G1 X72.668 Y115.454 E17.0238
G1 X72.196 Y115.07 E17.04708
G1 X71.694 Y114.572 E17.07414
G1 X70.649 Y113.507 E17.13124
G1 X70.122 Y112.956 E17.16042
G1 X69.749 Y112.471 E17.18384
G1 X68.272 Y110.061 E17.29201
G1 X66.778 Y107.77 E17.39668
G1 X65.196 Y105.49 E17.50288
G1 X63.581 Y103.296 E17.60714
G1 X61.894 Y101.135 E17.71206
G1 X60.13 Y99.003 E17.81795
G1 X58.329 Y96.95 E17.92247
G1 X56.459 Y94.933 E18.02773
G1 X54.532 Y92.971 E18.13297
G1 X52.567 Y91.077 E18.23742
G1 X50.504 Y89.201 E18.34413
G1 X48.437 Y87.426 E18.44839
G1 X46.32 Y85.706 E18.55278
G1 X44.099 Y84.008 E18.65977
G1 X41.906 Y82.427 E18.76323
G1 X39.625 Y80.877 E18.86877
G1 X37.298 Y79.391 E18.97443
G1 X36.358 Y78.831 E19.01631
G1 X35.251 Y78.154 E19.06597
G1 X34.734 Y77.75 E19.09108
G1 X34.07 Y77.095 E19.12677
G1 X32.222 Y75.212 E19.22774
G1 X31.742 Y74.709 E19.25434
G1 X31.441 Y74.336 E19.27269
G1 X31.207 Y73.918 E19.29102
G1 X30.991 Y73.26 E19.31752
G1 X30.254 Y70.568 E19.42434
G1 X29.462 Y67.959 E19.52868
G1 X28.574 Y65.316 E19.63538
G1 X27.635 Y62.755 E19.73977
G1 X26.615 Y60.203 E19.84495
G1 X25.541 Y57.722 E19.94841
G1 X24.361 Y55.192 E20.05524
G1 X23.138 Y52.753 E20.15966
G1 X21.831 Y50.321 E20.26532
G1 X21.456 Y49.645 E20.2949
G1 X21.259 Y49.208 E20.31325
G1 X21.138 Y48.745 E20.33156
G1 X21.095 Y48.267 E20.34993
G1 X21.132 Y47.79 E20.36824
G1 X21.248 Y47.325 E20.38658
G1 X21.439 Y46.885 E20.40494
G1 X21.701 Y46.484 E20.42327
G1 X22.026 Y46.132 E20.4416
G1 X22.405 Y45.838 E20.45996
G1 X22.978 Y45.551 E20.48448
G0 F1285.7 X23.099 Y45.88
G1 F900 X24.231 Y45.464 E20.53064
G1 X26.792 Y44.481 E20.63562
G1 X29.362 Y43.411 E20.74215
G1 X31.866 Y42.283 E20.84726
G1 X34.34 Y41.084 E20.95247
G1 X36.778 Y39.817 E21.05762
G1 X39.197 Y38.47 E21.16357
G1 X41.589 Y37.049 E21.27005
G1 X42.843 Y36.266 E21.32663
G1 X43.571 Y35.849 E21.35873
G1 X43.841 Y35.755 E21.36967
G1 X44.584 Y35.544 E21.39923
G1 X45.161 Y35.398 E21.42201
G1 X45.724 Y35.322 E21.44375
G1 X46.232 Y35.311 E21.4632
G1 X48.052 Y35.301 E21.53285
G1 X50.846 Y35.206 E21.63984
G1 X53.557 Y35.038 E21.74378
G1 X56.339 Y34.786 E21.85068
G1 X59.045 Y34.463 E21.95498
G1 X61.801 Y34.055 E22.0616
G1 X64.485 Y33.58 E22.16591
G1 X67.192 Y33.022 E22.27168
G1 X69.866 Y32.392 E22.37682
G1 X72.533 Y31.682 E22.48244
G1 X75.214 Y30.886 E22.58946
G1 X77.821 Y30.031 E22.69446
G1 X80.401 Y29.105 E22.79936
G1 X82.962 Y28.102 E22.90462
G1 X85.519 Y27.016 E23.01094
G1 X87.989 Y25.884 E23.11492
G1 X90.511 Y24.64 E23.22253
G1 X92.913 Y23.37 E23.32652
G1 X94.861 Y22.277 E23.412
G1 X95.191 Y22.086 E23.42659
G1 X95.735 Y21.852 E23.44925
G1 X96.273 Y21.698 E23.47067
G1 X97.056 Y21.498 E23.5016
G1 X97.769 Y21.421 E23.52904
G1 X98.925 Y21.461 E23.57331
G1 X101.679 Y21.518 E23.67872
G1 X104.47 Y21.496 E23.78554
G1 X107.189 Y21.398 E23.88966
G1 X109.979 Y21.218 E23.99665
G1 X112.717 Y20.964 E24.10188
G1 X115.425 Y20.634 E24.20628
G1 X118.181 Y20.221 E24.31293
G1 X119.396 Y20.003 E24.36017
G1 X120.127 Y19.884 E24.38852
G1 X120.575 Y19.851 E24.40571
G1 X121.022 Y19.899 E24.42291
G1 X121.453 Y20.024 E24.44009
G1 X121.855 Y20.224 E24.45727
G1 X122.3 Y20.572 E24.47889
G1 X123.026 Y21.284 E24.5178
G1 X193.116 Y92.772 E28.34918
G1 X193.597 Y93.278 E28.3759
G1 X193.876 Y93.63 E28.39309
G1 X194.089 Y94.026 E28.4103
G1 X194.228 Y94.452 E28.42744
G1 X194.291 Y94.951 E28.44669
G1 X194.319 Y96.014 E28.48739
G1 X194.327 Y96.697 E28.51353
G1 X194.436 Y99.453 E28.61908
G1 X194.623 Y102.198 E28.72437
G1 X194.888 Y104.944 E28.82995
G1 X195.226 Y107.641 E28.93397
G1 X195.651 Y110.401 E29.04084
G1 X196.149 Y113.117 E29.14651
G1 X196.716 Y115.788 E29.25101
G1 X197.694 Y119.714 E29.40585
G1 X197.903 Y120.488 E29.43653
G1 X197.981 Y120.93 E29.4537
G1 X197.979 Y121.379 E29.47089
G1 X197.882 Y121.912 E29.49162
G1 X197.789 Y122.287 E29.5064
G1 X197.058 Y125.131 E29.61878
G1 X196.866 Y125.834 E29.64667
G1 X196.655 Y126.363 E29.66847
G1 X196.447 Y126.749 E29.68525
G1 X195.476 Y128.5 E29.76187
G1 X194.184 Y130.993 E29.86933
G1 X193.008 Y133.43 E29.97288
G1 X191.858 Y135.993 E30.08039
G1 X190.803 Y138.535 E30.18571
G1 X189.821 Y141.112 E30.29125
G1 X188.913 Y143.704 E30.39636
G1 X188.082 Y146.315 E30.50122
G1 X187.315 Y148.979 E30.60731
G1 X186.627 Y151.657 E30.71312
G1 X186.008 Y154.377 E30.81988
G1 X185.486 Y157.026 E30.9232
G1 X185.027 Y159.752 E31.02899
G1 X184.645 Y162.487 E31.13468
G1 X184.337 Y165.267 E31.24172
G1 X184.114 Y167.973 E31.34562
G1 X183.967 Y170.706 E31.45037
G1 X183.909 Y172.691 E31.52636
G1 X183.891 Y173.512 E31.55779
G1 X183.803 Y174.139 E31.58202
G1 X183.688 Y174.604 E31.60035
G1 X183.25 Y176.301 E31.66742
G1 X183.07 Y176.95 E31.6932
G1 X182.912 Y177.37 E31.71037
G1 X182.682 Y177.756 E31.72757
G1 X182.275 Y178.213 E31.75099
G1 X180.669 Y179.802 E31.83745
G1 X178.761 Y181.798 E31.94312
G1 X176.914 Y183.843 E32.04857
G1 X175.154 Y185.91 E32.15247
G1 X173.379 Y188.114 E32.26077
G1 X171.757 Y190.251 E32.36344
G1 X170.122 Y192.537 E32.47099
G1 X168.508 Y194.937 E32.58168
G1 X168.226 Y195.286 E32.59885
G1 X167.886 Y195.579 E32.61603
G1 X167.499 Y195.807 E32.63322
G1 X167.078 Y195.964 E32.65041
G1 X166.636 Y196.043 E32.66759
G1 X166.187 Y196.043 E32.68478
G1 X165.745 Y195.963 E32.70197
G1 X165.325 Y195.806 E32.71913
G1 X164.938 Y195.578 E32.73632
G1 X164.454 Y195.162 E32.76074
G1 X162.819 Y193.652 E32.84591
G1 X160.755 Y191.853 E32.95069
G1 X158.625 Y190.099 E33.05629
G1 X156.444 Y188.405 E33.16197
G1 X154.214 Y186.772 E33.26775
G1 X151.938 Y185.202 E33.37356
G1 X150.976 Y184.572 E33.41757
G1 X150.358 Y184.109 E33.44712
G1 X149.375 Y183.161 E33.49939
G1 X148.968 Y182.775 E33.52085
G1 X147.447 Y181.267 E33.60282
G1 X146.926 Y180.744 E33.63107
G1 X145.449 Y179.29 E33.71039
G1 X144.048 Y177.855 E33.78714
G1 X143.578 Y177.361 E33.81323
G1 X143.31 Y177.027 E33.82962
G1 X142.538 Y175.876 E33.88266
G1 X140.971 Y173.605 E33.98825
G1 X139.345 Y171.388 E34.09347
G1 X137.66 Y169.219 E34.19858
G1 X135.892 Y167.073 E34.30499
G1 X134.074 Y164.989 E34.41082
G1 X132.204 Y162.963 E34.51633
G1 X130.293 Y161.008 E34.62096
G1 X128.308 Y159.089 E34.72662
G1 X126.272 Y157.229 E34.83215
G1 X124.166 Y155.413 E34.93858
G1 X122.06 Y153.696 E35.04256
G1 X119.847 Y151.995 E35.14938
G1 X117.614 Y150.377 E35.25491
G1 X116.987 Y149.942 E35.28412
G1 X116.61 Y149.635 E35.30272
G1 X115.099 Y148.157 E35.38361
G1 X114.203 Y147.275 E35.43173
G1 X113.652 Y146.753 E35.46077
G1 X111.976 Y145.1 E35.55086
G1 X111.921 Y145.035 E35.55412
G1 X110.708 Y143.821 E35.61979
G1 X110.243 Y143.345 E35.64526
G1 X109.778 Y142.854 E35.67114
G1 X109.676 Y142.744 E35.67688
G1 X108.864 Y141.784 E35.725
G1 X107.046 Y139.7 E35.83083
G1 X105.19 Y137.691 E35.93551
G1 X103.243 Y135.698 E36.04213
G1 X101.277 Y133.797 E36.14679
G1 X99.241 Y131.936 E36.25235
G1 X97.136 Y130.121 E36.35872
G1 X95.013 Y128.391 E36.46353
G1 X92.832 Y126.716 E36.56877
G1 X90.597 Y125.095 E36.67443
G1 X88.318 Y123.54 E36.78001
G1 X86.001 Y122.052 E36.88539
G1 X83.632 Y120.626 E36.99121
G1 X81.24 Y119.275 E37.09634
G1 X78.781 Y117.976 E37.20277
G1 X76.346 Y116.778 E37.30662
G1 X73.692 Y115.565 E37.4183
G1 X73.23 Y115.362 E37.43761
G1 X72.836 Y115.146 E37.4548
G1 X72.442 Y114.822 E37.47433
G1 X71.944 Y114.327 E37.5012
G1 X70.902 Y113.265 E37.55814
G1 X70.375 Y112.714 E37.58731
G1 X70.047 Y112.289 E37.60786
G1 X68.549 Y109.845 E37.71756
G1 X67.063 Y107.566 E37.82168
G1 X65.486 Y105.294 E37.92752
G1 X63.859 Y103.084 E38.03254
G1 X62.159 Y100.907 E38.13825
G1 X60.4 Y98.78 E38.24388
G1 X58.583 Y96.71 E38.34928
G1 X56.718 Y94.697 E38.4543
G1 X54.777 Y92.722 E38.56027
G1 X52.798 Y90.814 E38.66548
G1 X50.757 Y88.957 E38.77108
G1 X48.655 Y87.152 E38.87711
G1 X46.526 Y85.423 E38.98207
G1 X44.324 Y83.739 E39.08816
G1 X42.08 Y82.121 E39.19403
G1 X39.825 Y80.589 E39.29836
G1 X37.486 Y79.095 E39.40457
G1 X36.541 Y78.532 E39.44667
G1 X35.434 Y77.855 E39.49633
G1 X34.98 Y77.501 E39.51836
G1 X34.32 Y76.85 E39.55384
G1 X32.475 Y74.97 E39.65464
G1 X31.995 Y74.467 E39.68125
G1 X31.715 Y74.116 E39.69843
G1 X31.502 Y73.721 E39.71561
G1 X31.32 Y73.137 E39.73902
G1 X30.594 Y70.485 E39.84424
G1 X29.793 Y67.847 E39.94975
G1 X28.91 Y65.216 E40.05595
G1 X27.957 Y62.616 E40.16193
G1 X26.941 Y60.077 E40.26658
G1 X25.841 Y57.535 E40.37258
G1 X24.685 Y55.058 E40.47719
G1 X23.439 Y52.573 E40.58358
G1 X22.156 Y50.185 E40.68732
G1 X21.762 Y49.475 E40.71839
G1 X21.58 Y49.065 E40.73556
G1 X21.474 Y48.629 E40.75273
G1 X21.446 Y48.18 E40.76995
G1 X21.498 Y47.734 E40.78713
G1 X21.629 Y47.305 E40.8043
G1 X21.833 Y46.905 E40.82148
G1 X22.105 Y46.548 E40.83866
G1 X22.436 Y46.244 E40.85586
G1 X22.815 Y46.004 E40.87302
G1 X23.099 Y45.88 E40.88488
G0 F1285.7 X23.22 Y46.208
G1 F900 X24.352 Y45.792 E40.93104
G1 X26.94 Y44.799 E41.03712
G1 X29.498 Y43.733 E41.14317
G1 X32.02 Y42.598 E41.24901
G1 X34.484 Y41.404 E41.3538
G1 X36.967 Y40.113 E41.4609
G1 X39.361 Y38.779 E41.56578
G1 X41.779 Y37.343 E41.6734
G1 X43.029 Y36.563 E41.72979
G1 X43.732 Y36.161 E41.76078
G1 X43.937 Y36.092 E41.76906
G1 X44.743 Y35.864 E41.80111
G1 X45.247 Y35.737 E41.821
G1 X45.731 Y35.671 E41.8397
G1 X46.233 Y35.661 E41.85891
G1 X48.066 Y35.651 E41.92906
G1 X50.842 Y35.557 E42.03536
G1 X53.609 Y35.385 E42.14145
G1 X56.342 Y35.137 E42.24647
G1 X59.102 Y34.808 E42.35285
G1 X61.845 Y34.402 E42.45896
G1 X64.582 Y33.917 E42.56534
G1 X67.268 Y33.364 E42.67029
G1 X69.934 Y32.736 E42.7751
G1 X72.654 Y32.011 E42.88283
G1 X75.281 Y31.232 E42.98769
G1 X77.937 Y30.361 E43.09466
G1 X80.535 Y29.428 E43.2003
G1 X83.097 Y28.425 E43.3056
G1 X85.66 Y27.336 E43.41217
G1 X88.148 Y26.196 E43.5169
G1 X90.645 Y24.965 E43.62344
G1 X93.108 Y23.662 E43.73008
G1 X95.008 Y22.596 E43.81345
G1 X95.366 Y22.389 E43.82928
