;FLAVOR:Marlin
;TIME:11596
;Filament used: 14.0912m
;Layer height: 0.3
;MINX:30.686
;MINY:16.474
;MINZ:0.26
;MAXX:188.399
;MAXY:197.407
;MAXZ:7.76
;Generated with Cura_SteamEngine 4.9.1
M82 ;absolute extrusion mode
;Begin Start Gcode for Dagoma DiscoEasy 200
;Sliced: 07-07-2021 19:54:04
;Initial extruder: 0

G90 ;Absolute positioning
M106 S255 ;Fan on full
G28 X Y ;Home stop X Y
G1 X100 ;Centre back during cooldown in case of oozing
M109 R90 ;Cooldown in case too hot
G28 ;Centre
G29 ;Auto-level
M104 S205 ;Pre-heat
M107 ;Fan off
G0 X100 Y5 Z0.5 ;Front centre for degunk
M109 S205 ;Wait for initial temp
M83 ;E Relative
G1 E10 F200 ;Degunk
G1 E-3 F5000 ;Retract
G0 Z3 ;Withdraw
M82 ;E absolute
G92 E0 ;E reset
G1 F6000 ;Set feedrate

;Finish Start Gcode for Dagoma DiscoEasy 200

G92 E0
G92 E0
G1 F3000 E-3.5
;LAYER_COUNT:26
;LAYER:0
M107
G0 F1285.7 X80.836 Y19.017 Z0.26
;TYPE:SKIRT
G1 F3000 E0
G1 F900 X81.216 Y18.378 E0.02845
G1 X81.534 Y17.922 E0.04973
G1 X81.915 Y17.515 E0.07106
G1 X82.349 Y17.168 E0.09233
G1 X82.829 Y16.886 E0.11363
G1 X83.344 Y16.676 E0.13492
G1 X83.884 Y16.541 E0.15622
G1 X84.491 Y16.484 E0.17955
G1 X85.179 Y16.474 E0.20588
G1 X183.891 Y16.474 E3.98354
G1 X184.581 Y16.484 E4.00995
G1 X185.135 Y16.532 E4.03123
G1 X185.677 Y16.659 E4.05254
G1 X186.195 Y16.862 E4.07383
G1 X186.679 Y17.138 E4.09515
G1 X187.118 Y17.479 E4.11642
G1 X187.504 Y17.88 E4.13772
G1 X187.828 Y18.333 E4.15904
G1 X188.084 Y18.827 E4.18033
G1 X188.267 Y19.352 E4.20161
G1 X188.373 Y19.898 E4.22289
G1 X188.399 Y20.454 E4.24419
G1 X188.345 Y21.008 E4.2655
G1 X188.213 Y21.548 E4.28677
G1 X187.908 Y22.248 E4.31599
G1 X187.551 Y22.887 E4.344
G1 X88.229 Y194.919 E11.94606
G1 X87.871 Y195.519 E11.97279
G1 X87.552 Y195.975 E11.99409
G1 X87.171 Y196.38 E12.01537
G1 X86.736 Y196.727 E12.03667
G1 X86.256 Y197.009 E12.05797
G1 X85.741 Y197.218 E12.07924
G1 X85.201 Y197.352 E12.10053
G1 X84.647 Y197.407 E12.12184
G1 X84.091 Y197.382 E12.14314
G1 X83.545 Y197.277 E12.16442
G1 X83.019 Y197.096 E12.1857
G1 X82.524 Y196.841 E12.20701
G1 X82.071 Y196.517 E12.22833
G1 X81.669 Y196.132 E12.24963
G1 X81.216 Y195.52 E12.27877
G1 X80.791 Y194.807 E12.31053
G1 X31.481 Y109.4 E16.08466
G1 X31.169 Y108.841 E16.10916
G1 X30.934 Y108.336 E16.13047
G1 X30.773 Y107.804 E16.15175
G1 X30.69 Y107.254 E16.17303
G1 X30.686 Y106.697 E16.19435
G1 X30.763 Y106.146 E16.21564
G1 X30.917 Y105.612 E16.23691
G1 X31.172 Y105.058 E16.26025
G1 X31.574 Y104.342 E16.29167
G1 X80.836 Y19.017 E20.06216
G0 F1285.7 X81.137 Y19.196
G1 F900 X81.517 Y18.557 E20.09061
G1 X81.822 Y18.123 E20.11091
G1 X82.189 Y17.739 E20.13124
G1 X82.609 Y17.415 E20.15154
G1 X83.073 Y17.157 E20.17186
G1 X83.57 Y16.972 E20.19215
G1 X84.089 Y16.864 E20.21244
G1 X84.496 Y16.834 E20.22806
G1 X85.184 Y16.824 E20.25439
G1 X183.886 Y16.824 E24.03167
G1 X184.576 Y16.834 E24.05808
G1 X185.105 Y16.882 E24.07841
G1 X185.62 Y17.008 E24.0987
G1 X186.111 Y17.211 E24.11903
G1 X186.565 Y17.484 E24.1393
G1 X186.974 Y17.823 E24.15963
G1 X187.326 Y18.22 E24.17994
G1 X187.616 Y18.664 E24.20023
G1 X187.835 Y19.148 E24.22056
G1 X187.98 Y19.658 E24.24085
G1 X188.046 Y20.185 E24.26118
G1 X188.032 Y20.715 E24.28147
G1 X187.939 Y21.238 E24.3018
G1 X187.768 Y21.74 E24.32209
G1 X187.603 Y22.078 E24.33649
G1 X187.248 Y22.712 E24.3643
G1 X87.928 Y194.739 E31.96614
G1 X87.57 Y195.339 E31.99288
G1 X87.265 Y195.773 E32.01318
G1 X86.898 Y196.156 E32.03348
G1 X86.477 Y196.48 E32.05381
G1 X86.013 Y196.737 E32.07411
G1 X85.515 Y196.921 E32.09443
G1 X84.996 Y197.029 E32.11472
G1 X84.466 Y197.057 E32.13503
G1 X83.937 Y197.006 E32.15537
G1 X83.423 Y196.875 E32.17567
G1 X82.934 Y196.669 E32.19597
G1 X82.481 Y196.392 E32.21629
G1 X82.076 Y196.05 E32.23658
G1 X81.726 Y195.651 E32.25689
G1 X81.517 Y195.341 E32.2712
G1 X81.094 Y194.632 E32.30279
G1 X31.787 Y109.229 E36.07673
G1 X31.475 Y108.67 E36.10123
G1 X31.252 Y108.188 E36.12155
G1 X31.104 Y107.679 E36.14184
G1 X31.034 Y107.153 E36.16215
G1 X31.043 Y106.622 E36.18247
G1 X31.133 Y106.099 E36.20278
G1 X31.299 Y105.595 E36.22309
G1 X31.478 Y105.229 E36.23868
G1 X31.877 Y104.517 E36.26991
G1 X81.137 Y19.196 E40.04023
G0 F1285.7 X81.438 Y19.375
G1 F900 X81.818 Y18.736 E40.06868
G1 X82.109 Y18.325 E40.08796
G1 X82.461 Y17.965 E40.10722
G1 X82.866 Y17.666 E40.12649
G1 X83.313 Y17.434 E40.14576
G1 X83.791 Y17.275 E40.16504
G1 X84.501 Y17.184 E40.19243
G1 X85.189 Y17.174 E40.21877
G1 X183.881 Y17.174 E43.99566
G1 X184.571 Y17.184 E44.02207
G1 X185.072 Y17.232 E44.04133
G1 X185.56 Y17.357 E44.06061
G1 X186.022 Y17.559 E44.07991
G1 X186.445 Y17.831 E44.09915
G1 X186.821 Y18.166 E44.11843
G1 X187.139 Y18.557 E44.13771
G1 X187.391 Y18.993 E44.15698
G1 X187.571 Y19.463 E44.17625
G1 X187.674 Y19.956 E44.19552
G1 X187.698 Y20.459 E44.21479
G1 X187.643 Y20.959 E44.23404
G1 X187.509 Y21.445 E44.25333
G1 X187.297 Y21.907 E44.27279
G1 X186.945 Y22.537 E44.30041
G1 X87.628 Y194.56 E51.90206
G1 X87.27 Y195.16 E51.9288
G1 X86.978 Y195.57 E51.94806
G1 X86.625 Y195.93 E51.96736
G1 X86.22 Y196.229 E51.98663
G1 X85.773 Y196.46 E52.00588
G1 X85.294 Y196.618 E52.02518
G1 X84.797 Y196.698 E52.04445
G1 X84.294 Y196.698 E52.0637
G1 X83.796 Y196.619 E52.08299
G1 X83.318 Y196.462 E52.10225
G1 X82.87 Y196.232 E52.12152
G1 X82.464 Y195.933 E52.14082
G1 X82.111 Y195.574 E52.16009
G1 X81.817 Y195.161 E52.17949
G1 X81.397 Y194.457 E52.21086
G1 X32.093 Y109.058 E55.9846
G1 X31.781 Y108.499 E56.0091
G1 X31.571 Y108.042 E56.02835
G1 X31.436 Y107.556 E56.04765
G1 X31.38 Y107.056 E56.06691
G1 X31.403 Y106.553 E56.08618
G1 X31.506 Y106.06 E56.10545
G1 X31.783 Y105.4 E56.13284
G1 X32.18 Y104.692 E56.16391
G1 X81.438 Y19.375 E59.93406
G1 F3000 E56.43406
;MESH:support_half_hex_2.stl
G0 F1285.7 X83.633 Y20.644
G0 X84.49 Y21.138
G0 X84.693 Y192.243
;TYPE:WALL-INNER
G1 F3000 E59.93406
G1 F900 X84.542 Y192.505 E59.94563
G1 X84.391 Y192.243 E59.95218
G1 X35.148 Y106.951 E63.72121
G1 X84.844 Y20.874 E67.52493
G1 X183.33 Y20.874 E71.29394
G1 X183.331 Y20.874 E71.29398
G1 X183.633 Y20.874 E71.30554
G1 X183.482 Y21.136 E71.3121
G1 X84.693 Y192.243 E78.8733
G0 F1285.7 X84.693 Y192.892
;TYPE:WALL-OUTER
G1 F900 X84.542 Y193.154 E78.88487
G1 X84.391 Y192.892 E78.89142
G1 X34.773 Y106.951 E82.68914
G1 X84.657 Y20.549 E86.50723
G1 X183.893 Y20.549 E90.30494
G1 X183.894 Y20.549 E90.30498
G1 X184.196 Y20.549 E90.31654
G1 X184.045 Y20.811 E90.3231
G1 X84.693 Y192.892 E97.92735
G0 F1285.7 X84.593 Y193.065
G0 X84.508 Y193.015
G0 X84.542 Y191.825
;TYPE:SKIN
G1 F900 X35.54 Y106.951 E101.67792
G1 X85.04 Y21.214 E105.46662
G1 X183.044 Y21.214 E109.21718
G1 X84.542 Y191.825 E116.75645
G0 F1285.7 X84.562 Y191.476
G1 F900 X84.47 Y191.384 E116.76143
G0 F1285.7 X84.743 Y191.162
G1 F900 X83.794 Y190.213 E116.81279
G1 X83.732 Y190.151
G0 F1285.7 X84.924 Y190.848
G1 F900 X83.118 Y189.042 E116.91053
G1 X83.056 Y188.98
G0 F1285.7 X82.441 Y187.871
G1 F900 X85.105 Y190.534 E117.05468
G0 F1285.7 X85.286 Y190.221
G1 F900 X81.765 Y186.7 E117.24524
G1 X81.703 Y186.638
G0 F1285.7 X81.089 Y185.529
G1 F900 X85.467 Y189.907 E117.48219
G0 F1285.7 X85.649 Y189.593
G1 F900 X80.412 Y184.357 E117.76559
G1 X80.35 Y184.295
G0 F1285.7 X79.736 Y183.186
G1 F900 X85.83 Y189.279 E118.09538
G0 F1285.7 X86.011 Y188.965
G1 F900 X79.06 Y182.015 E118.47155
G1 X78.998 Y181.953
G0 F1285.7 X78.384 Y180.844
G1 F900 X86.192 Y188.652 E118.89413
G0 F1285.7 X86.373 Y188.338
G1 F900 X77.708 Y179.673 E119.36309
G1 X77.646 Y179.611
G0 F1285.7 X77.032 Y178.502
G1 F900 X86.554 Y188.024 E119.87843
G0 F1285.7 X86.735 Y187.71
G1 F900 X76.356 Y177.331 E120.44016
G1 X76.294 Y177.269
G0 F1285.7 X75.679 Y176.159
G1 F900 X86.916 Y187.396 E121.04832
G0 F1285.7 X87.098 Y187.083
G1 F900 X75.003 Y174.988 E121.70292
G1 X74.941 Y174.926
G0 F1285.7 X74.327 Y173.817
G1 F900 X87.279 Y186.769 E122.40389
G0 F1285.7 X87.46 Y186.455
G1 F900 X73.651 Y172.646 E123.15125
G1 X73.589 Y172.584
G0 F1285.7 X72.974 Y171.474
G1 F900 X87.641 Y186.141 E123.94505
G0 F1285.7 X87.823 Y185.828
G1 F900 X72.298 Y170.303 E124.78528
G1 X72.236 Y170.241
G0 F1285.7 X71.622 Y169.132
G1 F900 X88.004 Y185.514 E125.6719
G0 F1285.7 X88.185 Y185.2
G1 F900 X70.946 Y167.961 E126.6049
G1 X70.884 Y167.899
G0 F1285.7 X70.27 Y166.79
G1 F900 X88.366 Y184.886 E127.58427
G0 F1285.7 X88.547 Y184.572
G1 F900 X69.594 Y165.619 E128.61003
G1 X69.532 Y165.557
G0 F1285.7 X68.918 Y164.448
G1 F900 X88.729 Y184.259 E129.68223
G0 F1285.7 X88.91 Y183.945
G1 F900 X68.241 Y163.276 E130.80086
G1 X68.179 Y163.214
G0 F1285.7 X67.565 Y162.105
G1 F900 X89.091 Y183.631 E131.96588
G0 F1285.7 X89.272 Y183.317
G1 F900 X66.889 Y160.934 E133.17727
G1 X66.827 Y160.872
G0 F1285.7 X66.212 Y159.762
G1 F900 X89.453 Y183.004 E134.43513
G0 F1285.7 X89.634 Y182.69
G1 F900 X65.536 Y158.592 E135.73935
G1 X65.474 Y158.53
G0 F1285.7 X64.86 Y157.421
G1 F900 X89.815 Y182.376 E137.08995
G0 F1285.7 X89.997 Y182.062
G1 F900 X64.184 Y156.25 E138.48695
G1 X64.122 Y156.188
G0 F1285.7 X63.508 Y155.078
G1 F900 X90.178 Y181.748 E139.93036
G0 F1285.7 X90.359 Y181.435
G1 F900 X62.832 Y153.907 E141.42019
G1 X62.77 Y153.845
G0 F1285.7 X62.156 Y152.736
G1 F900 X90.54 Y181.121 E142.95639
G0 F1285.7 X90.721 Y180.807
G1 F900 X61.479 Y151.564 E144.53903
G1 X61.417 Y151.502
G0 F1285.7 X60.803 Y150.393
G1 F900 X90.902 Y180.493 E146.16806
G0 F1285.7 X91.083 Y180.179
G1 F900 X60.127 Y149.222 E147.84346
G1 X60.065 Y149.16
G0 F1285.7 X59.451 Y148.051
G1 F900 X91.265 Y179.866 E149.5653
G0 F1285.7 X91.446 Y179.552
G1 F900 X58.774 Y146.88 E151.33356
G1 X58.712 Y146.818
G0 F1285.7 X58.098 Y145.709
G1 F900 X91.627 Y179.238 E153.14819
G0 F1285.7 X91.808 Y178.924
G1 F900 X57.422 Y144.538 E155.0092
G1 X57.36 Y144.476
G0 F1285.7 X56.746 Y143.366
G1 F900 X91.99 Y178.61 E156.91665
G0 F1285.7 X92.171 Y178.296
G1 F900 X56.07 Y142.195 E158.87048
G1 X56.008 Y142.133
G0 F1285.7 X55.394 Y141.024
G1 F900 X92.352 Y177.983 E160.87072
G0 F1285.7 X92.533 Y177.669
G1 F900 X54.718 Y139.853 E162.91735
G1 X54.656 Y139.791
G0 F1285.7 X54.041 Y138.682
G1 F900 X92.714 Y177.355 E165.01038
G0 F1285.7 X92.896 Y177.041
G1 F900 X53.365 Y137.511 E167.14982
G1 X53.303 Y137.449
G0 F1285.7 X52.689 Y136.34
G1 F900 X93.077 Y176.727 E169.33564
G0 F1285.7 X93.258 Y176.413
G1 F900 X52.012 Y135.168 E171.5679
G1 X51.95 Y135.106
G0 F1285.7 X51.336 Y133.997
G1 F900 X93.439 Y176.099 E173.84654
G0 F1285.7 X93.62 Y175.786
G1 F900 X50.66 Y132.826 E176.17159
G1 X50.598 Y132.764
G0 F1285.7 X49.984 Y131.655
G1 F900 X93.801 Y175.472 E178.54303
G0 F1285.7 X93.982 Y175.158
G1 F900 X49.307 Y130.483 E180.96089
G1 X49.245 Y130.421
G0 F1285.7 X48.631 Y129.312
G1 F900 X94.163 Y174.844 E183.42514
G0 F1285.7 X94.345 Y174.53
G1 F900 X47.955 Y128.141 E185.9358
G1 X47.893 Y128.079
G0 F1285.7 X47.279 Y126.97
G1 F900 X94.526 Y174.217 E188.49287
G0 F1285.7 X94.707 Y173.903
G1 F900 X46.603 Y125.799 E191.09632
G1 X46.541 Y125.737
G0 F1285.7 X45.927 Y124.628
G1 F900 X94.888 Y173.589 E193.74615
G0 F1285.7 X95.069 Y173.275
G1 F900 X45.251 Y123.457 E196.44237
G1 X45.189 Y123.395
G0 F1285.7 X44.574 Y122.285
G1 F900 X95.25 Y172.961 E199.18501
G0 F1285.7 X95.432 Y172.648
G1 F900 X43.898 Y121.114 E201.9741
G1 X43.836 Y121.052
G0 F1285.7 X43.222 Y119.943
G1 F900 X95.613 Y172.334 E204.80957
G0 F1285.7 X95.794 Y172.02
G1 F900 X42.545 Y118.772 E207.69144
G1 X42.483 Y118.71
G0 F1285.7 X41.869 Y117.601
G1 F900 X95.975 Y171.706 E210.6197
G0 F1285.7 X96.156 Y171.392
G1 F900 X41.193 Y116.43 E213.59434
G1 X41.131 Y116.368
G0 F1285.7 X40.517 Y115.259
G1 F900 X96.338 Y171.079 E216.61542
G0 F1285.7 X96.519 Y170.765
G1 F900 X39.841 Y114.087 E219.68291
G1 X39.779 Y114.025
G0 F1285.7 X39.165 Y112.916
G1 F900 X96.7 Y170.451 E222.79677
G0 F1285.7 X96.881 Y170.137
G1 F900 X38.489 Y111.745 E225.95702
G1 X38.427 Y111.683
G0 F1285.7 X37.813 Y110.574
G1 F900 X97.063 Y169.824 E229.16371
G0 F1285.7 X97.244 Y169.51
G1 F900 X37.136 Y109.402 E232.41683
G1 X37.074 Y109.34
G0 F1285.7 X36.46 Y108.231
G1 F900 X97.425 Y169.196 E235.71633
G0 F1285.7 X97.606 Y168.882
G1 F900 X35.784 Y107.06 E239.06222
G0 F1285.7 X35.884 Y106.666
G1 F900 X97.787 Y168.568 E242.41246
G0 F1285.7 X97.968 Y168.255
G1 F900 X36.065 Y106.352 E245.76273
G0 F1285.7 X36.247 Y106.038
G1 F900 X98.149 Y167.941 E249.11297
G0 F1285.7 X98.33 Y167.627
G1 F900 X36.428 Y105.724 E252.46321
G0 F1285.7 X36.609 Y105.41
G1 F900 X98.511 Y167.313 E255.81346
G0 F1285.7 X98.693 Y167
G1 F900 X36.79 Y105.097 E259.16373
G0 F1285.7 X36.971 Y104.783
G1 F900 X98.874 Y166.686 E262.514
G0 F1285.7 X99.055 Y166.372
G1 F900 X37.152 Y104.469 E265.86426
G0 F1285.7 X37.333 Y104.155
G1 F900 X99.236 Y166.058 E269.21453
G0 F1285.7 X99.417 Y165.744
G1 F900 X37.515 Y103.842 E272.56475
G0 F1285.7 X37.696 Y103.528
G1 F900 X99.599 Y165.431 E275.91502
G0 F1285.7 X99.78 Y165.117
G1 F900 X37.877 Y103.214 E279.26529
G0 F1285.7 X38.058 Y102.9
G1 F900 X99.961 Y164.803 E282.61556
G0 F1285.7 X100.142 Y164.489
G1 F900 X38.239 Y102.586 E285.96583
G0 F1285.7 X38.421 Y102.273
G1 F900 X100.323 Y164.175 E289.31604
G0 F1285.7 X100.505 Y163.862
G1 F900 X38.602 Y101.959 E292.66631
G0 F1285.7 X38.783 Y101.645
G1 F900 X100.686 Y163.548 E296.01658
G0 F1285.7 X100.867 Y163.234
G1 F900 X38.964 Y101.331 E299.36685
G0 F1285.7 X39.146 Y101.017
G1 F900 X101.048 Y162.92 E302.71709
G0 F1285.7 X101.23 Y162.606
G1 F900 X39.327 Y100.704 E306.06733
G0 F1285.7 X39.508 Y100.39
G1 F900 X101.411 Y162.293 E309.4176
G0 F1285.7 X101.592 Y161.979
G1 F900 X39.689 Y100.076 E312.76787
G0 F1285.7 X39.87 Y99.762
G1 F900 X101.773 Y161.665 E316.11814
G0 F1285.7 X101.954 Y161.351
G1 F900 X40.051 Y99.448 E319.46841
G0 F1285.7 X40.232 Y99.134
G1 F900 X102.135 Y161.037 E322.81868
G0 F1285.7 X102.316 Y160.723
G1 F900 X40.413 Y98.821 E326.16892
G0 F1285.7 X40.595 Y98.507
G1 F900 X102.497 Y160.41 E329.51916
G0 F1285.7 X102.678 Y160.096
G1 F900 X40.776 Y98.193 E332.86941
G0 F1285.7 X40.957 Y97.879
G1 F900 X102.859 Y159.782 E336.21965
G0 F1285.7 X103.041 Y159.468
G1 F900 X41.138 Y97.565 E339.56992
G0 F1285.7 X41.319 Y97.251
G1 F900 X103.222 Y159.154 E342.92019
G0 F1285.7 X103.403 Y158.84
G1 F900 X41.5 Y96.937 E346.27046
G0 F1285.7 X41.682 Y96.624
G1 F900 X103.584 Y158.526 E349.62067
G0 F1285.7 X103.766 Y158.213
G1 F900 X41.863 Y96.31 E352.97094
G0 F1285.7 X42.044 Y95.996
G1 F900 X103.947 Y157.899 E356.32121
G0 F1285.7 X104.128 Y157.585
G1 F900 X42.225 Y95.682 E359.67148
G0 F1285.7 X42.406 Y95.368
G1 F900 X104.309 Y157.271 E363.02175
G0 F1285.7 X104.49 Y156.957
G1 F900 X42.588 Y95.055 E366.37196
G0 F1285.7 X42.769 Y94.741
G1 F900 X104.672 Y156.644 E369.72223
G0 F1285.7 X104.853 Y156.33
G1 F900 X42.95 Y94.427 E373.0725
G0 F1285.7 X43.131 Y94.113
G1 F900 X105.034 Y156.016 E376.42277
G0 F1285.7 X105.215 Y155.702
G1 F900 X43.313 Y93.8 E379.77299
G0 F1285.7 X43.494 Y93.486
G1 F900 X105.397 Y155.389 E383.12325
G0 F1285.7 X105.578 Y155.075
G1 F900 X43.675 Y93.172 E386.47352
G0 F1285.7 X43.856 Y92.858
G1 F900 X105.759 Y154.761 E389.82379
G0 F1285.7 X105.94 Y154.447
G1 F900 X44.037 Y92.544 E393.17406
G0 F1285.7 X44.218 Y92.231
G1 F900 X106.121 Y154.133 E396.5243
G0 F1285.7 X106.302 Y153.82
G1 F900 X44.399 Y91.917 E399.87457
G0 F1285.7 X44.58 Y91.603
G1 F900 X106.483 Y153.506 E403.22484
G0 F1285.7 X106.664 Y153.192
G1 F900 X44.761 Y91.289 E406.57511
G0 F1285.7 X44.943 Y90.976
G1 F900 X106.845 Y152.878 E409.92533
G0 F1285.7 X107.026 Y152.564
G1 F900 X45.124 Y90.662 E413.27554
G0 F1285.7 X45.305 Y90.348
G1 F900 X107.208 Y152.251 E416.62581
G0 F1285.7 X107.389 Y151.937
G1 F900 X45.486 Y90.034 E419.97608
G0 F1285.7 X45.667 Y89.72
G1 F900 X107.57 Y151.623 E423.32635
G0 F1285.7 X107.751 Y151.309
G1 F900 X45.849 Y89.407 E426.67657
G0 F1285.7 X46.03 Y89.093
G1 F900 X107.933 Y150.996 E430.02683
G0 F1285.7 X108.114 Y150.682
G1 F900 X46.211 Y88.779 E433.3771
G0 F1285.7 X46.392 Y88.465
G1 F900 X108.295 Y150.368 E436.72737
G0 F1285.7 X108.476 Y150.054
G1 F900 X46.573 Y88.151 E440.07764
G0 F1285.7 X46.755 Y87.838
G1 F900 X108.657 Y149.74 E443.42786
G0 F1285.7 X108.839 Y149.427
G1 F900 X46.936 Y87.524 E446.77813
G0 F1285.7 X47.117 Y87.21
G1 F900 X109.02 Y149.113 E450.1284
G0 F1285.7 X109.201 Y148.799
G1 F900 X47.298 Y86.896 E453.47867
G0 F1285.7 X47.48 Y86.583
