;FLAVOR:Marlin
;TIME:24291
;Filament used: 25.7841m
;Layer height: 0.3
;MINX:12.697
;MINY:10.974
;MINZ:0.26
;MAXX:190.053
;MAXY:184.314
;MAXZ:29.36
;Generated with Cura_SteamEngine 4.9.1
M82 ;absolute extrusion mode
;Begin Start Gcode for Dagoma DiscoEasy 200
;Sliced: 26-07-2021 01:49:54
;Initial extruder: 0

G90 ;Absolute positioning
M106 S255 ;Fan on full
G28 X Y ;Home stop X Y
G1 X100 ;Centre back during cooldown in case of oozing
M109 R90 ;Cooldown in case too hot
G28 ;Centre
G29 ;Auto-level
M104 S205 ;Pre-heat
M107 ;Fan off
G0 X100 Y5 Z0.5 ;Front centre for degunk
M109 S205 ;Wait for initial temp
M83 ;E Relative
G1 E10 F200 ;Degunk
G1 E-3 F5000 ;Retract
G0 Z3 ;Withdraw
M82 ;E absolute
G92 E0 ;E reset
G1 F6000 ;Set feedrate

;Finish Start Gcode for Dagoma DiscoEasy 200

G92 E0
G92 E0
G1 F3000 E-3.5
;LAYER_COUNT:98
;LAYER:0
M107
G0 F1285.7 X41.713 Y14.987 Z0.26
;TYPE:SKIRT
G1 F3000 E0
G1 F900 X42.308 Y13.266 E0.06969
G1 X42.654 Y12.428 E0.10438
G1 X42.924 Y12.033 E0.12269
G1 X43.256 Y11.687 E0.14104
G1 X43.641 Y11.402 E0.15938
G1 X44.068 Y11.184 E0.17772
G1 X44.525 Y11.04 E0.19606
G1 X45 Y10.974 E0.21441
G1 X45.479 Y10.988 E0.23275
G1 X45.949 Y11.081 E0.25109
G1 X46.397 Y11.251 E0.26942
G1 X46.81 Y11.494 E0.28776
G1 X47.352 Y11.963 E0.31519
G1 X112.331 Y76.931 E3.83164
G1 X114.325 Y78.869 E3.93805
G1 X116.361 Y80.739 E4.04385
G1 X118.435 Y82.537 E4.14889
G1 X120.552 Y84.272 E4.25364
G1 X122.722 Y85.949 E4.3586
G1 X124.939 Y87.565 E4.46359
G1 X127.227 Y89.135 E4.56978
G1 X129.515 Y90.612 E4.674
G1 X131.872 Y92.04 E4.77946
G1 X134.259 Y93.397 E4.88454
G1 X135.588 Y94.101 E4.9421
G1 X136.357 Y94.523 E4.97567
G1 X136.822 Y94.841 E4.99723
G1 X137.031 Y95.016 E5.00766
G1 X137.443 Y95.375 E5.02857
G1 X137.734 Y95.663 E5.04424
G1 X138.691 Y96.683 E5.09777
G1 X139.337 Y97.359 E5.13355
G1 X139.775 Y97.892 E5.15995
G1 X139.908 Y98.078 E5.1687
G1 X140.229 Y98.573 E5.19128
G1 X141.155 Y100.043 E5.25777
G1 X142.664 Y102.298 E5.3616
G1 X144.281 Y104.57 E5.46832
G1 X145.914 Y106.734 E5.57207
G1 X147.642 Y108.894 E5.67793
G1 X149.409 Y110.978 E5.7825
G1 X151.258 Y113.036 E5.88837
G1 X153.131 Y115.009 E5.99248
G1 X155.109 Y116.975 E6.09921
G1 X157.086 Y118.834 E6.20306
G1 X159.142 Y120.659 E6.30827
G1 X161.254 Y122.431 E6.41378
G1 X163.386 Y124.119 E6.51785
G1 X165.602 Y125.774 E6.62369
G1 X167.869 Y127.368 E6.72975
G1 X170.122 Y128.86 E6.83316
G1 X170.668 Y129.201 E6.8578
G1 X171.878 Y129.971 E6.91268
G1 X172.207 Y130.216 E6.92838
G1 X172.703 Y130.642 E6.9534
G1 X173.091 Y131.014 E6.97397
G1 X173.804 Y131.778 E7.01397
G1 X174.725 Y132.753 E7.06529
G1 X175.13 Y133.248 E7.08977
G1 X175.404 Y133.675 E7.10919
G1 X175.699 Y134.239 E7.13355
G1 X177.011 Y136.662 E7.23899
G1 X178.379 Y139.026 E7.34352
G1 X179.822 Y141.365 E7.44869
G1 X181.331 Y143.666 E7.554
G1 X182.894 Y145.902 E7.6584
G1 X184.552 Y148.142 E7.76506
G1 X186.236 Y150.285 E7.86936
G1 X187.991 Y152.394 E7.97436
G1 X188.429 Y152.886 E7.99957
G1 X188.504 Y152.986 E8.00435
G1 X189.351 Y153.961 E8.05378
G1 X189.634 Y154.348 E8.07212
G1 X189.849 Y154.776 E8.09045
G1 X189.99 Y155.234 E8.10879
G1 X190.053 Y155.709 E8.12713
G1 X190.036 Y156.188 E8.14547
G1 X189.939 Y156.658 E8.16384
G1 X189.766 Y157.105 E8.18218
G1 X189.522 Y157.517 E8.20051
G1 X189.212 Y157.882 E8.21883
G1 X188.846 Y158.191 E8.23716
G1 X188.433 Y158.435 E8.25552
G1 X187.956 Y158.616 E8.27505
G1 X187.064 Y158.864 E8.31048
G1 X130.886 Y173.47 E10.53186
G1 X128.187 Y174.213 E10.63899
G1 X125.594 Y175.006 E10.74276
G1 X122.942 Y175.9 E10.84986
G1 X120.386 Y176.843 E10.95412
G1 X117.863 Y177.855 E11.05816
G1 X115.283 Y178.976 E11.16581
G1 X113.924 Y179.609 E11.22318
G1 X113.245 Y179.88 E11.25116
G1 X112.184 Y180.176 E11.29331
G1 X110.247 Y180.678 E11.36989
G1 X109.758 Y180.803 E11.38921
G1 X108.522 Y181.109 E11.43794
G1 X107.812 Y181.275 E11.46584
G1 X107.41 Y181.339 E11.48142
G1 X106.565 Y181.413 E11.51388
G1 X105.315 Y181.505 E11.56185
G1 X102.583 Y181.786 E11.66695
G1 X99.848 Y182.144 E11.77251
G1 X97.132 Y182.579 E11.87778
G1 X94.428 Y183.09 E11.98309
G1 X90.765 Y183.911 E12.12675
G1 X89.417 Y184.24 E12.17985
G1 X88.943 Y184.314 E12.19821
G1 X88.464 Y184.309 E12.21654
G1 X87.993 Y184.224 E12.23486
G1 X87.294 Y183.935 E12.2638
G1 X87.003 Y183.766 E12.27668
G1 X85.181 Y182.679 E12.35787
G1 X82.772 Y181.334 E12.46346
G1 X80.352 Y180.069 E12.56796
G1 X77.886 Y178.869 E12.67292
G1 X75.368 Y177.731 E12.77866
G1 X72.847 Y176.675 E12.88326
G1 X70.234 Y175.666 E12.99046
G1 X67.694 Y174.77 E13.09353
G1 X65.712 Y174.144 E13.17308
G1 X64.647 Y173.794 E13.21598
G1 X64.005 Y173.562 E13.2421
G1 X63.66 Y173.425 E13.25631
G1 X63.177 Y173.174 E13.27714
G1 X62.954 Y173.03 E13.2873
G1 X61.887 Y172.363 E13.33545
G1 X60.731 Y171.619 E13.38806
G1 X60.351 Y171.327 E13.4064
G1 X60.067 Y171.028 E13.42218
G1 X59.625 Y170.491 E13.4488
G1 X59.274 Y170.036 E13.47079
G1 X59.116 Y169.807 E13.48144
G1 X57.6 Y167.374 E13.59115
G1 X56.091 Y165.1 E13.69559
G1 X54.489 Y162.831 E13.80188
G1 X52.85 Y160.64 E13.9066
G1 X51.155 Y158.506 E14.01089
G1 X49.37 Y156.382 E14.11707
G1 X47.56 Y154.348 E14.22127
G1 X45.637 Y152.307 E14.32858
G1 X43.734 Y150.399 E14.43171
G1 X41.747 Y148.515 E14.5365
G1 X39.682 Y146.667 E14.64255
G1 X37.592 Y144.899 E14.74731
G1 X35.449 Y143.189 E14.85223
G1 X33.24 Y141.525 E14.95807
G1 X31.003 Y139.938 E15.06304
G1 X28.707 Y138.404 E15.16871
G1 X28.461 Y138.248 E15.17986
G1 X27.871 Y137.861 E15.20686
G1 X26.558 Y137.036 E15.2662
G1 X26.474 Y136.973 E15.27022
G1 X25.387 Y136.278 E15.3196
G1 X25.007 Y135.987 E15.33791
G1 X24.712 Y135.678 E15.35426
G1 X24.179 Y135.025 E15.38652
G1 X23.656 Y134.273 E15.42157
G1 X23.234 Y133.436 E15.45745
G1 X22.971 Y132.685 E15.4879
G1 X22.805 Y132.064 E15.5125
G1 X22.325 Y130.215 E15.5856
G1 X21.542 Y127.523 E15.6929
G1 X20.705 Y124.921 E15.7975
G1 X19.789 Y122.326 E15.90281
G1 X18.804 Y119.774 E16.0075
G1 X17.738 Y117.226 E16.1132
G1 X16.624 Y114.759 E16.21679
G1 X15.673 Y112.787 E16.30057
G1 X15.143 Y111.718 E16.34624
G1 X14.967 Y111.273 E16.36455
G1 X14.867 Y110.804 E16.3829
G1 X14.846 Y110.325 E16.40125
G1 X14.881 Y109.979 E16.41456
G1 X15.051 Y108.935 E16.45504
G1 X15.462 Y106.175 E16.56183
G1 X15.784 Y103.499 E16.66498
G1 X16.036 Y100.744 E16.77085
G1 X16.208 Y98.014 E16.87553
G1 X16.304 Y95.279 E16.98026
G1 X16.312 Y91.693 E17.1175
G1 X16.302 Y91.072 E17.14127
G1 X16.383 Y90.347 E17.16918
G1 X16.607 Y89.431 E17.20527
G1 X17.16 Y87.351 E17.28764
G1 X17.18 Y87.267 E17.29094
G1 X17.768 Y85.073 E17.37787
G1 X18.234 Y83.435 E17.44304
G1 X18.429 Y82.786 E17.46898
G1 X18.639 Y82.272 E17.49022
G1 X18.804 Y81.959 E17.50377
G1 X20.06 Y79.515 E17.60892
G1 X21.244 Y77.039 E17.71396
G1 X22.367 Y74.511 E17.81982
G1 X23.426 Y71.936 E17.92637
G1 X24.375 Y69.417 E18.02938
G1 X25.282 Y66.798 E18.13545
G1 X26.098 Y64.203 E18.23956
G1 X26.848 Y61.558 E18.34477
G1 X27.532 Y58.863 E18.45118
G1 X28.128 Y56.202 E18.55553
G1 X28.649 Y53.504 E18.66069
G1 X29.096 Y50.796 E18.76573
G1 X29.465 Y48.081 E18.87059
G1 X29.762 Y45.303 E18.9775
G1 X29.923 Y43.215 E19.05765
G1 X29.971 Y42.675 E19.0784
G1 X30.129 Y41.885 E19.10923
G1 X30.199 Y41.612 E19.12001
G1 X30.435 Y40.664 E19.1574
G1 X30.605 Y40.041 E19.18211
G1 X30.62 Y39.948 E19.18572
G1 X30.826 Y39.155 E19.21707
G1 X30.894 Y38.961 E19.22494
G1 X31.426 Y36.981 E19.3034
G1 X31.893 Y35.337 E19.36881
G1 X32.081 Y34.71 E19.39386
G1 X32.128 Y34.566 E19.39965
G1 X32.385 Y34.023 E19.42264
G1 X32.889 Y33.194 E19.45977
G1 X33.441 Y32.311 E19.49962
G1 X34.82 Y29.959 E19.60396
G1 X36.15 Y27.538 E19.70967
G1 X37.403 Y25.095 E19.81475
G1 X38.585 Y22.619 E19.91975
G1 X39.7 Y20.103 E20.02506
G1 X40.746 Y17.556 E20.13044
G1 X41.713 Y14.987 E20.23548
G0 F1285.7 X42.039 Y15.114
G1 F900 X42.637 Y13.385 E20.3055
G1 X42.973 Y12.576 E20.33902
G1 X43.232 Y12.21 E20.35618
G1 X43.552 Y11.895 E20.37336
G1 X43.923 Y11.642 E20.39055
G1 X44.333 Y11.458 E20.40775
G1 X44.768 Y11.35 E20.4249
G1 X45.217 Y11.321 E20.44212
G1 X45.663 Y11.371 E20.45929
G1 X46.093 Y11.5 E20.47648
G1 X46.493 Y11.703 E20.49364
G1 X47.112 Y12.218 E20.52446
G1 X112.087 Y77.182 E24.04069
G1 X114.092 Y79.13 E24.14767
G1 X116.123 Y80.996 E24.25322
G1 X118.214 Y82.809 E24.35913
G1 X120.326 Y84.54 E24.46364
G1 X122.512 Y86.229 E24.56936
G1 X124.745 Y87.856 E24.67509
G1 X127.025 Y89.421 E24.78092
G1 X129.339 Y90.915 E24.88633
G1 X131.703 Y92.348 E24.99212
G1 X134.067 Y93.691 E25.09617
G1 X135.42 Y94.407 E25.15475
G1 X136.189 Y94.829 E25.18832
G1 X136.765 Y95.25 E25.21563
G1 X137.213 Y95.639 E25.23833
G1 X137.479 Y95.902 E25.25265
G1 X138.454 Y96.942 E25.3072
G1 X139.083 Y97.601 E25.34207
G1 X139.498 Y98.105 E25.36705
G1 X139.614 Y98.269 E25.37474
G1 X139.933 Y98.759 E25.39712
G1 X140.859 Y100.229 E25.4636
G1 X142.385 Y102.51 E25.56863
G1 X143.984 Y104.756 E25.67414
G1 X145.655 Y106.971 E25.78032
G1 X147.368 Y109.112 E25.88526
G1 X149.163 Y111.228 E25.99145
G1 X150.991 Y113.263 E26.09613
G1 X152.878 Y115.251 E26.20103
G1 X154.853 Y117.214 E26.30759
G1 X156.862 Y119.103 E26.41312
G1 X158.913 Y120.923 E26.51806
G1 X161.022 Y122.694 E26.62346
G1 X163.192 Y124.411 E26.72935
G1 X165.401 Y126.061 E26.83487
G1 X167.66 Y127.65 E26.94056
G1 X169.946 Y129.163 E27.04547
G1 X170.48 Y129.497 E27.06958
G1 X171.69 Y130.267 E27.12447
G1 X171.979 Y130.482 E27.13825
G1 X172.475 Y130.908 E27.16327
G1 X172.835 Y131.253 E27.18235
G1 X173.537 Y132.005 E27.22172
G1 X174.471 Y132.993 E27.27375
G1 X174.854 Y133.463 E27.29696
G1 X175.093 Y133.837 E27.31394
G1 X175.372 Y134.37 E27.33697
G1 X176.706 Y136.833 E27.44416
G1 X178.08 Y139.208 E27.54917
G1 X179.528 Y141.555 E27.6547
G1 X181.032 Y143.848 E27.75965
G1 X182.622 Y146.124 E27.8659
G1 X184.257 Y148.333 E27.97107
G1 X185.958 Y150.498 E28.07644
G1 X187.725 Y152.621 E28.18215
G1 X188.167 Y153.118 E28.2076
G1 X188.239 Y153.214 E28.21219
G1 X189.087 Y154.191 E28.2617
G1 X189.35 Y154.555 E28.27889
G1 X189.545 Y154.959 E28.29605
G1 X189.665 Y155.392 E28.31325
G1 X189.706 Y155.839 E28.33043
G1 X189.667 Y156.287 E28.34764
G1 X189.55 Y156.72 E28.3648
G1 X189.358 Y157.126 E28.38199
G1 X189.097 Y157.491 E28.39916
G1 X188.776 Y157.805 E28.41635
G1 X188.404 Y158.056 E28.43352
G1 X187.861 Y158.279 E28.45598
G1 X186.976 Y158.526 E28.49115
G1 X130.758 Y173.142 E30.71411
G1 X128.125 Y173.867 E30.81862
G1 X125.458 Y174.682 E30.92534
G1 X122.851 Y175.561 E31.03063
G1 X120.246 Y176.522 E31.13689
G1 X117.739 Y177.527 E31.24025
G1 X115.159 Y178.648 E31.34791
G1 X113.78 Y179.29 E31.40612
G1 X113.15 Y179.543 E31.4321
G1 X112.096 Y179.837 E31.47398
G1 X110.161 Y180.339 E31.55048
G1 X109.674 Y180.463 E31.56971
G1 X108.442 Y180.768 E31.61828
G1 X107.732 Y180.934 E31.64619
G1 X107.379 Y180.99 E31.65986
G1 X106.539 Y181.064 E31.69213
G1 X105.288 Y181.156 E31.74014
G1 X102.54 Y181.439 E31.84586
G1 X99.777 Y181.8 E31.9525
G1 X97.086 Y182.231 E32.05679
G1 X94.379 Y182.743 E32.16223
G1 X90.658 Y183.577 E32.30816
G1 X89.334 Y183.9 E32.36031
G1 X88.89 Y183.967 E32.3775
G1 X88.441 Y183.955 E32.39469
G1 X88.001 Y183.863 E32.41189
G1 X87.47 Y183.632 E32.43405
G1 X87.183 Y183.466 E32.44674
G1 X85.335 Y182.364 E32.52908
G1 X82.963 Y181.039 E32.63306
G1 X80.486 Y179.745 E32.74001
G1 X78.041 Y178.555 E32.84407
G1 X75.505 Y177.409 E32.95057
G1 X72.965 Y176.345 E33.05596
G1 X70.376 Y175.345 E33.16217
G1 X67.823 Y174.445 E33.26577
G1 X65.821 Y173.812 E33.34612
G1 X64.766 Y173.465 E33.38863
G1 X64.124 Y173.233 E33.41475
G1 X63.367 Y172.88 E33.44671
G1 X63.175 Y172.756 E33.45546
G1 X62.076 Y172.068 E33.50508
G1 X60.92 Y171.324 E33.55769
G1 X60.566 Y171.049 E33.57485
G1 X60.337 Y170.806 E33.58762
G1 X59.895 Y170.269 E33.61424
G1 X59.552 Y169.823 E33.63577
G1 X59.413 Y169.622 E33.64513
G1 X57.898 Y167.19 E33.75478
G1 X56.371 Y164.89 E33.86043
G1 X54.775 Y162.629 E33.96634
G1 X53.124 Y160.422 E34.07182
G1 X51.437 Y158.297 E34.17566
G1 X49.616 Y156.131 E34.28395
G1 X47.832 Y154.126 E34.38666
G1 X45.907 Y152.083 E34.49408
G1 X43.974 Y150.145 E34.59883
G1 X41.973 Y148.248 E34.70435
G1 X39.913 Y146.404 E34.81016
G1 X37.782 Y144.602 E34.91696
G1 X35.669 Y142.915 E35.02044
G1 X33.444 Y141.24 E35.12702
G1 X31.214 Y139.658 E35.23165
G1 X28.903 Y138.115 E35.33799
G1 X28.653 Y137.956 E35.34933
G1 X28.017 Y137.539 E35.37844
G1 X26.745 Y136.74 E35.43592
G1 X26.665 Y136.679 E35.43977
G1 X25.576 Y135.983 E35.48923
G1 X25.221 Y135.709 E35.50639
G1 X24.983 Y135.456 E35.51969
G1 X24.458 Y134.813 E35.55145
G1 X23.966 Y134.11 E35.58429
G1 X23.548 Y133.283 E35.61975
G1 X23.306 Y132.585 E35.64803
G1 X23.14 Y131.962 E35.6727
G1 X22.653 Y130.091 E35.74669
G1 X21.879 Y127.428 E35.85282
G1 X21.036 Y124.808 E35.95815
G1 X20.12 Y122.214 E36.06342
G1 X19.121 Y119.625 E36.16962
G1 X18.06 Y117.089 E36.27483
G1 X16.927 Y114.581 E36.38015
G1 X15.989 Y112.635 E36.46282
G1 X15.457 Y111.563 E36.50862
G1 X15.294 Y111.144 E36.52582
G1 X15.208 Y110.704 E36.54298
G1 X15.227 Y110.035 E36.56859
G1 X15.397 Y108.991 E36.60907
G1 X15.801 Y106.282 E36.71389
G1 X16.137 Y103.489 E36.82155
G1 X16.383 Y100.798 E36.92496
G1 X16.559 Y98.011 E37.03183
G1 X16.654 Y95.28 E37.13641
G1 X16.662 Y91.688 E37.27387
G1 X16.652 Y91.067 E37.29764
G1 X16.723 Y90.43 E37.32217
G1 X16.945 Y89.521 E37.35798
G1 X17.5 Y87.432 E37.4407
G1 X17.518 Y87.357 E37.44365
G1 X18.105 Y85.169 E37.53034
G1 X18.569 Y83.535 E37.59535
G1 X18.764 Y82.886 E37.62128
G1 X19.113 Y82.123 E37.65339
G1 X20.381 Y79.656 E37.75954
G1 X21.564 Y77.182 E37.86449
G1 X22.7 Y74.623 E37.97164
G1 X23.741 Y72.092 E38.07637
G1 X24.709 Y69.524 E38.1814
G1 X25.603 Y66.938 E38.28611
G1 X26.447 Y64.257 E38.39367
G1 X27.182 Y61.662 E38.49689
G1 X27.87 Y58.949 E38.604
G1 X28.477 Y56.245 E38.71006
G1 X28.996 Y53.559 E38.81475
G1 X29.44 Y50.865 E38.91924
G1 X29.811 Y48.13 E39.02487
G1 X30.11 Y45.34 E39.13225
G1 X30.272 Y43.246 E39.21262
G1 X30.32 Y42.706 E39.23337
G1 X30.469 Y41.967 E39.26222
G1 X30.546 Y41.668 E39.27404
G1 X30.773 Y40.756 E39.31
G1 X30.929 Y40.186 E39.33262
G1 X30.959 Y40.036 E39.33847
G1 X31.165 Y39.243 E39.36983
G1 X31.228 Y39.066 E39.37702
G1 X31.763 Y37.077 E39.45584
G1 X32.228 Y35.438 E39.52104
G1 X32.416 Y34.811 E39.54609
G1 X32.459 Y34.682 E39.5513
G1 X32.684 Y34.205 E39.57148
G1 X33.186 Y33.38 E39.60844
G1 X33.733 Y32.505 E39.64793
G1 X35.132 Y30.12 E39.75374
G1 X36.447 Y27.724 E39.85834
G1 X37.73 Y25.223 E39.96591
G1 X38.901 Y22.77 E40.06994
G1 X40.011 Y20.267 E40.17472
G1 X41.084 Y17.653 E40.28286
G1 X42.039 Y15.114 E40.38667
G0 F1285.7 X42.365 Y15.24
G1 F900 X42.966 Y13.505 E40.45694
G1 X43.291 Y12.726 E40.48924
G1 X43.538 Y12.391 E40.50517
G1 X43.845 Y12.109 E40.52112
G1 X44.2 Y11.891 E40.53706
G1 X44.59 Y11.745 E40.553
G1 X45.001 Y11.676 E40.56895
G1 X45.418 Y11.686 E40.58491
G1 X45.825 Y11.775 E40.60086
G1 X46.207 Y11.941 E40.6168
G1 X46.644 Y12.259 E40.63748
G1 X46.922 Y12.521 E40.6521
G1 X111.843 Y77.433 E44.16546
G1 X113.858 Y79.392 E44.27301
G1 X115.887 Y81.255 E44.37843
G1 X117.974 Y83.064 E44.48412
G1 X120.118 Y84.821 E44.59021
G1 X122.302 Y86.509 E44.69584
G1 X124.551 Y88.148 E44.80234
G1 X126.823 Y89.707 E44.90779
G1 X129.153 Y91.212 E45.01394
G1 X131.518 Y92.645 E45.11977
G1 X133.926 Y94.013 E45.22575
G1 X135.251 Y94.714 E45.28312
G1 X136.02 Y95.136 E45.31669
G1 X136.54 Y95.518 E45.34138
G1 X136.983 Y95.903 E45.36384
G1 X137.224 Y96.141 E45.3768
G1 X138.199 Y97.181 E45.43136
G1 X138.83 Y97.842 E45.46633
G1 X139.221 Y98.318 E45.4899
G1 X139.321 Y98.46 E45.49655
G1 X139.636 Y98.946 E45.51872
G1 X140.552 Y100.4 E45.58448
G1 X142.089 Y102.698 E45.69028
G1 X143.717 Y104.983 E45.79765
G1 X145.351 Y107.15 E45.90152
G1 X147.105 Y109.343 E46.00898
G1 X148.902 Y111.461 E46.11528
G1 X150.742 Y113.51 E46.22067
G1 X152.619 Y115.487 E46.325
G1 X154.595 Y117.451 E46.43162
G1 X156.62 Y119.355 E46.53799
G1 X158.704 Y121.205 E46.64463
G1 X160.811 Y122.973 E46.74989
G1 X162.97 Y124.682 E46.85527
G1 X165.2 Y126.348 E46.9618
G1 X167.459 Y127.937 E47.06749
G1 X169.753 Y129.455 E47.17276
G1 X170.292 Y129.792 E47.19709
G1 X171.502 Y130.562 E47.25198
G1 X171.751 Y130.747 E47.26385
G1 X172.247 Y131.173 E47.28887
G1 X172.579 Y131.492 E47.30649
G1 X173.283 Y132.246 E47.34597
G1 X174.217 Y133.234 E47.398
