;FLAVOR:Marlin
;TIME:11963
;Filament used: 14.5201m
;Layer height: 0.3
;MINX:34.937
;MINY:10.702
;MINZ:0.26
;MAXX:194.382
;MAXY:192.632
;MAXZ:7.76
;Generated with Cura_SteamEngine 4.9.1
M82 ;absolute extrusion mode
;Begin Start Gcode for Dagoma DiscoEasy 200
;Sliced: 07-07-2021 20:20:38
;Initial extruder: 0

G90 ;Absolute positioning
M106 S255 ;Fan on full
G28 X Y ;Home stop X Y
G1 X100 ;Centre back during cooldown in case of oozing
M109 R90 ;Cooldown in case too hot
G28 ;Centre
G29 ;Auto-level
M104 S205 ;Pre-heat
M107 ;Fan off
G0 X100 Y5 Z0.5 ;Front centre for degunk
M109 S205 ;Wait for initial temp
M83 ;E Relative
G1 E10 F200 ;Degunk
G1 E-3 F5000 ;Retract
G0 Z3 ;Withdraw
M82 ;E absolute
G92 E0 ;E reset
G1 F6000 ;Set feedrate

;Finish Start Gcode for Dagoma DiscoEasy 200

G92 E0
G92 E0
G1 F3000 E-3.5
;LAYER_COUNT:26
;LAYER:0
M107
G0 F1285.7 X85.133 Y13.152 Z0.26
;TYPE:SKIRT
G1 F3000 E0
G1 F900 X85.46 Y12.603 E0.02445
G1 X85.778 Y12.147 E0.04573
G1 X86.159 Y11.741 E0.06704
G1 X86.593 Y11.393 E0.08833
G1 X87.073 Y11.112 E0.10961
G1 X87.588 Y10.902 E0.1309
G1 X88.128 Y10.768 E0.15219
G1 X88.752 Y10.711 E0.17617
G1 X89.78 Y10.702 E0.21551
G1 X189.901 Y11.69 E4.04728
G1 X190.598 Y11.706 E4.07396
G1 X191.152 Y11.759 E4.09526
G1 X191.693 Y11.89 E4.11656
G1 X192.209 Y12.098 E4.13785
G1 X192.69 Y12.377 E4.15913
G1 X193.126 Y12.722 E4.18041
G1 X193.509 Y13.127 E4.20174
G1 X193.829 Y13.582 E4.22303
G1 X194.081 Y14.078 E4.24432
G1 X194.259 Y14.605 E4.26561
G1 X194.36 Y15.152 E4.2869
G1 X194.382 Y15.708 E4.30819
G1 X194.324 Y16.261 E4.32947
G1 X194.187 Y16.801 E4.35079
G1 X193.932 Y17.396 E4.37556
G1 X193.676 Y17.864 E4.39598
G1 X94.218 Y190.131 E12.00842
G1 X93.86 Y190.735 E12.03529
G1 X93.543 Y191.192 E12.05657
G1 X93.164 Y191.599 E12.07786
G1 X92.73 Y191.947 E12.09915
G1 X92.25 Y192.23 E12.12047
G1 X91.736 Y192.441 E12.14173
G1 X91.196 Y192.576 E12.16304
G1 X90.642 Y192.632 E12.18435
G1 X90.086 Y192.609 E12.20564
G1 X89.539 Y192.506 E12.22694
G1 X89.013 Y192.326 E12.24822
G1 X88.518 Y192.072 E12.26951
G1 X88.064 Y191.75 E12.29081
G1 X87.661 Y191.367 E12.31209
G1 X87.253 Y190.832 E12.33784
G1 X86.914 Y190.281 E12.36259
G1 X35.796 Y103.723 E16.20965
G1 X35.442 Y103.104 E16.23694
G1 X35.201 Y102.602 E16.25825
G1 X35.035 Y102.071 E16.27954
G1 X34.946 Y101.522 E16.30082
G1 X34.937 Y100.966 E16.3221
G1 X35.008 Y100.414 E16.3434
G1 X35.156 Y99.878 E16.36468
G1 X35.411 Y99.312 E16.38844
G1 X35.91 Y98.406 E16.42802
G1 X85.133 Y13.152 E20.19541
G0 F1285.7 X85.434 Y13.331
G1 F900 X85.761 Y12.782 E20.21987
G1 X86.066 Y12.348 E20.24017
G1 X86.432 Y11.965 E20.26044
G1 X86.853 Y11.64 E20.2808
G1 X87.317 Y11.383 E20.3011
G1 X87.814 Y11.198 E20.32139
G1 X88.334 Y11.091 E20.34171
G1 X88.756 Y11.061 E20.3579
G1 X89.777 Y11.052 E20.39697
G1 X189.893 Y12.04 E24.22855
G1 X190.59 Y12.056 E24.25523
G1 X191.118 Y12.108 E24.27554
G1 X191.632 Y12.239 E24.29583
G1 X192.121 Y12.445 E24.31614
G1 X192.573 Y12.723 E24.33645
G1 X192.979 Y13.065 E24.35676
G1 X193.328 Y13.464 E24.37705
G1 X193.614 Y13.912 E24.39739
G1 X193.829 Y14.397 E24.41769
G1 X193.969 Y14.908 E24.43797
G1 X194.031 Y15.436 E24.45832
G1 X194.013 Y15.966 E24.47861
G1 X193.915 Y16.487 E24.4989
G1 X193.74 Y16.988 E24.51921
G1 X193.477 Y17.505 E24.54141
G1 X193.373 Y17.689 E24.54949
G1 X93.917 Y189.952 E32.16177
G1 X93.559 Y190.556 E32.18864
G1 X93.255 Y190.991 E32.20895
G1 X92.889 Y191.375 E32.22925
G1 X92.47 Y191.7 E32.24954
G1 X92.006 Y191.959 E32.26988
G1 X91.509 Y192.144 E32.29017
G1 X90.99 Y192.253 E32.31047
G1 X90.46 Y192.283 E32.33078
G1 X89.932 Y192.233 E32.35108
G1 X89.417 Y192.105 E32.37139
G1 X88.927 Y191.9 E32.39171
G1 X88.474 Y191.624 E32.41201
G1 X88.067 Y191.284 E32.43231
G1 X87.716 Y190.886 E32.45262
G1 X87.435 Y190.465 E32.47199
G1 X87.197 Y190.071 E32.4896
G1 X36.1 Y103.549 E36.33506
G1 X35.746 Y102.93 E36.36235
G1 X35.518 Y102.451 E36.38265
G1 X35.365 Y101.943 E36.40296
G1 X35.289 Y101.418 E36.42326
G1 X35.293 Y100.887 E36.44358
G1 X35.377 Y100.363 E36.46389
G1 X35.539 Y99.857 E36.48422
G1 X35.718 Y99.481 E36.50016
G1 X36.213 Y98.581 E36.53947
G1 X85.434 Y13.331 E40.30669
G0 F1285.7 X85.734 Y13.51
G1 F900 X86.061 Y12.961 E40.33114
G1 X86.352 Y12.55 E40.35041
G1 X86.705 Y12.191 E40.36968
G1 X87.11 Y11.891 E40.38897
G1 X87.557 Y11.66 E40.40823
G1 X88.035 Y11.502 E40.42749
G1 X88.759 Y11.411 E40.45542
G1 X89.773 Y11.402 E40.49422
G1 X189.885 Y12.39 E44.32565
G1 X190.582 Y12.406 E44.35233
G1 X191.083 Y12.457 E44.3716
G1 X191.569 Y12.587 E44.39085
G1 X192.029 Y12.793 E44.41014
G1 X192.451 Y13.068 E44.42942
G1 X192.824 Y13.407 E44.44871
G1 X193.138 Y13.8 E44.46796
G1 X193.386 Y14.238 E44.48722
G1 X193.562 Y14.71 E44.5065
G1 X193.662 Y15.204 E44.52579
G1 X193.681 Y15.707 E44.54505
G1 X193.622 Y16.207 E44.56432
G1 X193.483 Y16.691 E44.58359
G1 X193.21 Y17.264 E44.60788
G1 X193.07 Y17.514 E44.61885
G1 X93.616 Y189.774 E52.23098
G1 X93.258 Y190.378 E52.25785
G1 X92.968 Y190.789 E52.2771
G1 X92.616 Y191.15 E52.2964
G1 X92.212 Y191.45 E52.31565
G1 X91.765 Y191.683 E52.33494
G1 X91.287 Y191.842 E52.35422
G1 X90.791 Y191.923 E52.37346
G1 X90.287 Y191.925 E52.39274
G1 X89.789 Y191.847 E52.41203
G1 X89.31 Y191.692 E52.4313
G1 X88.862 Y191.462 E52.45057
G1 X88.456 Y191.165 E52.46982
G1 X88.101 Y190.807 E52.48912
G1 X87.731 Y190.278 E52.51382
G1 X87.498 Y189.894 E52.53101
G1 X36.404 Y103.375 E56.37632
G1 X36.05 Y102.756 E56.40361
G1 X35.835 Y102.301 E56.42286
G1 X35.696 Y101.817 E56.44214
G1 X35.634 Y101.317 E56.46142
G1 X35.652 Y100.814 E56.48068
G1 X35.75 Y100.32 E56.49995
G1 X36.024 Y99.649 E56.52769
G1 X36.516 Y98.756 E56.56671
G1 X85.734 Y13.51 E60.33374
G1 F3000 E56.83374
;MESH:support_half_hex_34.stl
G0 F1285.7 X88.077 Y14.523
G0 X89.099 Y15.113
G0 X189.325 Y16.184
G0 X189.325 Y16.087
;TYPE:WALL-INNER
G1 F3000 E60.33374
G1 F900 X189.622 Y16.088 E60.3451
G1 X189.473 Y16.346 E60.35157
G1 X90.67 Y187.478 E67.91386
G1 X90.521 Y187.736 E67.92527
G1 X90.37 Y187.48 E67.93172
G1 X90.369 Y187.479 E67.93177
G1 X39.396 Y101.168 E71.76787
G1 X89.09 Y15.096 E75.57138
G1 X189.324 Y16.086 E79.40748
G1 X189.325 Y16.087 E79.40753
G0 F1285.7 X189.885 Y15.767
;TYPE:WALL-OUTER
G1 F900 X190.182 Y15.768 E79.4189
G1 X190.033 Y16.026 E79.42536
G1 X90.673 Y188.122 E87.03026
G1 X90.524 Y188.38 E87.04167
G1 X90.373 Y188.124 E87.04812
G1 X90.372 Y188.123 E87.04817
G1 X39.02 Y101.17 E90.9128
G1 X88.904 Y14.769 E94.73085
G1 X189.884 Y15.766 E98.5955
G1 X189.885 Y15.767 E98.59555
G0 F1285.7 X190.085 Y15.767
G0 X189.536 Y16.137
G0 X189.036 Y16.422
;TYPE:SKIN
G1 F900 X90.517 Y187.062 E106.1361
G1 X39.79 Y101.166 E109.95373
G1 X89.286 Y15.438 E113.74206
G1 X189.036 Y16.422 E117.55963
G0 F1285.7 X188.606 Y16.85
G1 F900 X188.327 Y16.571 E117.57473
G0 F1285.7 X187.828 Y16.566
G1 F900 X188.425 Y17.164 E117.60707
G0 F1285.7 X188.244 Y17.478
G1 F900 X187.328 Y16.561 E117.65667
G0 F1285.7 X186.828 Y16.556
G1 F900 X188.063 Y17.792 E117.72354
G0 F1285.7 X187.882 Y18.106
G1 F900 X186.329 Y16.552 E117.80761
G0 F1285.7 X185.829 Y16.547
G1 F900 X187.7 Y18.419 E117.9089
G0 F1285.7 X187.519 Y18.733
G1 F900 X185.329 Y16.542 E118.02745
G0 F1285.7 X184.829 Y16.537
G1 F900 X187.338 Y19.047 E118.16327
G0 F1285.7 X187.157 Y19.361
G1 F900 X184.329 Y16.532 E118.31635
G0 F1285.7 X183.829 Y16.527
G1 F900 X186.976 Y19.675 E118.4867
G0 F1285.7 X186.794 Y19.988
G1 F900 X183.329 Y16.522 E118.67426
G0 F1285.7 X182.829 Y16.518
G1 F900 X186.613 Y20.302 E118.87905
G0 F1285.7 X186.432 Y20.616
G1 F900 X182.329 Y16.513 E119.10111
G0 F1285.7 X181.829 Y16.508
G1 F900 X186.251 Y20.93 E119.34044
G0 F1285.7 X186.07 Y21.243
G1 F900 X181.329 Y16.503 E119.597
G0 F1285.7 X180.829 Y16.498
G1 F900 X185.889 Y21.557 E119.87082
G0 F1285.7 X185.708 Y21.871
G1 F900 X180.329 Y16.493 E120.16192
G0 F1285.7 X179.829 Y16.488
G1 F900 X185.527 Y22.185 E120.47027
G0 F1285.7 X185.346 Y22.499
G1 F900 X179.33 Y16.483 E120.79586
G0 F1285.7 X178.83 Y16.478
G1 F900 X185.164 Y22.812 E121.13867
G0 F1285.7 X184.983 Y23.126
G1 F900 X178.33 Y16.473 E121.49874
G0 F1285.7 X177.83 Y16.468
G1 F900 X184.802 Y23.44 E121.87607
G0 F1285.7 X184.621 Y23.754
G1 F900 X177.33 Y16.463 E122.27067
G0 F1285.7 X176.83 Y16.458
G1 F900 X184.439 Y24.067 E122.68248
G0 F1285.7 X184.258 Y24.381
G1 F900 X176.33 Y16.453 E123.11155
G0 F1285.7 X175.83 Y16.448
G1 F900 X184.077 Y24.695 E123.55789
G0 F1285.7 X183.896 Y25.009
G1 F900 X175.33 Y16.443 E124.02149
G0 F1285.7 X174.83 Y16.438
G1 F900 X183.715 Y25.323 E124.50236
G0 F1285.7 X183.533 Y25.636
G1 F900 X174.33 Y16.433 E125.00044
G0 F1285.7 X173.83 Y16.428
G1 F900 X183.352 Y25.95 E125.51578
G0 F1285.7 X183.171 Y26.264
G1 F900 X173.33 Y16.423 E126.04839
G0 F1285.7 X172.831 Y16.419
G1 F900 X182.99 Y26.578 E126.59821
G0 F1285.7 X182.809 Y26.892
G1 F900 X172.331 Y16.414 E127.16529
G0 F1285.7 X171.831 Y16.409
G1 F900 X182.628 Y27.205 E127.74961
G0 F1285.7 X182.446 Y27.519
G1 F900 X171.331 Y16.404 E128.35117
G0 F1285.7 X170.831 Y16.399
G1 F900 X182.265 Y27.833 E128.96999
G0 F1285.7 X182.084 Y28.147
G1 F900 X170.331 Y16.394 E129.60608
G0 F1285.7 X169.831 Y16.389
G1 F900 X181.903 Y28.461 E130.25943
G0 F1285.7 X181.722 Y28.775
G1 F900 X169.331 Y16.384 E130.93005
G0 F1285.7 X168.832 Y16.38
G1 F900 X181.541 Y29.088 E131.61785
G0 F1285.7 X181.36 Y29.402
G1 F900 X168.332 Y16.375 E132.32291
G0 F1285.7 X167.832 Y16.37
G1 F900 X181.179 Y29.716 E133.04524
G0 F1285.7 X180.997 Y30.03
G1 F900 X167.332 Y16.365 E133.78481
G0 F1285.7 X166.832 Y16.36
G1 F900 X180.816 Y30.344 E134.54164
G0 F1285.7 X180.635 Y30.658
G1 F900 X166.332 Y16.355 E135.31574
G0 F1285.7 X165.832 Y16.35
G1 F900 X180.454 Y30.971 E136.10707
G0 F1285.7 X180.272 Y31.285
G1 F900 X165.332 Y16.345 E136.91564
G0 F1285.7 X164.832 Y16.34
G1 F900 X180.091 Y31.599 E137.74148
G0 F1285.7 X179.91 Y31.913
G1 F900 X164.333 Y16.335 E138.58455
G0 F1285.7 X163.833 Y16.33
G1 F900 X179.729 Y32.227 E139.44489
G0 F1285.7 X179.548 Y32.541
G1 F900 X163.333 Y16.325 E140.3225
G0 F1285.7 X162.833 Y16.32
G1 F900 X179.366 Y32.854 E141.21731
G0 F1285.7 X179.185 Y33.168
G1 F900 X162.333 Y16.315 E142.12939
G0 F1285.7 X161.833 Y16.31
G1 F900 X179.004 Y33.482 E143.05873
G0 F1285.7 X178.823 Y33.796
G1 F900 X161.333 Y16.305 E144.00534
G0 F1285.7 X160.833 Y16.3
G1 F900 X178.642 Y34.11 E144.96921
G0 F1285.7 X178.461 Y34.423
G1 F900 X160.333 Y16.295 E145.95032
G0 F1285.7 X159.833 Y16.291
G1 F900 X178.28 Y34.737 E146.94867
G0 F1285.7 X178.098 Y35.051
G1 F900 X159.333 Y16.286 E147.96426
G0 F1285.7 X158.833 Y16.281
G1 F900 X177.917 Y35.365 E148.99711
G0 F1285.7 X177.736 Y35.678
G1 F900 X158.333 Y16.276 E150.0472
G0 F1285.7 X157.834 Y16.271
G1 F900 X177.555 Y35.992 E151.11452
G0 F1285.7 X177.374 Y36.306
G1 F900 X157.334 Y16.266 E152.19911
G0 F1285.7 X156.834 Y16.261
G1 F900 X177.193 Y36.62 E153.30097
G0 F1285.7 X177.012 Y36.934
G1 F900 X156.334 Y16.256 E154.42009
G0 F1285.7 X155.834 Y16.251
G1 F900 X176.83 Y37.247 E155.55642
G0 F1285.7 X176.649 Y37.561
G1 F900 X155.334 Y16.246 E156.71001
G0 F1285.7 X154.834 Y16.241
G1 F900 X176.468 Y37.875 E157.88087
G0 F1285.7 X176.287 Y38.189
G1 F900 X154.334 Y16.236 E159.069
G0 F1285.7 X153.834 Y16.231
G1 F900 X176.105 Y38.502 E160.27433
G0 F1285.7 X175.924 Y38.816
G1 F900 X153.334 Y16.226 E161.49693
G0 F1285.7 X152.834 Y16.221
G1 F900 X175.743 Y39.13 E162.73679
G0 F1285.7 X175.562 Y39.444
G1 F900 X152.334 Y16.216 E163.99392
G0 F1285.7 X151.834 Y16.211
G1 F900 X175.381 Y39.758 E165.26832
G0 F1285.7 X175.199 Y40.071
G1 F900 X151.335 Y16.207 E166.55987
G0 F1285.7 X150.835 Y16.202
G1 F900 X175.018 Y40.385 E167.86868
G0 F1285.7 X174.837 Y40.699
G1 F900 X150.335 Y16.197 E169.19476
G0 F1285.7 X149.835 Y16.192
G1 F900 X174.656 Y41.013 E170.53811
G0 F1285.7 X174.475 Y41.326
G1 F900 X149.336 Y16.187 E171.89866
G0 F1285.7 X148.836 Y16.182
G1 F900 X174.294 Y41.64 E173.27648
G0 F1285.7 X174.113 Y41.954
G1 F900 X148.336 Y16.177 E174.67156
G0 F1285.7 X147.836 Y16.172
G1 F900 X173.932 Y42.268 E176.08391
G0 F1285.7 X173.75 Y42.582
G1 F900 X147.336 Y16.167 E177.5135
G0 F1285.7 X146.836 Y16.163
G1 F900 X173.569 Y42.895 E178.9603
G0 F1285.7 X173.388 Y43.209
G1 F900 X146.336 Y16.158 E180.42436
G0 F1285.7 X145.836 Y16.153
G1 F900 X173.207 Y43.523 E181.90568
G0 F1285.7 X173.026 Y43.837
G1 F900 X145.336 Y16.148 E183.40427
G0 F1285.7 X144.836 Y16.143
G1 F900 X172.845 Y44.151 E184.92013
G0 F1285.7 X172.663 Y44.464
G1 F900 X144.336 Y16.138 E186.4532
G0 F1285.7 X143.836 Y16.133
G1 F900 X172.482 Y44.778 E188.00353
G0 F1285.7 X172.301 Y45.092
G1 F900 X143.336 Y16.128 E189.57112
G0 F1285.7 X142.836 Y16.123
G1 F900 X172.12 Y45.406 E191.15598
G0 F1285.7 X171.938 Y45.72
G1 F900 X142.337 Y16.118 E192.75805
G0 F1285.7 X141.837 Y16.113
G1 F900 X171.757 Y46.034 E194.37739
G0 F1285.7 X171.576 Y46.348
G1 F900 X141.337 Y16.108 E196.01399
G0 F1285.7 X140.837 Y16.103
G1 F900 X171.395 Y46.661 E197.66783
G0 F1285.7 X171.214 Y46.975
G1 F900 X140.337 Y16.098 E199.33893
G0 F1285.7 X139.837 Y16.093
G1 F900 X171.032 Y47.289 E201.02727
G0 F1285.7 X170.851 Y47.603
G1 F900 X139.337 Y16.088 E202.73288
G0 F1285.7 X138.837 Y16.083
G1 F900 X170.67 Y47.917 E204.45575
G0 F1285.7 X170.489 Y48.231
G1 F900 X138.337 Y16.078 E206.19588
G0 F1285.7 X137.837 Y16.073
G1 F900 X170.308 Y48.544 E207.95325
G0 F1285.7 X170.127 Y48.858
G1 F900 X137.337 Y16.069 E209.72786
G0 F1285.7 X136.837 Y16.064
G1 F900 X169.946 Y49.172 E211.51974
G0 F1285.7 X169.765 Y49.486
G1 F900 X136.337 Y16.059 E213.32887
G0 F1285.7 X135.838 Y16.054
G1 F900 X169.584 Y49.8 E215.15525
G0 F1285.7 X169.402 Y50.113
G1 F900 X135.338 Y16.049 E216.99884
G0 F1285.7 X134.838 Y16.044
G1 F900 X169.221 Y50.427 E218.85969
G0 F1285.7 X169.04 Y50.741
G1 F900 X134.338 Y16.04 E220.73778
G0 F1285.7 X133.839 Y16.035
G1 F900 X168.859 Y51.055 E222.63311
G0 F1285.7 X168.678 Y51.369
G1 F900 X133.339 Y16.03 E224.5457
G0 F1285.7 X132.839 Y16.025
G1 F900 X168.496 Y51.682 E226.4755
G0 F1285.7 X168.315 Y51.996
G1 F900 X132.339 Y16.02 E228.42257
G0 F1285.7 X131.839 Y16.015
G1 F900 X168.134 Y52.31 E230.3869
G0 F1285.7 X167.953 Y52.624
G1 F900 X131.339 Y16.01 E232.36849
G0 F1285.7 X130.839 Y16.005
G1 F900 X167.771 Y52.937 E234.3673
G0 F1285.7 X167.59 Y53.251
G1 F900 X130.339 Y16 E236.38337
G0 F1285.7 X129.839 Y15.995
G1 F900 X167.409 Y53.565 E238.41671
G0 F1285.7 X167.228 Y53.879
G1 F900 X129.339 Y15.99 E240.46731
G0 F1285.7 X128.839 Y15.985
G1 F900 X167.047 Y54.193 E242.53518
G0 F1285.7 X166.865 Y54.506
G1 F900 X128.339 Y15.98 E244.62025
G0 F1285.7 X127.839 Y15.975
G1 F900 X166.684 Y54.82 E246.72259
G0 F1285.7 X166.503 Y55.134
G1 F900 X127.34 Y15.97 E248.84217
G0 F1285.7 X126.84 Y15.965
G1 F900 X166.322 Y55.448 E250.97902
G0 F1285.7 X166.141 Y55.761
G1 F900 X126.34 Y15.96 E253.1331
G0 F1285.7 X125.84 Y15.955
G1 F900 X165.96 Y56.075 E255.30444
G0 F1285.7 X165.779 Y56.389
G1 F900 X125.34 Y15.95 E257.49305
G0 F1285.7 X124.84 Y15.945
G1 F900 X165.598 Y56.703 E259.69893
G0 F1285.7 X165.417 Y57.017
G1 F900 X124.34 Y15.941 E261.92204
G0 F1285.7 X123.84 Y15.936
G1 F900 X165.235 Y57.33 E264.16236
G0 F1285.7 X165.054 Y57.644
G1 F900 X123.34 Y15.931 E266.41995
G0 F1285.7 X122.84 Y15.926
G1 F900 X164.873 Y57.958 E268.6948
G0 F1285.7 X164.692 Y58.272
G1 F900 X122.34 Y15.921 E270.98692
G0 F1285.7 X121.84 Y15.916
G1 F900 X164.511 Y58.586 E273.2963
G0 F1285.7 X164.329 Y58.899
G1 F900 X121.34 Y15.911 E275.62289
G0 F1285.7 X120.841 Y15.906
G1 F900 X164.148 Y59.213 E277.96672
G0 F1285.7 X163.967 Y59.527
G1 F900 X120.341 Y15.901 E280.32782
G0 F1285.7 X119.841 Y15.896
G1 F900 X163.786 Y59.841 E282.70618
G0 F1285.7 X163.604 Y60.154
G1 F900 X119.341 Y15.891 E285.10175
G0 F1285.7 X118.841 Y15.886
G1 F900 X163.423 Y60.468 E287.51458
G0 F1285.7 X163.242 Y60.782
G1 F900 X118.341 Y15.881 E289.94468
G0 F1285.7 X117.841 Y15.876
G1 F900 X163.061 Y61.096 E292.39205
G0 F1285.7 X162.88 Y61.41
G1 F900 X117.341 Y15.871 E294.85667
G0 F1285.7 X116.842 Y15.867
G1 F900 X162.698 Y61.724 E297.33849
G0 F1285.7 X162.517 Y62.038
G1 F900 X116.342 Y15.862 E299.83756
G0 F1285.7 X115.842 Y15.857
G1 F900 X162.336 Y62.351 E302.35388
G0 F1285.7 X162.155 Y62.665
G1 F900 X115.342 Y15.852 E304.88746
G0 F1285.7 X114.842 Y15.847
G1 F900 X161.974 Y62.979 E307.4383
