;FLAVOR:Marlin
;TIME:12856
;Filament used: 10.0925m
;Layer height: 0.2
;MINX:2.717
;MINY:23.85
;MINZ:0.26
;MAXX:179.916
;MAXY:199.199
;MAXZ:7.86
;Generated with Cura_SteamEngine 4.9.1
M82 ;absolute extrusion mode
;Begin Start Gcode for Dagoma DiscoEasy 200
;Sliced: 13-07-2021 17:06:45
;Initial extruder: 0

G90 ;Absolute positioning
M106 S255 ;Fan on full
G28 X Y ;Home stop X Y
G1 X100 ;Centre back during cooldown in case of oozing
M109 R90 ;Cooldown in case too hot
G28 ;Centre
G29 ;Auto-level
M104 S205 ;Pre-heat
M107 ;Fan off
G0 X100 Y5 Z0.5 ;Front centre for degunk
M109 S205 ;Wait for initial temp
M83 ;E Relative
G1 E10 F200 ;Degunk
G1 E-3 F5000 ;Retract
G0 Z3 ;Withdraw
M82 ;E absolute
G92 E0 ;E reset
G1 F6000 ;Set feedrate

;Finish Start Gcode for Dagoma DiscoEasy 200

G92 E0
G92 E0
G1 F3000 E-3.5
;LAYER_COUNT:39
;LAYER:0
M107
G0 F1285.7 X31.119 Y25.161 Z0.26
;TYPE:SKIRT
G1 F3000 E0
G1 F900 X31.516 Y24.772 E0.02127
G1 X31.965 Y24.443 E0.04257
G1 X32.456 Y24.182 E0.06385
G1 X32.98 Y23.994 E0.08516
G1 X33.525 Y23.882 E0.10645
G1 X34.081 Y23.85 E0.12776
G1 X34.635 Y23.898 E0.14904
G1 X35.177 Y24.025 E0.17035
G1 X35.695 Y24.228 E0.19164
G1 X36.179 Y24.504 E0.21296
G1 X36.683 Y24.905 E0.23761
G1 X37.008 Y25.214 E0.25477
G1 X178.305 Y166.493 E7.90146
G1 X178.825 Y167.028 E7.93001
G1 X179.183 Y167.454 E7.95131
G1 X179.476 Y167.927 E7.9726
G1 X179.699 Y168.437 E7.9939
G1 X179.847 Y168.973 E8.01518
G1 X179.916 Y169.525 E8.03647
G1 X179.905 Y170.082 E8.05779
G1 X179.815 Y170.631 E8.07908
G1 X179.647 Y171.161 E8.10036
G1 X179.404 Y171.662 E8.12167
G1 X179.093 Y172.123 E8.14295
G1 X178.719 Y172.535 E8.16424
G1 X178.289 Y172.889 E8.18556
G1 X177.814 Y173.177 E8.20682
G1 X177.089 Y173.461 E8.23661
G1 X176.184 Y173.713 E8.27257
G1 X79.223 Y198.921 E12.10657
G1 X78.531 Y199.091 E12.13384
G1 X77.983 Y199.185 E12.15512
G1 X77.427 Y199.199 E12.1764
G1 X76.874 Y199.133 E12.19771
G1 X76.337 Y198.989 E12.21899
G1 X75.826 Y198.769 E12.24028
G1 X75.351 Y198.479 E12.26158
G1 X74.833 Y198.042 E12.28752
G1 X74.509 Y197.726 E12.30484
G1 X4.28 Y127.508 E16.10542
G1 X3.807 Y127.021 E16.1314
G1 X3.449 Y126.595 E16.1527
G1 X3.156 Y126.122 E16.17399
G1 X2.933 Y125.612 E16.19529
G1 X2.786 Y125.075 E16.2166
G1 X2.717 Y124.523 E16.23789
G1 X2.748 Y123.794 E16.26581
G1 X2.92 Y123.017 E16.29627
G1 X2.944 Y122.925 E16.29991
G1 X30.129 Y27.226 E20.10716
G1 X30.314 Y26.61 E20.13177
G1 X30.512 Y26.09 E20.15307
G1 X30.782 Y25.604 E20.17434
G1 X31.119 Y25.161 E20.19565
G0 F1285.7 X31.431 Y25.338
G1 F900 X31.819 Y24.976 E20.21595
G1 X32.256 Y24.676 E20.23624
G1 X32.734 Y24.445 E20.25656
G1 X33.241 Y24.288 E20.27687
G1 X33.766 Y24.21 E20.29718
G1 X34.297 Y24.21 E20.3175
G1 X34.821 Y24.291 E20.33779
G1 X35.328 Y24.449 E20.35812
G1 X35.804 Y24.682 E20.3784
G1 X36.241 Y24.984 E20.39873
G1 X36.686 Y25.389 E20.42175
G1 X178.054 Y166.737 E28.07223
G1 X178.574 Y167.272 E28.10078
G1 X178.914 Y167.679 E28.12107
G1 X179.189 Y168.133 E28.14139
G1 X179.393 Y168.623 E28.1617
G1 X179.521 Y169.138 E28.18201
G1 X179.57 Y169.666 E28.2023
G1 X179.54 Y170.196 E28.22262
G1 X179.43 Y170.715 E28.24292
G1 X179.244 Y171.212 E28.26323
G1 X178.985 Y171.675 E28.28353
G1 X178.659 Y172.095 E28.30388
G1 X178.275 Y172.46 E28.32415
G1 X177.839 Y172.764 E28.34449
G1 X177.364 Y172.998 E28.36476
G1 X176.995 Y173.124 E28.37968
G1 X176.096 Y173.375 E28.4154
G1 X79.14 Y198.581 E32.2492
G1 X78.448 Y198.751 E32.27647
G1 X77.925 Y198.839 E32.29676
G1 X77.394 Y198.847 E32.31709
G1 X76.868 Y198.775 E32.33741
G1 X76.359 Y198.625 E32.35771
G1 X75.878 Y198.4 E32.37803
G1 X75.437 Y198.106 E32.39832
G1 X74.989 Y197.707 E32.42128
G1 X74.757 Y197.479 E32.43372
G1 X4.531 Y127.264 E36.23415
G1 X4.058 Y126.777 E36.26013
G1 X3.718 Y126.37 E36.28042
G1 X3.443 Y125.916 E36.30074
G1 X3.24 Y125.426 E36.32104
G1 X3.112 Y124.911 E36.34134
G1 X3.063 Y124.382 E36.36167
G1 X3.095 Y123.84 E36.38245
G1 X3.259 Y123.104 E36.41131
G1 X3.281 Y123.021 E36.4146
G1 X30.464 Y27.327 E40.22165
G1 X30.649 Y26.711 E40.24626
G1 X30.839 Y26.216 E40.26655
G1 X31.102 Y25.755 E40.28686
G1 X31.431 Y25.338 E40.30719
G0 F1285.7 X31.741 Y25.519
G1 F900 X32.119 Y25.186 E40.32647
G1 X32.544 Y24.916 E40.34574
G1 X33.007 Y24.718 E40.36501
G1 X33.495 Y24.594 E40.38428
G1 X33.997 Y24.55 E40.40356
G1 X34.499 Y24.586 E40.42282
G1 X34.99 Y24.7 E40.44211
G1 X35.456 Y24.891 E40.46139
G1 X35.886 Y25.153 E40.48066
G1 X36.446 Y25.643 E40.50913
G1 X177.803 Y166.981 E48.15904
G1 X178.323 Y167.516 E48.18759
G1 X178.644 Y167.904 E48.20686
G1 X178.9 Y168.338 E48.22615
G1 X179.084 Y168.806 E48.24539
G1 X179.192 Y169.298 E48.26467
G1 X179.22 Y169.801 E48.28395
G1 X179.169 Y170.302 E48.30322
G1 X179.039 Y170.789 E48.32251
G1 X178.834 Y171.248 E48.34175
G1 X178.558 Y171.67 E48.36104
G1 X178.22 Y172.043 E48.38031
G1 X177.827 Y172.358 E48.39958
G1 X177.389 Y172.606 E48.41884
G1 X176.901 Y172.787 E48.43876
G1 X176.008 Y173.036 E48.47424
G1 X79.056 Y198.241 E52.30788
G1 X78.364 Y198.411 E52.33515
G1 X77.867 Y198.492 E52.35442
G1 X77.364 Y198.494 E52.37367
G1 X76.866 Y198.415 E52.39297
G1 X76.388 Y198.259 E52.41221
G1 X75.939 Y198.03 E52.4315
G1 X75.457 Y197.665 E52.45464
G1 X75.026 Y197.253 E52.47746
G1 X4.782 Y127.02 E56.27885
G1 X4.309 Y126.533 E56.30483
G1 X3.988 Y126.145 E56.32411
G1 X3.733 Y125.711 E56.34337
G1 X3.549 Y125.243 E56.36261
G1 X3.441 Y124.751 E56.38189
G1 X3.413 Y124.248 E56.40117
G1 X3.514 Y123.514 E56.42952
G1 X3.618 Y123.116 E56.44527
G1 X30.799 Y27.428 E60.25207
G1 X30.984 Y26.812 E60.27669
G1 X31.167 Y26.342 E60.29599
G1 X31.421 Y25.908 E60.31524
G1 X31.741 Y25.519 E60.33451
G1 F3000 E56.83451
;MESH:support_half_hex_17.stl
G0 F1285.7 X33.236 Y28.122
G0 X34.199 Y28.394
G0 X37.736 Y41.989
;TYPE:WALL-INNER
G1 F3000 E60.33451
G1 F900 X17.504 Y113.211 E63.16798
G1 X17.929 Y113.647 E63.19128
G1 X89.934 Y94.927 E66.03849
G1 X90.092 Y94.34 E66.06175
G1 X37.736 Y41.989 E68.89519
G0 F1285.7 X108.761 Y113.005
G1 F900 X88.529 Y184.227 E71.72866
G1 X88.954 Y184.663 E71.75196
G1 X160.959 Y165.943 E74.59916
G1 X161.117 Y165.356 E74.62242
G1 X108.761 Y113.005 E77.45586
G0 F1285.7 X174.756 Y169.537
G1 F900 X77.76 Y194.755 E81.29126
G1 X7.165 Y124.17 E85.11168
G1 X34.2 Y28.994 E88.89811
G1 X34.281 Y28.709 E88.90945
G1 X34.491 Y28.918 E88.9159
G1 X174.836 Y169.246 E96.51109
G1 X175.051 Y169.461 E96.52273
G1 X174.756 Y169.537 E96.52933
G0 F1285.7 X175.388 Y169.709
;TYPE:WALL-OUTER
G1 F900 X77.662 Y195.117 E100.39359
G1 X6.8 Y124.265 E104.22846
G1 X34.038 Y28.372 E108.04341
G1 X34.119 Y28.087 E108.05475
G1 X34.329 Y28.296 E108.0612
G1 X175.468 Y169.418 E115.69936
G1 X175.683 Y169.633 E115.711
G1 X175.388 Y169.709 E115.7176
G0 F1285.7 X175.195 Y169.759
G0 X175.359 Y169.666
G0 X108.838 Y113.301
G0 X108.922 Y113.626
G1 F900 X88.921 Y184.036 E118.51876
G1 X88.893 Y184.135 E118.5227
G1 X89.055 Y184.301 E118.53157
G1 X89.154 Y184.276 E118.53548
G1 X160.594 Y165.702 E121.36035
G1 X160.694 Y165.676 E121.3643
G1 X160.754 Y165.453 E121.37314
G1 X160.681 Y165.38 E121.37709
G1 X108.922 Y113.626 E124.17822
G0 F1285.7 X108.868 Y113.818
G0 X108.628 Y113.749
G0 X89.935 Y94.382
G0 X37.813 Y42.285
G0 X37.897 Y42.61
G1 F900 X17.896 Y113.02 E126.97938
G1 X17.868 Y113.119 E126.98332
G1 X18.03 Y113.285 E126.9922
G1 X18.129 Y113.26 E126.99611
G1 X89.569 Y94.686 E129.82097
G1 X89.669 Y94.66 E129.82493
G1 X89.729 Y94.437 E129.83377
G1 X89.656 Y94.364 E129.83772
G1 X37.897 Y42.61 E132.63884
G0 F1285.7 X37.843 Y42.802
G0 X37.603 Y42.733
G0 X37.567 Y41.34
;TYPE:SKIN
G1 F900 X17.123 Y113.308 E135.502
G1 X17.824 Y114.026 E135.5404
G1 X90.211 Y95.207 E138.4027
G1 X90.471 Y94.239 E138.44106
G1 X37.567 Y41.34 E141.30415
G0 F1285.7 X34.45 Y29.36
G1 F900 X174.39 Y169.282 E148.8774
G1 X77.864 Y194.377 E152.6942
G1 X7.547 Y124.07 E156.49958
G1 X34.45 Y29.36 E160.26747
G0 F1285.7 X108.592 Y112.356
G1 F900 X88.148 Y184.324 E163.13062
G1 X88.849 Y185.042 E163.16903
G1 X161.236 Y166.223 E166.03133
G1 X161.496 Y165.255 E166.06969
G1 X108.592 Y112.356 E168.93278
G0 F1285.7 X173.743 Y169.288
G1 F900 X34.436 Y29.981 E176.47225
G0 F1285.7 X34.326 Y30.366
G1 F900 X173.35 Y169.39 E183.99641
G0 F1285.7 X172.956 Y169.492
G1 F900 X34.216 Y30.752 E191.5052
G0 F1285.7 X34.107 Y31.137
G1 F900 X172.564 Y169.594 E198.99867
G0 F1285.7 X172.171 Y169.696
G1 F900 X33.997 Y31.522 E206.47682
G0 F1285.7 X33.888 Y31.908
G1 F900 X171.778 Y169.798 E213.9396
G0 F1285.7 X171.385 Y169.9
G1 F900 X33.779 Y32.294 E221.38701
G0 F1285.7 X33.669 Y32.679
G1 F900 X170.993 Y170.003 E228.81916
G0 F1285.7 X170.6 Y170.105
G1 F900 X33.559 Y33.065 E236.23597
G0 F1285.7 X33.45 Y33.45
G1 F900 X170.206 Y170.206 E243.63738
G0 F1285.7 X169.814 Y170.309
G1 F900 X33.34 Y33.835 E251.02352
G0 F1285.7 X33.231 Y34.221
G1 F900 X169.421 Y170.411 E258.3943
G0 F1285.7 X169.028 Y170.513
G1 F900 X33.121 Y34.606 E265.74976
G0 F1285.7 X33.012 Y34.992
G1 F900 X168.635 Y170.615 E273.08985
G0 F1285.7 X168.243 Y170.718
G1 F900 X32.903 Y35.377 E280.41465
G0 F1285.7 X32.793 Y35.763
G1 F900 X167.85 Y170.82 E287.72411
G0 F1285.7 X167.457 Y170.922
G1 F900 X32.683 Y36.148 E295.01825
G0 F1285.7 X32.574 Y36.534
G1 F900 X37.399 Y41.359 E295.27938
G0 F1285.7 X37.289 Y41.744
G1 F900 X32.464 Y36.919 E295.54052
G0 F1285.7 X32.355 Y37.305
G1 F900 X37.18 Y42.13 E295.80165
G0 F1285.7 X37.07 Y42.515
G1 F900 X32.246 Y37.69 E296.06276
G0 F1285.7 X32.136 Y38.076
G1 F900 X36.961 Y42.9 E296.32387
G0 F1285.7 X36.851 Y43.286
G1 F900 X32.026 Y38.461 E296.58501
G0 F1285.7 X31.917 Y38.847
G1 F900 X36.741 Y43.671 E296.84609
G0 F1285.7 X36.633 Y44.057
G1 F900 X31.807 Y39.232 E297.10725
G0 F1285.7 X31.698 Y39.617
G1 F900 X36.523 Y44.443 E297.36841
G0 F1285.7 X36.413 Y44.828
G1 F900 X31.589 Y40.003 E297.62952
G0 F1285.7 X31.479 Y40.389
G1 F900 X36.304 Y45.213 E297.89063
G0 F1285.7 X36.194 Y45.599
G1 F900 X31.37 Y40.774 E298.15173
G0 F1285.7 X31.26 Y41.159
G1 F900 X36.085 Y45.984 E298.41287
G0 F1285.7 X35.975 Y46.369
G1 F900 X31.15 Y41.545 E298.67398
G0 F1285.7 X31.041 Y41.93
G1 F900 X35.866 Y46.756 E298.93514
G0 F1285.7 X35.756 Y47.141
G1 F900 X30.931 Y42.316 E299.19628
G0 F1285.7 X30.822 Y42.702
G1 F900 X35.647 Y47.526 E299.45738
G0 F1285.7 X35.537 Y47.912
G1 F900 X30.713 Y43.087 E299.71849
G0 F1285.7 X30.603 Y43.472
G1 F900 X35.428 Y48.297 E299.97963
G0 F1285.7 X35.318 Y48.682
G1 F900 X30.493 Y43.858 E300.24073
G0 F1285.7 X30.384 Y44.243
G1 F900 X35.208 Y49.068 E300.50184
G0 F1285.7 X35.1 Y49.454
G1 F900 X30.274 Y44.629 E300.76301
G0 F1285.7 X30.165 Y45.014
G1 F900 X34.99 Y49.839 E301.02414
G0 F1285.7 X34.88 Y50.225
G1 F900 X30.056 Y45.4 E301.28525
G0 F1285.7 X29.946 Y45.785
G1 F900 X34.771 Y50.61 E301.54638
G0 F1285.7 X34.661 Y50.995
G1 F900 X29.837 Y46.171 E301.80746
G0 F1285.7 X29.727 Y46.556
G1 F900 X34.552 Y51.381 E302.0686
G0 F1285.7 X34.442 Y51.766
G1 F900 X29.617 Y46.941 E302.32973
G0 F1285.7 X29.508 Y47.327
G1 F900 X34.332 Y52.151 E302.59082
G0 F1285.7 X34.223 Y52.538
G1 F900 X29.398 Y47.712 E302.85198
G0 F1285.7 X29.289 Y48.098
G1 F900 X34.114 Y52.923 E303.11311
G0 F1285.7 X34.004 Y53.308
G1 F900 X29.18 Y48.484 E303.37419
G0 F1285.7 X29.07 Y48.869
G1 F900 X33.895 Y53.694 E303.63533
G0 F1285.7 X33.785 Y54.079
G1 F900 X28.96 Y49.254 E303.89646
G0 F1285.7 X28.851 Y49.64
G1 F900 X33.675 Y54.464 E304.15755
G0 F1285.7 X33.566 Y54.85
G1 F900 X28.741 Y50.025 E304.41868
G0 F1285.7 X28.632 Y50.411
G1 F900 X33.457 Y55.236 E304.67982
G0 F1285.7 X33.347 Y55.621
G1 F900 X28.523 Y50.797 E304.9409
G0 F1285.7 X28.413 Y51.182
G1 F900 X33.238 Y56.007 E305.20203
G0 F1285.7 X33.128 Y56.392
G1 F900 X28.304 Y51.567 E305.46314
G0 F1285.7 X28.194 Y51.953
G1 F900 X33.019 Y56.777 E305.72425
G0 F1285.7 X32.909 Y57.163
G1 F900 X28.084 Y52.338 E305.98538
G0 F1285.7 X27.975 Y52.724
G1 F900 X32.799 Y57.548 E306.24646
G0 F1285.7 X32.69 Y57.934
G1 F900 X27.865 Y53.109 E306.5076
G0 F1285.7 X27.756 Y53.495
G1 F900 X32.581 Y58.32 E306.76873
G0 F1285.7 X32.471 Y58.705
G1 F900 X27.647 Y53.88 E307.02984
G0 F1285.7 X27.537 Y54.266
G1 F900 X32.362 Y59.09 E307.29095
G0 F1285.7 X32.252 Y59.476
G1 F900 X27.427 Y54.651 E307.55209
G0 F1285.7 X27.318 Y55.036
G1 F900 X32.142 Y59.861 E307.81319
G0 F1285.7 X32.033 Y60.246
G1 F900 X27.208 Y55.422 E308.0743
G0 F1285.7 X27.099 Y55.808
G1 F900 X31.923 Y60.632 E308.33538
G0 F1285.7 X31.814 Y61.018
G1 F900 X26.99 Y56.193 E308.59649
G0 F1285.7 X26.88 Y56.579
G1 F900 X31.705 Y61.403 E308.8576
G0 F1285.7 X31.595 Y61.789
G1 F900 X26.771 Y56.964 E309.11871
G0 F1285.7 X26.661 Y57.349
G1 F900 X31.486 Y62.174 E309.37984
G0 F1285.7 X31.376 Y62.559
G1 F900 X26.551 Y57.735 E309.64095
G0 F1285.7 X26.442 Y58.12
G1 F900 X31.266 Y62.945 E309.90206
G0 F1285.7 X31.157 Y63.33
G1 F900 X26.333 Y58.506 E310.16314
G0 F1285.7 X26.223 Y58.892
G1 F900 X31.048 Y63.716 E310.42425
G0 F1285.7 X30.938 Y64.102
G1 F900 X26.114 Y59.277 E310.68536
G0 F1285.7 X26.004 Y59.662
G1 F900 X30.829 Y64.487 E310.94649
G0 F1285.7 X30.719 Y64.872
G1 F900 X25.894 Y60.048 E311.2076
G0 F1285.7 X25.785 Y60.433
G1 F900 X30.609 Y65.258 E311.46871
G0 F1285.7 X30.5 Y65.643
G1 F900 X25.675 Y60.818 E311.72984
G0 F1285.7 X25.566 Y61.205
G1 F900 X30.39 Y66.028 E311.9909
G0 F1285.7 X30.281 Y66.415
G1 F900 X25.457 Y61.59 E312.252
G0 F1285.7 X25.347 Y61.975
G1 F900 X30.172 Y66.8 E312.51314
G0 F1285.7 X30.062 Y67.185
G1 F900 X25.238 Y62.361 E312.77422
G0 F1285.7 X25.128 Y62.746
G1 F900 X29.953 Y67.571 E313.03536
G0 F1285.7 X29.843 Y67.956
G1 F900 X25.018 Y63.131 E313.29649
G0 F1285.7 X24.909 Y63.517
G1 F900 X29.733 Y68.341 E313.55757
G0 F1285.7 X29.624 Y68.727
G1 F900 X24.8 Y63.903 E313.81865
G0 F1285.7 X24.69 Y64.288
G1 F900 X29.514 Y69.112 E314.07973
G0 F1285.7 X29.405 Y69.498
G1 F900 X24.581 Y64.674 E314.34082
G0 F1285.7 X24.471 Y65.059
G1 F900 X29.296 Y69.884 E314.60195
G0 F1285.7 X29.186 Y70.269
G1 F900 X24.361 Y65.444 E314.86309
G0 F1285.7 X24.252 Y65.83
G1 F900 X29.076 Y70.654 E315.12417
G0 F1285.7 X28.967 Y71.04
G1 F900 X24.142 Y66.215 E315.3853
G0 F1285.7 X24.033 Y66.601
G1 F900 X28.857 Y71.425 E315.64638
G0 F1285.7 X28.748 Y71.81
G1 F900 X23.924 Y66.987 E315.90744
G0 F1285.7 X23.814 Y67.372
G1 F900 X28.639 Y72.197 E316.16857
G0 F1285.7 X28.529 Y72.582
G1 F900 X23.705 Y67.757 E316.42968
G0 F1285.7 X23.595 Y68.143
G1 F900 X28.42 Y72.967 E316.69079
G0 F1285.7 X28.31 Y73.353
G1 F900 X23.485 Y68.528 E316.95192
G0 F1285.7 X23.376 Y68.913
G1 F900 X28.2 Y73.738 E317.21303
G0 F1285.7 X28.091 Y74.123
G1 F900 X23.267 Y69.3 E317.47409
G0 F1285.7 X23.157 Y69.685
G1 F900 X27.981 Y74.509 E317.73517
G0 F1285.7 X27.872 Y74.895
G1 F900 X23.048 Y70.07 E317.99627
G0 F1285.7 X22.938 Y70.456
G1 F900 X27.763 Y75.28 E318.25738
G0 F1285.7 X27.653 Y75.666
G1 F900 X22.828 Y70.841 E318.51852
G0 F1285.7 X22.719 Y71.226
G1 F900 X27.543 Y76.051 E318.77963
G0 F1285.7 X27.434 Y76.436
G1 F900 X22.609 Y71.612 E319.04073
G0 F1285.7 X22.5 Y71.998
G1 F900 X27.324 Y76.822 E319.30181
G0 F1285.7 X27.215 Y77.207
G1 F900 X22.391 Y72.383 E319.5629
G0 F1285.7 X22.281 Y72.769
G1 F900 X27.105 Y77.592 E319.82395
G0 F1285.7 X26.996 Y77.979
G1 F900 X22.172 Y73.154 E320.08506
G0 F1285.7 X22.062 Y73.539
G1 F900 X26.887 Y78.364 E320.34619
G0 F1285.7 X26.777 Y78.749
G1 F900 X21.952 Y73.925 E320.6073
G0 F1285.7 X21.843 Y74.311
G1 F900 X26.667 Y79.135 E320.86838
G0 F1285.7 X26.558 Y79.52
G1 F900 X21.734 Y74.696 E321.12946
G0 F1285.7 X21.624 Y75.082
G1 F900 X26.448 Y79.905 E321.39052
G0 F1285.7 X26.339 Y80.291
G1 F900 X21.515 Y75.467 E321.6516
G0 F1285.7 X21.405 Y75.852
G1 F900 X26.23 Y80.677 E321.91273
G0 F1285.7 X26.12 Y81.062
G1 F900 X21.295 Y76.238 E322.17384
G0 F1285.7 X21.186 Y76.623
G1 F900 X26.01 Y81.448 E322.43495
G0 F1285.7 X25.901 Y81.833
G1 F900 X21.077 Y77.009 E322.69603
G0 F1285.7 X20.967 Y77.394
G1 F900 X25.791 Y82.218 E322.95711
G0 F1285.7 X25.682 Y82.604
G1 F900 X20.858 Y77.78 E323.21819
G0 F1285.7 X20.748 Y78.165
G1 F900 X25.572 Y82.989 E323.47927
G0 F1285.7 X25.463 Y83.375
G1 F900 X20.639 Y78.551 E323.74035
G0 F1285.7 X20.529 Y78.936
G1 F900 X25.354 Y83.761 E324.00149
G0 F1285.7 X25.244 Y84.146
G1 F900 X20.419 Y79.321 E324.26262
G0 F1285.7 X20.31 Y79.707
G1 F900 X25.134 Y84.531 E324.52371
G0 F1285.7 X25.025 Y84.917
G1 F900 X20.201 Y80.093 E324.78479
