;FLAVOR:Marlin
;TIME:26291
;Filament used: 30.6196m
;Layer height: 0.3
;MINX:1.741
;MINY:3.431
;MINZ:0.26
;MAXX:202.007
;MAXY:204.695
;MAXZ:26.06
;Generated with Cura_SteamEngine 4.9.1
M82 ;absolute extrusion mode
;Begin Start Gcode for Dagoma DiscoEasy 200
;Sliced: 15-07-2021 12:36:45
;Initial extruder: 0

G90 ;Absolute positioning
M106 S255 ;Fan on full
G28 X Y ;Home stop X Y
G1 X100 ;Centre back during cooldown in case of oozing
M109 R90 ;Cooldown in case too hot
G28 ;Centre
G29 ;Auto-level
M104 S205 ;Pre-heat
M107 ;Fan off
G0 X100 Y5 Z0.5 ;Front centre for degunk
M109 S205 ;Wait for initial temp
M83 ;E Relative
G1 E10 F200 ;Degunk
G1 E-3 F5000 ;Retract
G0 Z3 ;Withdraw
M82 ;E absolute
G92 E0 ;E reset
G1 F6000 ;Set feedrate

;Finish Start Gcode for Dagoma DiscoEasy 200

G92 E0
G92 E0
G1 F3000 E-3.5
;LAYER_COUNT:87
;LAYER:0
M107
G0 F1285.7 X46.541 Y48.602 Z0.26
;TYPE:SKIRT
G1 F3000 E0
G1 F900 X46.909 Y48.296 E0.01832
G1 X47.323 Y48.055 E0.03665
G1 X47.806 Y47.876 E0.05636
G1 X48.68 Y47.639 E0.09102
G1 X49.476 Y47.448 E0.12234
G1 X52.469 Y46.868 E0.23902
G1 X55.107 Y46.281 E0.34244
G1 X57.812 Y45.597 E0.44922
G1 X60.437 Y44.854 E0.55362
G1 X62.895 Y44.07 E0.65236
G1 X64.01 Y43.728 E0.69699
G1 X66.655 Y42.999 E0.80199
G1 X67.29 Y42.834 E0.82709
G1 X67.447 Y42.798 E0.83326
G1 X68.738 Y42.539 E0.88365
G1 X69.155 Y42.461 E0.89988
G1 X71.829 Y41.882 E1.00459
G1 X74.494 Y41.227 E1.10961
G1 X77.151 Y40.492 E1.21511
G1 X79.793 Y39.68 E1.32089
G1 X82.372 Y38.808 E1.42507
G1 X84.933 Y37.86 E1.52958
G1 X87.516 Y36.819 E1.63616
G1 X89.212 Y36.09 E1.70681
G1 X89.921 Y35.794 E1.73621
G1 X90.552 Y35.607 E1.76139
G1 X93.837 Y34.705 E1.89176
G1 X94.528 Y34.527 E1.91907
G1 X94.679 Y34.492 E1.925
G1 X95.88 Y34.251 E1.97188
G1 X98.565 Y33.675 E2.07697
G1 X101.221 Y33.027 E2.1816
G1 X103.885 Y32.295 E2.28733
G1 X106.504 Y31.496 E2.39211
G1 X109.112 Y30.618 E2.49742
G1 X111.699 Y29.665 E2.60293
G1 X114.267 Y28.637 E2.70879
G1 X116.755 Y27.557 E2.81259
G1 X119.255 Y26.387 E2.91822
G1 X121.708 Y25.153 E3.02331
G1 X124.122 Y23.853 E3.12823
G1 X126.506 Y22.48 E3.23352
G1 X128.854 Y21.038 E3.33896
G1 X131.126 Y19.553 E3.44284
G1 X133.395 Y17.976 E3.54858
G1 X135.626 Y16.33 E3.65469
G1 X137.78 Y14.644 E3.75937
G1 X139.893 Y12.891 E3.86444
G1 X141.95 Y11.086 E3.96917
G1 X143.962 Y9.217 E4.07426
G1 X145.931 Y7.28 E4.17996
G1 X147.811 Y5.324 E4.28379
G1 X148.73 Y4.342 E4.33526
G1 X149.085 Y4.02 E4.3536
G1 X149.489 Y3.762 E4.37195
G1 X149.93 Y3.575 E4.39028
G1 X150.396 Y3.464 E4.40861
G1 X150.874 Y3.431 E4.42695
G1 X151.351 Y3.479 E4.44529
G1 X151.813 Y3.605 E4.46362
G1 X152.248 Y3.806 E4.48196
G1 X152.821 Y4.233 E4.50931
G1 X153.364 Y4.755 E4.53813
G1 X200.71 Y51.63 E7.08784
G1 X201.191 Y52.121 E7.11415
G1 X201.496 Y52.49 E7.13247
G1 X201.736 Y52.905 E7.15081
G1 X201.904 Y53.354 E7.16916
G1 X201.995 Y53.824 E7.18748
G1 X202.007 Y54.303 E7.20582
G1 X201.935 Y54.792 E7.22473
G1 X201.736 Y55.369 E7.24809
G1 X201.413 Y56.055 E7.27711
G1 X200.036 Y58.881 E7.39741
G1 X199.676 Y59.607 E7.42843
G1 X198.095 Y62.741 E7.56276
G1 X197.765 Y63.386 E7.59049
G1 X196.141 Y66.5 E7.72489
G1 X195.777 Y67.189 E7.75471
G1 X194.125 Y70.258 E7.8881
G1 X193.743 Y70.956 E7.91855
G1 X192.03 Y74.04 E8.05355
G1 X191.702 Y74.624 E8.07919
G1 X189.889 Y77.789 E8.21877
G1 X189.556 Y78.36 E8.24407
G1 X187.75 Y81.415 E8.37989
G1 X187.364 Y82.058 E8.40859
G1 X185.566 Y85.011 E8.5409
G1 X185.1 Y85.763 E8.57475
G1 X183.275 Y88.672 E8.70617
G1 X182.873 Y89.302 E8.73477
G1 X180.967 Y92.253 E8.86921
G1 X180.532 Y92.916 E8.89956
G1 X178.56 Y95.881 E9.03583
G1 X178.164 Y96.466 E9.06287
G1 X176.218 Y99.308 E9.19468
G1 X175.724 Y100.02 E9.22785
G1 X173.693 Y102.903 E9.36281
G1 X173.338 Y103.403 E9.38628
G1 X171.161 Y106.405 E9.52819
G1 X170.845 Y106.836 E9.54864
G1 X168.592 Y109.857 E9.69287
G1 X168.274 Y110.278 E9.71306
G1 X166.114 Y113.096 E9.84894
G1 X165.589 Y113.772 E9.88169
G1 X163.412 Y116.538 E10.0164
G1 X162.999 Y117.056 E10.04175
G1 X160.635 Y119.976 E10.18553
G1 X160.381 Y120.286 E10.20087
G1 X157.995 Y123.155 E10.34367
G1 X157.549 Y123.685 E10.37018
G1 X155.215 Y126.415 E10.50763
G1 X154.77 Y126.929 E10.53365
G1 X152.407 Y129.619 E10.67067
G1 X151.948 Y130.134 E10.69707
G1 X149.611 Y132.726 E10.83063
G1 X149.063 Y133.326 E10.86173
G1 X146.645 Y135.938 E10.99795
G1 X146.189 Y136.423 E11.02342
G1 X143.74 Y138.998 E11.15942
G1 X143.205 Y139.553 E11.18892
G1 X140.745 Y142.071 E11.32364
G1 X140.221 Y142.6 E11.35213
G1 X137.65 Y145.161 E11.49101
G1 X137.279 Y145.526 E11.51093
G1 X134.625 Y148.102 E11.65247
G1 X134.172 Y148.536 E11.67648
G1 X131.541 Y151.022 E11.815
G1 X131 Y151.525 E11.84327
G1 X128.385 Y153.931 E11.97926
G1 X127.875 Y154.393 E12.0056
G1 X125.26 Y156.734 E12.13991
G1 X124.672 Y157.253 E12.16993
G1 X122.012 Y159.572 E12.30498
G1 X121.469 Y160.038 E12.33236
G1 X118.736 Y162.358 E12.46956
G1 X118.226 Y162.784 E12.49499
G1 X115.458 Y165.072 E12.63242
G1 X114.894 Y165.53 E12.66022
G1 X112.117 Y167.762 E12.79657
G1 X111.574 Y168.193 E12.8231
G1 X108.8 Y170.361 E12.95784
G1 X108.211 Y170.815 E12.9863
G1 X105.346 Y172.994 E13.12405
G1 X104.825 Y173.385 E13.14898
G1 X101.904 Y175.547 E13.28805
G1 X101.389 Y175.921 E13.31241
G1 X98.45 Y178.037 E13.451
G1 X97.875 Y178.444 E13.47796
G1 X95.002 Y180.453 E13.61212
G1 X94.398 Y180.87 E13.64021
G1 X91.418 Y182.894 E13.77807
G1 X90.853 Y183.273 E13.80411
G1 X87.881 Y185.236 E13.94041
G1 X87.267 Y185.635 E13.96844
G1 X84.265 Y187.56 E14.10491
G1 X83.688 Y187.924 E14.13102
G1 X80.685 Y189.795 E14.26643
G1 X80.01 Y190.208 E14.29671
G1 X77.063 Y191.99 E14.42851
G1 X76.361 Y192.407 E14.45975
G1 X73.33 Y194.185 E14.59423
G1 X72.68 Y194.559 E14.62293
G1 X69.613 Y196.303 E14.75795
G1 X68.953 Y196.672 E14.78689
G1 X65.831 Y198.392 E14.9233
G1 X65.283 Y198.689 E14.94715
G1 X62.049 Y200.414 E15.08742
G1 X61.515 Y200.694 E15.1105
G1 X58.327 Y202.342 E15.24784
G1 X57.601 Y202.711 E15.279
G1 X54.821 Y204.1 E15.39793
G1 X54.173 Y204.413 E15.42547
G1 X53.726 Y204.585 E15.4438
G1 X53.256 Y204.68 E15.46215
G1 X52.778 Y204.695 E15.48046
G1 X52.303 Y204.631 E15.4988
G1 X51.845 Y204.489 E15.51715
G1 X51.417 Y204.273 E15.5355
G1 X50.928 Y203.894 E15.55917
G1 X50.377 Y203.363 E15.58846
G1 X3.043 Y156.501 E18.13749
G1 X2.561 Y156.011 E18.1638
G1 X2.255 Y155.643 E18.18211
G1 X2.014 Y155.229 E18.20044
G1 X1.845 Y154.78 E18.2188
G1 X1.753 Y154.31 E18.23713
G1 X1.741 Y153.831 E18.25547
G1 X1.808 Y153.356 E18.27383
G1 X1.953 Y152.9 E18.29214
G1 X2.172 Y152.473 E18.3105
G1 X2.458 Y152.089 E18.32883
G1 X2.682 Y151.863 E18.34101
G1 X3.448 Y151.171 E18.38051
G1 X4.026 Y150.664 E18.40993
G1 X6.031 Y148.8 E18.5147
G1 X8.003 Y146.861 E18.62054
G1 X9.884 Y144.902 E18.72447
G1 X11.759 Y142.837 E18.83122
G1 X13.546 Y140.753 E18.93628
G1 X15.266 Y138.629 E19.04087
G1 X16.92 Y136.461 E19.14523
G1 X18.532 Y134.223 E19.25078
G1 X20.07 Y131.953 E19.35571
G1 X21.566 Y129.604 E19.46229
G1 X22.955 Y127.282 E19.56584
G1 X24.313 Y124.859 E19.67213
G1 X25.578 Y122.443 E19.7765
G1 X26.79 Y119.961 E19.88221
G1 X27.912 Y117.486 E19.9862
G1 X28.995 Y114.914 E20.093
G1 X29.989 Y112.34 E20.1986
G1 X30.884 Y109.816 E20.30108
G1 X31.737 Y107.178 E20.40718
G1 X32.859 Y103.24 E20.56389
G1 X36.582 Y89.062 E21.12487
G1 X37.242 Y86.396 E21.22997
G1 X37.835 Y83.68 E21.33636
G1 X38.338 Y80.995 E21.4409
G1 X38.766 Y78.299 E21.54537
G1 X39.062 Y76.059 E21.63184
G1 X39.117 Y75.761 E21.64343
G1 X39.407 Y74.562 E21.69064
G1 X41.633 Y66.103 E22.02539
G1 X41.642 Y66.037 E22.02793
G1 X42.109 Y64.232 E22.09929
G1 X42.728 Y61.535 E22.20518
G1 X43.259 Y58.858 E22.30963
G1 X43.715 Y56.173 E22.41385
G1 X44.104 Y53.418 E22.52033
G1 X44.142 Y53.091 E22.53293
G1 X44.317 Y51.701 E22.58654
G1 X44.416 Y51.232 E22.60489
G1 X44.592 Y50.786 E22.62323
G1 X44.839 Y50.376 E22.64155
G1 X45.214 Y49.939 E22.66359
G1 X45.433 Y49.711 E22.67569
G1 X46.085 Y49.051 E22.71119
G1 X46.541 Y48.602 E22.73568
G0 F1285.7 X46.786 Y48.852
G1 F900 X47.133 Y48.566 E22.75289
G1 X47.525 Y48.347 E22.77008
G1 X47.897 Y48.214 E22.78519
G1 X48.846 Y47.958 E22.82281
G1 X49.558 Y47.788 E22.85082
G1 X52.508 Y47.217 E22.96581
G1 X55.234 Y46.61 E23.07269
G1 X57.893 Y45.939 E23.17764
G1 X60.519 Y45.195 E23.28209
G1 X62.998 Y44.405 E23.38166
G1 X64.103 Y44.066 E23.4259
G1 X66.743 Y43.338 E23.5307
G1 X67.378 Y43.173 E23.55581
G1 X67.516 Y43.141 E23.56123
G1 X68.802 Y42.883 E23.61142
G1 X69.224 Y42.804 E23.62785
G1 X71.918 Y42.221 E23.73334
G1 X74.561 Y41.571 E23.8375
G1 X77.246 Y40.829 E23.9441
G1 X79.898 Y40.014 E24.05028
G1 X82.494 Y39.135 E24.15517
G1 X85.086 Y38.176 E24.26093
G1 X87.663 Y37.138 E24.36725
G1 X89.333 Y36.418 E24.43685
G1 X90.028 Y36.127 E24.46569
G1 X90.648 Y35.943 E24.49044
G1 X93.924 Y35.044 E24.62044
G1 X94.615 Y34.866 E24.64775
G1 X94.748 Y34.835 E24.65297
G1 X95.949 Y34.594 E24.69985
G1 X98.645 Y34.016 E24.80537
G1 X101.296 Y33.369 E24.9098
G1 X104.003 Y32.625 E25.01724
G1 X106.617 Y31.828 E25.12182
G1 X109.234 Y30.947 E25.2275
G1 X111.808 Y29.999 E25.33247
G1 X114.394 Y28.963 E25.43908
G1 X116.9 Y27.875 E25.54363
G1 X119.39 Y26.711 E25.64882
G1 X121.889 Y25.454 E25.75588
G1 X124.278 Y24.167 E25.85972
G1 X126.694 Y22.775 E25.96643
G1 X129.043 Y21.333 E26.07191
G1 X131.348 Y19.826 E26.1773
G1 X133.593 Y18.265 E26.28195
G1 X135.839 Y16.608 E26.38876
G1 X137.971 Y14.94 E26.49236
G1 X140.146 Y13.136 E26.6005
G1 X142.191 Y11.34 E26.70465
G1 X144.198 Y9.476 E26.80948
G1 X146.182 Y7.524 E26.91599
G1 X148.041 Y5.59 E27.01865
G1 X148.985 Y4.581 E27.07153
G1 X149.32 Y4.282 E27.08872
G1 X149.702 Y4.046 E27.1059
G1 X150.12 Y3.882 E27.12308
G1 X150.561 Y3.795 E27.14029
G1 X151.01 Y3.787 E27.15747
G1 X151.453 Y3.859 E27.17465
G1 X151.876 Y4.009 E27.19182
G1 X152.267 Y4.23 E27.20901
G1 X152.579 Y4.485 E27.22443
G1 X153.117 Y5.004 E27.25304
G1 X200.46 Y51.875 E29.80256
G1 X200.941 Y52.366 E29.82887
G1 X201.225 Y52.713 E29.84603
G1 X201.444 Y53.106 E29.86324
G1 X201.589 Y53.53 E29.88039
G1 X201.657 Y53.974 E29.89758
G1 X201.597 Y54.701 E29.9255
G1 X201.419 Y55.22 E29.9465
G1 X201.099 Y55.901 E29.97529
G1 X199.722 Y58.726 E30.09556
G1 X199.364 Y59.449 E30.12644
G1 X197.784 Y62.581 E30.26069
G1 X197.454 Y63.224 E30.28835
G1 X195.832 Y66.337 E30.42268
G1 X195.468 Y67.024 E30.45243
G1 X193.818 Y70.09 E30.58568
G1 X193.437 Y70.786 E30.61605
G1 X191.725 Y73.868 E30.75097
G1 X191.398 Y74.45 E30.77651
G1 X189.587 Y77.612 E30.91596
G1 X189.255 Y78.182 E30.94121
G1 X187.45 Y81.235 E31.07694
G1 X187.065 Y81.876 E31.10555
G1 X185.269 Y84.826 E31.23773
G1 X184.804 Y85.577 E31.27153
G1 X182.98 Y88.484 E31.40286
G1 X182.579 Y89.112 E31.43138
G1 X180.674 Y92.061 E31.56574
G1 X180.24 Y92.722 E31.596
G1 X178.27 Y95.685 E31.73216
G1 X177.875 Y96.269 E31.75915
G1 X175.93 Y99.109 E31.89088
G1 X175.437 Y99.819 E31.92396
G1 X173.408 Y102.7 E32.05881
G1 X173.054 Y103.197 E32.08216
G1 X170.879 Y106.198 E32.224
G1 X170.564 Y106.626 E32.24434
G1 X168.312 Y109.646 E32.38851
G1 X167.996 Y110.065 E32.40859
G1 X165.837 Y112.882 E32.54442
G1 X165.314 Y113.555 E32.57703
G1 X163.139 Y116.32 E32.71166
G1 X162.727 Y116.835 E32.7369
G1 X160.365 Y119.754 E32.8806
G1 X160.112 Y120.062 E32.89586
G1 X157.728 Y122.929 E33.03855
G1 X157.283 Y123.457 E33.06498
G1 X154.95 Y126.186 E33.20238
G1 X154.507 Y126.698 E33.22829
G1 X152.146 Y129.386 E33.3652
G1 X151.688 Y129.9 E33.39155
G1 X149.353 Y132.49 E33.525
G1 X148.807 Y133.089 E33.55602
G1 X146.39 Y135.698 E33.69212
G1 X145.936 Y136.182 E33.71752
G1 X143.488 Y138.755 E33.85343
G1 X142.955 Y139.309 E33.88285
G1 X140.496 Y141.825 E34.01749
G1 X139.974 Y142.352 E34.04588
G1 X137.404 Y144.911 E34.18467
G1 X137.035 Y145.275 E34.20451
G1 X134.383 Y147.849 E34.34594
G1 X133.931 Y148.281 E34.36987
G1 X131.302 Y150.765 E34.50829
G1 X130.763 Y151.267 E34.53647
G1 X128.149 Y153.672 E34.67241
G1 X127.642 Y154.132 E34.69861
G1 X125.029 Y156.471 E34.83282
G1 X124.442 Y156.989 E34.86278
G1 X121.784 Y159.307 E34.99775
G1 X121.243 Y159.771 E35.02502
G1 X118.511 Y162.09 E35.16216
G1 X118.003 Y162.515 E35.18751
G1 X115.237 Y164.8 E35.32481
G1 X114.675 Y165.257 E35.35253
G1 X111.899 Y167.488 E35.48882
G1 X111.358 Y167.917 E35.51525
G1 X108.586 Y170.084 E35.6499
G1 X107.999 Y170.537 E35.67827
G1 X105.136 Y172.715 E35.81594
G1 X104.617 Y173.104 E35.84076
G1 X101.698 Y175.264 E35.97973
G1 X101.184 Y175.637 E36.00403
G1 X98.247 Y177.751 E36.14252
G1 X97.675 Y178.157 E36.16936
G1 X94.803 Y180.165 E36.30347
G1 X94.201 Y180.581 E36.33148
G1 X91.223 Y182.604 E36.46925
G1 X90.66 Y182.981 E36.49518
G1 X87.69 Y184.943 E36.6314
G1 X87.078 Y185.341 E36.65934
G1 X84.078 Y187.264 E36.79571
G1 X83.503 Y187.627 E36.82173
G1 X80.502 Y189.497 E36.95705
G1 X79.829 Y189.909 E36.98725
G1 X76.884 Y191.689 E37.11894
G1 X76.184 Y192.105 E37.1501
G1 X73.155 Y193.882 E37.2845
G1 X72.507 Y194.255 E37.31311
G1 X69.443 Y195.997 E37.448
G1 X68.784 Y196.366 E37.4769
G1 X65.664 Y198.085 E37.61322
G1 X65.119 Y198.38 E37.63694
G1 X61.886 Y200.104 E37.77716
G1 X61.354 Y200.383 E37.80015
G1 X58.168 Y202.03 E37.9374
G1 X57.445 Y202.398 E37.96845
G1 X54.669 Y203.785 E38.08721
G1 X54.021 Y204.098 E38.11475
G1 X53.601 Y204.256 E38.13192
G1 X53.16 Y204.338 E38.14909
G1 X52.711 Y204.34 E38.16627
G1 X52.268 Y204.263 E38.18348
G1 X51.847 Y204.108 E38.20065
G1 X51.459 Y203.881 E38.21785
G1 X51.171 Y203.642 E38.23217
G1 X50.624 Y203.114 E38.26127
G1 X3.293 Y156.256 E40.81011
G1 X2.811 Y155.766 E40.83642
G1 X2.526 Y155.419 E40.8536
G1 X2.307 Y155.027 E40.87079
G1 X2.16 Y154.603 E40.88796
G1 X2.091 Y154.159 E40.90515
G1 X2.102 Y153.71 E40.92234
G1 X2.192 Y153.27 E40.93953
G1 X2.359 Y152.853 E40.95672
G1 X2.597 Y152.472 E40.97391
G1 X2.917 Y152.122 E40.99206
G1 X3.679 Y151.434 E41.03135
G1 X4.266 Y150.919 E41.06123
G1 X6.267 Y149.059 E41.16579
G1 X8.253 Y147.105 E41.27241
G1 X10.166 Y145.114 E41.37807
G1 X11.988 Y143.107 E41.48181
G1 X13.826 Y140.963 E41.58988
G1 X15.536 Y138.851 E41.69388
G1 X17.215 Y136.651 E41.79979
G1 X18.826 Y134.414 E41.90529
G1 X20.348 Y132.167 E42.00915
G1 X21.86 Y129.794 E42.11683
G1 X23.254 Y127.463 E42.22077
G1 X24.63 Y125.009 E42.32844
G1 X25.89 Y122.602 E42.43241
G1 X27.096 Y120.133 E42.53757
G1 X28.254 Y117.578 E42.64492
G1 X29.32 Y115.046 E42.75006
G1 X30.297 Y112.516 E42.85385
G1 X31.222 Y109.908 E42.95975
G1 X32.077 Y107.262 E43.06616
G1 X33.198 Y103.329 E43.22267
G1 X36.912 Y89.185 E43.78231
G1 X37.582 Y86.479 E43.88899
G1 X38.177 Y83.757 E43.99562
G1 X38.679 Y81.075 E44.10004
G1 X39.118 Y78.313 E44.20707
G1 X39.409 Y76.105 E44.2923
G1 X39.457 Y75.843 E44.30249
G1 X39.745 Y74.651 E44.34942
G1 X41.964 Y66.22 E44.68306
G1 X41.981 Y66.125 E44.68675
G1 X42.446 Y64.33 E44.75772
G1 X43.069 Y61.613 E44.86439
G1 X43.608 Y58.894 E44.97047
G1 X44.063 Y56.212 E45.07458
G1 X44.451 Y53.468 E45.18063
G1 X44.489 Y53.135 E45.19346
G1 X44.664 Y51.745 E45.24707
G1 X44.759 Y51.306 E45.26426
G1 X44.931 Y50.891 E45.28146
G1 X45.314 Y50.347 E45.30692
G1 X45.66 Y49.98 E45.32622
G1 X46.33 Y49.301 E45.36272
G1 X46.786 Y48.852 E45.38721
G0 F1285.7 X47.032 Y49.101
G1 F900 X47.356 Y48.839 E45.40316
G1 X47.723 Y48.643 E45.41908
G1 X47.989 Y48.552 E45.42984
G1 X48.927 Y48.298 E45.46703
G1 X49.639 Y48.128 E45.49505
G1 X52.575 Y47.561 E45.60948
G1 X55.294 Y46.956 E45.71608
G1 X57.964 Y46.281 E45.82147
G1 X60.656 Y45.519 E45.92854
G1 X63.102 Y44.739 E46.0268
G1 X64.196 Y44.403 E46.07059
G1 X66.831 Y43.677 E46.17519
G1 X67.466 Y43.512 E46.2003
G1 X67.584 Y43.485 E46.20493
G1 X68.867 Y43.227 E46.25501
G1 X69.287 Y43.148 E46.27137
G1 X71.999 Y42.562 E46.37755
G1 X74.678 Y41.902 E46.48314
G1 X77.332 Y41.169 E46.58851
G1 X80.002 Y40.348 E46.69541
G1 X82.597 Y39.471 E46.80024
G1 X85.227 Y38.497 E46.90757
G1 X87.758 Y37.477 E47.012
G1 X89.489 Y36.732 E47.08412
G1 X90.136 Y36.461 E47.11096
G1 X90.745 Y36.279 E47.13529
G1 X94.011 Y35.383 E47.26489
G1 X94.702 Y35.205 E47.2922
G1 X94.817 Y35.179 E47.29671
G1 X95.99 Y34.943 E47.3425
G1 X98.733 Y34.355 E47.44986
G1 X101.403 Y33.703 E47.55504
G1 X104.087 Y32.965 E47.66157
G1 X106.72 Y32.162 E47.76692
G1 X109.335 Y31.282 E47.8725
G1 X111.948 Y30.32 E47.97906
G1 X114.521 Y29.289 E48.08514
G1 X117.046 Y28.193 E48.19048
G1 X119.567 Y27.014 E48.29699
