;FLAVOR:Marlin
;TIME:13168
;Filament used: 22.687m
;Layer height: 0.3
;MINX:17.455
;MINY:23.132
;MINZ:0.26
;MAXX:190.812
;MAXY:199.96
;MAXZ:24.56
;Generated with Cura_SteamEngine 4.9.1
M82 ;absolute extrusion mode
;Begin Start Gcode for Dagoma DiscoEasy 200
;Sliced: 01-08-2021 01:41:05
;Initial extruder: 0

G90 ;Absolute positioning
M106 S255 ;Fan on full
G28 X Y ;Home stop X Y
G1 X100 ;Centre back during cooldown in case of oozing
M109 R90 ;Cooldown in case too hot
G28 ;Centre
G29 ;Auto-level
M104 S205 ;Pre-heat
M107 ;Fan off
G0 X100 Y5 Z0.5 ;Front centre for degunk
M109 S205 ;Wait for initial temp
M83 ;E Relative
G1 E10 F200 ;Degunk
G1 E-3 F5000 ;Retract
G0 Z3 ;Withdraw
M82 ;E absolute
G92 E0 ;E reset
G1 F6000 ;Set feedrate

;Finish Start Gcode for Dagoma DiscoEasy 200

G92 E0
G92 E0
G1 F3000 E-3.5
;LAYER_COUNT:82
;LAYER:0
M107
G0 F1285.7 X19.397 Y52.356 Z0.26
;TYPE:SKIRT
G1 F3000 E0
G1 F900 X19.644 Y52.272 E0.00998
G1 X21.825 Y51.55 E0.0979
G1 X24.437 Y50.603 E0.20423
G1 X26.99 Y49.595 E0.30927
G1 X29.5 Y48.522 E0.41374
G1 X32.018 Y47.358 E0.5199
G1 X34.45 Y46.151 E0.6238
G1 X36.889 Y44.853 E0.72954
G1 X39.623 Y43.289 E0.85008
G1 X40.396 Y42.83 E0.88448
G1 X40.993 Y42.562 E0.90952
G1 X41.374 Y42.444 E0.92479
G1 X43.297 Y41.926 E1.001
G1 X43.815 Y41.778 E1.02162
G1 X43.964 Y41.752 E1.02741
G1 X46.414 Y41.094 E1.12449
G1 X46.967 Y40.934 E1.14652
G1 X47.14 Y40.904 E1.15324
G1 X49.144 Y40.365 E1.23266
G1 X50.233 Y40.09 E1.27564
G1 X50.674 Y40.014 E1.29277
G1 X51.376 Y39.95 E1.31975
G1 X54.154 Y39.652 E1.42667
G1 X56.855 Y39.286 E1.53098
G1 X59.57 Y38.838 E1.63629
G1 X62.292 Y38.311 E1.74239
G1 X64.961 Y37.715 E1.84705
G1 X67.587 Y37.051 E1.95071
G1 X70.25 Y36.296 E2.05663
G1 X72.891 Y35.466 E2.16258
G1 X75.472 Y34.573 E2.2671
G1 X78.048 Y33.6 E2.37248
G1 X80.586 Y32.558 E2.47747
G1 X83.123 Y31.431 E2.58371
G1 X85.562 Y30.266 E2.68715
G1 X86.406 Y29.835 E2.72342
G1 X87.018 Y29.534 E2.74952
G1 X87.557 Y29.329 E2.77159
G1 X88.049 Y29.184 E2.79122
G1 X89.449 Y28.786 E2.84692
G1 X91.235 Y28.306 E2.91769
G1 X91.865 Y28.139 E2.94263
G1 X94.354 Y27.47 E3.04127
G1 X95.039 Y27.274 E3.06853
G1 X95.193 Y27.247 E3.07452
G1 X96.39 Y26.924 E3.12196
G1 X97.116 Y26.825 E3.15001
G1 X97.498 Y26.822 E3.16463
G1 X100.246 Y26.76 E3.26982
G1 X102.972 Y26.622 E3.37427
G1 X105.743 Y26.402 E3.48065
G1 X108.429 Y26.112 E3.58404
G1 X111.171 Y25.739 E3.68994
G1 X113.916 Y25.285 E3.79642
G1 X116.214 Y24.838 E3.88601
G1 X116.9 Y24.757 E3.91245
G1 X117.377 Y24.793 E3.93075
G1 X117.843 Y24.907 E3.94911
G1 X118.126 Y25.02 E3.96077
G1 X120.717 Y26.211 E4.0699
G1 X123.276 Y27.299 E4.17632
G1 X125.826 Y28.3 E4.28116
G1 X128.417 Y29.232 E4.38653
G1 X131.013 Y30.085 E4.49111
G1 X133.654 Y30.87 E4.59655
G1 X136.296 Y31.575 E4.70119
G1 X139.014 Y32.22 E4.8081
G1 X139.5 Y32.327 E4.82714
G1 X140.202 Y32.594 E4.85588
G1 X140.669 Y32.89 E4.87704
G1 X140.91 Y33.1 E4.88928
G1 X141.356 Y33.535 E4.91312
G1 X142.32 Y34.496 E4.96521
G1 X142.797 Y34.987 E4.99141
G1 X143.191 Y35.496 E5.01604
G1 X143.909 Y36.677 E5.06893
G1 X145.385 Y39.029 E5.1752
G1 X146.909 Y41.308 E5.28012
G1 X148.517 Y43.573 E5.38642
G1 X150.17 Y45.769 E5.49161
G1 X151.86 Y47.886 E5.59528
G1 X153.647 Y49.998 E5.70115
G1 X155.494 Y52.06 E5.80709
G1 X157.378 Y54.049 E5.91194
G1 X159.302 Y55.966 E6.01588
G1 X161.312 Y57.861 E6.12159
G1 X163.363 Y59.685 E6.22663
G1 X165.479 Y61.464 E6.33243
G1 X167.631 Y63.171 E6.43755
G1 X169.814 Y64.806 E6.54192
G1 X172.071 Y66.395 E6.64756
G1 X174.35 Y67.909 E6.75227
G1 X176.69 Y69.368 E6.8578
G1 X177.058 Y69.582 E6.87409
G1 X178.24 Y70.293 E6.92688
G1 X178.756 Y70.689 E6.95177
G1 X179.346 Y71.26 E6.98319
G1 X180.35 Y72.259 E7.03739
G1 X180.856 Y72.777 E7.0651
G1 X181.161 Y73.147 E7.08345
G1 X181.4 Y73.562 E7.10178
G1 X181.575 Y74.037 E7.12115
G1 X181.628 Y74.236 E7.12904
G1 X182.241 Y76.631 E7.22365
G1 X182.996 Y79.271 E7.32873
G1 X183.835 Y81.919 E7.43503
G1 X184.728 Y84.477 E7.53872
G1 X185.696 Y87.019 E7.64281
G1 X186.763 Y89.605 E7.74987
G1 X187.875 Y92.092 E7.85413
G1 X189.082 Y94.6 E7.96065
G1 X190.214 Y96.8 E8.05533
G1 X190.477 Y97.296 E8.07681
G1 X190.665 Y97.737 E8.09516
G1 X190.778 Y98.202 E8.11347
G1 X190.812 Y98.68 E8.13181
G1 X190.751 Y99.234 E8.15314
G1 X190.593 Y99.894 E8.17911
G1 X190.517 Y100.188 E8.19074
G1 X189.864 Y102.847 E8.29552
G1 X189.278 Y105.559 E8.4017
G1 X188.779 Y108.251 E8.50648
G1 X188.357 Y110.938 E8.61057
G1 X188.004 Y113.697 E8.71701
G1 X187.694 Y116.882 E8.83948
G1 X187.586 Y118.224 E8.891
G1 X187.524 Y118.63 E8.90672
G1 X187.315 Y119.547 E8.94271
G1 X186.991 Y120.829 E8.99332
G1 X186.343 Y123.294 E9.09086
G1 X186.154 Y123.974 E9.11787
G1 X185.933 Y124.539 E9.14108
G1 X184.807 Y127.015 E9.24518
G1 X183.728 Y129.577 E9.35156
G1 X182.738 Y132.125 E9.45618
G1 X181.816 Y134.711 E9.56124
G1 X180.97 Y137.319 E9.66617
G1 X180.182 Y140.001 E9.77315
G1 X179.757 Y141.582 E9.8358
G1 X178.016 Y148.279 E10.10061
G1 X177.358 Y150.964 E10.2064
G1 X176.795 Y153.595 E10.30937
G1 X176.278 Y156.375 E10.41758
G1 X175.864 Y159.026 E10.52027
G1 X175.513 Y161.773 E10.62625
G1 X175.377 Y163.082 E10.67661
G1 X175.294 Y163.603 E10.6968
G1 X175.069 Y164.532 E10.73338
G1 X174.294 Y167.516 E10.85137
G1 X173.51 Y170.513 E10.96992
G1 X173.329 Y171.168 E10.99593
G1 X173.197 Y171.548 E11.01132
G1 X172.139 Y174.073 E11.11609
G1 X171.146 Y176.644 E11.22156
G1 X170.238 Y179.21 E11.32573
G1 X169.392 Y181.831 E11.43113
G1 X168.619 Y184.482 E11.53681
G1 X168.24 Y185.898 E11.59291
G1 X165.32 Y197.132 E12.03711
G1 X165.126 Y197.843 E12.06532
G1 X164.961 Y198.293 E12.08366
G1 X164.725 Y198.71 E12.10199
G1 X164.422 Y199.081 E12.12033
G1 X164.062 Y199.397 E12.13866
G1 X163.654 Y199.649 E12.15701
G1 X163.211 Y199.83 E12.17532
G1 X162.743 Y199.934 E12.19367
G1 X162.264 Y199.96 E12.21203
G1 X161.788 Y199.905 E12.23037
G1 X161.328 Y199.772 E12.24869
G1 X160.896 Y199.565 E12.26702
G1 X160.357 Y199.156 E12.29292
G1 X159.662 Y198.486 E12.32986
G1 X94.728 Y133.552 E15.84417
G1 X92.715 Y131.596 E15.95159
G1 X90.716 Y129.76 E16.05546
G1 X88.621 Y127.942 E16.16161
G1 X86.511 Y126.213 E16.26601
G1 X84.338 Y124.533 E16.37112
G1 X82.096 Y122.9 E16.47727
G1 X79.856 Y121.362 E16.58125
G1 X77.546 Y119.87 E16.68649
G1 X75.189 Y118.442 E16.79196
G1 X72.824 Y117.098 E16.89606
G1 X69.586 Y115.4 E17.03598
G1 X68.955 Y115.016 E17.06425
G1 X68.711 Y114.804 E17.07662
G1 X68.257 Y114.362 E17.10087
G1 X67.742 Y113.83 E17.1292
G1 X67.35 Y113.322 E17.15376
G1 X67.004 Y112.749 E17.17938
G1 X66.276 Y111.5 E17.2347
G1 X64.818 Y109.159 E17.34024
G1 X63.293 Y106.854 E17.44601
G1 X61.722 Y104.623 E17.55044
G1 X60.077 Y102.42 E17.65566
G1 X58.364 Y100.256 E17.76128
G1 X56.614 Y98.17 E17.86548
G1 X54.756 Y96.079 E17.97253
G1 X52.902 Y94.106 E18.07614
G1 X50.992 Y92.187 E18.17975
G1 X48.964 Y90.261 E18.28679
G1 X46.922 Y88.428 E18.3918
G1 X44.834 Y86.658 E18.49655
G1 X42.692 Y84.944 E18.60154
G1 X40.487 Y83.28 E18.70726
G1 X38.266 Y81.701 E18.81154
G1 X35.978 Y80.168 E18.91694
G1 X33.629 Y78.69 E19.02315
G1 X31.388 Y77.371 E19.12267
G1 X31.192 Y77.252 E19.13144
G1 X30.751 Y76.923 E19.1525
G1 X30.23 Y76.45 E19.17943
G1 X29.785 Y76.022 E19.20306
G1 X29.469 Y75.662 E19.22139
G1 X29.19 Y75.2 E19.24204
G1 X27.979 Y72.688 E19.34876
G1 X26.71 Y70.235 E19.45446
G1 X25.374 Y67.82 E19.56008
G1 X23.984 Y65.469 E19.6646
G1 X22.517 Y63.138 E19.77
G1 X20.983 Y60.851 E19.87539
G1 X19.401 Y58.628 E19.9798
G1 X18.101 Y56.902 E20.0625
G1 X17.759 Y56.366 E20.08683
G1 X17.58 Y55.921 E20.10518
G1 X17.478 Y55.453 E20.12351
G1 X17.455 Y54.974 E20.14187
G1 X17.512 Y54.499 E20.16018
G1 X17.647 Y54.039 E20.17852
G1 X17.856 Y53.608 E20.19685
G1 X18.134 Y53.218 E20.21518
G1 X18.473 Y52.879 E20.23353
G1 X18.864 Y52.602 E20.25187
G1 X19.397 Y52.356 E20.27433
G0 F1285.7 X19.51 Y52.687
G1 F900 X19.754 Y52.604 E20.2842
G1 X21.944 Y51.879 E20.37248
G1 X24.554 Y50.933 E20.47872
G1 X27.115 Y49.922 E20.58409
G1 X29.672 Y48.828 E20.69052
G1 X32.136 Y47.69 E20.79439
G1 X34.642 Y46.445 E20.90148
G1 X37.043 Y45.167 E21.00557
G1 X39.812 Y43.584 E21.12763
G1 X40.575 Y43.131 E21.16159
G1 X41.099 Y42.896 E21.18357
G1 X41.465 Y42.782 E21.19824
G1 X43.296 Y42.289 E21.27081
G1 X43.903 Y42.116 E21.29496
G1 X44.05 Y42.091 E21.30067
G1 X46.403 Y41.459 E21.39391
G1 X47.056 Y41.273 E21.41989
G1 X47.217 Y41.246 E21.42614
G1 X49.23 Y40.704 E21.50592
G1 X50.319 Y40.429 E21.5489
G1 X50.706 Y40.363 E21.56393
G1 X51.409 Y40.298 E21.59094
G1 X54.204 Y39.999 E21.69852
G1 X56.924 Y39.63 E21.80356
G1 X59.625 Y39.185 E21.90832
G1 X62.359 Y38.655 E22.0149
G1 X65.013 Y38.063 E22.11896
G1 X67.7 Y37.383 E22.22504
G1 X70.35 Y36.632 E22.33044
G1 X73.01 Y35.796 E22.43715
G1 X75.6 Y34.899 E22.54204
G1 X78.162 Y33.931 E22.64686
G1 X80.719 Y32.882 E22.75262
G1 X83.277 Y31.746 E22.85974
G1 X85.715 Y30.581 E22.96314
G1 X86.561 Y30.149 E22.9995
G1 X87.173 Y29.848 E23.0256
G1 X87.657 Y29.665 E23.0454
G1 X88.145 Y29.52 E23.06488
G1 X89.54 Y29.124 E23.12038
G1 X91.32 Y28.645 E23.19092
G1 X91.958 Y28.476 E23.21618
G1 X94.534 Y27.784 E23.31826
G1 X95.128 Y27.612 E23.34192
G1 X95.274 Y27.588 E23.34758
G1 X96.481 Y27.262 E23.39543
G1 X97.119 Y27.175 E23.42007
G1 X97.501 Y27.172 E23.43469
G1 X100.235 Y27.11 E23.53935
G1 X103.019 Y26.969 E23.64603
G1 X105.77 Y26.751 E23.75164
G1 X108.479 Y26.459 E23.85591
G1 X111.241 Y26.082 E23.96259
G1 X113.93 Y25.638 E24.06689
G1 X116.276 Y25.183 E24.15834
G1 X116.931 Y25.107 E24.18358
G1 X117.378 Y25.148 E24.20076
G1 X117.98 Y25.338 E24.22491
G1 X120.577 Y26.531 E24.33428
G1 X123.153 Y27.627 E24.44142
G1 X125.69 Y28.623 E24.54572
G1 X128.3 Y29.562 E24.65187
G1 X130.926 Y30.425 E24.75766
G1 X133.542 Y31.203 E24.8621
G1 X136.235 Y31.921 E24.96876
G1 X138.926 Y32.559 E25.0746
G1 X139.419 Y32.668 E25.09392
G1 X140.036 Y32.902 E25.11918
G1 X140.476 Y33.184 E25.13918
G1 X140.666 Y33.351 E25.14886
G1 X141.109 Y33.783 E25.17254
G1 X142.069 Y34.74 E25.22441
G1 X142.546 Y35.231 E25.25061
G1 X142.892 Y35.678 E25.27224
G1 X143.613 Y36.863 E25.32533
G1 X145.105 Y39.24 E25.43273
G1 X146.629 Y41.52 E25.53768
G1 X148.219 Y43.759 E25.64277
G1 X149.88 Y45.966 E25.74848
G1 X151.6 Y48.12 E25.85397
G1 X153.385 Y50.23 E25.95974
G1 X155.226 Y52.286 E26.06535
G1 X157.124 Y54.289 E26.17096
G1 X159.081 Y56.239 E26.27668
G1 X161.068 Y58.112 E26.38118
G1 X163.135 Y59.951 E26.48706
G1 X165.264 Y61.74 E26.59348
G1 X167.413 Y63.445 E26.69846
G1 X169.613 Y65.092 E26.80364
G1 X171.861 Y66.676 E26.90888
G1 X174.182 Y68.216 E27.01547
G1 X176.484 Y69.653 E27.11933
G1 X176.878 Y69.882 E27.13677
G1 X178.06 Y70.593 E27.18955
G1 X178.512 Y70.941 E27.21139
G1 X179.099 Y71.508 E27.24262
G1 X180.099 Y72.504 E27.29663
G1 X180.605 Y73.022 E27.32434
G1 X180.889 Y73.369 E27.3415
G1 X181.107 Y73.762 E27.3587
G1 X181.281 Y74.291 E27.38001
G1 X181.895 Y76.693 E27.47489
G1 X182.671 Y79.405 E27.58284
G1 X183.496 Y82.01 E27.68742
G1 X184.403 Y84.606 E27.79265
G1 X185.377 Y87.166 E27.89747
G1 X186.434 Y89.727 E28.0035
G1 X187.566 Y92.258 E28.10961
G1 X188.76 Y94.741 E28.21505
G1 X189.905 Y96.964 E28.31074
G1 X190.168 Y97.46 E28.33223
G1 X190.342 Y97.874 E28.34941
G1 X190.44 Y98.312 E28.36659
G1 X190.459 Y98.761 E28.38379
G1 X190.379 Y99.3 E28.40464
G1 X190.254 Y99.809 E28.4247
G1 X190.178 Y100.099 E28.43617
G1 X189.524 Y102.765 E28.54122
G1 X188.935 Y105.489 E28.64788
G1 X188.43 Y108.213 E28.7539
G1 X188.013 Y110.869 E28.85679
G1 X187.657 Y113.654 E28.96424
G1 X187.345 Y116.854 E29.08728
G1 X187.237 Y118.196 E29.13881
G1 X187.182 Y118.552 E29.15259
G1 X186.975 Y119.463 E29.18834
G1 X186.909 Y119.73 E29.19887
G1 X186.652 Y120.741 E29.23879
G1 X186.006 Y123.2 E29.33609
G1 X185.817 Y123.88 E29.3631
G1 X185.617 Y124.389 E29.38403
G1 X184.485 Y126.877 E29.48863
G1 X183.412 Y129.425 E29.59444
G1 X182.397 Y132.037 E29.70168
G1 X181.489 Y134.585 E29.8052
G1 X180.633 Y137.223 E29.91133
G1 X179.846 Y139.902 E30.01819
G1 X179.418 Y141.494 E30.08128
G1 X177.678 Y148.191 E30.34608
G1 X177.02 Y150.877 E30.45191
G1 X176.441 Y153.579 E30.55766
G1 X175.946 Y156.239 E30.66121
G1 X175.515 Y158.997 E30.76803
G1 X175.165 Y161.736 E30.87371
G1 X175.03 Y163.039 E30.92384
G1 X174.954 Y163.521 E30.94251
G1 X174.73 Y164.444 E30.97886
G1 X173.955 Y167.427 E31.09681
G1 X173.173 Y170.42 E31.21519
G1 X172.992 Y171.075 E31.2412
G1 X172.874 Y171.413 E31.2549
G1 X171.809 Y173.954 E31.36034
G1 X170.825 Y176.501 E31.46483
G1 X169.903 Y179.107 E31.57062
G1 X169.058 Y181.726 E31.67594
G1 X168.29 Y184.359 E31.7809
G1 X167.896 Y185.829 E31.83914
G1 X164.982 Y197.04 E32.28244
G1 X164.788 Y197.751 E32.31064
G1 X164.632 Y198.172 E32.32782
G1 X164.403 Y198.558 E32.345
G1 X164.11 Y198.898 E32.36218
G1 X163.761 Y199.181 E32.37937
G1 X163.368 Y199.398 E32.39655
G1 X162.943 Y199.541 E32.41371
G1 X162.498 Y199.607 E32.43093
G1 X162.05 Y199.593 E32.44808
G1 X161.61 Y199.5 E32.46529
G1 X161.195 Y199.33 E32.48246
G1 X160.815 Y199.09 E32.49966
G1 X160.6 Y198.904 E32.51054
G1 X159.943 Y198.271 E32.54545
G1 X94.972 Y133.301 E36.06174
G1 X92.967 Y131.353 E36.16872
G1 X90.932 Y129.483 E36.27448
G1 X88.865 Y127.69 E36.3792
G1 X86.716 Y125.928 E36.48555
G1 X84.548 Y124.253 E36.5904
G1 X82.314 Y122.626 E36.69616
G1 X80.034 Y121.06 E36.80202
G1 X77.722 Y119.567 E36.90734
G1 X75.358 Y118.134 E37.01313
G1 X72.979 Y116.783 E37.11783
G1 X69.751 Y115.091 E37.25731
G1 X69.147 Y114.722 E37.28439
G1 X68.956 Y114.553 E37.29415
G1 X68.447 Y114.056 E37.32138
G1 X67.994 Y113.587 E37.34633
G1 X67.65 Y113.14 E37.36792
G1 X67.307 Y112.573 E37.39328
G1 X66.57 Y111.309 E37.44927
G1 X65.117 Y108.975 E37.55449
G1 X63.59 Y106.668 E37.66036
G1 X62.005 Y104.416 E37.76575
G1 X60.353 Y102.203 E37.87144
G1 X58.644 Y100.046 E37.97676
G1 X56.864 Y97.923 E38.08278
G1 X55.05 Y95.883 E38.18725
G1 X53.141 Y93.85 E38.29398
G1 X51.233 Y91.933 E38.39748
G1 X49.183 Y89.986 E38.50568
G1 X47.172 Y88.181 E38.6091
G1 X45.048 Y86.38 E38.71567
G1 X42.916 Y84.675 E38.82014
G1 X40.69 Y82.995 E38.92687
G1 X38.454 Y81.405 E39.03187
G1 X36.165 Y79.872 E39.1373
G1 X33.833 Y78.404 E39.24275
G1 X31.57 Y77.071 E39.34326
G1 X30.987 Y76.663 E39.37049
G1 X30.411 Y76.139 E39.40029
G1 X30.028 Y75.77 E39.42065
G1 X29.734 Y75.431 E39.43782
G1 X29.505 Y75.048 E39.4549
G1 X28.285 Y72.517 E39.56242
G1 X27.003 Y70.038 E39.66923
G1 X25.702 Y67.687 E39.77206
G1 X24.285 Y65.29 E39.87862
G1 X22.793 Y62.921 E39.98576
G1 X21.279 Y60.663 E40.0898
G1 X19.681 Y58.418 E40.19526
G1 X18.384 Y56.695 E40.27779
G1 X18.059 Y56.183 E40.301
G1 X17.899 Y55.764 E40.31816
G1 X17.815 Y55.323 E40.33534
G1 X17.811 Y54.874 E40.35253
G1 X17.887 Y54.431 E40.36973
G1 X18.04 Y54.009 E40.38691
G1 X18.265 Y53.621 E40.40407
G1 X18.555 Y53.278 E40.42126
G1 X18.902 Y52.993 E40.43844
G1 X19.51 Y52.687 E40.46449
G0 F1285.7 X19.842 Y52.943
G1 F900 X22.073 Y52.205 E40.55442
G1 X24.679 Y51.26 E40.66051
G1 X27.251 Y50.244 E40.76634
G1 X29.814 Y49.148 E40.87301
G1 X32.296 Y48.002 E40.97764
G1 X34.777 Y46.77 E41.08364
G1 X37.226 Y45.467 E41.18981
G1 X39.967 Y43.899 E41.31065
G1 X40.753 Y43.432 E41.34564
G1 X41.463 Y43.147 E41.37492
G1 X41.556 Y43.12 E41.37863
G1 X43.465 Y42.606 E41.45429
G1 X43.991 Y42.455 E41.47523
G1 X44.128 Y42.433 E41.48054
G1 X46.586 Y41.772 E41.57795
G1 X47.145 Y41.611 E41.60021
G1 X47.298 Y41.586 E41.60614
G1 X49.315 Y41.043 E41.68608
G1 X50.404 Y40.768 E41.72906
G1 X50.738 Y40.711 E41.74203
G1 X51.451 Y40.646 E41.76943
G1 X54.25 Y40.346 E41.87716
G1 X56.959 Y39.979 E41.98178
G1 X59.707 Y39.526 E42.08836
G1 X62.399 Y39.004 E42.1933
G1 X65.14 Y38.392 E42.30078
G1 X67.747 Y37.732 E42.4037
G1 X70.473 Y36.96 E42.51212
G1 X73.119 Y36.129 E42.61826
G1 X75.706 Y35.233 E42.72303
G1 X78.307 Y34.25 E42.82945
G1 X80.852 Y33.206 E42.93472
G1 X83.395 Y32.077 E43.0412
G1 X85.899 Y30.881 E43.14739
G1 X86.715 Y30.463 E43.18248
G1 X87.327 Y30.162 E43.20858
G1 X88.219 Y29.863 E43.24458
G1 X89.631 Y29.462 E43.30076
G1 X91.405 Y28.985 E43.37106
G1 X92.052 Y28.814 E43.39667
G1 X94.694 Y28.104 E43.50136
G1 X95.217 Y27.951 E43.52222
G1 X95.355 Y27.928 E43.52757
G1 X96.573 Y27.6 E43.57585
G1 X97.122 Y27.525 E43.59705
G1 X97.504 Y27.522 E43.61167
G1 X100.261 Y27.46 E43.71721
G1 X103.03 Y27.32 E43.82331
G1 X105.801 Y27.1 E43.92969
