;FLAVOR:Marlin
;TIME:14178
;Filament used: 12.4882m
;Layer height: 0.2
;MINX:1.846
;MINY:19.167
;MINZ:0.26
;MAXX:156.681
;MAXY:195.946
;MAXZ:7.86
;Generated with Cura_SteamEngine 4.9.1
M82 ;absolute extrusion mode
;Begin Start Gcode for Dagoma DiscoEasy 200
;Sliced: 13-07-2021 17:23:59
;Initial extruder: 0

G90 ;Absolute positioning
M106 S255 ;Fan on full
G28 X Y ;Home stop X Y
G1 X100 ;Centre back during cooldown in case of oozing
M109 R90 ;Cooldown in case too hot
G28 ;Centre
G29 ;Auto-level
M104 S205 ;Pre-heat
M107 ;Fan off
G0 X100 Y5 Z0.5 ;Front centre for degunk
M109 S205 ;Wait for initial temp
M83 ;E Relative
G1 E10 F200 ;Degunk
G1 E-3 F5000 ;Retract
G0 Z3 ;Withdraw
M82 ;E absolute
G92 E0 ;E reset
G1 F6000 ;Set feedrate

;Finish Start Gcode for Dagoma DiscoEasy 200

G92 E0
G92 E0
G1 F3000 E-3.5
;LAYER_COUNT:39
;LAYER:0
M107
G0 F1285.7 X49.796 Y21.755 Z0.26
;TYPE:SKIRT
G1 F3000 E0
G1 F900 X50.141 Y21.14 E0.02699
G1 X50.448 Y20.676 E0.04828
G1 X50.818 Y20.26 E0.06958
G1 X51.243 Y19.901 E0.09087
G1 X51.715 Y19.607 E0.11216
G1 X52.225 Y19.384 E0.13346
G1 X52.762 Y19.236 E0.15477
G1 X53.314 Y19.167 E0.17606
G1 X53.87 Y19.177 E0.19734
G1 X54.419 Y19.266 E0.21863
G1 X54.95 Y19.434 E0.23994
G1 X55.451 Y19.676 E0.26124
G1 X55.912 Y19.987 E0.28252
G1 X56.324 Y20.361 E0.30381
G1 X56.794 Y20.962 E0.33301
G1 X57.199 Y21.602 E0.36199
G1 X155.773 Y182.874 E7.59539
G1 X156.144 Y183.501 E7.62327
G1 X156.392 Y183.999 E7.64456
G1 X156.567 Y184.527 E7.66585
G1 X156.663 Y185.075 E7.68714
G1 X156.681 Y185.631 E7.70843
G1 X156.608 Y186.238 E7.73182
G1 X156.477 Y186.833 E7.75514
G1 X155.156 Y192.315 E7.97094
G1 X154.976 Y193.018 E7.99871
G1 X154.8 Y193.546 E8.02001
G1 X154.549 Y194.043 E8.04132
G1 X154.231 Y194.499 E8.06259
G1 X153.85 Y194.905 E8.0839
G1 X153.415 Y195.252 E8.10519
G1 X152.935 Y195.533 E8.12648
G1 X152.419 Y195.742 E8.14779
G1 X151.879 Y195.876 E8.16908
G1 X151.287 Y195.931 E8.19183
G1 X150.385 Y195.946 E8.22635
G1 X56.006 Y195.946 E11.83819
G1 X55.308 Y195.936 E11.86491
G1 X54.754 Y195.888 E11.88619
G1 X54.212 Y195.761 E11.90749
G1 X53.694 Y195.558 E11.92878
G1 X53.211 Y195.283 E11.95005
G1 X52.772 Y194.941 E11.97135
G1 X52.386 Y194.54 E11.99265
G1 X52.092 Y194.136 E12.01177
G1 X51.628 Y193.404 E12.04494
G1 X2.754 Y113.442 E15.63139
G1 X2.384 Y112.817 E15.65918
G1 X2.135 Y112.319 E15.68049
G1 X1.961 Y111.791 E15.70177
G1 X1.864 Y111.243 E15.72306
G1 X1.846 Y110.687 E15.74435
G1 X1.908 Y110.134 E15.76565
G1 X2.049 Y109.595 E15.78697
G1 X2.287 Y109.042 E15.81001
G1 X2.652 Y108.348 E15.84002
G1 X49.796 Y21.755 E19.61319
G0 F1285.7 X50.102 Y21.926
G1 F900 X50.447 Y21.311 E19.64017
G1 X50.74 Y20.869 E19.66047
G1 X51.097 Y20.477 E19.68076
G1 X51.509 Y20.142 E19.70108
G1 X51.966 Y19.872 E19.72139
G1 X52.459 Y19.675 E19.74171
G1 X52.975 Y19.554 E19.76199
G1 X53.504 Y19.511 E19.7823
G1 X54.034 Y19.548 E19.80264
G1 X54.551 Y19.665 E19.82292
G1 X55.046 Y19.858 E19.84325
G1 X55.505 Y20.123 E19.86354
G1 X55.92 Y20.454 E19.88385
G1 X56.281 Y20.843 E19.90416
G1 X56.498 Y21.149 E19.91852
G1 X56.901 Y21.785 E19.94733
G1 X155.472 Y183.052 E27.1805
G1 X155.843 Y183.679 E27.20838
G1 X156.078 Y184.155 E27.2287
G1 X156.239 Y184.66 E27.24898
G1 X156.322 Y185.184 E27.26929
G1 X156.326 Y185.715 E27.28961
G1 X156.229 Y186.348 E27.31412
G1 X156.129 Y186.786 E27.33131
G1 X154.817 Y192.228 E27.54554
G1 X154.637 Y192.931 E27.57331
G1 X154.467 Y193.434 E27.59363
G1 X154.223 Y193.906 E27.61396
G1 X153.912 Y194.335 E27.63424
G1 X153.539 Y194.713 E27.65456
G1 X153.114 Y195.031 E27.67488
G1 X152.647 Y195.281 E27.69515
G1 X152.146 Y195.459 E27.7155
G1 X151.625 Y195.559 E27.7358
G1 X151.281 Y195.582 E27.74899
G1 X150.444 Y195.596 E27.78103
G1 X56.012 Y195.596 E31.3949
G1 X55.314 Y195.586 E31.42161
G1 X54.785 Y195.538 E31.44194
G1 X54.27 Y195.412 E31.46223
G1 X53.779 Y195.21 E31.48255
G1 X53.324 Y194.936 E31.50287
G1 X52.916 Y194.597 E31.52317
G1 X52.563 Y194.201 E31.54348
G1 X52.387 Y193.949 E31.55524
G1 X51.926 Y193.221 E31.58822
G1 X3.055 Y113.264 E35.17444
G1 X2.685 Y112.639 E35.20223
G1 X2.449 Y112.163 E35.22257
G1 X2.288 Y111.657 E35.24289
G1 X2.205 Y111.133 E35.26319
G1 X2.201 Y110.603 E35.28347
G1 X2.277 Y110.078 E35.30377
G1 X2.431 Y109.57 E35.32409
G1 X2.597 Y109.205 E35.33943
G1 X2.959 Y108.515 E35.36925
G1 X50.102 Y21.926 E39.14227
G0 F1285.7 X50.407 Y22.098
G1 F900 X50.752 Y21.483 E39.16926
G1 X51.032 Y21.064 E39.18854
G1 X51.375 Y20.696 E39.20779
G1 X51.772 Y20.386 E39.22707
G1 X52.213 Y20.143 E39.24634
G1 X52.687 Y19.972 E39.26562
G1 X53.182 Y19.879 E39.2849
G1 X53.686 Y19.865 E39.30419
G1 X54.185 Y19.931 E39.32346
G1 X54.667 Y20.075 E39.34271
G1 X55.121 Y20.294 E39.362
G1 X55.535 Y20.581 E39.38128
G1 X55.897 Y20.93 E39.40052
G1 X56.203 Y21.336 E39.41998
G1 X56.602 Y21.967 E39.44855
G1 X155.17 Y183.23 E46.68153
G1 X155.541 Y183.857 E46.70941
G1 X155.763 Y184.31 E46.72871
G1 X155.91 Y184.791 E46.74796
G1 X155.979 Y185.29 E46.76724
G1 X155.968 Y185.794 E46.78653
G1 X155.866 Y186.368 E46.80884
G1 X155.789 Y186.704 E46.82204
G1 X154.478 Y192.142 E47.03611
G1 X154.298 Y192.845 E47.06388
G1 X154.135 Y193.321 E47.08313
G1 X153.898 Y193.766 E47.10243
G1 X153.594 Y194.167 E47.12169
G1 X153.231 Y194.516 E47.14096
G1 X152.817 Y194.802 E47.16021
G1 X152.363 Y195.02 E47.17949
G1 X151.88 Y195.163 E47.19876
G1 X151.275 Y195.232 E47.22207
G1 X150.438 Y195.246 E47.2541
G1 X56.017 Y195.246 E50.86755
G1 X55.319 Y195.236 E50.89427
G1 X54.817 Y195.189 E50.91356
G1 X54.33 Y195.063 E50.93281
G1 X53.868 Y194.861 E50.95211
G1 X53.444 Y194.59 E50.97137
G1 X53.068 Y194.254 E50.99066
G1 X52.683 Y193.761 E51.0146
G1 X52.225 Y193.039 E51.04732
G1 X3.356 Y113.085 E54.63341
G1 X2.986 Y112.46 E54.6612
G1 X2.764 Y112.008 E54.68047
G1 X2.617 Y111.526 E54.69976
G1 X2.548 Y111.028 E54.719
G1 X2.559 Y110.524 E54.73829
G1 X2.649 Y110.029 E54.75755
G1 X2.907 Y109.367 E54.78474
G1 X3.266 Y108.683 E54.8143
G1 X50.407 Y22.098 E58.58715
G1 F3000 E55.08715
;MESH:support_half_hex_02.stl
G0 F1285.7 X52.609 Y23.355
G0 X53.637 Y23.914
G0 X150.815 Y191.546
;TYPE:WALL-INNER
G1 F3000 E58.58715
G1 F900 X55.649 Y191.546 E62.2291
G1 X6.312 Y110.829 E65.84944
G1 X53.404 Y24.331 E69.61847
G1 X53.548 Y24.065 E69.63004
G1 X53.706 Y24.323 E69.6366
G1 X152.259 Y185.56 E76.86843
G1 X150.815 Y191.546 E77.10408
G0 F1285.7 X151.071 Y191.871
;TYPE:WALL-OUTER
G1 F900 X55.467 Y191.871 E80.7628
G1 X5.937 Y110.838 E84.39731
G1 X53.388 Y23.682 E88.19502
G1 X53.532 Y23.416 E88.2066
G1 X53.69 Y23.674 E88.21315
G1 X152.606 Y185.506 E95.47166
G1 X151.071 Y191.871 E95.72223
G0 F1285.7 X150.871 Y191.871
G0 X150.547 Y191.206
;TYPE:SKIN
G1 F900 X55.84 Y191.206 E99.34662
G1 X6.705 Y110.82 E102.95212
G1 X53.565 Y24.745 E106.70268
G1 X151.896 Y185.617 E113.91817
G1 X150.547 Y191.206 E114.1382
G0 F1285.7 X56.415 Y191.048
G1 F900 X55.163 Y189.796 E114.20596
G1 X55.101 Y189.734
G0 F1285.7 X54.384 Y188.523
G1 F900 X56.91 Y191.048 E114.34264
G0 F1285.7 X57.405 Y191.048
G1 F900 X53.606 Y187.249 E114.54825
G1 X53.544 Y187.187
G0 F1285.7 X52.828 Y185.976
G1 F900 X57.9 Y191.048 E114.82275
G0 F1285.7 X58.394 Y191.048
G1 F900 X52.05 Y184.703 E115.16612
G1 X51.988 Y184.641
G0 F1285.7 X51.271 Y183.429
G1 F900 X58.889 Y191.048 E115.57844
G0 F1285.7 X59.384 Y191.048
G1 F900 X50.493 Y182.156 E116.05966
G1 X50.431 Y182.094
G0 F1285.7 X49.715 Y180.883
G1 F900 X59.879 Y191.048 E116.60978
G0 F1285.7 X60.374 Y191.048
G1 F900 X48.936 Y179.61 E117.22882
G1 X48.874 Y179.548
G0 F1285.7 X48.158 Y178.336
G1 F900 X60.869 Y191.048 E117.91678
G0 F1285.7 X61.364 Y191.048
G1 F900 X47.38 Y177.063 E118.67364
G1 X47.318 Y177.001
G0 F1285.7 X46.601 Y175.79
G1 F900 X61.859 Y191.048 E119.49942
G0 F1285.7 X62.354 Y191.048
G1 F900 X45.823 Y174.516 E120.39413
G1 X45.761 Y174.454
G0 F1285.7 X45.044 Y173.243
G1 F900 X62.849 Y191.048 E121.35776
G0 F1285.7 X63.344 Y191.048
G1 F900 X44.267 Y171.97 E122.39026
G1 X44.205 Y171.908
G0 F1285.7 X43.488 Y170.696
G1 F900 X63.839 Y191.048 E123.4917
G0 F1285.7 X64.334 Y191.048
G1 F900 X42.709 Y169.423 E124.66208
G1 X42.647 Y169.361
G0 F1285.7 X41.932 Y168.15
G1 F900 X64.829 Y191.048 E125.90132
G0 F1285.7 X65.324 Y191.048
G1 F900 X41.153 Y166.877 E127.20948
G1 X41.091 Y166.815
G0 F1285.7 X40.375 Y165.603
G1 F900 X65.819 Y191.048 E128.58657
G0 F1285.7 X66.314 Y191.048
G1 F900 X39.597 Y164.33 E130.03256
G1 X39.535 Y164.268
G0 F1285.7 X38.818 Y163.057
G1 F900 X66.809 Y191.048 E131.54747
G0 F1285.7 X67.304 Y191.048
G1 F900 X38.04 Y161.783 E133.1313
G1 X37.978 Y161.721
G0 F1285.7 X37.261 Y160.51
G1 F900 X67.799 Y191.048 E134.78405
G0 F1285.7 X68.294 Y191.048
G1 F900 X36.483 Y159.237 E136.50571
G1 X36.421 Y159.175
G0 F1285.7 X35.705 Y157.964
G1 F900 X68.789 Y191.048 E138.29625
G0 F1285.7 X69.284 Y191.048
G1 F900 X34.926 Y156.69 E140.15575
G1 X34.864 Y156.628
G0 F1285.7 X34.149 Y155.417
G1 F900 X69.779 Y191.048 E142.08412
G0 F1285.7 X70.274 Y191.048
G1 F900 X33.37 Y154.144 E144.08141
G1 X33.308 Y154.082
G0 F1285.7 X32.591 Y152.87
G1 F900 X70.769 Y191.048 E146.14766
G0 F1285.7 X71.264 Y191.048
G1 F900 X31.814 Y151.598 E148.28274
G1 X31.752 Y151.536
G0 F1285.7 X31.035 Y150.324
G1 F900 X71.759 Y191.048 E150.48677
G0 F1285.7 X72.254 Y191.048
G1 F900 X30.257 Y149.051 E152.75971
G1 X30.195 Y148.989
G0 F1285.7 X29.478 Y147.777
G1 F900 X72.749 Y191.048 E155.10159
G0 F1285.7 X73.244 Y191.048
G1 F900 X28.7 Y146.504 E157.51236
G1 X28.638 Y146.442
G0 F1285.7 X27.922 Y145.231
G1 F900 X73.739 Y191.048 E159.99204
G0 F1285.7 X74.234 Y191.048
G1 F900 X27.143 Y143.957 E162.54066
G1 X27.081 Y143.895
G0 F1285.7 X26.365 Y142.684
G1 F900 X74.729 Y191.048 E165.15819
G0 F1285.7 X75.224 Y191.048
G1 F900 X25.587 Y141.411 E167.8446
G1 X25.525 Y141.349
G0 F1285.7 X24.808 Y140.137
G1 F900 X75.719 Y191.048 E170.59997
G0 F1285.7 X76.214 Y191.048
G1 F900 X24.03 Y138.864 E173.42424
G1 X23.968 Y138.802
G0 F1285.7 X23.252 Y137.591
G1 F900 X76.709 Y191.048 E176.3174
G0 F1285.7 X77.204 Y191.048
G1 F900 X22.473 Y136.318 E179.27948
G1 X22.411 Y136.256
G0 F1285.7 X21.695 Y135.044
G1 F900 X77.699 Y191.048 E182.31049
G0 F1285.7 X78.193 Y191.048
G1 F900 X20.917 Y133.771 E185.41037
G1 X20.855 Y133.709
G0 F1285.7 X20.139 Y132.498
G1 F900 X78.688 Y191.048 E188.57914
G0 F1285.7 X79.183 Y191.048
G1 F900 X19.36 Y131.224 E191.81686
G1 X19.298 Y131.162
G0 F1285.7 X18.582 Y129.952
G1 F900 X79.678 Y191.048 E195.12346
G0 F1285.7 X80.173 Y191.048
G1 F900 X17.804 Y128.678 E198.49897
G1 X17.742 Y128.616
G0 F1285.7 X17.025 Y127.405
G1 F900 X80.668 Y191.048 E201.94341
G0 F1285.7 X81.163 Y191.048
G1 F900 X16.247 Y126.131 E205.45678
G1 X16.185 Y126.069
G0 F1285.7 X15.469 Y124.858
G1 F900 X81.658 Y191.048 E209.03904
G0 F1285.7 X82.153 Y191.048
G1 F900 X14.69 Y123.585 E212.69022
G1 X14.628 Y123.523
G0 F1285.7 X13.912 Y122.311
G1 F900 X82.648 Y191.048 E216.41033
G0 F1285.7 X83.143 Y191.048
G1 F900 X13.134 Y121.039 E220.1993
G1 X13.072 Y120.977
G0 F1285.7 X12.355 Y119.765
G1 F900 X83.638 Y191.048 E224.05723
G0 F1285.7 X84.133 Y191.048
G1 F900 X11.577 Y118.492 E227.98405
G1 X11.515 Y118.43
G0 F1285.7 X10.798 Y117.218
G1 F900 X84.628 Y191.048 E231.97983
G0 F1285.7 X85.123 Y191.048
G1 F900 X10.021 Y115.945 E236.04447
G1 X9.959 Y115.883
G0 F1285.7 X9.242 Y114.672
G1 F900 X85.618 Y191.048 E240.17804
G0 F1285.7 X86.113 Y191.048
G1 F900 X8.464 Y113.398 E244.38053
G1 X8.402 Y113.336
G0 F1285.7 X7.686 Y112.125
G1 F900 X86.608 Y191.048 E248.65191
G0 F1285.7 X87.103 Y191.048
G1 F900 X6.907 Y110.852 E252.99222
G0 F1285.7 X7.054 Y110.504
G1 F900 X87.598 Y191.048 E257.35137
G0 F1285.7 X88.093 Y191.048
G1 F900 X7.229 Y110.184 E261.72783
G0 F1285.7 X7.404 Y109.863
G1 F900 X88.588 Y191.048 E266.12164
G0 F1285.7 X89.083 Y191.048
G1 F900 X7.578 Y109.542 E270.53282
G0 F1285.7 X7.752 Y109.222
G1 F900 X89.578 Y191.048 E274.96135
G0 F1285.7 X90.073 Y191.048
G1 F900 X7.927 Y108.902 E279.40719
G0 F1285.7 X8.102 Y108.581
G1 F900 X90.568 Y191.048 E283.87039
G0 F1285.7 X91.063 Y191.048
G1 F900 X8.275 Y108.26 E288.35098
G0 F1285.7 X8.45 Y107.94
G1 F900 X91.558 Y191.048 E292.84889
G0 F1285.7 X92.053 Y191.048
G1 F900 X8.625 Y107.62 E297.36412
G0 F1285.7 X8.799 Y107.299
G1 F900 X92.548 Y191.048 E301.89672
G0 F1285.7 X93.043 Y191.048
G1 F900 X8.973 Y106.978 E306.4467
G0 F1285.7 X9.148 Y106.658
G1 F900 X93.538 Y191.048 E311.01399
G0 F1285.7 X94.033 Y191.048
G1 F900 X9.323 Y106.338 E315.5986
G0 F1285.7 X9.497 Y106.017
G1 F900 X94.528 Y191.048 E320.20059
G0 F1285.7 X95.023 Y191.048
G1 F900 X9.671 Y105.696 E324.81995
G0 F1285.7 X9.846 Y105.376
G1 F900 X95.518 Y191.048 E329.45663
G0 F1285.7 X96.013 Y191.048
G1 F900 X10.021 Y105.056 E334.11062
G0 F1285.7 X10.195 Y104.735
G1 F900 X96.508 Y191.048 E338.78199
G0 F1285.7 X97.003 Y191.048
G1 F900 X10.369 Y104.414 E343.47074
G0 F1285.7 X10.544 Y104.094
G1 F900 X97.498 Y191.048 E348.1768
G0 F1285.7 X97.992 Y191.048
G1 F900 X10.719 Y103.774 E352.90015
G0 F1285.7 X10.893 Y103.453
G1 F900 X98.487 Y191.048 E357.64088
G0 F1285.7 X98.982 Y191.048
G1 F900 X11.067 Y103.132 E362.39897
G0 F1285.7 X11.242 Y102.812
G1 F900 X99.477 Y191.048 E367.17439
G0 F1285.7 X99.972 Y191.048
G1 F900 X11.416 Y102.492 E371.96716
G0 F1285.7 X11.591 Y102.171
G1 F900 X100.467 Y191.048 E376.77727
G0 F1285.7 X100.962 Y191.048
G1 F900 X11.765 Y101.85 E381.60475
G0 F1285.7 X11.94 Y101.53
G1 F900 X101.457 Y191.048 E386.44955
G0 F1285.7 X101.952 Y191.048
G1 F900 X12.114 Y101.21 E391.3117
G0 F1285.7 X12.289 Y100.889
G1 F900 X102.447 Y191.048 E396.19119
G0 F1285.7 X102.942 Y191.048
G1 F900 X12.463 Y100.568 E401.08805
G0 F1285.7 X12.638 Y100.248
G1 F900 X103.437 Y191.048 E406.00224
G0 F1285.7 X103.932 Y191.048
G1 F900 X12.812 Y99.928 E410.93377
G0 F1285.7 X12.987 Y99.608
G1 F900 X104.427 Y191.048 E415.88262
G0 F1285.7 X104.922 Y191.048
G1 F900 X13.161 Y99.286 E420.84887
G0 F1285.7 X13.336 Y98.966
G1 F900 X105.417 Y191.048 E425.83244
G0 F1285.7 X105.912 Y191.048
G1 F900 X13.51 Y98.646 E430.83335
G0 F1285.7 X13.685 Y98.326
G1 F900 X106.407 Y191.048 E435.85158
G0 F1285.7 X106.902 Y191.048
G1 F900 X13.859 Y98.004 E440.88722
G0 F1285.7 X14.033 Y97.684
G1 F900 X107.397 Y191.048 E445.94019
G0 F1285.7 X107.892 Y191.048
G1 F900 X14.208 Y97.364 E451.01049
G0 F1285.7 X14.383 Y97.044
G1 F900 X108.387 Y191.048 E456.09811
G0 F1285.7 X108.882 Y191.048
G1 F900 X14.557 Y96.723 E461.2031
G0 F1285.7 X14.731 Y96.402
G1 F900 X109.377 Y191.048 E466.32546
G0 F1285.7 X109.872 Y191.048
G1 F900 X14.906 Y96.082 E471.46514
G0 F1285.7 X15.081 Y95.762
G1 F900 X110.367 Y191.048 E476.62214
G0 F1285.7 X110.862 Y191.048
G1 F900 X15.255 Y95.441 E481.79651
G0 F1285.7 X15.429 Y95.12
G1 F900 X111.357 Y191.048 E486.98826
G0 F1285.7 X111.852 Y191.048
G1 F900 X15.604 Y94.8 E492.19732
G0 F1285.7 X15.779 Y94.48
G1 F900 X112.347 Y191.048 E497.42371
G0 F1285.7 X112.842 Y191.048
G1 F900 X15.953 Y94.159 E502.66746
G0 F1285.7 X16.127 Y93.838
G1 F900 X113.337 Y191.048 E507.92859
G0 F1285.7 X113.832 Y191.048
G1 F900 X16.302 Y93.518 E513.20704
G0 F1285.7 X16.477 Y93.198
G1 F900 X114.327 Y191.048 E518.50281
G0 F1285.7 X114.822 Y191.048
G1 F900 X16.65 Y92.877 E523.81597
G0 F1285.7 X16.825 Y92.556
G1 F900 X115.317 Y191.048 E529.14648
G0 F1285.7 X115.812 Y191.048
G1 F900 X17 Y92.236 E534.49432
G0 F1285.7 X17.174 Y91.916
G1 F900 X116.307 Y191.048 E539.85949
G0 F1285.7 X116.802 Y191.048
G1 F900 X17.348 Y91.595 E545.24204
G0 F1285.7 X17.523 Y91.274
G1 F900 X117.296 Y191.048 E550.64191
G0 F1285.7 X117.791 Y191.048
G1 F900 X17.698 Y90.954 E556.0591
G0 F1285.7 X17.872 Y90.634
G1 F900 X118.286 Y191.048 E561.49363
G0 F1285.7 X118.781 Y191.048
G1 F900 X18.046 Y90.313 E566.94554
G0 F1285.7 X18.221 Y89.992
G1 F900 X119.276 Y191.048 E572.41479
G0 F1285.7 X119.771 Y191.048
G1 F900 X18.396 Y89.672 E577.90136
G0 F1285.7 X18.57 Y89.352
G1 F900 X120.266 Y191.048 E583.40528
G0 F1285.7 X120.761 Y191.048
G1 F900 X18.744 Y89.031 E588.92657
G0 F1285.7 X18.919 Y88.71
G1 F900 X121.256 Y191.048 E594.46521
G0 F1285.7 X121.751 Y191.048
G1 F900 X19.094 Y88.39 E600.02116
G0 F1285.7 X19.268 Y88.07
G1 F900 X122.246 Y191.048 E605.59446
G0 F1285.7 X122.741 Y191.048
G1 F900 X19.442 Y87.749 E611.18514
G0 F1285.7 X19.617 Y87.428
G1 F900 X123.236 Y191.048 E616.79316
G0 F1285.7 X123.731 Y191.048
