;FLAVOR:Marlin
;TIME:24209
;Filament used: 25.8422m
;Layer height: 0.3
;MINX:12.74
;MINY:15.651
;MINZ:0.26
;MAXX:198.241
;MAXY:171.801
;MAXZ:29.66
;Generated with Cura_SteamEngine 4.9.1
M82 ;absolute extrusion mode
;Begin Start Gcode for Dagoma DiscoEasy 200
;Sliced: 26-07-2021 01:20:08
;Initial extruder: 0

G90 ;Absolute positioning
M106 S255 ;Fan on full
G28 X Y ;Home stop X Y
G1 X100 ;Centre back during cooldown in case of oozing
M109 R90 ;Cooldown in case too hot
G28 ;Centre
G29 ;Auto-level
M104 S205 ;Pre-heat
M107 ;Fan off
G0 X100 Y5 Z0.5 ;Front centre for degunk
M109 S205 ;Wait for initial temp
M83 ;E Relative
G1 E10 F200 ;Degunk
G1 E-3 F5000 ;Retract
G0 Z3 ;Withdraw
M82 ;E absolute
G92 E0 ;E reset
G1 F6000 ;Set feedrate

;Finish Start Gcode for Dagoma DiscoEasy 200

G92 E0
G92 E0
G1 F3000 E-3.5
;LAYER_COUNT:99
;LAYER:0
M107
G0 F1285.7 X19.974 Y16.695 Z0.26
;TYPE:SKIRT
G1 F3000 E0
G1 F900 X20.309 Y16.352 E0.01835
G1 X20.695 Y16.069 E0.03667
G1 X21.124 Y15.854 E0.05503
G1 X21.582 Y15.714 E0.07336
G1 X22.057 Y15.651 E0.09169
G1 X22.536 Y15.669 E0.11004
G1 X23.005 Y15.765 E0.12836
G1 X23.522 Y15.974 E0.1497
G1 X24.779 Y16.629 E0.20394
G1 X25.201 Y16.854 E0.22225
G1 X27.648 Y18.082 E0.32702
G1 X30.15 Y19.248 E0.43266
G1 X32.669 Y20.337 E0.53768
G1 X35.219 Y21.355 E0.64276
G1 X37.777 Y22.294 E0.74704
G1 X41.57 Y23.538 E0.8998
G1 X42.605 Y23.855 E0.94123
G1 X43.145 Y24.083 E0.96366
G1 X44.178 Y24.65 E1.00876
G1 X49.501 Y27.717 E1.24386
G1 X50.108 Y28.079 E1.27091
G1 X50.533 Y28.388 E1.29102
G1 X52.711 Y30.301 E1.40195
G1 X54.804 Y32.037 E1.50602
G1 X56.982 Y33.742 E1.61187
G1 X59.19 Y35.372 E1.7169
G1 X61.418 Y36.921 E1.82075
G1 X63.745 Y38.443 E1.92716
G1 X66.078 Y39.876 E2.03194
G1 X68.445 Y41.239 E2.13647
G1 X70.891 Y42.557 E2.2428
G1 X73.314 Y43.777 E2.34662
G1 X75.842 Y44.961 E2.45345
G1 X78.299 Y46.027 E2.55594
G1 X80.895 Y47.068 E2.66298
G1 X83.503 Y48.029 E2.76935
G1 X84.818 Y48.481 E2.82256
G1 X86.043 Y48.892 E2.87201
G1 X86.803 Y49.254 E2.90423
G1 X92.784 Y52.704 E3.16847
G1 X93.495 Y53.13 E3.20019
G1 X93.866 Y53.365 E3.21699
G1 X95.472 Y54.417 E3.29046
G1 X97.83 Y55.868 E3.39642
G1 X100.187 Y57.228 E3.50056
G1 X102.64 Y58.552 E3.60724
G1 X105.064 Y59.774 E3.71112
G1 X107.573 Y60.951 E3.81718
G1 X110.068 Y62.034 E3.92127
G1 X112.642 Y63.068 E4.02743
G1 X115.217 Y64.019 E4.13248
G1 X117.816 Y64.896 E4.23745
G1 X120.422 Y65.693 E4.34174
G1 X123.091 Y66.428 E4.44768
G1 X125.783 Y67.09 E4.55378
G1 X128.43 Y67.658 E4.65738
G1 X130.933 Y68.127 E4.75484
G1 X132.439 Y68.39 E4.81334
G1 X132.832 Y68.468 E4.82868
G1 X133.498 Y68.608 E4.85472
G1 X134.203 Y68.766 E4.88237
G1 X134.656 Y68.908 E4.90054
G1 X135.326 Y69.18 E4.92821
G1 X135.918 Y69.431 E4.95282
G1 X136.527 Y69.7 E4.9783
G1 X137.037 Y69.991 E5.00077
G1 X137.988 Y70.672 E5.04553
G1 X138.275 Y70.886 E5.05923
G1 X138.823 Y71.308 E5.0857
G1 X139.005 Y71.46 E5.09478
G1 X140.095 Y72.454 E5.15123
G1 X140.302 Y72.648 E5.16209
G1 X142.365 Y74.468 E5.26737
G1 X144.504 Y76.252 E5.37396
G1 X146.642 Y77.935 E5.47809
G1 X148.832 Y79.561 E5.58248
G1 X151.12 Y81.16 E5.6893
G1 X153.387 Y82.653 E5.79318
G1 X155.729 Y84.1 E5.89854
G1 X158.101 Y85.475 E6.00346
G1 X160.531 Y86.794 E6.10927
G1 X162.993 Y88.041 E6.21489
G1 X165.447 Y89.197 E6.3187
G1 X167.968 Y90.299 E6.42399
G1 X170.57 Y91.353 E6.53143
G1 X173.078 Y92.281 E6.63377
G1 X176.685 Y93.485 E6.77929
G1 X177.669 Y93.793 E6.81875
G1 X177.903 Y93.878 E6.82828
G1 X178.65 Y94.185 E6.85919
G1 X179.219 Y94.428 E6.88286
G1 X179.844 Y94.707 E6.90906
G1 X180.352 Y94.999 E6.93148
G1 X181.272 Y95.662 E6.97488
G1 X181.533 Y95.858 E6.98737
G1 X182.124 Y96.316 E7.01598
G1 X182.479 Y96.642 E7.03443
G1 X182.999 Y97.208 E7.06384
G1 X183.348 Y97.599 E7.0839
G1 X183.811 Y98.135 E7.11101
G1 X184.095 Y98.525 E7.12947
G1 X184.484 Y99.169 E7.15826
G1 X185.154 Y100.313 E7.209
G1 X186.587 Y102.606 E7.31248
G1 X188.126 Y104.922 E7.41889
G1 X189.7 Y107.151 E7.52332
G1 X191.363 Y109.37 E7.62944
G1 X193.054 Y111.499 E7.73349
G1 X194.826 Y113.604 E7.83879
G1 X197.212 Y116.259 E7.9754
G1 X197.778 Y116.927 E8.0089
G1 X198.007 Y117.347 E8.02721
G1 X198.163 Y117.8 E8.04555
G1 X198.241 Y118.273 E8.06389
G1 X198.241 Y118.752 E8.08222
G1 X198.16 Y119.225 E8.10059
G1 X198.002 Y119.677 E8.11891
G1 X197.771 Y120.097 E8.13726
G1 X197.474 Y120.473 E8.15559
G1 X197.247 Y120.69 E8.16761
G1 X196.442 Y121.379 E8.20816
G1 X196.187 Y121.591 E8.22085
G1 X194.089 Y123.434 E8.32772
G1 X192.099 Y125.284 E8.4317
G1 X190.13 Y127.224 E8.53749
G1 X188.233 Y129.2 E8.64231
G1 X186.392 Y131.23 E8.74719
G1 X184.585 Y133.34 E8.8535
G1 X182.772 Y135.583 E8.96388
G1 X181.938 Y136.648 E9.01564
G1 X181.429 Y137.166 E9.04344
G1 X180.971 Y137.529 E9.0658
G1 X180.415 Y137.919 E9.09179
G1 X179.652 Y138.362 E9.12556
G1 X178.539 Y138.986 E9.17439
G1 X178.305 Y139.103 E9.1844
G1 X177.602 Y139.417 E9.21387
G1 X177.246 Y139.551 E9.22842
G1 X176.412 Y139.811 E9.26185
G1 X173.743 Y140.684 E9.36932
G1 X171.191 Y141.599 E9.47307
G1 X168.617 Y142.605 E9.57883
G1 X166.063 Y143.689 E9.68501
G1 X163.594 Y144.818 E9.78891
G1 X161.133 Y146.03 E9.89389
G1 X158.692 Y147.319 E9.99953
G1 X156.3 Y148.67 E10.10467
G1 X153.976 Y150.071 E10.20852
G1 X151.624 Y151.581 E10.31548
G1 X149.391 Y153.104 E10.41892
G1 X147.114 Y154.755 E10.52655
G1 X144.984 Y156.393 E10.62938
G1 X142.837 Y158.143 E10.73539
G1 X140.779 Y159.92 E10.83944
G1 X138.349 Y162.151 E10.96569
G1 X137.926 Y162.494 E10.98653
G1 X137.464 Y162.831 E11.00841
G1 X137.189 Y163.009 E11.02095
G1 X136.165 Y163.59 E11.066
G1 X135.21 Y164.139 E11.10816
G1 X134.677 Y164.395 E11.13079
G1 X133.874 Y164.694 E11.16358
G1 X132.971 Y164.888 E11.19893
G1 X131.704 Y165.103 E11.24811
G1 X128.993 Y165.6 E11.35358
G1 X126.296 Y166.175 E11.45912
G1 X123.656 Y166.814 E11.56307
G1 X120.983 Y167.544 E11.66911
G1 X118.363 Y168.339 E11.77389
G1 X115.772 Y169.206 E11.87845
G1 X113.172 Y170.159 E11.98442
G1 X110.133 Y171.38 E12.10976
G1 X109.653 Y171.582 E12.12969
G1 X109.197 Y171.73 E12.14804
G1 X108.723 Y171.801 E12.16638
G1 X108.244 Y171.792 E12.18471
G1 X107.773 Y171.703 E12.20306
G1 X107.141 Y171.445 E12.22918
G1 X106.393 Y171.029 E12.26193
G1 X21.118 Y121.794 E16.03025
G1 X20.472 Y121.409 E16.05903
G1 X20.082 Y121.13 E16.07738
G1 X19.744 Y120.79 E16.09573
G1 X19.467 Y120.399 E16.11407
G1 X19.259 Y119.968 E16.13238
G1 X19.093 Y119.311 E16.15831
G1 X18.977 Y118.423 E16.19259
G1 X18.585 Y115.686 E16.2984
G1 X18.124 Y113.01 E16.40232
G1 X17.582 Y110.312 E16.50763
G1 X16.962 Y107.629 E16.61301
G1 X16.262 Y104.947 E16.71909
G1 X15.494 Y102.315 E16.82402
G1 X14.659 Y99.727 E16.92809
G1 X13.656 Y96.903 E17.04277
G1 X13.267 Y95.855 E17.08555
G1 X13.052 Y95.216 E17.11135
G1 X12.856 Y94.462 E17.14117
G1 X12.77 Y93.72 E17.16975
G1 X12.755 Y93.475 E17.17915
G1 X12.742 Y92.592 E17.21294
G1 X12.74 Y92.039 E17.23411
G1 X12.745 Y91.227 E17.26518
G1 X12.758 Y90.972 E17.27495
G1 X12.823 Y90.291 E17.30113
G1 X12.907 Y89.716 E17.32337
G1 X13.029 Y89.148 E17.34561
G1 X13.397 Y87.567 E17.40773
G1 X13.944 Y84.861 E17.51338
G1 X14.411 Y82.16 E17.61828
G1 X14.804 Y79.422 E17.72413
G1 X15.118 Y76.699 E17.82903
G1 X15.354 Y73.974 E17.93371
G1 X15.513 Y71.24 E18.03851
G1 X15.595 Y68.459 E18.14499
G1 X15.599 Y65.735 E18.24923
G1 X15.525 Y63.001 E18.3539
G1 X15.372 Y60.229 E18.46014
G1 X15.145 Y57.509 E18.5646
G1 X14.838 Y54.777 E18.66981
G1 X14.455 Y52.048 E18.77527
G1 X13.999 Y49.369 E18.87927
G1 X13.46 Y46.659 E18.98501
G1 X13.128 Y45.203 E19.04216
G1 X13.02 Y44.686 E19.06237
G1 X12.936 Y44.117 E19.08439
G1 X12.881 Y43.464 E19.10946
G1 X12.865 Y42.33 E19.15287
G1 X12.871 Y41.28 E19.19305
G1 X12.884 Y41.018 E19.20309
G1 X12.959 Y40.245 E19.23281
G1 X13.093 Y39.522 E19.26095
G1 X13.363 Y38.835 E19.2892
G1 X14.398 Y36.226 E19.39661
G1 X15.338 Y33.646 E19.5017
G1 X16.192 Y31.076 E19.60534
G1 X16.993 Y28.416 E19.71165
G1 X17.708 Y25.776 E19.81632
G1 X18.359 Y23.071 E19.9228
G1 X18.914 Y20.433 E20.02596
G1 X19.106 Y19.362 E20.0676
G1 X19.369 Y17.984 E20.12129
G1 X19.498 Y17.522 E20.13965
G1 X19.701 Y17.089 E20.15795
G1 X19.974 Y16.695 E20.17629
G0 F1285.7 X20.299 Y16.853
G1 F900 X20.625 Y16.544 E20.19348
G1 X21 Y16.297 E20.21067
G1 X21.413 Y16.121 E20.22785
G1 X21.851 Y16.021 E20.24504
G1 X22.3 Y16 E20.26224
G1 X22.745 Y16.059 E20.27942
G1 X23.361 Y16.284 E20.30452
G1 X24.614 Y16.938 E20.35861
G1 X25.035 Y17.163 E20.37688
G1 X27.514 Y18.406 E20.483
G1 X29.976 Y19.554 E20.58696
G1 X32.542 Y20.663 E20.69394
G1 X35.069 Y21.672 E20.79807
G1 X37.693 Y22.635 E20.90504
G1 X41.468 Y23.873 E21.05708
G1 X42.502 Y24.19 E21.09847
G1 X42.976 Y24.39 E21.11816
G1 X44.004 Y24.953 E21.16301
G1 X49.321 Y28.017 E21.39786
G1 X49.928 Y28.379 E21.4249
G1 X50.302 Y28.651 E21.4426
G1 X52.467 Y30.553 E21.55289
G1 X54.613 Y32.333 E21.65959
G1 X56.733 Y33.992 E21.76261
G1 X58.993 Y35.66 E21.8701
G1 X61.254 Y37.232 E21.97549
G1 X63.54 Y38.728 E22.08004
G1 X65.905 Y40.18 E22.18625
G1 X68.274 Y41.544 E22.29086
G1 X70.71 Y42.858 E22.39678
G1 X73.18 Y44.1 E22.50259
G1 X75.696 Y45.279 E22.60892
G1 X78.187 Y46.36 E22.71284
G1 X80.774 Y47.397 E22.8195
G1 X83.365 Y48.351 E22.92516
G1 X84.707 Y48.813 E22.97948
G1 X85.932 Y49.224 E23.02893
G1 X86.637 Y49.562 E23.05885
G1 X92.604 Y53.005 E23.32249
G1 X93.308 Y53.426 E23.35388
G1 X93.674 Y53.658 E23.37046
G1 X95.269 Y54.703 E23.44344
G1 X97.657 Y56.172 E23.55073
G1 X100.039 Y57.547 E23.65599
G1 X102.458 Y58.852 E23.76117
G1 X104.928 Y60.097 E23.86703
G1 X107.414 Y61.263 E23.97211
G1 X109.94 Y62.36 E24.0775
G1 X112.502 Y63.389 E24.18316
G1 X115.095 Y64.347 E24.28895
G1 X117.712 Y65.229 E24.39464
G1 X120.366 Y66.041 E24.50085
G1 X122.982 Y66.762 E24.6047
G1 X125.695 Y67.428 E24.71161
G1 X128.369 Y68.002 E24.81627
G1 X130.869 Y68.472 E24.91362
G1 X132.372 Y68.734 E24.97201
G1 X132.76 Y68.811 E24.98714
G1 X133.421 Y68.949 E25.01299
G1 X134.126 Y69.107 E25.04063
G1 X134.525 Y69.232 E25.05664
G1 X135.189 Y69.502 E25.08407
G1 X135.776 Y69.751 E25.10847
G1 X136.385 Y70.02 E25.13395
G1 X136.833 Y70.276 E25.15369
G1 X137.779 Y70.952 E25.19819
G1 X138.062 Y71.163 E25.2117
G1 X138.61 Y71.585 E25.23817
G1 X138.769 Y71.719 E25.24613
G1 X139.856 Y72.709 E25.30239
G1 X140.097 Y72.935 E25.31504
G1 X142.137 Y74.734 E25.41913
G1 X144.256 Y76.502 E25.52474
G1 X146.444 Y78.224 E25.6313
G1 X148.632 Y79.849 E25.7356
G1 X150.896 Y81.431 E25.8413
G1 X153.221 Y82.962 E25.94783
G1 X155.539 Y84.395 E26.05212
G1 X157.944 Y85.788 E26.15848
G1 X160.348 Y87.093 E26.26317
G1 X162.828 Y88.349 E26.36955
G1 X165.313 Y89.52 E26.47468
G1 X167.857 Y90.632 E26.58093
G1 X170.419 Y91.67 E26.68672
G1 X172.966 Y92.612 E26.79065
G1 X176.581 Y93.819 E26.9365
G1 X177.565 Y94.127 E26.97596
G1 X177.77 Y94.201 E26.9843
G1 X178.513 Y94.507 E27.01505
G1 X179.076 Y94.747 E27.03847
G1 X179.701 Y95.026 E27.06466
G1 X180.147 Y95.283 E27.08436
G1 X181.062 Y95.942 E27.12752
G1 X181.319 Y96.134 E27.13979
G1 X181.91 Y96.592 E27.16841
G1 X182.222 Y96.879 E27.18463
G1 X182.738 Y97.441 E27.21383
G1 X183.083 Y97.827 E27.23364
G1 X183.546 Y98.363 E27.26075
G1 X183.795 Y98.707 E27.277
G1 X184.182 Y99.346 E27.30559
G1 X184.852 Y100.49 E27.35632
G1 X186.305 Y102.816 E27.46128
G1 X187.828 Y105.108 E27.56659
G1 X189.414 Y107.353 E27.67178
G1 X191.076 Y109.57 E27.77782
G1 X192.79 Y111.728 E27.88329
G1 X194.577 Y113.851 E27.98948
G1 X196.935 Y116.476 E28.12452
G1 X197.501 Y117.143 E28.158
G1 X197.709 Y117.541 E28.17518
G1 X197.843 Y117.969 E28.19235
G1 X197.899 Y118.414 E28.20951
G1 X197.876 Y118.863 E28.22672
G1 X197.773 Y119.3 E28.2439
G1 X197.595 Y119.712 E28.26107
G1 X197.346 Y120.086 E28.27827
G1 X197.019 Y120.424 E28.29627
G1 X196.219 Y121.11 E28.3366
G1 X195.943 Y121.339 E28.35032
G1 X193.867 Y123.163 E28.45608
G1 X191.845 Y125.043 E28.56174
G1 X189.879 Y126.98 E28.66736
G1 X187.968 Y128.971 E28.77297
G1 X186.132 Y130.995 E28.87755
G1 X184.328 Y133.102 E28.9837
G1 X182.5 Y135.363 E29.09497
G1 X181.663 Y136.432 E29.14693
G1 X181.211 Y136.893 E29.17164
G1 X180.763 Y137.248 E29.19351
G1 X180.239 Y137.617 E29.21804
G1 X179.481 Y138.056 E29.25156
G1 X178.368 Y138.68 E29.30039
G1 X178.163 Y138.783 E29.30917
G1 X177.46 Y139.097 E29.33864
G1 X177.142 Y139.217 E29.35164
G1 X176.303 Y139.478 E29.38527
G1 X173.648 Y140.346 E29.49217
G1 X171.068 Y141.271 E29.59706
G1 X168.483 Y142.282 E29.70328
G1 X165.922 Y143.368 E29.80974
G1 X163.436 Y144.506 E29.91437
G1 X160.985 Y145.712 E30.01891
G1 X158.514 Y147.018 E30.12587
G1 X156.144 Y148.357 E30.23004
G1 X153.766 Y149.789 E30.33627
G1 X151.448 Y151.277 E30.44169
G1 X149.158 Y152.84 E30.54779
G1 X146.95 Y154.441 E30.65216
G1 X144.738 Y156.141 E30.75893
G1 X142.618 Y157.869 E30.8636
G1 X140.543 Y159.66 E30.96849
G1 X138.112 Y161.893 E31.09482
G1 X137.72 Y162.211 E31.11414
G1 X137.258 Y162.548 E31.13602
G1 X137.016 Y162.704 E31.14704
G1 X136.005 Y163.278 E31.19153
G1 X135.035 Y163.836 E31.23436
G1 X134.536 Y164.074 E31.25551
G1 X133.788 Y164.355 E31.28609
G1 X132.903 Y164.544 E31.32073
G1 X132.831 Y164.558 E31.32353
G1 X131.652 Y164.757 E31.36929
G1 X128.926 Y165.257 E31.47535
G1 X126.209 Y165.836 E31.58167
G1 X123.59 Y166.47 E31.68479
G1 X120.867 Y167.214 E31.79282
G1 X118.251 Y168.007 E31.89743
G1 X115.652 Y168.878 E32.00233
G1 X113.04 Y169.834 E32.10877
G1 X110.002 Y171.055 E32.23407
G1 X109.517 Y171.259 E32.25421
G1 X109.089 Y171.396 E32.27141
G1 X108.644 Y171.455 E32.28859
G1 X108.196 Y171.434 E32.30575
G1 X107.758 Y171.334 E32.32294
G1 X107.311 Y171.139 E32.34161
G1 X106.568 Y170.726 E32.37414
G1 X21.297 Y121.493 E36.14228
G1 X20.651 Y121.108 E36.17106
G1 X20.288 Y120.845 E36.18822
G1 X19.976 Y120.521 E36.20543
G1 X19.727 Y120.148 E36.22259
G1 X19.548 Y119.736 E36.23979
G1 X19.44 Y119.266 E36.25824
G1 X19.325 Y118.378 E36.29251
G1 X18.934 Y115.651 E36.39794
G1 X18.471 Y112.961 E36.5024
G1 X17.923 Y110.233 E36.60888
G1 X17.298 Y107.529 E36.71509
G1 X16.607 Y104.881 E36.81982
G1 X15.831 Y102.22 E36.9259
G1 X14.984 Y99.593 E37.03153
G1 X13.986 Y96.785 E37.14557
G1 X13.599 Y95.743 E37.18811
G1 X13.358 Y95.023 E37.21717
G1 X13.203 Y94.411 E37.24133
G1 X13.118 Y93.685 E37.2693
G1 X13.105 Y93.47 E37.27755
G1 X13.092 Y92.591 E37.31119
G1 X13.09 Y92.041 E37.33224
G1 X13.095 Y91.229 E37.36331
G1 X13.106 Y91.005 E37.37189
G1 X13.171 Y90.324 E37.39807
G1 X13.249 Y89.789 E37.41877
G1 X13.37 Y89.227 E37.44077
G1 X13.737 Y87.646 E37.50288
G1 X14.29 Y84.915 E37.60951
G1 X14.759 Y82.2 E37.71495
G1 X15.15 Y79.478 E37.82019
G1 X15.463 Y76.769 E37.92455
G1 X15.704 Y73.988 E38.03138
G1 X15.863 Y71.237 E38.13684
G1 X15.945 Y68.471 E38.24274
G1 X15.949 Y65.726 E38.34779
G1 X15.875 Y62.971 E38.45326
G1 X15.723 Y60.218 E38.55877
G1 X15.494 Y57.476 E38.66407
G1 X15.182 Y54.703 E38.77086
G1 X14.802 Y52.004 E38.87517
G1 X14.339 Y49.283 E38.9808
G1 X13.802 Y46.581 E39.08623
G1 X13.47 Y45.131 E39.14315
G1 X13.362 Y44.614 E39.16337
G1 X13.284 Y44.083 E39.18391
G1 X13.231 Y43.459 E39.20787
G1 X13.215 Y42.332 E39.25101
G1 X13.221 Y41.282 E39.29119
G1 X13.233 Y41.052 E39.3
G1 X13.317 Y40.196 E39.33292
G1 X13.338 Y40.035 E39.33913
G1 X13.51 Y39.393 E39.36457
G1 X13.704 Y38.926 E39.38392
G1 X14.72 Y36.363 E39.48943
G1 X15.664 Y33.775 E39.59486
G1 X16.523 Y31.187 E39.69921
G1 X17.337 Y28.487 E39.80713
G1 X18.044 Y25.872 E39.9108
G1 X18.699 Y23.156 E40.01772
G1 X19.264 Y20.466 E40.12291
G1 X19.45 Y19.428 E40.16327
G1 X19.713 Y18.05 E40.21696
G1 X19.836 Y17.618 E40.23414
G1 X20.033 Y17.215 E40.25131
G1 X20.299 Y16.853 E40.2685
G0 F1285.7 X20.623 Y17.018
G1 F900 X20.939 Y16.746 E40.28446
G1 X21.3 Y16.54 E40.30037
G1 X21.695 Y16.406 E40.31633
G1 X22.108 Y16.35 E40.33228
G1 X22.524 Y16.373 E40.34822
G1 X22.928 Y16.476 E40.36418
G1 X23.199 Y16.595 E40.3755
G1 X24.449 Y17.247 E40.42946
G1 X24.87 Y17.472 E40.44773
G1 X27.352 Y18.716 E40.55397
G1 X29.861 Y19.886 E40.65992
G1 X32.385 Y20.978 E40.76516
G1 X34.96 Y22.006 E40.87127
G1 X37.548 Y22.955 E40.97676
G1 X41.353 Y24.203 E41.13001
G1 X42.4 Y24.524 E41.17192
G1 X42.808 Y24.697 E41.18888
G1 X43.829 Y25.256 E41.23342
G1 X49.142 Y28.318 E41.4681
G1 X49.749 Y28.68 E41.49515
G1 X50.071 Y28.914 E41.51038
G1 X52.26 Y30.837 E41.62189
G1 X54.346 Y32.567 E41.7256
G1 X56.555 Y34.296 E41.83295
