;FLAVOR:Marlin
;TIME:13008
;Filament used: 10.1426m
;Layer height: 0.2
;MINX:4.812
;MINY:22.424
;MINZ:0.26
;MAXX:183.688
;MAXY:197.961
;MAXZ:7.66
;Generated with Cura_SteamEngine 4.9.1
M82 ;absolute extrusion mode
;Begin Start Gcode for Dagoma DiscoEasy 200
;Sliced: 13-07-2021 17:15:43
;Initial extruder: 0

G90 ;Absolute positioning
M106 S255 ;Fan on full
G28 X Y ;Home stop X Y
G1 X100 ;Centre back during cooldown in case of oozing
M109 R90 ;Cooldown in case too hot
G28 ;Centre
G29 ;Auto-level
M104 S205 ;Pre-heat
M107 ;Fan off
G0 X100 Y5 Z0.5 ;Front centre for degunk
M109 S205 ;Wait for initial temp
M83 ;E Relative
G1 E10 F200 ;Degunk
G1 E-3 F5000 ;Retract
G0 Z3 ;Withdraw
M82 ;E absolute
G92 E0 ;E reset
G1 F6000 ;Set feedrate

;Finish Start Gcode for Dagoma DiscoEasy 200

G92 E0
G92 E0
G1 F3000 E-3.5
;LAYER_COUNT:38
;LAYER:0
M107
G0 F1285.7 X31.595 Y23.787 Z0.26
;TYPE:SKIRT
G1 F3000 E0
G1 F900 X31.986 Y23.39 E0.02132
G1 X32.429 Y23.054 E0.0426
G1 X32.915 Y22.784 E0.06388
G1 X33.435 Y22.587 E0.08516
G1 X33.979 Y22.466 E0.10649
G1 X34.533 Y22.424 E0.12775
G1 X35.089 Y22.462 E0.14908
G1 X35.632 Y22.579 E0.17033
G1 X36.154 Y22.773 E0.19165
G1 X36.642 Y23.04 E0.21293
G1 X37.165 Y23.443 E0.2382
G1 X37.591 Y23.845 E0.26062
G1 X182.053 Y165.486 E8.00312
G1 X182.569 Y166.005 E8.03113
G1 X182.932 Y166.427 E8.05243
G1 X183.231 Y166.896 E8.07372
G1 X183.459 Y167.403 E8.09499
G1 X183.613 Y167.938 E8.1163
G1 X183.688 Y168.489 E8.13758
G1 X183.684 Y169.046 E8.1589
G1 X183.6 Y169.596 E8.18019
G1 X183.438 Y170.128 E8.20147
G1 X183.201 Y170.632 E8.22278
G1 X182.895 Y171.096 E8.24406
G1 X182.525 Y171.512 E8.26536
G1 X182.1 Y171.871 E8.28665
G1 X181.628 Y172.165 E8.30793
G1 X180.932 Y172.449 E8.3367
G1 X180.315 Y172.621 E8.36121
G1 X82.948 Y197.684 E12.20887
G1 X82.233 Y197.857 E12.23702
G1 X81.684 Y197.949 E12.25832
G1 X81.128 Y197.961 E12.27961
G1 X80.575 Y197.894 E12.30092
G1 X80.038 Y197.748 E12.32222
G1 X79.528 Y197.526 E12.34351
G1 X79.054 Y197.234 E12.36481
G1 X78.663 Y196.911 E12.38422
G1 X77.946 Y196.234 E12.42196
G1 X6.406 Y126.09 E16.2562
G1 X5.928 Y125.608 E16.28218
G1 X5.565 Y125.185 E16.30351
G1 X5.267 Y124.716 E16.32478
G1 X5.039 Y124.208 E16.34609
G1 X4.886 Y123.673 E16.36738
G1 X4.812 Y123.122 E16.38866
G1 X4.817 Y122.565 E16.40998
G1 X4.917 Y121.951 E16.43378
G1 X5.171 Y120.923 E16.47431
G1 X30.638 Y25.883 E20.23976
G1 X30.816 Y25.25 E20.26492
G1 X31.004 Y24.727 E20.28619
G1 X31.266 Y24.236 E20.30749
G1 X31.595 Y23.787 E20.32879
G0 F1285.7 X31.91 Y23.958
G1 F900 X32.292 Y23.589 E20.34912
G1 X32.724 Y23.281 E20.36942
G1 X33.197 Y23.042 E20.3897
G1 X33.702 Y22.877 E20.41003
G1 X34.225 Y22.789 E20.43033
G1 X34.756 Y22.78 E20.45065
G1 X35.281 Y22.852 E20.47093
G1 X35.791 Y23.001 E20.49127
G1 X36.272 Y23.225 E20.51157
G1 X36.713 Y23.519 E20.53186
G1 X37.121 Y23.879 E20.55268
G1 X37.375 Y24.123 E20.56616
G1 X181.805 Y165.733 E28.30696
G1 X182.321 Y166.252 E28.33497
G1 X182.666 Y166.655 E28.35527
G1 X182.946 Y167.106 E28.37558
G1 X183.155 Y167.593 E28.39587
G1 X183.289 Y168.107 E28.41619
G1 X183.345 Y168.635 E28.43651
G1 X183.32 Y169.165 E28.45682
G1 X183.216 Y169.685 E28.47711
G1 X183.035 Y170.184 E28.49743
G1 X182.782 Y170.65 E28.51772
G1 X182.461 Y171.073 E28.53804
G1 X182.08 Y171.443 E28.55837
G1 X181.649 Y171.751 E28.57864
G1 X181.175 Y171.991 E28.59897
G1 X180.613 Y172.178 E28.62164
G1 X180.184 Y172.294 E28.63864
G1 X82.811 Y197.357 E32.48652
G1 X82.15 Y197.517 E32.51255
G1 X81.627 Y197.603 E32.53283
G1 X81.096 Y197.609 E32.55315
G1 X80.57 Y197.535 E32.57348
G1 X80.062 Y197.383 E32.59377
G1 X79.582 Y197.157 E32.61408
G1 X79.141 Y196.861 E32.6344
G1 X78.903 Y196.656 E32.64643
G1 X78.191 Y195.984 E32.68389
G1 X6.654 Y125.843 E36.51798
G1 X6.176 Y125.361 E36.54395
G1 X5.832 Y124.957 E36.56426
G1 X5.552 Y124.506 E36.58458
G1 X5.343 Y124.019 E36.60486
G1 X5.21 Y123.505 E36.62518
G1 X5.155 Y122.977 E36.64549
G1 X5.181 Y122.447 E36.6658
G1 X5.257 Y122.035 E36.68183
G1 X5.509 Y121.014 E36.72208
G1 X30.975 Y25.978 E40.48737
G1 X31.153 Y25.345 E40.51253
G1 X31.334 Y24.846 E40.53285
G1 X31.589 Y24.381 E40.55314
G1 X31.91 Y23.958 E40.57347
G0 F1285.7 X32.224 Y24.134
G1 F900 X32.595 Y23.794 E40.59272
G1 X33.016 Y23.517 E40.61201
G1 X33.475 Y23.31 E40.63128
G1 X33.961 Y23.178 E40.65055
G1 X34.462 Y23.125 E40.66983
G1 X34.965 Y23.152 E40.68911
G1 X35.457 Y23.258 E40.70837
G1 X35.927 Y23.44 E40.72766
G1 X36.361 Y23.694 E40.7469
G1 X36.825 Y24.081 E40.77002
G1 X37.13 Y24.373 E40.78618
G1 X181.557 Y165.979 E48.5268
G1 X182.073 Y166.498 E48.5548
G1 X182.398 Y166.883 E48.57408
G1 X182.659 Y167.313 E48.59333
G1 X182.848 Y167.78 E48.61261
G1 X182.962 Y168.271 E48.63191
G1 X182.996 Y168.773 E48.65116
G1 X182.95 Y169.275 E48.67045
G1 X182.826 Y169.763 E48.68972
G1 X182.626 Y170.225 E48.70899
G1 X182.355 Y170.65 E48.72828
G1 X182.021 Y171.026 E48.74752
G1 X181.631 Y171.345 E48.76681
G1 X181.196 Y171.599 E48.78608
G1 X180.604 Y171.817 E48.81023
G1 X180.096 Y171.955 E48.83037
G1 X82.729 Y197.017 E52.67802
G1 X82.068 Y197.177 E52.70404
G1 X81.571 Y197.256 E52.7233
G1 X81.067 Y197.256 E52.74259
G1 X80.57 Y197.176 E52.76185
G1 X80.092 Y197.018 E52.78112
G1 X79.644 Y196.787 E52.80041
G1 X79.143 Y196.401 E52.82461
G1 X78.436 Y195.734 E52.86181
G1 X6.903 Y125.597 E56.69568
G1 X6.425 Y125.115 E56.72166
G1 X6.099 Y124.73 E56.74096
G1 X5.839 Y124.299 E56.76023
G1 X5.65 Y123.832 E56.77951
G1 X5.538 Y123.341 E56.79878
G1 X5.504 Y122.839 E56.81803
G1 X5.596 Y122.119 E56.84581
G1 X5.847 Y121.104 E56.88583
G1 X31.312 Y26.073 E60.65092
G1 X31.49 Y25.44 E60.67609
G1 X31.664 Y24.967 E60.69537
G1 X31.911 Y24.528 E60.71465
G1 X32.224 Y24.134 E60.73391
G1 F3000 E57.23391
;MESH:support_half_hex_29.stl
G0 F1285.7 X33.764 Y26.713
G0 X34.729 Y26.971
G0 X38.448 Y40.579
;TYPE:WALL-INNER
G1 F3000 E60.73391
G1 F900 X19.269 Y112.155 E63.56972
G1 X19.192 Y112.443 E63.58113
G1 X19.481 Y112.369 E63.58762
G1 X22.443 Y111.609 E63.70465
G1 X91.894 Y93.729 E66.44917
G1 X92.052 Y93.136 E66.47266
G1 X38.448 Y40.579 E69.34558
G0 F1285.7 X111.096 Y111.809
G1 F900 X91.918 Y183.385 E72.18138
G1 X91.841 Y183.673 E72.19279
G1 X92.13 Y183.599 E72.19928
G1 X95.092 Y182.839 E72.31631
G1 X164.542 Y164.959 E75.0608
G1 X164.7 Y164.366 E75.08428
G1 X111.096 Y111.809 E77.95721
G0 F1285.7 X178.506 Y168.542
G1 F900 X81.465 Y193.521 E81.79198
G1 X9.246 Y122.714 E85.66254
G1 X34.739 Y27.575 E89.43191
G1 X34.816 Y27.287 E89.44332
G1 X35.029 Y27.496 E89.4498
G1 X178.585 Y168.248 E97.14373
G1 X178.806 Y168.465 E97.15559
G1 X178.506 Y168.542 E97.16227
G0 F1285.7 X179.145 Y168.713
;TYPE:WALL-OUTER
G1 F900 X81.368 Y193.882 E101.02613
G1 X8.883 Y122.813 E104.91098
G1 X34.569 Y26.953 E108.70891
G1 X34.646 Y26.665 E108.72032
G1 X34.859 Y26.874 E108.72681
G1 X179.224 Y168.419 E116.46409
G1 X179.445 Y168.636 E116.47594
G1 X179.145 Y168.713 E116.48263
G0 F1285.7 X178.952 Y168.762
G0 X179.113 Y168.671
G0 X111.178 Y112.106
G0 X111.266 Y112.431
G1 F900 X92.376 Y182.932 E119.27584
G1 X92.299 Y183.22 E119.28725
G1 X92.588 Y183.146 E119.29374
G1 X95.011 Y182.524 E119.38947
G1 X164.178 Y164.717 E122.12278
G1 X164.277 Y164.692 E122.12668
G1 X164.337 Y164.466 E122.13563
G1 X164.264 Y164.394 E122.13956
G1 X111.266 Y112.431 E124.98001
G0 F1285.7 X111.215 Y112.624
G0 X110.974 Y112.56
G0 X91.894 Y93.179
G0 X38.53 Y40.876
G0 X38.618 Y41.201
G1 F900 X19.727 Y111.702 E127.77322
G1 X19.65 Y111.99 E127.78463
G1 X19.939 Y111.916 E127.79113
G1 X22.362 Y111.294 E127.88686
G1 X91.53 Y93.487 E130.6202
G1 X91.629 Y93.462 E130.62411
G1 X91.689 Y93.236 E130.63306
G1 X91.616 Y93.164 E130.63698
G1 X38.618 Y41.201 E133.47743
G0 F1285.7 X38.567 Y41.394
G0 X38.326 Y41.33
G0 X38.271 Y39.928
;TYPE:SKIN
G1 F900 X18.713 Y112.917 E136.36922
G1 X22.527 Y111.939 E136.51991
G1 X92.172 Y94.009 E139.2721
G1 X92.431 Y93.031 E139.31082
G1 X38.271 Y39.928 E142.21356
G0 F1285.7 X34.993 Y27.938
G1 F900 X178.137 Y168.286 E149.88541
G1 X81.567 Y193.144 E153.70157
G1 X9.626 Y122.609 E157.55725
G1 X34.993 Y27.938 E161.30807
G0 F1285.7 X110.919 Y111.158
G1 F900 X91.362 Y184.147 E164.19985
G1 X95.176 Y183.169 E164.35054
G1 X164.82 Y165.239 E167.10269
G1 X165.079 Y164.261 E167.14141
G1 X110.919 Y111.158 E170.04415
G0 F1285.7 X177.652 Y168.248
G1 F900 X166.593 Y157.189 E170.64268
G1 X166.531 Y157.127
G0 F1285.7 X162.641 Y161.651
G1 F900 X33.838 Y32.848 E177.61366
G0 F1285.7 X33.943 Y32.458
G1 F900 X171.353 Y169.868 E185.05047
G0 F1285.7 X170.96 Y169.97
G1 F900 X165.242 Y164.252 E185.35993
G0 F1285.7 X165.139 Y164.644
G1 F900 X170.566 Y170.071 E185.65365
G0 F1285.7 X170.173 Y170.173
G1 F900 X165.035 Y165.035 E185.93173
G0 F1285.7 X164.888 Y165.383
G1 F900 X169.779 Y170.274 E186.19643
G0 F1285.7 X169.386 Y170.375
G1 F900 X164.495 Y165.485 E186.46111
G0 F1285.7 X164.101 Y165.586
G1 F900 X168.992 Y170.477 E186.72582
G0 F1285.7 X168.598 Y170.578
G1 F900 X163.707 Y165.687 E186.99053
G0 F1285.7 X163.314 Y165.788
G1 F900 X168.205 Y170.68 E187.25526
G0 F1285.7 X167.811 Y170.781
G1 F900 X162.92 Y165.89 E187.51997
G0 F1285.7 X162.527 Y165.991
G1 F900 X167.417 Y170.882 E187.78465
G0 F1285.7 X167.024 Y170.984
G1 F900 X162.133 Y166.093 E188.04936
G0 F1285.7 X161.74 Y166.194
G1 F900 X166.63 Y171.085 E188.31404
G0 F1285.7 X166.236 Y171.186
G1 F900 X161.346 Y166.295 E188.57872
G0 F1285.7 X160.952 Y166.397
G1 F900 X165.842 Y171.287 E188.84337
G0 F1285.7 X165.449 Y171.389
G1 F900 X160.559 Y166.498 E189.10805
G0 F1285.7 X160.165 Y166.6
G1 F900 X165.055 Y171.49 E189.3727
G0 F1285.7 X164.661 Y171.591
G1 F900 X159.771 Y166.701 E189.63735
G0 F1285.7 X159.378 Y166.802
G1 F900 X164.268 Y171.693 E189.90203
G0 F1285.7 X163.874 Y171.794
G1 F900 X158.984 Y166.904 E190.16669
G0 F1285.7 X158.59 Y167.005
G1 F900 X163.48 Y171.895 E190.43134
G0 F1285.7 X163.087 Y171.997
G1 F900 X158.197 Y167.107 E190.69599
G0 F1285.7 X157.803 Y167.208
G1 F900 X162.693 Y172.098 E190.96065
G0 F1285.7 X162.3 Y172.199
G1 F900 X157.409 Y167.309 E191.22533
G0 F1285.7 X157.016 Y167.411
G1 F900 X161.906 Y172.3 E191.48995
G0 F1285.7 X161.513 Y172.402
G1 F900 X156.622 Y167.512 E191.75463
G0 F1285.7 X156.228 Y167.613
G1 F900 X161.119 Y172.503 E192.01931
G0 F1285.7 X160.725 Y172.604
G1 F900 X155.835 Y167.715 E192.28394
G0 F1285.7 X155.441 Y167.816
G1 F900 X160.332 Y172.706 E192.54862
G0 F1285.7 X159.938 Y172.807
G1 F900 X155.048 Y167.917 E192.81327
G0 F1285.7 X154.654 Y168.019
G1 F900 X159.544 Y172.908 E193.0779
G0 F1285.7 X159.151 Y173.01
G1 F900 X154.261 Y168.12 E193.34255
G0 F1285.7 X153.867 Y168.221
G1 F900 X158.757 Y173.111 E193.6072
G0 F1285.7 X158.363 Y173.212
G1 F900 X153.473 Y168.323 E193.87183
G0 F1285.7 X153.08 Y168.424
G1 F900 X157.969 Y173.313 E194.13643
G0 F1285.7 X157.576 Y173.415
G1 F900 X152.686 Y168.525 E194.40108
G0 F1285.7 X152.292 Y168.626
G1 F900 X157.182 Y173.516 E194.66574
G0 F1285.7 X156.788 Y173.618
G1 F900 X151.899 Y168.728 E194.93036
G0 F1285.7 X151.505 Y168.829
G1 F900 X156.395 Y173.719 E195.19501
G0 F1285.7 X156.001 Y173.82
G1 F900 X151.111 Y168.93 E195.45967
G0 F1285.7 X150.718 Y169.032
G1 F900 X155.608 Y173.922 E195.72432
G0 F1285.7 X155.214 Y174.023
G1 F900 X150.324 Y169.133 E195.98897
G0 F1285.7 X149.93 Y169.234
G1 F900 X154.821 Y174.125 E196.25368
G0 F1285.7 X154.427 Y174.226
G1 F900 X149.537 Y169.336 E196.51833
G0 F1285.7 X149.143 Y169.437
G1 F900 X154.033 Y174.327 E196.78299
G0 F1285.7 X153.64 Y174.429
G1 F900 X148.749 Y169.538 E197.04769
G0 F1285.7 X148.356 Y169.64
G1 F900 X153.246 Y174.53 E197.31235
G0 F1285.7 X152.852 Y174.631
G1 F900 X147.962 Y169.741 E197.577
G0 F1285.7 X147.568 Y169.842
G1 F900 X152.459 Y174.733 E197.84171
G0 F1285.7 X152.065 Y174.834
G1 F900 X147.175 Y169.944 E198.10636
G0 F1285.7 X146.781 Y170.045
G1 F900 X151.671 Y174.935 E198.37101
G0 F1285.7 X151.277 Y175.036
G1 F900 X146.388 Y170.146 E198.63564
G0 F1285.7 X145.994 Y170.248
G1 F900 X150.884 Y175.138 E198.90029
G0 F1285.7 X150.49 Y175.239
G1 F900 X145.601 Y170.349 E199.16492
G0 F1285.7 X145.207 Y170.45
G1 F900 X150.096 Y175.34 E199.42954
G0 F1285.7 X149.703 Y175.442
G1 F900 X144.814 Y170.552 E199.69417
G0 F1285.7 X144.42 Y170.653
G1 F900 X149.309 Y175.543 E199.9588
G0 F1285.7 X148.915 Y175.644
G1 F900 X144.026 Y170.754 E200.22342
G0 F1285.7 X143.633 Y170.856
G1 F900 X148.522 Y175.746 E200.48805
G0 F1285.7 X148.128 Y175.847
G1 F900 X143.239 Y170.957 E200.75267
G0 F1285.7 X142.845 Y171.059
G1 F900 X147.735 Y175.948 E201.0173
G0 F1285.7 X147.341 Y176.049
G1 F900 X142.452 Y171.16 E201.2819
G0 F1285.7 X142.058 Y171.261
G1 F900 X146.948 Y176.151 E201.54655
G0 F1285.7 X146.554 Y176.252
G1 F900 X141.664 Y171.363 E201.81118
G0 F1285.7 X141.27 Y171.464
G1 F900 X146.16 Y176.353 E202.0758
G0 F1285.7 X145.767 Y176.455
G1 F900 X140.877 Y171.566 E202.34043
G0 F1285.7 X140.483 Y171.667
G1 F900 X145.373 Y176.556 E202.60506
G0 F1285.7 X144.979 Y176.657
G1 F900 X140.089 Y171.768 E202.86968
G0 F1285.7 X139.696 Y171.87
G1 F900 X144.586 Y176.759 E203.13431
G0 F1285.7 X144.192 Y176.86
G1 F900 X139.302 Y171.971 E203.39893
G0 F1285.7 X138.909 Y172.072
G1 F900 X143.798 Y176.961 E203.66353
G0 F1285.7 X143.404 Y177.063
G1 F900 X138.515 Y172.174 E203.92813
G0 F1285.7 X138.121 Y172.275
G1 F900 X143.011 Y177.164 E204.19276
G0 F1285.7 X142.617 Y177.266
G1 F900 X137.728 Y172.376 E204.45738
G0 F1285.7 X137.334 Y172.478
G1 F900 X142.223 Y177.367 E204.72198
G0 F1285.7 X141.83 Y177.468
G1 F900 X136.941 Y172.579 E204.98658
G0 F1285.7 X136.547 Y172.68
G1 F900 X141.436 Y177.57 E205.25121
G0 F1285.7 X141.043 Y177.671
G1 F900 X136.154 Y172.782 E205.51581
G0 F1285.7 X135.76 Y172.883
G1 F900 X140.649 Y177.772 E205.7804
G0 F1285.7 X140.256 Y177.874
G1 F900 X135.366 Y172.984 E206.04506
G0 F1285.7 X134.973 Y173.086
G1 F900 X139.862 Y177.975 E206.30966
G0 F1285.7 X139.468 Y178.076
G1 F900 X134.579 Y173.187 E206.57426
G0 F1285.7 X134.185 Y173.288
G1 F900 X139.075 Y178.178 E206.83891
G0 F1285.7 X138.681 Y178.279
G1 F900 X133.792 Y173.39 E207.10351
G0 F1285.7 X133.398 Y173.491
G1 F900 X138.287 Y178.38 E207.36811
G0 F1285.7 X137.894 Y178.482
G1 F900 X133.004 Y173.592 E207.63276
G0 F1285.7 X132.611 Y173.694
G1 F900 X137.5 Y178.583 E207.89736
G0 F1285.7 X137.106 Y178.684
G1 F900 X132.217 Y173.795 E208.16196
G0 F1285.7 X131.823 Y173.896
G1 F900 X136.712 Y178.785 E208.42656
G0 F1285.7 X136.319 Y178.887
G1 F900 X131.43 Y173.998 E208.69116
G0 F1285.7 X131.036 Y174.099
G1 F900 X135.925 Y178.988 E208.95575
G0 F1285.7 X135.531 Y179.089
G1 F900 X130.642 Y174.2 E209.22035
G0 F1285.7 X130.249 Y174.301
G1 F900 X135.138 Y179.191 E209.48498
G0 F1285.7 X134.744 Y179.292
G1 F900 X129.855 Y174.403 E209.74958
G0 F1285.7 X129.462 Y174.504
G1 F900 X134.35 Y179.393 E210.01415
G0 F1285.7 X133.957 Y179.495
G1 F900 X129.068 Y174.605 E210.27878
G0 F1285.7 X128.675 Y174.707
G1 F900 X133.563 Y179.596 E210.54335
G0 F1285.7 X133.17 Y179.697
G1 F900 X128.281 Y174.808 E210.80795
G0 F1285.7 X127.887 Y174.909
G1 F900 X132.776 Y179.798 E211.07255
G0 F1285.7 X132.383 Y179.9
G1 F900 X127.494 Y175.011 E211.33714
G0 F1285.7 X127.1 Y175.112
G1 F900 X131.989 Y180.001 E211.60174
G0 F1285.7 X131.595 Y180.102
G1 F900 X126.706 Y175.213 E211.86634
G0 F1285.7 X126.313 Y175.315
G1 F900 X131.202 Y180.204 E212.13094
G0 F1285.7 X130.808 Y180.305
G1 F900 X125.919 Y175.416 E212.39554
G0 F1285.7 X125.525 Y175.518
G1 F900 X130.414 Y180.406 E212.66011
G0 F1285.7 X130.021 Y180.508
G1 F900 X125.132 Y175.619 E212.92471
G0 F1285.7 X124.738 Y175.72
G1 F900 X129.627 Y180.609 E213.18931
G0 F1285.7 X129.233 Y180.711
G1 F900 X124.344 Y175.822 E213.45391
G0 F1285.7 X123.951 Y175.923
G1 F900 X128.839 Y180.812 E213.71848
G0 F1285.7 X128.446 Y180.913
G1 F900 X123.557 Y176.025 E213.98305
G0 F1285.7 X123.163 Y176.126
G1 F900 X128.052 Y181.015 E214.24765
G0 F1285.7 X127.658 Y181.116
G1 F900 X122.77 Y176.227 E214.51222
G0 F1285.7 X122.376 Y176.329
G1 F900 X127.265 Y181.218 E214.77682
G0 F1285.7 X126.871 Y181.319
G1 F900 X121.982 Y176.43 E215.04142
G0 F1285.7 X121.589 Y176.532
G1 F900 X126.478 Y181.42 E215.30599
G0 F1285.7 X126.084 Y181.521
G1 F900 X121.195 Y176.633 E215.57056
G0 F1285.7 X120.802 Y176.734
G1 F900 X125.691 Y181.623 E215.83516
G0 F1285.7 X125.297 Y181.724
G1 F900 X120.408 Y176.836 E216.09974
