;FLAVOR:Marlin
;TIME:23859
;Filament used: 25.581m
;Layer height: 0.3
;MINX:10.475
;MINY:8.426
;MINZ:0.26
;MAXX:185.74
;MAXY:183.667
;MAXZ:29.66
;Generated with Cura_SteamEngine 4.9.1
M82 ;absolute extrusion mode
;Begin Start Gcode for Dagoma DiscoEasy 200
;Sliced: 26-07-2021 01:26:27
;Initial extruder: 0

G90 ;Absolute positioning
M106 S255 ;Fan on full
G28 X Y ;Home stop X Y
G1 X100 ;Centre back during cooldown in case of oozing
M109 R90 ;Cooldown in case too hot
G28 ;Centre
G29 ;Auto-level
M104 S205 ;Pre-heat
M107 ;Fan off
G0 X100 Y5 Z0.5 ;Front centre for degunk
M109 S205 ;Wait for initial temp
M83 ;E Relative
G1 E10 F200 ;Degunk
G1 E-3 F5000 ;Retract
G0 Z3 ;Withdraw
M82 ;E absolute
G92 E0 ;E reset
G1 F6000 ;Set feedrate

;Finish Start Gcode for Dagoma DiscoEasy 200

G92 E0
G92 E0
G1 F3000 E-3.5
;LAYER_COUNT:99
;LAYER:0
M107
G0 F1285.7 X31.873 Y22.286 Z0.26
;TYPE:SKIRT
G1 F3000 E0
G1 F900 X33.392 Y19.957 E0.10641
G1 X34.827 Y17.609 E0.21172
G1 X36.198 Y15.221 E0.3171
G1 X37.479 Y12.835 E0.42074
G1 X38.854 Y10.085 E0.5384
G1 X39.185 Y9.543 E0.56271
G1 X39.507 Y9.188 E0.58105
G1 X39.884 Y8.892 E0.59939
G1 X40.304 Y8.662 E0.61772
G1 X40.757 Y8.505 E0.63606
G1 X41.229 Y8.426 E0.65438
G1 X41.709 Y8.426 E0.67275
G1 X42.181 Y8.506 E0.69107
G1 X42.634 Y8.663 E0.70942
G1 X43.054 Y8.893 E0.72774
G1 X43.471 Y9.229 E0.74824
G1 X43.952 Y9.696 E0.77389
G1 X107.501 Y73.245 E4.21324
G1 X109.514 Y75.202 E4.32069
G1 X111.511 Y77.037 E4.42447
G1 X113.608 Y78.855 E4.53069
G1 X115.717 Y80.583 E4.63503
G1 X117.891 Y82.264 E4.7402
G1 X120.133 Y83.897 E4.84634
G1 X122.373 Y85.435 E4.95033
G1 X124.683 Y86.927 E5.05557
G1 X127.04 Y88.355 E5.16103
G1 X129.412 Y89.703 E5.26544
G1 X131.859 Y91.004 E5.3715
G1 X133.462 Y91.81 E5.44016
G1 X134.172 Y92.22 E5.47154
G1 X134.739 Y92.661 E5.49903
G1 X135.014 Y92.908 E5.51318
G1 X135.404 Y93.303 E5.53442
G1 X136.56 Y94.451 E5.59677
G1 X136.764 Y94.676 E5.60839
G1 X137.092 Y95.079 E5.62828
G1 X137.414 Y95.519 E5.64914
G1 X138.137 Y96.655 E5.70067
G1 X138.255 Y96.845 E5.70923
G1 X139.746 Y99.116 E5.8132
G1 X141.308 Y101.354 E5.91765
G1 X142.963 Y103.589 E6.02407
G1 X144.656 Y105.744 E6.12895
G1 X146.405 Y107.845 E6.23357
G1 X148.22 Y109.904 E6.33861
G1 X150.106 Y111.927 E6.44446
G1 X152.031 Y113.877 E6.54932
G1 X154.011 Y115.773 E6.65423
G1 X156.06 Y117.626 E6.75995
G1 X158.139 Y119.401 E6.86457
G1 X160.28 Y121.129 E6.96986
G1 X162.482 Y122.803 E7.07572
G1 X164.663 Y124.368 E7.17845
G1 X166.979 Y125.932 E7.2854
G1 X168.253 Y126.752 E7.34338
G1 X169.282 Y127.403 E7.38998
G1 X169.493 Y127.55 E7.39982
G1 X169.992 Y127.932 E7.42387
G1 X170.613 Y128.499 E7.45605
G1 X171.67 Y129.557 E7.51328
G1 X172.116 Y130.029 E7.53813
G1 X172.453 Y130.442 E7.55853
G1 X172.849 Y131.011 E7.58506
G1 X173.018 Y131.32 E7.59854
G1 X173.562 Y132.413 E7.64526
G1 X174.203 Y133.744 E7.7018
G1 X175.471 Y136.2 E7.80758
G1 X176.788 Y138.586 E7.91187
G1 X178.184 Y140.952 E8.01701
G1 X179.646 Y143.277 E8.12211
G1 X181.175 Y145.564 E8.22739
G1 X182.778 Y147.82 E8.3333
G1 X184.294 Y149.834 E8.42977
G1 X185.14 Y150.929 E8.48273
G1 X185.4 Y151.332 E8.50108
G1 X185.59 Y151.771 E8.51939
G1 X185.705 Y152.237 E8.53776
G1 X185.74 Y152.715 E8.5561
G1 X185.695 Y153.192 E8.57444
G1 X185.572 Y153.655 E8.59277
G1 X185.374 Y154.091 E8.61109
G1 X185.106 Y154.488 E8.62943
G1 X184.776 Y154.835 E8.64775
G1 X184.144 Y155.262 E8.67694
G1 X181.67 Y156.491 E8.78266
G1 X179.246 Y157.782 E8.88776
G1 X176.849 Y159.145 E8.99329
G1 X174.5 Y160.573 E9.09849
G1 X172.21 Y162.053 E9.20283
G1 X169.932 Y163.62 E9.30865
G1 X167.721 Y165.234 E9.41341
G1 X165.552 Y166.912 E9.51835
G1 X165.074 Y167.307 E9.54208
G1 X163.148 Y168.849 E9.6365
G1 X162.715 Y169.136 E9.65638
G1 X162.074 Y169.48 E9.68422
G1 X161.296 Y169.788 E9.71625
G1 X161.044 Y169.866 E9.72634
G1 X160.301 Y170.058 E9.75571
G1 X159.002 Y170.404 E9.80716
G1 X158.251 Y170.541 E9.83637
G1 X157.615 Y170.612 E9.86086
G1 X156.596 Y170.653 E9.89989
G1 X153.819 Y170.806 E10.00632
G1 X151.094 Y171.033 E10.11097
G1 X148.371 Y171.338 E10.21583
G1 X145.631 Y171.723 E10.32172
G1 X142.963 Y172.176 E10.42528
G1 X140.247 Y172.716 E10.53126
G1 X137.589 Y173.324 E10.6356
G1 X134.882 Y174.023 E10.7426
G1 X132.267 Y174.777 E10.84675
G1 X129.676 Y175.606 E10.95086
G1 X127.055 Y176.527 E11.05717
G1 X124.475 Y177.515 E11.1629
G1 X121.944 Y178.57 E11.26784
G1 X119.465 Y179.683 E11.37183
G1 X116.99 Y180.881 E11.47706
G1 X114.714 Y182.074 E11.5754
G1 X114.141 Y182.368 E11.60005
G1 X113.441 Y182.691 E11.62955
G1 X112.771 Y182.918 E11.65663
G1 X110.69 Y183.469 E11.73901
G1 X109.939 Y183.602 E11.7682
G1 X109.19 Y183.667 E11.79697
G1 X108.823 Y183.657 E11.81102
G1 X108.321 Y183.624 E11.83027
G1 X108.001 Y183.585 E11.84261
G1 X106.622 Y183.336 E11.89624
G1 X106.297 Y183.273 E11.9089
G1 X103.578 Y182.826 E12.01436
G1 X100.86 Y182.456 E12.11933
G1 X98.107 Y182.161 E12.22529
G1 X95.378 Y181.948 E12.33005
G1 X92.644 Y181.81 E12.43481
G1 X89.912 Y181.751 E12.53939
G1 X86.824 Y181.776 E12.65757
G1 X86.002 Y181.795 E12.68903
G1 X85.524 Y181.766 E12.70736
G1 X85.057 Y181.658 E12.7257
G1 X84.615 Y181.474 E12.74402
G1 X83.986 Y181.036 E12.77336
G1 X83.367 Y180.47 E12.80546
G1 X82.676 Y179.819 E12.84179
G1 X80.627 Y177.996 E12.94674
G1 X78.514 Y176.22 E13.05238
G1 X76.361 Y174.513 E13.15753
G1 X74.186 Y172.886 E13.26147
G1 X71.91 Y171.281 E13.36805
G1 X69.634 Y169.772 E13.47256
G1 X68.7 Y169.193 E13.51462
G1 X67.542 Y168.456 E13.56715
G1 X67.092 Y168.102 E13.58906
G1 X66.346 Y167.383 E13.62871
G1 X61.881 Y162.915 E13.87044
G1 X61.426 Y162.445 E13.89547
G1 X61.075 Y162.002 E13.9171
G1 X60.917 Y161.757 E13.92826
G1 X59.35 Y159.402 E14.03651
G1 X57.797 Y157.207 E14.13941
G1 X56.142 Y154.998 E14.24505
G1 X54.42 Y152.832 E14.35094
G1 X52.675 Y150.762 E14.45455
G1 X50.832 Y148.696 E14.5605
G1 X48.917 Y146.667 E14.66728
G1 X47.013 Y144.762 E14.77035
G1 X45.025 Y142.881 E14.87509
G1 X42.929 Y141.009 E14.98263
G1 X40.871 Y139.27 E15.08575
G1 X38.722 Y137.559 E15.19087
G1 X36.484 Y135.877 E15.29801
G1 X34.283 Y134.319 E15.40121
G1 X32.582 Y133.187 E15.4794
G1 X32.12 Y132.872 E15.5008
G1 X31.737 Y132.559 E15.51973
G1 X31.184 Y132.021 E15.54926
G1 X26.697 Y127.532 E15.79215
G1 X26.239 Y127.059 E15.81735
G1 X25.89 Y126.62 E15.83881
G1 X25.401 Y125.864 E15.87327
G1 X24.825 Y124.943 E15.91484
G1 X23.272 Y122.609 E16.02213
G1 X21.71 Y120.402 E16.1256
G1 X20.068 Y118.214 E16.23029
G1 X18.343 Y116.045 E16.33635
G1 X16.593 Y113.969 E16.44026
G1 X14.735 Y111.889 E16.54699
G1 X13.388 Y110.462 E16.62209
G1 X12.814 Y109.773 E16.65641
G1 X12.589 Y109.351 E16.67471
G1 X12.437 Y108.896 E16.69307
G1 X12.356 Y108.156 E16.72156
G1 X12.378 Y107.067 E16.76324
G1 X12.397 Y104.258 E16.87074
G1 X12.338 Y101.529 E16.9752
G1 X12.202 Y98.798 E17.07985
G1 X11.988 Y96.069 E17.18461
G1 X11.691 Y93.303 E17.29107
G1 X11.325 Y90.603 E17.39534
G1 X10.878 Y87.882 E17.50087
G1 X10.558 Y86.178 E17.56722
G1 X10.5 Y85.636 E17.58808
G1 X10.493 Y85.513 E17.59279
G1 X10.475 Y84.985 E17.61301
G1 X10.549 Y84.139 E17.64551
G1 X10.667 Y83.496 E17.67053
G1 X11.022 Y82.119 E17.72495
G1 X11.242 Y81.301 E17.75737
G1 X11.433 Y80.756 E17.77947
G1 X11.631 Y80.29 E17.79884
G1 X11.732 Y80.077 E17.80787
G1 X12.384 Y78.837 E17.86148
G1 X12.521 Y78.581 E17.87259
G1 X13.761 Y76.126 E17.97785
G1 X14.934 Y73.631 E18.08336
G1 X16.032 Y71.11 E18.18859
G1 X17.062 Y68.551 E18.29415
G1 X18.003 Y66.009 E18.39789
G1 X18.904 Y63.345 E18.50551
G1 X19.698 Y60.757 E18.60911
G1 X20.431 Y58.105 E18.7144
G1 X21.092 Y55.421 E18.82019
G1 X21.664 Y52.769 E18.92401
G1 X22.169 Y50.065 E19.02928
G1 X22.602 Y47.323 E19.13552
G1 X22.946 Y44.649 E19.23869
G1 X23.223 Y41.884 E19.34504
G1 X23.422 Y39.105 E19.45166
G1 X23.508 Y37.021 E19.53148
G1 X23.538 Y36.473 E19.55249
G1 X23.606 Y35.896 E19.57472
G1 X23.721 Y35.263 E19.59934
G1 X23.941 Y34.409 E19.63309
G1 X24.304 Y33.047 E19.68703
G1 X24.497 Y32.489 E19.70963
G1 X24.897 Y31.635 E19.74572
G1 X25.352 Y30.937 E19.77761
G1 X25.76 Y30.412 E19.80305
G1 X27.016 Y28.892 E19.87851
G1 X28.684 Y26.753 E19.98231
G1 X30.348 Y24.489 E20.08984
G1 X31.873 Y22.286 E20.19238
G0 F1285.7 X32.191 Y22.441
G1 F900 X33.687 Y20.145 E20.29725
G1 X35.117 Y17.808 E20.4021
G1 X36.496 Y15.406 E20.5081
G1 X37.794 Y12.986 E20.61319
G1 X39.163 Y10.248 E20.73034
G1 X39.48 Y9.734 E20.75345
G1 X39.788 Y9.406 E20.77067
G1 X40.148 Y9.138 E20.78785
G1 X40.55 Y8.939 E20.80501
G1 X40.981 Y8.813 E20.8222
G1 X41.428 Y8.766 E20.8394
G1 X41.876 Y8.799 E20.85659
G1 X42.311 Y8.911 E20.87378
G1 X42.719 Y9.098 E20.89095
G1 X43.227 Y9.48 E20.91528
G1 X43.678 Y9.918 E20.93934
G1 X107.257 Y73.496 E24.38029
G1 X109.281 Y75.463 E24.4883
G1 X111.273 Y77.293 E24.59182
G1 X113.366 Y79.109 E24.69786
G1 X115.512 Y80.868 E24.80405
G1 X117.681 Y82.544 E24.90895
G1 X119.915 Y84.171 E25.01471
G1 X122.195 Y85.737 E25.12057
G1 X124.507 Y87.23 E25.22589
G1 X126.871 Y88.663 E25.33168
G1 X129.226 Y90.001 E25.43534
G1 X131.694 Y91.313 E25.54231
G1 X133.298 Y92.119 E25.611
G1 X133.965 Y92.503 E25.64046
G1 X134.52 Y92.934 E25.66735
G1 X134.765 Y93.154 E25.67995
G1 X135.157 Y93.551 E25.7013
G1 X136.313 Y94.699 E25.76365
G1 X136.492 Y94.897 E25.77387
G1 X136.878 Y95.373 E25.79732
G1 X137.119 Y95.707 E25.81308
G1 X137.839 Y96.839 E25.86442
G1 X137.945 Y97.01 E25.87212
G1 X139.463 Y99.323 E25.978
G1 X141.022 Y101.556 E26.08222
G1 X142.669 Y103.781 E26.18816
G1 X144.392 Y105.974 E26.29489
G1 X146.154 Y108.09 E26.40027
G1 X147.943 Y110.121 E26.50385
G1 X149.848 Y112.165 E26.61078
G1 X151.788 Y114.128 E26.7164
G1 X153.782 Y116.038 E26.82206
G1 X155.809 Y117.871 E26.92665
G1 X157.924 Y119.677 E27.03308
G1 X160.054 Y121.396 E27.13783
G1 X162.259 Y123.073 E27.24385
G1 X164.498 Y124.679 E27.3493
G1 X166.811 Y126.241 E27.45611
G1 X168.066 Y127.048 E27.51321
G1 X169.095 Y127.699 E27.55981
G1 X169.28 Y127.828 E27.56844
G1 X169.779 Y128.21 E27.59249
G1 X170.369 Y128.75 E27.6231
G1 X171.42 Y129.801 E27.67998
G1 X171.844 Y130.251 E27.70364
G1 X172.25 Y130.751 E27.72829
G1 X172.543 Y131.182 E27.74823
G1 X172.705 Y131.476 E27.76108
G1 X173.246 Y132.565 E27.80761
G1 X173.882 Y133.886 E27.86372
G1 X175.151 Y136.345 E27.96962
G1 X176.486 Y138.763 E28.07532
G1 X177.883 Y141.131 E28.18054
G1 X179.366 Y143.489 E28.28714
G1 X180.879 Y145.752 E28.39132
G1 X182.48 Y148.005 E28.49709
G1 X184.017 Y150.048 E28.59493
G1 X184.863 Y151.143 E28.64789
G1 X185.105 Y151.522 E28.6651
G1 X185.276 Y151.937 E28.68227
G1 X185.371 Y152.376 E28.69946
G1 X185.386 Y152.824 E28.71662
G1 X185.322 Y153.269 E28.73382
G1 X185.18 Y153.695 E28.75101
G1 X184.965 Y154.089 E28.76818
G1 X184.684 Y154.439 E28.78536
G1 X184.345 Y154.733 E28.80253
G1 X183.988 Y154.948 E28.81848
G1 X181.54 Y156.164 E28.92309
G1 X179.079 Y157.474 E29.02978
G1 X176.664 Y158.848 E29.13611
G1 X174.313 Y160.277 E29.2414
G1 X172.037 Y161.748 E29.34511
G1 X169.738 Y163.329 E29.45189
G1 X167.48 Y164.977 E29.55887
G1 X165.333 Y166.639 E29.66278
G1 X164.855 Y167.034 E29.68651
G1 X162.929 Y168.576 E29.78093
G1 X162.549 Y168.828 E29.79837
G1 X161.919 Y169.166 E29.82574
G1 X161.178 Y169.459 E29.85623
G1 X160.957 Y169.527 E29.86508
G1 X160.214 Y169.719 E29.89445
G1 X158.918 Y170.064 E29.94577
G1 X158.197 Y170.195 E29.97382
G1 X157.601 Y170.262 E29.99677
G1 X156.561 Y170.304 E30.0366
G1 X153.808 Y170.455 E30.14211
G1 X151.06 Y170.684 E30.24764
G1 X148.322 Y170.991 E30.35308
G1 X145.587 Y171.376 E30.45878
G1 X142.877 Y171.835 E30.56397
G1 X140.169 Y172.374 E30.66964
G1 X137.525 Y172.979 E30.77344
G1 X134.808 Y173.68 E30.88082
G1 X132.163 Y174.443 E30.98617
G1 X129.532 Y175.285 E31.09189
G1 X126.944 Y176.194 E31.19686
G1 X124.369 Y177.181 E31.30239
G1 X121.808 Y178.247 E31.40855
G1 X119.312 Y179.369 E31.51328
G1 X116.832 Y180.569 E31.61872
G1 X114.553 Y181.763 E31.71718
G1 X113.986 Y182.054 E31.74157
G1 X113.324 Y182.361 E31.76949
G1 X112.681 Y182.58 E31.79549
G1 X110.6 Y183.131 E31.87787
G1 X109.884 Y183.257 E31.9057
G1 X109.196 Y183.317 E31.93212
G1 X108.846 Y183.308 E31.94552
G1 X108.344 Y183.275 E31.96478
G1 X108.063 Y183.24 E31.97561
G1 X106.689 Y182.992 E32.02904
G1 X106.386 Y182.933 E32.04086
G1 X103.612 Y182.477 E32.14844
G1 X100.91 Y182.11 E32.2528
G1 X98.133 Y181.812 E32.35968
G1 X95.426 Y181.6 E32.46359
G1 X92.633 Y181.46 E32.57061
G1 X89.917 Y181.401 E32.67458
G1 X86.821 Y181.426 E32.79307
G1 X85.994 Y181.445 E32.82472
G1 X85.546 Y181.416 E32.8419
G1 X85.111 Y181.307 E32.85907
G1 X84.701 Y181.123 E32.87626
G1 X84.222 Y180.778 E32.89885
G1 X83.607 Y180.215 E32.93076
G1 X82.901 Y179.55 E32.96788
G1 X80.878 Y177.75 E33.07151
G1 X78.746 Y175.958 E33.17809
G1 X76.553 Y174.219 E33.2852
G1 X74.387 Y172.6 E33.38869
G1 X72.09 Y170.98 E33.49626
G1 X69.833 Y169.483 E33.5999
G1 X68.888 Y168.898 E33.64244
G1 X67.73 Y168.161 E33.69497
G1 X67.334 Y167.85 E33.71424
G1 X66.594 Y167.136 E33.75359
G1 X62.133 Y162.671 E33.99513
G1 X61.678 Y162.201 E34.02017
G1 X61.188 Y161.531 E34.05193
G1 X59.669 Y159.249 E34.15684
G1 X58.065 Y156.981 E34.26315
G1 X56.416 Y154.78 E34.3684
G1 X54.698 Y152.619 E34.47405
G1 X52.921 Y150.511 E34.57956
G1 X51.085 Y148.452 E34.68514
G1 X49.206 Y146.462 E34.78988
G1 X47.253 Y144.508 E34.8956
G1 X45.233 Y142.596 E35.00205
G1 X43.214 Y140.793 E35.10564
G1 X41.066 Y138.978 E35.21326
G1 X38.94 Y137.285 E35.31726
G1 X36.716 Y135.613 E35.42374
G1 X34.469 Y134.023 E35.52909
G1 X32.78 Y132.898 E35.60675
G1 X32.318 Y132.583 E35.62815
G1 X31.981 Y132.308 E35.64479
G1 X31.431 Y131.774 E35.67413
G1 X26.948 Y127.288 E35.91684
G1 X26.49 Y126.815 E35.94203
G1 X26.184 Y126.43 E35.96086
G1 X25.698 Y125.679 E35.99509
G1 X25.106 Y124.733 E36.0378
G1 X23.576 Y122.432 E36.14354
G1 X21.996 Y120.199 E36.24823
G1 X20.342 Y117.996 E36.35365
G1 X18.621 Y115.833 E36.45944
G1 X16.855 Y113.738 E36.5643
G1 X15.003 Y111.663 E36.67073
G1 X13.647 Y110.226 E36.74635
G1 X13.093 Y109.56 E36.7795
G1 X12.889 Y109.16 E36.79668
G1 X12.758 Y108.73 E36.81388
G1 X12.706 Y108.164 E36.83564
G1 X12.728 Y107.069 E36.87755
G1 X12.747 Y104.258 E36.98513
G1 X12.688 Y101.54 E37.08917
G1 X12.549 Y98.751 E37.19604
G1 X12.338 Y96.055 E37.29953
G1 X12.037 Y93.243 E37.40775
G1 X11.676 Y90.581 E37.51056
G1 X11.221 Y87.812 E37.61795
G1 X10.902 Y86.114 E37.68407
G1 X10.849 Y85.609 E37.7035
G1 X10.842 Y85.501 E37.70764
G1 X10.824 Y84.973 E37.72786
G1 X10.896 Y84.187 E37.75807
G1 X11.006 Y83.583 E37.78156
G1 X11.36 Y82.21 E37.83582
G1 X11.58 Y81.392 E37.86824
G1 X11.755 Y80.893 E37.88848
G1 X11.953 Y80.427 E37.90785
G1 X12.042 Y80.24 E37.91578
G1 X12.692 Y79.002 E37.96929
G1 X12.837 Y78.731 E37.98105
G1 X14.084 Y76.262 E38.08691
G1 X15.252 Y73.777 E38.19199
G1 X16.358 Y71.238 E38.29797
G1 X17.379 Y68.703 E38.40256
G1 X18.342 Y66.1 E38.50877
G1 X19.224 Y63.493 E38.6141
G1 X20.035 Y60.853 E38.71979
G1 X20.765 Y58.206 E38.82487
G1 X21.442 Y55.462 E38.93303
G1 X22.009 Y52.832 E39.03599
G1 X22.515 Y50.12 E39.14157
G1 X22.947 Y47.382 E39.24765
G1 X23.298 Y44.659 E39.35272
G1 X23.57 Y41.944 E39.45714
G1 X23.769 Y39.159 E39.56399
G1 X23.858 Y37.04 E39.64516
G1 X23.888 Y36.492 E39.66616
G1 X23.953 Y35.945 E39.68724
G1 X24.06 Y35.35 E39.71038
G1 X24.279 Y34.499 E39.744
G1 X24.642 Y33.137 E39.79795
G1 X24.82 Y32.623 E39.81876
G1 X25.193 Y31.822 E39.85258
G1 X25.642 Y31.132 E39.88408
G1 X26.033 Y30.631 E39.9084
G1 X27.282 Y29.12 E39.98343
G1 X28.975 Y26.949 E40.08879
G1 X30.604 Y24.733 E40.19404
G1 X32.191 Y22.441 E40.30073
G0 F1285.7 X32.464 Y22.663
G1 F900 X33.972 Y20.349 E40.40643
G1 X35.44 Y17.948 E40.51413
G1 X36.795 Y15.588 E40.61827
G1 X38.109 Y13.139 E40.72463
G1 X39.472 Y10.412 E40.8413
G1 X39.775 Y9.926 E40.86322
G1 X40.066 Y9.628 E40.87916
G1 X40.409 Y9.391 E40.89511
G1 X40.79 Y9.224 E40.91103
G1 X41.197 Y9.133 E40.92699
G1 X41.613 Y9.121 E40.94292
G1 X42.025 Y9.188 E40.95889
G1 X42.415 Y9.333 E40.97482
G1 X42.771 Y9.55 E40.99077
G1 X42.983 Y9.731 E41.00144
G1 X43.457 Y10.191 E41.02672
G1 X107.013 Y73.747 E44.46645
G1 X109.011 Y75.689 E44.57308
G1 X111.074 Y77.585 E44.68031
G1 X113.143 Y79.378 E44.78508
G1 X115.286 Y81.135 E44.89114
G1 X117.471 Y82.824 E44.99682
G1 X119.721 Y84.463 E45.10335
G1 X121.993 Y86.023 E45.20882
G1 X124.321 Y87.527 E45.31489
