;FLAVOR:Marlin
;TIME:7670
;Filament used: 7.95087m
;Layer height: 0.3
;MINX:49.055
;MINY:54.504
;MINZ:0.26
;MAXX:157.527
;MAXY:149.059
;MAXZ:23.66
;Generated with Cura_SteamEngine 4.9.1
M82 ;absolute extrusion mode
;Begin Start Gcode for Dagoma DiscoEasy 200
;Sliced: 28-06-2021 19:54:19
;Initial extruder: 0

G90 ;Absolute positioning
M106 S255 ;Fan on full
G28 X Y ;Home stop X Y
G1 X100 ;Centre back during cooldown in case of oozing
M109 R90 ;Cooldown in case too hot
G28 ;Centre
G29 ;Auto-level
M104 S205 ;Pre-heat
M107 ;Fan off
G0 X100 Y5 Z0.5 ;Front centre for degunk
M109 S205 ;Wait for initial temp
M83 ;E Relative
G1 E10 F200 ;Degunk
G1 E-3 F5000 ;Retract
G0 Z3 ;Withdraw
M82 ;E absolute
G92 E0 ;E reset
G1 F6000 ;Set feedrate

;Finish Start Gcode for Dagoma DiscoEasy 200

G92 E0
G92 E0
G1 F3000 E-3.5
;LAYER_COUNT:79
;LAYER:0
M107
G0 F1285.7 X100.42 Y56.917 Z0.26
;TYPE:SKIRT
G1 F3000 E0
G1 F900 X100.753 Y56.368 E0.02457
G1 X101.075 Y55.915 E0.04584
G1 X101.458 Y55.512 E0.06712
G1 X101.896 Y55.168 E0.08843
G1 X102.378 Y54.89 E0.10973
G1 X102.895 Y54.684 E0.13102
G1 X103.436 Y54.555 E0.15231
G1 X103.99 Y54.504 E0.1736
G1 X104.546 Y54.533 E0.19491
G1 X105.092 Y54.641 E0.21621
G1 X105.616 Y54.827 E0.23749
G1 X106.109 Y55.085 E0.25878
G1 X106.559 Y55.412 E0.28007
G1 X106.959 Y55.799 E0.30137
G1 X107.323 Y56.279 E0.32442
G1 X107.436 Y56.46 E0.33259
G1 X107.721 Y56.946 E0.35415
G1 X116.832 Y72.89 E1.05691
G1 X118.247 Y75.287 E1.16344
G1 X119.684 Y77.571 E1.26671
G1 X121.215 Y79.858 E1.37203
G1 X122.766 Y82.037 E1.47439
G1 X124.41 Y84.218 E1.57891
G1 X126.128 Y86.366 E1.68417
G1 X127.863 Y88.413 E1.78686
G1 X129.692 Y90.452 E1.89169
G1 X131.555 Y92.415 E1.99525
G1 X133.485 Y94.335 E2.09944
G1 X133.644 Y94.487 E2.10786
G1 X134.055 Y94.892 E2.12994
G1 X134.422 Y95.31 E2.15123
G1 X134.715 Y95.757 E2.17168
G1 X135.261 Y96.732 E2.21444
G1 X135.744 Y97.62 E2.25313
G1 X136.952 Y99.697 E2.34508
G1 X137.108 Y99.983 E2.35755
G1 X137.336 Y100.491 E2.37886
G1 X137.456 Y100.884 E2.39458
G1 X138.116 Y103.542 E2.49939
G1 X138.847 Y106.162 E2.60349
G1 X139.655 Y108.774 E2.70812
G1 X140.524 Y111.328 E2.81137
G1 X141.466 Y113.858 E2.91468
G1 X142.494 Y116.399 E3.01958
G1 X143.584 Y118.885 E3.12346
G1 X144.753 Y121.361 E3.22825
G1 X145.967 Y123.751 E3.33083
G1 X147.64 Y126.805 E3.4641
G1 X156.71 Y142.676 E4.16366
G1 X157.056 Y143.304 E4.1911
G1 X157.289 Y143.809 E4.21238
G1 X157.447 Y144.343 E4.23369
G1 X157.527 Y144.894 E4.255
G1 X157.527 Y145.45 E4.27628
G1 X157.448 Y146.001 E4.29758
G1 X157.29 Y146.534 E4.31886
G1 X157.058 Y147.04 E4.34016
G1 X156.756 Y147.507 E4.36144
G1 X156.39 Y147.926 E4.38273
G1 X155.967 Y148.289 E4.40406
G1 X155.498 Y148.587 E4.42533
G1 X154.99 Y148.814 E4.44662
G1 X154.455 Y148.967 E4.46792
G1 X153.849 Y149.044 E4.4913
G1 X153.648 Y149.052 E4.49899
G1 X153.087 Y149.059 E4.52047
G1 X53.553 Y149.059 E8.32958
G1 X52.872 Y149.049 E8.35565
G1 X52.318 Y149 E8.37693
G1 X51.776 Y148.874 E8.39823
G1 X51.258 Y148.67 E8.41953
G1 X50.775 Y148.395 E8.4408
G1 X50.335 Y148.053 E8.46213
G1 X49.95 Y147.652 E8.4834
G1 X49.626 Y147.2 E8.50469
G1 X49.37 Y146.706 E8.52598
G1 X49.187 Y146.18 E8.54729
G1 X49.081 Y145.634 E8.56858
G1 X49.055 Y145.078 E8.58988
G1 X49.109 Y144.524 E8.61118
G1 X49.241 Y143.984 E8.63246
G1 X49.555 Y143.268 E8.66238
G1 X50.062 Y142.373 E8.70174
G1 X100.42 Y56.917 E12.49769
G0 F1285.7 X100.719 Y57.099
G1 F900 X101.052 Y56.55 E12.52227
G1 X101.361 Y56.118 E12.54259
G1 X101.731 Y55.738 E12.56289
G1 X102.153 Y55.417 E12.58318
G1 X102.62 Y55.163 E12.60353
G1 X103.118 Y54.983 E12.62379
G1 X103.639 Y54.879 E12.64412
G1 X104.169 Y54.855 E12.66443
G1 X104.697 Y54.91 E12.68474
G1 X105.21 Y55.044 E12.70503
G1 X105.698 Y55.253 E12.72535
G1 X106.148 Y55.534 E12.74565
G1 X106.552 Y55.879 E12.76598
G1 X107.029 Y56.469 E12.79502
G1 X107.134 Y56.638 E12.80263
G1 X107.418 Y57.12 E12.82404
G1 X116.531 Y73.068 E13.52698
G1 X117.947 Y75.466 E13.63355
G1 X119.404 Y77.782 E13.73827
G1 X120.908 Y80.029 E13.84174
G1 X122.494 Y82.257 E13.9464
G1 X124.137 Y84.438 E14.0509
G1 X125.854 Y86.584 E14.15608
G1 X127.601 Y88.645 E14.25948
G1 X129.424 Y90.677 E14.36395
G1 X131.319 Y92.674 E14.46931
G1 X133.244 Y94.588 E14.57319
G1 X133.398 Y94.736 E14.58137
G1 X133.809 Y95.141 E14.60345
G1 X134.158 Y95.541 E14.62376
G1 X134.41 Y95.928 E14.64144
G1 X134.954 Y96.9 E14.68406
G1 X135.447 Y97.805 E14.7235
G1 X136.649 Y99.873 E14.81504
G1 X136.8 Y100.149 E14.82708
G1 X137.015 Y100.634 E14.84739
G1 X137.116 Y100.968 E14.86074
G1 X137.775 Y103.619 E14.96528
G1 X138.508 Y106.249 E15.06976
G1 X139.321 Y108.879 E15.17511
G1 X140.2 Y111.463 E15.27957
G1 X141.145 Y114 E15.38317
G1 X142.174 Y116.541 E15.48809
G1 X143.267 Y119.034 E15.59226
G1 X144.431 Y121.498 E15.69655
G1 X145.661 Y123.922 E15.80057
G1 X147.33 Y126.968 E15.93349
G1 X156.403 Y142.845 E16.63331
G1 X156.749 Y143.473 E16.66075
G1 X156.97 Y143.956 E16.68108
G1 X157.115 Y144.466 E16.70137
G1 X157.182 Y144.992 E16.72166
G1 X157.17 Y145.523 E16.74199
G1 X157.078 Y146.046 E16.76231
G1 X156.908 Y146.548 E16.78259
G1 X156.665 Y147.02 E16.80291
G1 X156.354 Y147.45 E16.82322
G1 X155.982 Y147.828 E16.84351
G1 X155.557 Y148.146 E16.86383
G1 X155.089 Y148.397 E16.88415
G1 X154.589 Y148.575 E16.90446
G1 X153.832 Y148.695 E16.93379
G1 X153.644 Y148.702 E16.94099
G1 X153.083 Y148.709 E16.96246
G1 X53.558 Y148.709 E20.77124
G1 X52.877 Y148.699 E20.7973
G1 X52.349 Y148.651 E20.81759
G1 X51.833 Y148.524 E20.83793
G1 X51.343 Y148.322 E20.85821
G1 X50.888 Y148.048 E20.87854
G1 X50.48 Y147.709 E20.89884
G1 X50.127 Y147.313 E20.91914
G1 X49.838 Y146.868 E20.93945
G1 X49.618 Y146.385 E20.95976
G1 X49.474 Y145.874 E20.98007
G1 X49.408 Y145.348 E21.00036
G1 X49.422 Y144.817 E21.02069
G1 X49.515 Y144.295 E21.04098
G1 X49.686 Y143.792 E21.06131
G1 X49.86 Y143.441 E21.07631
G1 X50.363 Y142.55 E21.11546
G1 X100.719 Y57.099 E24.91121
G0 F1285.7 X101.018 Y57.28
G1 F900 X101.351 Y56.731 E24.93578
G1 X101.646 Y56.323 E24.95505
G1 X102.001 Y55.966 E24.97432
G1 X102.409 Y55.67 E24.99361
G1 X102.858 Y55.442 E25.01288
G1 X103.337 Y55.288 E25.03214
G1 X103.835 Y55.211 E25.05142
G1 X104.338 Y55.215 E25.07067
G1 X104.835 Y55.298 E25.08995
G1 X105.312 Y55.458 E25.10921
G1 X105.758 Y55.692 E25.12848
G1 X106.162 Y55.993 E25.14776
G1 X106.513 Y56.354 E25.16703
G1 X106.833 Y56.815 E25.18851
G1 X107.114 Y57.294 E25.20976
G1 X116.251 Y73.284 E25.91455
G1 X117.645 Y75.645 E26.01948
G1 X119.097 Y77.952 E26.1238
G1 X120.624 Y80.233 E26.22884
G1 X122.226 Y82.485 E26.33461
G1 X123.864 Y84.657 E26.43872
G1 X125.562 Y86.78 E26.54275
G1 X127.337 Y88.875 E26.64784
G1 X129.175 Y90.923 E26.75315
G1 X131.066 Y92.916 E26.85829
G1 X133.003 Y94.842 E26.96282
G1 X133.152 Y94.985 E26.97073
G1 X133.563 Y95.39 E26.99281
G1 X133.893 Y95.771 E27.0121
G1 X134.105 Y96.1 E27.02708
G1 X134.647 Y97.067 E27.0695
G1 X135.143 Y97.979 E27.10923
G1 X136.347 Y100.049 E27.20087
G1 X136.492 Y100.315 E27.21247
G1 X136.694 Y100.776 E27.23173
G1 X136.776 Y101.053 E27.24278
G1 X137.439 Y103.721 E27.34799
G1 X138.17 Y106.346 E27.45227
G1 X138.977 Y108.953 E27.55671
G1 X139.873 Y111.587 E27.66318
G1 X140.813 Y114.111 E27.76626
G1 X141.849 Y116.671 E27.87195
G1 X142.95 Y119.181 E27.97684
G1 X144.122 Y121.664 E28.08191
G1 X145.355 Y124.092 E28.18613
G1 X147.006 Y127.105 E28.31761
G1 X156.097 Y143.014 E29.01883
G1 X156.443 Y143.642 E29.04627
G1 X156.65 Y144.101 E29.06554
G1 X156.782 Y144.587 E29.08481
G1 X156.836 Y145.088 E29.1041
G1 X156.81 Y145.59 E29.12334
G1 X156.704 Y146.083 E29.14263
G1 X156.522 Y146.552 E29.16189
G1 X156.268 Y146.987 E29.18116
G1 X155.949 Y147.377 E29.20045
G1 X155.572 Y147.71 E29.2197
G1 X155.147 Y147.98 E29.23896
G1 X154.684 Y148.18 E29.25827
G1 X154.196 Y148.304 E29.27753
G1 X153.64 Y148.352 E29.29889
G1 X153.079 Y148.359 E29.32036
G1 X53.563 Y148.359 E33.12879
G1 X52.882 Y148.349 E33.15486
G1 X52.381 Y148.301 E33.17412
G1 X51.893 Y148.175 E33.19341
G1 X51.432 Y147.974 E33.21265
G1 X51.008 Y147.702 E33.23193
G1 X50.633 Y147.366 E33.2512
G1 X50.315 Y146.976 E33.27046
G1 X50.063 Y146.54 E33.28973
G1 X49.883 Y146.069 E33.30903
G1 X49.78 Y145.577 E33.32826
G1 X49.756 Y145.074 E33.34753
G1 X49.811 Y144.573 E33.36682
G1 X49.946 Y144.088 E33.38609
G1 X50.164 Y143.613 E33.40609
G1 X50.665 Y142.728 E33.44501
G1 X101.018 Y57.28 E37.2406
G1 F3000 E33.7406
G0 F1285.7 X104.551 Y57.93
G0 X129.871 Y97.821
;TYPE:SUPPORT
G1 F3000 E37.2406
G1 F900 X131.237 Y97.821 E37.29288
G1 X132.082 Y99.47 E37.36379
G1 X132.319 Y99.902 E37.38264
G1 X133.495 Y101.801 E37.46812
G1 X132.73 Y102.96 E37.52127
G1 X132.039 Y103.086 E37.54815
G1 X129.36 Y98.4 E37.75472
G1 X129.871 Y97.821 E37.78427
G0 F1285.7 X129.912 Y97.986
G1 F900 X131.165 Y97.986 E37.83222
G0 F1285.7 X130.648 Y97.961
G1 F900 X130.648 Y100.371 E37.92445
G0 F1285.7 X130.618 Y100.319
G1 F900 X132.414 Y100.319 E37.99318
G0 F1285.7 X132.981 Y101.237
G1 F900 X132.981 Y102.326 E38.03486
G0 F1285.7 X132.764 Y102.652
G1 F900 X131.953 Y102.652 E38.0659
G1 F3000 E34.5659
;MESH:support_tri_0_001.stl
G0 F1285.7 X129.706 Y103.935
G0 X152.776 Y144.659
;TYPE:WALL-INNER
G1 F3000 E38.0659
G1 F900 X53.822 Y144.659 E41.85282
G1 X104.06 Y59.406 E45.63975
G1 X152.776 Y144.659 E49.39744
G0 F1285.7 X153.336 Y144.984
;TYPE:WALL-OUTER
G1 F900 X53.253 Y144.984 E53.22757
G1 X104.064 Y58.759 E57.05768
G1 X153.336 Y144.984 E60.85823
G0 F1285.7 X153.136 Y144.984
G0 X152.991 Y144.784
G0 X152.19 Y144.319
;TYPE:SKIN
G1 F900 X54.418 Y144.319 E64.59991
G1 X104.056 Y60.084 E68.34162
G1 X152.19 Y144.319 E72.05444
G0 F1285.7 X104.016 Y60.459
G1 F900 X104.185 Y60.628 E72.06359
G0 F1285.7 X103.832 Y60.77
G1 F900 X104.845 Y61.782 E72.11838
G1 X104.907 Y61.844
G0 F1285.7 X105.505 Y62.938
G1 F900 X103.649 Y61.081 E72.21886
G0 F1285.7 X103.465 Y61.393
G1 F900 X106.165 Y64.092 E72.36496
G1 X106.227 Y64.154
G0 F1285.7 X106.825 Y65.247
G1 F900 X103.282 Y61.704 E72.55671
G0 F1285.7 X103.098 Y62.016
G1 F900 X107.485 Y66.402 E72.79411
G1 X107.547 Y66.464
G0 F1285.7 X108.145 Y67.557
G1 F900 X102.915 Y62.327 E73.07717
G0 F1285.7 X102.732 Y62.639
G1 F900 X108.805 Y68.712 E73.40585
G1 X108.867 Y68.774
G0 F1285.7 X109.465 Y69.867
G1 F900 X102.548 Y62.95 E73.7802
G0 F1285.7 X102.365 Y63.262
G1 F900 X110.125 Y71.022 E74.20018
G1 X110.187 Y71.084
G0 F1285.7 X110.785 Y72.177
G1 F900 X102.181 Y63.573 E74.66584
G0 F1285.7 X101.998 Y63.884
G1 F900 X111.444 Y73.331 E75.1771
G1 X111.506 Y73.393
G0 F1285.7 X112.105 Y74.487
G1 F900 X101.814 Y64.196 E75.73406
G0 F1285.7 X101.63 Y64.507
G1 F900 X112.765 Y75.642 E76.3367
G1 X112.827 Y75.704
G0 F1285.7 X113.424 Y76.796
G1 F900 X101.447 Y64.819 E76.98491
G0 F1285.7 X101.263 Y65.13
G1 F900 X114.085 Y77.952 E77.67886
G1 X114.147 Y78.014
G0 F1285.7 X114.745 Y79.106
G1 F900 X101.08 Y65.442 E78.4184
G0 F1285.7 X100.896 Y65.753
G1 F900 X115.404 Y80.261 E79.20359
G1 X115.466 Y80.323
G0 F1285.7 X116.065 Y81.416
G1 F900 X100.713 Y66.064 E80.03446
G0 F1285.7 X100.529 Y66.376
G1 F900 X116.724 Y82.571 E80.91095
G1 X116.786 Y82.633
G0 F1285.7 X117.384 Y83.726
G1 F900 X100.346 Y66.687 E81.8331
G0 F1285.7 X100.162 Y66.999
G1 F900 X118.044 Y84.881 E82.80089
G1 X118.106 Y84.943
G0 F1285.7 X118.704 Y86.036
G1 F900 X99.979 Y67.31 E83.81434
G0 F1285.7 X99.795 Y67.622
G1 F900 X119.364 Y87.191 E84.87344
G1 X119.426 Y87.253
G0 F1285.7 X120.024 Y88.345
G1 F900 X99.611 Y67.933 E85.97819
G0 F1285.7 X99.428 Y68.244
G1 F900 X120.684 Y89.501 E87.12862
G1 X120.746 Y89.563
G0 F1285.7 X121.344 Y90.656
G1 F900 X99.244 Y68.556 E88.3247
G0 F1285.7 X99.061 Y68.867
G1 F900 X122.004 Y91.81 E89.56641
G1 X122.066 Y91.872
G0 F1285.7 X122.664 Y92.966
G1 F900 X98.877 Y69.179 E90.85379
G0 F1285.7 X98.694 Y69.49
G1 F900 X123.324 Y94.12 E92.1868
G1 X123.386 Y94.182
G0 F1285.7 X123.984 Y95.275
G1 F900 X98.51 Y69.802 E93.56545
G0 F1285.7 X98.327 Y70.113
G1 F900 X124.643 Y96.43 E94.98974
G1 X124.705 Y96.492
G0 F1285.7 X125.304 Y97.585
G1 F900 X98.143 Y70.425 E96.4597
G0 F1285.7 X97.96 Y70.736
G1 F900 X125.964 Y98.74 E97.97531
G1 X126.026 Y98.802
G0 F1285.7 X126.623 Y99.895
G1 F900 X97.776 Y71.047 E99.53657
G0 F1285.7 X97.592 Y71.359
G1 F900 X127.284 Y101.05 E101.14351
G1 X127.346 Y101.112
G0 F1285.7 X127.943 Y102.205
G1 F900 X97.409 Y71.67 E102.79608
G0 F1285.7 X97.225 Y71.982
G1 F900 X128.603 Y103.359 E104.49427
G1 X128.665 Y103.421
G0 F1285.7 X129.264 Y104.515
G1 F900 X97.042 Y72.293 E106.23817
G0 F1285.7 X96.858 Y72.605
G1 F900 X129.923 Y105.67 E108.02769
G1 X129.985 Y105.732
G0 F1285.7 X130.583 Y106.824
G1 F900 X96.675 Y72.916 E109.86283
G0 F1285.7 X96.491 Y73.227
G1 F900 X131.243 Y107.98 E111.74368
G1 X131.305 Y108.042
G0 F1285.7 X131.903 Y109.134
G1 F900 X96.308 Y73.539 E113.67013
G0 F1285.7 X96.124 Y73.85
G1 F900 X132.563 Y110.289 E115.64225
G1 X132.625 Y110.351
G0 F1285.7 X133.223 Y111.444
G1 F900 X95.94 Y74.162 E117.66003
G0 F1285.7 X95.757 Y74.473
G1 F900 X133.883 Y112.599 E119.72346
G1 X133.945 Y112.661
G0 F1285.7 X134.543 Y113.754
G1 F900 X95.573 Y74.785 E121.83253
G0 F1285.7 X95.39 Y75.096
G1 F900 X135.203 Y114.909 E123.98727
G1 X135.265 Y114.971
G0 F1285.7 X135.863 Y116.064
G1 F900 X95.206 Y75.407 E126.18767
G0 F1285.7 X95.023 Y75.719
G1 F900 X136.523 Y117.219 E128.43371
G1 X136.585 Y117.281
G0 F1285.7 X137.182 Y118.373
G1 F900 X94.839 Y76.03 E130.72536
G0 F1285.7 X94.656 Y76.342
G1 F900 X137.843 Y119.529 E133.0627
G1 X137.905 Y119.591
G0 F1285.7 X138.503 Y120.684
G1 F900 X94.473 Y76.653 E135.44569
G0 F1285.7 X94.289 Y76.965
G1 F900 X139.162 Y121.838 E137.87427
G1 X139.224 Y121.9
G0 F1285.7 X139.822 Y122.993
G1 F900 X94.106 Y77.276 E140.34851
G0 F1285.7 X93.922 Y77.587
G1 F900 X140.483 Y124.148 E142.86845
G1 X140.545 Y124.21
G0 F1285.7 X141.142 Y125.303
G1 F900 X93.739 Y77.899 E145.43398
G0 F1285.7 X93.555 Y78.21
G1 F900 X141.802 Y126.458 E148.0452
G1 X141.864 Y126.52
G0 F1285.7 X142.462 Y127.613
G1 F900 X93.372 Y78.522 E150.70204
G0 F1285.7 X93.188 Y78.833
G1 F900 X143.122 Y128.768 E153.40456
G1 X143.184 Y128.83
G0 F1285.7 X143.782 Y129.923
G1 F900 X93.005 Y79.145 E156.1527
G0 F1285.7 X92.821 Y79.456
G1 F900 X144.442 Y131.078 E158.94652
G1 X144.504 Y131.14
G0 F1285.7 X145.102 Y132.233
G1 F900 X92.638 Y79.768 E161.78597
G0 F1285.7 X92.454 Y80.079
G1 F900 X145.762 Y133.387 E164.67107
G1 X145.824 Y133.449
G0 F1285.7 X146.422 Y134.542
G1 F900 X92.271 Y80.391 E167.60179
G0 F1285.7 X92.087 Y80.702
G1 F900 X147.082 Y135.698 E170.57821
G1 X147.144 Y135.76
G0 F1285.7 X147.742 Y136.852
G1 F900 X91.903 Y81.013 E173.60029
G0 F1285.7 X91.72 Y81.325
G1 F900 X148.401 Y138.007 E176.66797
G1 X148.463 Y138.069
G0 F1285.7 X149.062 Y139.162
G1 F900 X91.536 Y81.636 E179.78135
G0 F1285.7 X91.353 Y81.948
G1 F900 X149.722 Y140.317 E182.94035
G1 X149.784 Y140.379
G0 F1285.7 X150.381 Y141.472
G1 F900 X91.169 Y82.259 E186.14501
G0 F1285.7 X90.986 Y82.571
G1 F900 X151.042 Y142.627 E189.39531
G1 X151.104 Y142.689
G0 F1285.7 X151.701 Y143.782
G1 F900 X90.802 Y82.882 E192.69127
G0 F1285.7 X90.619 Y83.194
G1 F900 X151.586 Y144.161 E195.99088
G0 F1285.7 X151.091 Y144.161
G1 F900 X90.435 Y83.505 E199.27366
G0 F1285.7 X90.251 Y83.816
G1 F900 X150.596 Y144.161 E202.53961
G0 F1285.7 X150.101 Y144.161
G1 F900 X90.068 Y84.128 E205.78868
G0 F1285.7 X89.884 Y84.439
G1 F900 X149.606 Y144.161 E209.02091
G0 F1285.7 X149.111 Y144.161
G1 F900 X89.701 Y84.751 E212.23625
G0 F1285.7 X89.517 Y85.062
G1 F900 X148.616 Y144.161 E215.43476
G0 F1285.7 X148.121 Y144.161
G1 F900 X89.334 Y85.374 E218.61639
G0 F1285.7 X89.15 Y85.685
G1 F900 X147.626 Y144.161 E221.78119
G0 F1285.7 X147.131 Y144.161
G1 F900 X88.967 Y85.997 E224.9291
G0 F1285.7 X88.783 Y86.308
G1 F900 X146.636 Y144.161 E228.06018
G0 F1285.7 X146.141 Y144.161
G1 F900 X88.6 Y86.62 E231.17437
G0 F1285.7 X88.416 Y86.931
G1 F900 X145.646 Y144.161 E234.27173
G0 F1285.7 X145.151 Y144.161
G1 F900 X88.232 Y87.242 E237.35226
G0 F1285.7 X88.049 Y87.554
G1 F900 X144.656 Y144.161 E240.4159
G0 F1285.7 X144.161 Y144.161
G1 F900 X87.865 Y87.865 E243.46271
G0 F1285.7 X87.682 Y88.177
G1 F900 X143.666 Y144.161 E246.49264
G0 F1285.7 X143.171 Y144.161
G1 F900 X87.498 Y88.488 E249.50573
G0 F1285.7 X87.315 Y88.8
G1 F900 X142.676 Y144.161 E252.50194
