;FLAVOR:Marlin
;TIME:13144
;Filament used: 22.7965m
;Layer height: 0.3
;MINX:21.335
;MINY:20.664
;MINZ:0.26
;MAXX:194.693
;MAXY:197.33
;MAXZ:24.56
;Generated with Cura_SteamEngine 4.9.1
M82 ;absolute extrusion mode
;Begin Start Gcode for Dagoma DiscoEasy 200
;Sliced: 01-08-2021 01:49:31
;Initial extruder: 0

G90 ;Absolute positioning
M106 S255 ;Fan on full
G28 X Y ;Home stop X Y
G1 X100 ;Centre back during cooldown in case of oozing
M109 R90 ;Cooldown in case too hot
G28 ;Centre
G29 ;Auto-level
M104 S205 ;Pre-heat
M107 ;Fan off
G0 X100 Y5 Z0.5 ;Front centre for degunk
M109 S205 ;Wait for initial temp
M83 ;E Relative
G1 E10 F200 ;Degunk
G1 E-3 F5000 ;Retract
G0 Z3 ;Withdraw
M82 ;E absolute
G92 E0 ;E reset
G1 F6000 ;Set feedrate

;Finish Start Gcode for Dagoma DiscoEasy 200

G92 E0
G92 E0
G1 F3000 E-3.5
;LAYER_COUNT:82
;LAYER:0
M107
G0 F1285.7 X22.693 Y48.536 Z0.26
;TYPE:SKIRT
G1 F3000 E0
G1 F900 X23.337 Y48.239 E0.02714
G1 X23.719 Y48.118 E0.04248
G1 X119.403 Y20.932 E3.84919
G1 X120.064 Y20.755 E3.87537
G1 X120.536 Y20.67 E3.89373
G1 X121.015 Y20.664 E3.91206
G1 X121.488 Y20.739 E3.93039
G1 X121.943 Y20.89 E3.94874
G1 X122.602 Y21.286 E3.97816
G1 X122.776 Y21.424 E3.98666
G1 X124.639 Y22.946 E4.07872
G1 X126.801 Y24.61 E4.18313
G1 X129.015 Y26.219 E4.28787
G1 X131.313 Y27.792 E4.39444
G1 X133.604 Y29.265 E4.49868
G1 X135.939 Y30.675 E4.60306
G1 X138.345 Y32.038 E4.70889
G1 X141.697 Y33.79 E4.85363
G1 X142.711 Y34.297 E4.89702
G1 X143.12 Y34.546 E4.91534
G1 X143.431 Y34.808 E4.93091
G1 X143.886 Y35.251 E4.95521
G1 X144.399 Y35.779 E4.98338
G1 X144.801 Y36.302 E5.00863
G1 X145.134 Y36.856 E5.03336
G1 X145.896 Y38.161 E5.09119
G1 X147.367 Y40.524 E5.19772
G1 X148.86 Y42.778 E5.30118
G1 X150.451 Y45.038 E5.40695
G1 X152.093 Y47.234 E5.51189
G1 X153.807 Y49.398 E5.61753
G1 X155.556 Y51.481 E5.72162
G1 X157.393 Y53.548 E5.82745
G1 X159.288 Y55.564 E5.93334
G1 X161.183 Y57.466 E6.03609
G1 X163.208 Y59.39 E6.14298
G1 X165.252 Y61.222 E6.24803
G1 X167.362 Y63.009 E6.35384
G1 X169.484 Y64.705 E6.4578
G1 X171.675 Y66.358 E6.56284
G1 X173.928 Y67.96 E6.66863
G1 X176.2 Y69.48 E6.77324
G1 X178.535 Y70.948 E6.8788
G1 X180.715 Y72.232 E6.97562
G1 X181.327 Y72.652 E7.00403
G1 X181.64 Y72.924 E7.0199
G1 X182.101 Y73.336 E7.04356
G1 X182.695 Y73.978 E7.07703
G1 X182.935 Y74.376 E7.09481
G1 X183.206 Y74.926 E7.11828
G1 X183.893 Y76.376 E7.17968
G1 X185.148 Y78.839 E7.28547
G1 X186.457 Y81.242 E7.39019
G1 X187.85 Y83.633 E7.49609
G1 X189.283 Y85.941 E7.60006
G1 X190.817 Y88.262 E7.70653
G1 X192.371 Y90.475 E7.81001
G1 X193.971 Y92.614 E7.91224
G1 X194.395 Y93.265 E7.94197
G1 X194.571 Y93.71 E7.96028
G1 X194.672 Y94.178 E7.97861
G1 X194.693 Y94.657 E7.99696
G1 X194.629 Y95.155 E8.01617
G1 X194.488 Y95.744 E8.03935
G1 X192.726 Y102.521 E8.30732
G1 X192.073 Y105.189 E8.41244
G1 X191.492 Y107.886 E8.51802
G1 X190.992 Y110.587 E8.62314
G1 X190.571 Y113.274 E8.72723
G1 X190.219 Y116.032 E8.83363
G1 X189.925 Y119.045 E8.94948
G1 X189.866 Y119.778 E8.97763
G1 X189.8 Y120.201 E8.99401
G1 X189.542 Y121.303 E9.03732
G1 X189.104 Y123.015 E9.10495
G1 X188.832 Y124.058 E9.1462
G1 X188.638 Y124.76 E9.17407
G1 X188.569 Y124.977 E9.18279
G1 X188.359 Y125.55 E9.20614
G1 X188.081 Y126.247 E9.23486
G1 X187.76 Y126.988 E9.26576
G1 X187.216 Y128.203 E9.31671
G1 X186.166 Y130.741 E9.42182
G1 X185.176 Y133.334 E9.52804
G1 X184.284 Y135.894 E9.63179
G1 X183.453 Y138.503 E9.73658
G1 X182.416 Y142.196 E9.88337
G1 X179.076 Y155.046 E10.39147
G1 X178.416 Y157.733 E10.49736
G1 X177.846 Y160.392 E10.60143
G1 X177.336 Y163.14 E10.70839
G1 X176.924 Y165.775 E10.81046
G1 X176.571 Y168.534 E10.9169
G1 X176.261 Y171.733 E11.0399
G1 X176.209 Y172.382 E11.06482
G1 X176.085 Y173.061 E11.09123
G1 X176.065 Y173.148 E11.09465
G1 X175.371 Y175.845 E11.20122
G1 X174.93 Y177.53 E11.26788
G1 X174.741 Y178.214 E11.29504
G1 X174.506 Y178.824 E11.32005
G1 X173.559 Y180.917 E11.40797
G1 X172.496 Y183.452 E11.51317
G1 X171.488 Y186.055 E11.61999
G1 X170.588 Y188.605 E11.72348
G1 X169.748 Y191.212 E11.8283
G1 X168.987 Y193.821 E11.9323
G1 X168.811 Y194.267 E11.95065
G1 X168.564 Y194.678 E11.969
G1 X168.252 Y195.041 E11.98732
G1 X167.884 Y195.348 E12.00566
G1 X167.471 Y195.59 E12.02398
G1 X167.022 Y195.759 E12.04234
G1 X166.552 Y195.852 E12.06068
G1 X166.073 Y195.866 E12.07902
G1 X165.599 Y195.799 E12.09734
G1 X165.142 Y195.655 E12.11567
G1 X164.715 Y195.437 E12.13402
G1 X164.37 Y195.185 E12.15037
G1 X163.988 Y194.86 E12.16956
G1 X161.876 Y193.111 E12.27451
G1 X159.713 Y191.42 E12.37958
G1 X157.481 Y189.773 E12.48573
G1 X155.244 Y188.221 E12.58993
G1 X152.94 Y186.713 E12.69531
G1 X150.584 Y185.268 E12.80108
G1 X149.758 Y184.798 E12.83745
G1 X149.674 Y184.741 E12.84133
G1 X148.518 Y184.065 E12.89258
G1 X148 Y183.677 E12.91735
G1 X147.738 Y183.43 E12.93113
G1 X147.354 Y183.047 E12.95188
G1 X146.283 Y181.993 E13.00939
G1 X142.688 Y178.503 E13.20113
G1 X141.815 Y177.628 E13.24844
G1 X141.34 Y177.136 E13.27461
G1 X141.035 Y176.762 E13.29308
G1 X140.266 Y175.638 E13.3452
G1 X138.682 Y173.391 E13.45041
G1 X137.042 Y171.198 E13.5552
G1 X135.336 Y169.045 E13.66033
G1 X133.537 Y166.905 E13.76732
G1 X131.753 Y164.899 E13.87006
G1 X129.842 Y162.868 E13.97678
G1 X127.924 Y160.944 E14.08074
G1 X125.922 Y159.043 E14.1864
G1 X123.895 Y157.229 E14.2905
G1 X121.781 Y155.44 E14.39648
G1 X119.625 Y153.717 E14.5021
G1 X117.451 Y152.079 E14.60627
G1 X115.272 Y150.531 E14.70856
G1 X114.388 Y149.914 E14.74982
G1 X114.075 Y149.662 E14.76519
G1 X113.598 Y149.219 E14.79011
G1 X112.753 Y148.413 E14.8348
G1 X111.891 Y147.569 E14.88096
G1 X111.827 Y147.52 E14.88405
G1 X111.202 Y146.922 E14.91715
G1 X111.118 Y146.826 E14.92203
G1 X109.544 Y145.292 E15.00615
G1 X108.68 Y144.444 E15.05248
G1 X107.475 Y143.28 E15.11659
G1 X107.108 Y142.896 E15.13692
G1 X106.759 Y142.493 E15.15732
G1 X104.958 Y140.479 E15.26072
G1 X103.033 Y138.444 E15.36792
G1 X101.111 Y136.525 E15.47186
G1 X99.085 Y134.613 E15.57847
G1 X97.051 Y132.802 E15.68269
G1 X94.958 Y131.039 E15.78742
G1 X92.793 Y129.32 E15.89321
G1 X90.599 Y127.675 E15.99816
G1 X88.334 Y126.076 E16.10426
G1 X86.102 Y124.592 E16.20684
G1 X83.729 Y123.11 E16.3139
G1 X81.363 Y121.725 E16.41882
G1 X78.952 Y120.4 E16.52411
G1 X76.525 Y119.158 E16.62844
G1 X74.03 Y117.967 E16.73424
G1 X72.555 Y117.313 E16.79599
G1 X72.061 Y117.085 E16.81681
G1 X71.644 Y116.849 E16.83515
G1 X71.266 Y116.54 E16.85383
G1 X70.793 Y116.082 E16.87903
G1 X69.848 Y115.139 E16.93012
G1 X69.361 Y114.644 E16.9567
G1 X68.954 Y114.122 E16.98203
G1 X68.234 Y112.939 E17.03503
G1 X68.203 Y112.898 E17.03699
G1 X67.895 Y112.383 E17.05996
G1 X66.402 Y110.038 E17.16634
G1 X64.868 Y107.774 E17.271
G1 X63.26 Y105.54 E17.37634
G1 X61.586 Y103.348 E17.48189
G1 X59.875 Y101.233 E17.586
G1 X58.075 Y99.134 E17.69182
G1 X56.234 Y97.105 E17.79667
G1 X54.335 Y95.128 E17.90158
G1 X52.356 Y93.179 E18.00787
G1 X50.376 Y91.34 E18.11129
G1 X48.265 Y89.487 E18.21878
G1 X46.19 Y87.765 E18.32198
G1 X44.009 Y86.058 E18.42797
G1 X41.825 Y84.447 E18.53183
G1 X39.548 Y82.864 E18.63796
G1 X37.25 Y81.36 E18.74306
G1 X34.912 Y79.922 E18.8481
G1 X34.641 Y79.764 E18.86011
G1 X33.904 Y79.321 E18.89302
G1 X33.39 Y78.927 E18.9178
G1 X32.827 Y78.384 E18.94773
G1 X31.79 Y77.352 E19.00372
G1 X31.285 Y76.834 E19.03141
G1 X30.981 Y76.464 E19.04973
G1 X30.742 Y76.049 E19.06806
G1 X30.523 Y75.412 E19.09384
G1 X29.9 Y72.976 E19.19006
G1 X29.139 Y70.321 E19.29576
G1 X28.296 Y67.661 E19.40255
G1 X27.416 Y65.14 E19.50473
G1 X26.426 Y62.542 E19.61113
G1 X25.377 Y60.002 E19.7163
G1 X24.243 Y57.466 E19.82261
G1 X23.078 Y55.046 E19.9254
G1 X21.908 Y52.775 E20.02316
G1 X21.669 Y52.323 E20.04273
G1 X21.481 Y51.882 E20.06108
G1 X21.369 Y51.416 E20.07942
G1 X21.335 Y50.938 E20.09776
G1 X21.382 Y50.461 E20.1161
G1 X21.507 Y49.999 E20.13442
G1 X21.707 Y49.563 E20.15278
G1 X21.977 Y49.167 E20.17112
G1 X22.309 Y48.822 E20.18944
G1 X22.693 Y48.536 E20.20776
G0 F1285.7 X22.716 Y48.942
G1 F900 X23.1 Y48.71 E20.22493
G1 X23.738 Y48.478 E20.25091
G1 X119.457 Y21.28 E24.05904
G1 X120.155 Y21.093 E24.08669
G1 X120.597 Y21.016 E24.10386
G1 X121.046 Y21.018 E24.12105
G1 X121.488 Y21.1 E24.13825
G1 X121.908 Y21.259 E24.15544
G1 X122.384 Y21.559 E24.17697
G1 X122.554 Y21.695 E24.1853
G1 X124.418 Y23.218 E24.27742
G1 X126.586 Y24.887 E24.38213
G1 X128.822 Y26.511 E24.48788
G1 X131.096 Y28.068 E24.59335
G1 X133.445 Y29.578 E24.70022
G1 X135.77 Y30.983 E24.80418
G1 X138.155 Y32.333 E24.90906
G1 X141.535 Y34.1 E25.05502
G1 X142.554 Y34.61 E25.09863
G1 X142.936 Y34.845 E25.11579
G1 X143.186 Y35.059 E25.12839
G1 X143.692 Y35.553 E25.15545
G1 X144.148 Y36.023 E25.18051
G1 X144.501 Y36.482 E25.20267
G1 X144.831 Y37.033 E25.22725
G1 X145.593 Y38.338 E25.28508
G1 X147.058 Y40.691 E25.39116
G1 X148.574 Y42.979 E25.49619
G1 X150.169 Y45.246 E25.60227
G1 X151.814 Y47.446 E25.7074
G1 X153.531 Y49.613 E25.81321
G1 X155.307 Y51.729 E25.91893
G1 X157.123 Y53.772 E26.02353
G1 X159.016 Y55.786 E26.12931
G1 X160.964 Y57.741 E26.23493
G1 X162.964 Y59.641 E26.3405
G1 X165.021 Y61.484 E26.4462
G1 X167.127 Y63.269 E26.55185
G1 X169.282 Y64.991 E26.65741
G1 X171.471 Y66.642 E26.76234
G1 X173.717 Y68.239 E26.86781
G1 X176.013 Y69.776 E26.97354
G1 X178.356 Y71.249 E27.07946
G1 X180.533 Y72.531 E27.17614
G1 X181.097 Y72.916 E27.20228
G1 X181.407 Y73.185 E27.21798
G1 X181.868 Y73.597 E27.24164
G1 X182.427 Y74.205 E27.27325
G1 X182.621 Y74.532 E27.2878
G1 X182.89 Y75.076 E27.31103
G1 X183.585 Y76.543 E27.37315
G1 X184.841 Y79.008 E27.47902
G1 X186.146 Y81.405 E27.58347
G1 X187.548 Y83.809 E27.68997
G1 X188.99 Y86.133 E27.79464
G1 X190.519 Y88.446 E27.90075
G1 X192.112 Y90.714 E28.00682
G1 X193.688 Y92.819 E28.10745
G1 X194.094 Y93.446 E28.13604
G1 X194.252 Y93.866 E28.15321
G1 X194.334 Y94.307 E28.17037
G1 X194.336 Y94.756 E28.18756
G1 X194.239 Y95.296 E28.20855
G1 X194.143 Y95.68 E28.2237
G1 X192.388 Y102.433 E28.49072
G1 X191.732 Y105.108 E28.59613
G1 X191.149 Y107.817 E28.70217
G1 X190.652 Y110.502 E28.80667
G1 X190.222 Y113.245 E28.91293
G1 X189.872 Y115.988 E29.01875
G1 X189.576 Y119.017 E29.13522
G1 X189.517 Y119.75 E29.16336
G1 X189.459 Y120.122 E29.17777
G1 X189.202 Y121.216 E29.22078
G1 X188.765 Y122.926 E29.28832
G1 X188.495 Y123.965 E29.3294
G1 X188.301 Y124.667 E29.35728
G1 X188.24 Y124.857 E29.36491
G1 X188.034 Y125.421 E29.38789
G1 X187.76 Y126.108 E29.4162
G1 X187.441 Y126.845 E29.44693
G1 X186.894 Y128.068 E29.4982
G1 X185.835 Y130.624 E29.60408
G1 X184.843 Y133.224 E29.71058
G1 X183.951 Y135.784 E29.81433
G1 X183.116 Y138.407 E29.91967
G1 X182.077 Y142.108 E30.06678
G1 X178.737 Y154.958 E30.57488
G1 X178.077 Y157.646 E30.68081
G1 X177.503 Y160.324 E30.78562
G1 X176.998 Y163.046 E30.89157
G1 X176.573 Y165.763 E30.99681
G1 X176.221 Y168.516 E31.10303
G1 X175.916 Y171.659 E31.22387
G1 X175.86 Y172.354 E31.25056
G1 X175.744 Y172.984 E31.27507
G1 X175.726 Y173.06 E31.27806
G1 X175.033 Y175.756 E31.38459
G1 X174.593 Y177.436 E31.45105
G1 X174.404 Y178.12 E31.47821
G1 X174.185 Y178.684 E31.50136
G1 X173.237 Y180.78 E31.5894
G1 X172.182 Y183.294 E31.69373
G1 X171.157 Y185.943 E31.80243
G1 X170.257 Y188.493 E31.90592
G1 X169.413 Y191.112 E32.01123
G1 X168.652 Y193.721 E32.11523
G1 X168.485 Y194.137 E32.13239
G1 X168.247 Y194.518 E32.14958
G1 X167.945 Y194.851 E32.16678
G1 X167.589 Y195.125 E32.18397
G1 X167.191 Y195.331 E32.20112
G1 X166.762 Y195.464 E32.21831
G1 X166.316 Y195.519 E32.23551
G1 X165.868 Y195.493 E32.25268
G1 X165.431 Y195.389 E32.26988
G1 X165.02 Y195.209 E32.28705
G1 X164.597 Y194.918 E32.3067
G1 X164.24 Y194.615 E32.32461
G1 X162.062 Y192.811 E32.43284
G1 X159.927 Y191.142 E32.53655
G1 X157.694 Y189.495 E32.64274
G1 X155.433 Y187.925 E32.74808
G1 X153.12 Y186.413 E32.85383
G1 X150.783 Y184.979 E32.95876
G1 X149.931 Y184.494 E32.99628
G1 X149.851 Y184.439 E33
G1 X148.695 Y183.763 E33.05125
G1 X148.239 Y183.423 E33.07301
G1 X147.985 Y183.182 E33.08641
G1 X147.601 Y182.799 E33.10717
G1 X146.529 Y181.743 E33.16476
G1 X142.903 Y178.224 E33.35813
G1 X142.066 Y177.385 E33.40348
G1 X141.591 Y176.893 E33.42965
G1 X141.324 Y176.565 E33.44584
G1 X140.555 Y175.441 E33.49795
G1 X138.968 Y173.189 E33.60339
G1 X137.336 Y171.006 E33.7077
G1 X135.58 Y168.791 E33.81587
G1 X133.84 Y166.72 E33.91938
G1 X132.005 Y164.657 E34.02505
G1 X130.096 Y162.629 E34.13163
G1 X128.147 Y160.673 E34.23731
G1 X126.166 Y158.792 E34.34185
G1 X124.106 Y156.948 E34.44766
G1 X122.015 Y155.179 E34.55247
G1 X119.849 Y153.448 E34.65858
G1 X117.655 Y151.794 E34.76373
G1 X115.475 Y150.246 E34.86605
G1 X114.588 Y149.627 E34.90745
G1 X114.314 Y149.406 E34.92092
G1 X113.84 Y148.965 E34.9457
G1 X112.998 Y148.162 E34.99022
G1 X112.176 Y147.358 E35.03423
G1 X112.069 Y147.267 E35.0396
G1 X111.444 Y146.669 E35.0727
G1 X111.366 Y146.58 E35.07723
G1 X109.789 Y145.042 E35.16153
G1 X108.925 Y144.194 E35.20786
G1 X107.726 Y143.035 E35.27168
G1 X107.372 Y142.667 E35.29122
G1 X107.023 Y142.264 E35.31163
G1 X105.186 Y140.209 E35.41711
G1 X103.305 Y138.221 E35.52185
G1 X101.333 Y136.253 E35.62847
G1 X99.347 Y134.378 E35.73299
G1 X97.278 Y132.536 E35.839
G1 X95.173 Y130.764 E35.9443
G1 X93.011 Y129.046 E36.04998
G1 X90.801 Y127.389 E36.15569
G1 X88.56 Y125.807 E36.26067
G1 X86.25 Y124.271 E36.36683
G1 X83.922 Y122.818 E36.47185
G1 X81.524 Y121.413 E36.57822
G1 X79.155 Y120.112 E36.68165
G1 X76.664 Y118.837 E36.78874
G1 X74.166 Y117.645 E36.89466
G1 X72.663 Y116.978 E36.95759
G1 X72.208 Y116.768 E36.97677
G1 X71.819 Y116.544 E36.99395
G1 X71.509 Y116.289 E37.00931
G1 X71.04 Y115.834 E37.03432
G1 X70.097 Y114.894 E37.08527
G1 X69.61 Y114.399 E37.11185
G1 X69.253 Y113.94 E37.1341
G1 X68.559 Y112.798 E37.18524
G1 X68.503 Y112.719 E37.18895
G1 X68.184 Y112.186 E37.21272
G1 X66.68 Y109.824 E37.31988
G1 X65.157 Y107.577 E37.42376
G1 X63.564 Y105.362 E37.52817
G1 X61.848 Y103.115 E37.63637
G1 X60.147 Y101.013 E37.73986
G1 X58.337 Y98.902 E37.84627
G1 X56.481 Y96.857 E37.95196
G1 X54.586 Y94.884 E38.05665
G1 X52.61 Y92.938 E38.16279
G1 X50.598 Y91.069 E38.26788
G1 X48.517 Y89.243 E38.37383
G1 X46.373 Y87.463 E38.48047
G1 X44.245 Y85.798 E38.58388
G1 X42 Y84.141 E38.69066
G1 X39.778 Y82.596 E38.79423
G1 X37.424 Y81.055 E38.9019
G1 X35.115 Y79.636 E39.00562
G1 X34.821 Y79.464 E39.01865
G1 X34.084 Y79.021 E39.05156
G1 X33.632 Y78.675 E39.07335
G1 X33.074 Y78.136 E39.10304
G1 X32.041 Y77.108 E39.15881
G1 X31.536 Y76.59 E39.18649
G1 X31.252 Y76.242 E39.20368
G1 X31.035 Y75.849 E39.22086
G1 X30.86 Y75.318 E39.24226
G1 X30.229 Y72.853 E39.33964
G1 X29.478 Y70.229 E39.44409
G1 X28.635 Y67.571 E39.5508
G1 X27.725 Y64.965 E39.65644
G1 X26.772 Y62.464 E39.75886
G1 X25.681 Y59.823 E39.86822
G1 X24.579 Y57.358 E39.97155
G1 X23.372 Y54.852 E40.078
G1 X22.219 Y52.614 E40.17434
G1 X21.978 Y52.159 E40.19405
G1 X21.804 Y51.745 E40.21123
G1 X21.707 Y51.307 E40.2284
G1 X21.688 Y50.858 E40.2456
G1 X21.749 Y50.413 E40.26279
G1 X21.888 Y49.986 E40.27997
G1 X22.1 Y49.591 E40.29713
G1 X22.379 Y49.239 E40.31432
G1 X22.716 Y48.942 E40.33151
G0 F1285.7 X23.124 Y49.093
G1 F900 X23.845 Y48.812 E40.36112
G1 X119.584 Y21.608 E44.17005
G1 X120.245 Y21.431 E44.19624
G1 X120.656 Y21.362 E44.21218
G1 X121.073 Y21.373 E44.22815
G1 X121.48 Y21.463 E44.2441
G1 X121.862 Y21.629 E44.26004
G1 X122.314 Y21.951 E44.28128
G1 X124.21 Y23.499 E44.37495
G1 X126.376 Y25.167 E44.47957
G1 X128.628 Y26.803 E44.5861
G1 X130.918 Y28.371 E44.69231
G1 X133.218 Y29.85 E44.79696
G1 X135.587 Y31.28 E44.90285
G1 X138.024 Y32.66 E45.01003
G1 X141.351 Y34.4 E45.15371
G1 X142.398 Y34.923 E45.1985
G1 X142.942 Y35.31 E45.22405
G1 X143.441 Y35.796 E45.25071
G1 X143.897 Y36.266 E45.27577
G1 X144.201 Y36.662 E45.29488
G1 X144.529 Y37.209 E45.31928
G1 X145.3 Y38.529 E45.37779
G1 X146.766 Y40.883 E45.48391
G1 X148.272 Y43.158 E45.58833
G1 X149.895 Y45.463 E45.69621
G1 X151.52 Y47.638 E45.80011
G1 X153.269 Y49.845 E45.90788
G1 X155.026 Y51.938 E46.01246
G1 X156.872 Y54.016 E46.11883
G1 X158.777 Y56.042 E46.22526
G1 X160.722 Y57.994 E46.33071
G1 X162.737 Y59.907 E46.43704
G1 X164.766 Y61.727 E46.54135
G1 X166.91 Y63.543 E46.64888
G1 X169.067 Y65.268 E46.75458
G1 X171.261 Y66.923 E46.85975
