;FLAVOR:Marlin
;TIME:13126
;Filament used: 22.8313m
;Layer height: 0.3
;MINX:15.969
;MINY:20.465
;MINZ:0.26
;MAXX:191.025
;MAXY:195.6
;MAXZ:24.56
;Generated with Cura_SteamEngine 4.9.1
M82 ;absolute extrusion mode
;Begin Start Gcode for Dagoma DiscoEasy 200
;Sliced: 01-08-2021 01:44:12
;Initial extruder: 0

G90 ;Absolute positioning
M106 S255 ;Fan on full
G28 X Y ;Home stop X Y
G1 X100 ;Centre back during cooldown in case of oozing
M109 R90 ;Cooldown in case too hot
G28 ;Centre
G29 ;Auto-level
M104 S205 ;Pre-heat
M107 ;Fan off
G0 X100 Y5 Z0.5 ;Front centre for degunk
M109 S205 ;Wait for initial temp
M83 ;E Relative
G1 E10 F200 ;Degunk
G1 E-3 F5000 ;Retract
G0 Z3 ;Withdraw
M82 ;E absolute
G92 E0 ;E reset
G1 F6000 ;Set feedrate

;Finish Start Gcode for Dagoma DiscoEasy 200

G92 E0
G92 E0
G1 F3000 E-3.5
;LAYER_COUNT:82
;LAYER:0
M107
G0 F1285.7 X18.271 Y45.613 Z0.26
;TYPE:SKIRT
G1 F3000 E0
G1 F900 X18.87 Y45.407 E0.02424
G1 X21.46 Y44.478 E0.12954
G1 X24.051 Y43.465 E0.23601
G1 X26.571 Y42.395 E0.34078
G1 X29.059 Y41.257 E0.44548
G1 X31.518 Y40.046 E0.55038
G1 X33.972 Y38.749 E0.6566
G1 X35.606 Y37.835 E0.72825
G1 X36.331 Y37.469 E0.75933
G1 X36.569 Y37.393 E0.7689
G1 X37.936 Y37.024 E0.82308
G1 X39.54 Y36.587 E0.8867
G1 X40.089 Y36.431 E0.90855
G1 X40.495 Y36.326 E0.92459
G1 X41.533 Y36.049 E0.96571
G1 X43.582 Y35.491 E1.04698
G1 X44.825 Y35.171 E1.0961
G1 X45.523 Y35.001 E1.12359
G1 X46.005 Y34.926 E1.14226
G1 X47.179 Y34.845 E1.18729
G1 X47.794 Y34.812 E1.21086
G1 X50.517 Y34.585 E1.31543
G1 X53.242 Y34.28 E1.42037
G1 X55.954 Y33.899 E1.52517
G1 X58.677 Y33.437 E1.63087
G1 X61.366 Y32.903 E1.73579
G1 X64.034 Y32.293 E1.84053
G1 X66.712 Y31.602 E1.94637
G1 X69.334 Y30.845 E2.05081
G1 X71.959 Y30.006 E2.15627
G1 X74.558 Y29.093 E2.26169
G1 X77.158 Y28.097 E2.36825
G1 X79.625 Y27.07 E2.47051
G1 X81.978 Y26.016 E2.56918
G1 X82.675 Y25.693 E2.59858
G1 X83.1 Y25.535 E2.61593
G1 X84.417 Y25.162 E2.66832
G1 X86.207 Y24.678 E2.73928
G1 X86.279 Y24.65 E2.74223
G1 X87.831 Y24.226 E2.8038
G1 X88.884 Y23.945 E2.84551
G1 X89.041 Y23.896 E2.85181
G1 X89.78 Y23.698 E2.88109
G1 X89.852 Y23.685 E2.88389
G1 X91.932 Y23.121 E2.96636
G1 X92.281 Y23.037 E2.9801
G1 X92.938 Y22.957 E3.00543
G1 X93.339 Y22.955 E3.02077
G1 X95.429 Y22.968 E3.10076
G1 X98.167 Y22.907 E3.20557
G1 X100.893 Y22.77 E3.31002
G1 X103.629 Y22.553 E3.41505
G1 X106.385 Y22.257 E3.52113
G1 X109.087 Y21.89 E3.62549
G1 X111.813 Y21.44 E3.73122
G1 X114.752 Y20.866 E3.84582
G1 X115.895 Y20.624 E3.89053
G1 X116.371 Y20.564 E3.90889
G1 X116.849 Y20.585 E3.9272
G1 X117.318 Y20.684 E3.94555
G1 X117.973 Y20.974 E3.97296
G1 X120.353 Y22.407 E4.07928
G1 X122.751 Y23.758 E4.18461
G1 X125.169 Y25.033 E4.28922
G1 X127.646 Y26.251 E4.39485
G1 X130.142 Y27.392 E4.49988
G1 X132.685 Y28.468 E4.60556
G1 X135.227 Y29.46 E4.70998
G1 X136.923 Y30.076 E4.77903
G1 X137.42 Y30.252 E4.79921
G1 X137.856 Y30.449 E4.81752
G1 X138.458 Y30.895 E4.84619
G1 X139.092 Y31.51 E4.88
G1 X139.453 Y31.882 E4.89983
G1 X139.861 Y32.414 E4.92549
G1 X139.992 Y32.635 E4.93532
G1 X141.152 Y34.623 E5.02341
G1 X142.587 Y36.93 E5.12738
G1 X144.106 Y39.226 E5.23274
G1 X145.696 Y41.488 E5.33855
G1 X147.334 Y43.68 E5.44327
G1 X149.053 Y45.854 E5.54933
G1 X150.797 Y47.933 E5.65318
G1 X152.633 Y50.001 E5.75901
G1 X154.511 Y52.001 E5.86401
G1 X156.443 Y53.943 E5.96884
G1 X158.444 Y55.846 E6.07452
G1 X160.487 Y57.679 E6.17956
G1 X162.59 Y59.462 E6.28507
G1 X164.713 Y61.161 E6.38913
G1 X166.915 Y62.823 E6.49471
G1 X169.153 Y64.417 E6.59986
G1 X171.439 Y65.948 E6.70515
G1 X173.771 Y67.416 E6.81061
G1 X175.672 Y68.543 E6.89518
G1 X175.836 Y68.646 E6.90259
G1 X176.238 Y68.955 E6.922
G1 X176.711 Y69.409 E6.94709
G1 X177.229 Y69.941 E6.97551
G1 X177.534 Y70.311 E6.99386
G1 X177.843 Y70.89 E7.01897
G1 X178.181 Y71.745 E7.05416
G1 X179.245 Y74.336 E7.16135
G1 X180.352 Y76.831 E7.26581
G1 X181.543 Y79.321 E7.37144
G1 X182.791 Y81.75 E7.47595
G1 X184.118 Y84.166 E7.58143
G1 X185.502 Y86.522 E7.686
G1 X186.957 Y88.848 E7.791
G1 X188.498 Y91.162 E7.89739
G1 X189.847 Y93.076 E7.98701
G1 X190.484 Y93.958 E8.02864
G1 X190.731 Y94.368 E8.04696
G1 X190.906 Y94.814 E8.0653
G1 X191.006 Y95.283 E8.08365
G1 X191.025 Y95.762 E8.10199
G1 X190.958 Y96.271 E8.12164
G1 X190.822 Y96.834 E8.14381
G1 X165.479 Y192.859 E11.94447
G1 X165.299 Y193.502 E11.97002
G1 X165.131 Y193.951 E11.98837
G1 X164.892 Y194.366 E12.00669
G1 X164.587 Y194.736 E12.02504
G1 X164.225 Y195.049 E12.04336
G1 X163.815 Y195.299 E12.06173
G1 X163.371 Y195.476 E12.08003
G1 X162.902 Y195.578 E12.09839
G1 X162.424 Y195.6 E12.11671
G1 X161.948 Y195.542 E12.13506
G1 X161.488 Y195.407 E12.1534
G1 X161.058 Y195.196 E12.17173
G1 X160.527 Y194.789 E12.19734
G1 X159.856 Y194.137 E12.23314
G1 X97.247 Y131.055 E15.63445
G1 X95.299 Y129.147 E15.7388
G1 X93.271 Y127.269 E15.84457
G1 X91.204 Y125.464 E15.94959
G1 X89.074 Y123.705 E16.05531
G1 X86.928 Y122.033 E16.15942
G1 X84.683 Y120.383 E16.26604
G1 X82.443 Y118.833 E16.37029
G1 X80.152 Y117.342 E16.4749
G1 X77.795 Y115.901 E16.58062
G1 X75.419 Y114.54 E16.68541
G1 X72.983 Y113.234 E16.79119
G1 X70.543 Y112.012 E16.89562
G1 X68.047 Y110.851 E17.00097
G1 X66.509 Y110.185 E17.06511
G1 X65.71 Y109.781 E17.09937
G1 X65.307 Y109.456 E17.11919
G1 X64.676 Y108.844 E17.15283
G1 X64.323 Y108.479 E17.17226
G1 X63.927 Y107.961 E17.19721
G1 X63.649 Y107.496 E17.21794
G1 X62.721 Y105.898 E17.28866
G1 X61.306 Y103.612 E17.39155
G1 X59.76 Y101.266 E17.49907
G1 X58.22 Y99.067 E17.60181
G1 X56.553 Y96.825 E17.70873
G1 X54.857 Y94.673 E17.81359
G1 X53.087 Y92.556 E17.91919
G1 X51.268 Y90.498 E18.0243
G1 X49.413 Y88.515 E18.12822
G1 X47.468 Y86.553 E18.23395
G1 X45.464 Y84.642 E18.33992
G1 X43.43 Y82.809 E18.4447
G1 X41.351 Y81.039 E18.5492
G1 X39.21 Y79.319 E18.6543
G1 X37.011 Y77.653 E18.75988
G1 X34.768 Y76.05 E18.86538
G1 X32.5 Y74.524 E18.96999
G1 X30.179 Y73.057 E19.07507
G1 X28.023 Y71.773 E19.17111
G1 X27.564 Y71.434 E19.19294
G1 X27.047 Y70.936 E19.22041
G1 X26.511 Y70.382 E19.24991
G1 X26.208 Y70.011 E19.26825
G1 X25.873 Y69.356 E19.2964
G1 X25.496 Y68.305 E19.33913
G1 X25.269 Y67.642 E19.36595
G1 X24.313 Y65.092 E19.47017
G1 X23.271 Y62.533 E19.57591
G1 X22.164 Y60.022 E19.68093
G1 X20.98 Y57.526 E19.78665
G1 X19.741 Y55.097 E19.891
G1 X18.431 Y52.698 E19.99561
G1 X17.072 Y50.367 E20.09887
G1 X16.737 Y49.807 E20.12384
G1 X16.527 Y49.377 E20.14215
G1 X16.39 Y48.918 E20.16048
G1 X16.332 Y48.442 E20.17884
G1 X16.354 Y47.964 E20.19715
G1 X16.455 Y47.495 E20.21551
G1 X16.632 Y47.05 E20.23384
G1 X16.88 Y46.64 E20.25217
G1 X17.194 Y46.278 E20.27051
G1 X17.563 Y45.972 E20.28886
G1 X17.978 Y45.732 E20.3072
G1 X18.271 Y45.613 E20.31931
G0 F1285.7 X18.384 Y45.944
G1 F900 X18.969 Y45.743 E20.34298
G1 X21.606 Y44.797 E20.45019
G1 X24.174 Y43.793 E20.55571
G1 X26.698 Y42.722 E20.66064
G1 X29.216 Y41.569 E20.76663
G1 X31.68 Y40.356 E20.87173
G1 X34.115 Y39.069 E20.97713
G1 X35.795 Y38.13 E21.05078
G1 X36.069 Y37.974 E21.06285
G1 X36.66 Y37.731 E21.08731
G1 X38.027 Y37.362 E21.14149
G1 X39.632 Y36.925 E21.20515
G1 X40.177 Y36.77 E21.22683
G1 X41.64 Y36.383 E21.28475
G1 X43.67 Y35.83 E21.36527
G1 X44.907 Y35.511 E21.41416
G1 X45.605 Y35.341 E21.44165
G1 X46.029 Y35.275 E21.45807
G1 X47.198 Y35.195 E21.50291
G1 X47.807 Y35.162 E21.52625
G1 X50.55 Y34.934 E21.63159
G1 X53.291 Y34.627 E21.73714
G1 X55.991 Y34.247 E21.84149
G1 X58.769 Y33.777 E21.94931
G1 X61.41 Y33.251 E22.05236
G1 X64.132 Y32.629 E22.15922
G1 X66.787 Y31.945 E22.26414
G1 X69.459 Y31.173 E22.37058
G1 X72.081 Y30.335 E22.47592
G1 X74.669 Y29.426 E22.5809
G1 X77.257 Y28.434 E22.68697
G1 X79.792 Y27.38 E22.79203
G1 X82.092 Y26.349 E22.88849
G1 X82.823 Y26.01 E22.91933
G1 X83.195 Y25.872 E22.93451
G1 X84.508 Y25.499 E22.98675
G1 X86.259 Y25.026 E23.05616
G1 X86.372 Y24.987 E23.06073
G1 X87.921 Y24.564 E23.12218
G1 X89.051 Y24.263 E23.16693
G1 X89.132 Y24.234 E23.17023
G1 X89.871 Y24.036 E23.19951
G1 X89.931 Y24.026 E23.20183
G1 X92.014 Y23.461 E23.28443
G1 X92.363 Y23.377 E23.29817
G1 X92.94 Y23.307 E23.32041
G1 X93.336 Y23.305 E23.33557
G1 X95.435 Y23.318 E23.41589
G1 X98.156 Y23.257 E23.52005
G1 X100.94 Y23.117 E23.62673
G1 X103.656 Y22.903 E23.73099
G1 X106.435 Y22.604 E23.83796
G1 X109.156 Y22.234 E23.94305
G1 X111.869 Y21.786 E24.04828
G1 X114.838 Y21.206 E24.16405
G1 X115.968 Y20.967 E24.20825
G1 X116.413 Y20.913 E24.2254
G1 X116.862 Y20.939 E24.24261
G1 X117.298 Y21.045 E24.25979
G1 X117.792 Y21.274 E24.28062
G1 X120.155 Y22.697 E24.38619
G1 X122.602 Y24.075 E24.49366
G1 X125.008 Y25.344 E24.59776
G1 X127.475 Y26.557 E24.70296
G1 X130.002 Y27.712 E24.80929
G1 X132.564 Y28.796 E24.91576
G1 X135.117 Y29.793 E25.02064
G1 X136.806 Y30.406 E25.08941
G1 X137.303 Y30.582 E25.10958
G1 X137.711 Y30.769 E25.12676
G1 X138.215 Y31.147 E25.15087
G1 X138.841 Y31.754 E25.18424
G1 X139.202 Y32.126 E25.20408
G1 X139.56 Y32.593 E25.2266
G1 X139.69 Y32.811 E25.23631
G1 X140.85 Y34.799 E25.32439
G1 X142.301 Y37.132 E25.42954
G1 X143.835 Y39.451 E25.53594
G1 X145.397 Y41.672 E25.63985
G1 X147.058 Y43.897 E25.74611
G1 X148.773 Y46.064 E25.85187
G1 X150.533 Y48.163 E25.9567
G1 X152.38 Y50.243 E26.06316
G1 X154.255 Y52.24 E26.16799
G1 X156.201 Y54.196 E26.27358
G1 X158.217 Y56.112 E26.38001
G1 X160.237 Y57.926 E26.48391
G1 X162.373 Y59.736 E26.59106
G1 X164.515 Y61.451 E26.69607
G1 X166.681 Y63.086 E26.79993
G1 X168.965 Y64.712 E26.90722
G1 X171.243 Y66.239 E27.01217
G1 X173.575 Y67.706 E27.11761
G1 X175.494 Y68.844 E27.20299
G1 X176.001 Y69.213 E27.22699
G1 X176.465 Y69.658 E27.25159
G1 X176.978 Y70.185 E27.27974
G1 X177.262 Y70.533 E27.29693
G1 X177.517 Y71.018 E27.3179
G1 X177.857 Y71.878 E27.35329
G1 X178.921 Y74.468 E27.46044
G1 X180.036 Y76.981 E27.56565
G1 X181.222 Y79.462 E27.67089
G1 X182.486 Y81.921 E27.7767
G1 X183.815 Y84.342 E27.88239
G1 X185.202 Y86.703 E27.98719
G1 X186.666 Y89.042 E28.09279
G1 X188.206 Y91.354 E28.1991
G1 X189.58 Y93.304 E28.29039
G1 X190.2 Y94.163 E28.33093
G1 X190.429 Y94.549 E28.3481
G1 X190.587 Y94.969 E28.36528
G1 X190.667 Y95.411 E28.38247
G1 X190.669 Y95.86 E28.39965
G1 X190.577 Y96.373 E28.4196
G1 X190.475 Y96.777 E28.43554
G1 X165.142 Y192.765 E32.23474
G1 X164.962 Y193.408 E32.26029
G1 X164.803 Y193.828 E32.27748
G1 X164.572 Y194.213 E32.29466
G1 X164.276 Y194.551 E32.31185
G1 X163.926 Y194.831 E32.329
G1 X163.531 Y195.045 E32.3462
G1 X163.104 Y195.186 E32.36341
G1 X162.66 Y195.249 E32.38057
G1 X162.211 Y195.232 E32.39776
G1 X161.773 Y195.136 E32.41492
G1 X161.358 Y194.963 E32.43213
G1 X160.98 Y194.721 E32.44931
G1 X160.77 Y194.538 E32.45997
G1 X160.105 Y193.891 E32.49547
G1 X97.521 Y130.834 E35.89542
G1 X95.516 Y128.871 E36.00281
G1 X93.511 Y127.014 E36.10739
G1 X91.427 Y125.194 E36.21328
G1 X89.302 Y123.439 E36.31875
G1 X87.123 Y121.742 E36.42444
G1 X84.903 Y120.11 E36.52989
G1 X82.639 Y118.544 E36.63524
G1 X80.315 Y117.031 E36.74136
G1 X77.982 Y115.605 E36.846
G1 X75.574 Y114.225 E36.95222
G1 X73.163 Y112.932 E37.05691
G1 X70.677 Y111.688 E37.1633
G1 X68.192 Y110.532 E37.26819
G1 X66.653 Y109.866 E37.33236
G1 X65.881 Y109.475 E37.36548
G1 X65.551 Y109.205 E37.3818
G1 X64.92 Y108.593 E37.41544
G1 X64.575 Y108.236 E37.43444
G1 X64.227 Y107.781 E37.45636
G1 X63.951 Y107.32 E37.47692
G1 X63.024 Y105.723 E37.54759
G1 X61.584 Y103.397 E37.65228
G1 X60.058 Y101.082 E37.75839
G1 X58.482 Y98.833 E37.86349
G1 X56.829 Y96.609 E37.96953
G1 X55.134 Y94.459 E38.07431
G1 X53.355 Y92.33 E38.18048
G1 X51.538 Y90.275 E38.28546
G1 X49.652 Y88.259 E38.39111
G1 X47.71 Y86.3 E38.49667
G1 X45.711 Y84.394 E38.60237
G1 X43.68 Y82.564 E38.707
G1 X41.548 Y80.748 E38.81417
G1 X39.431 Y79.047 E38.9181
G1 X37.193 Y77.352 E39.02554
G1 X34.981 Y75.771 E39.12959
G1 X32.689 Y74.229 E39.23531
G1 X30.36 Y72.757 E39.34075
G1 X28.202 Y71.472 E39.43687
G1 X27.799 Y71.174 E39.45605
G1 X27.292 Y70.686 E39.48298
G1 X26.763 Y70.139 E39.5121
G1 X26.481 Y69.79 E39.52927
G1 X26.202 Y69.238 E39.55294
G1 X25.827 Y68.191 E39.5955
G1 X25.591 Y67.502 E39.62337
G1 X24.634 Y64.949 E39.72771
G1 X23.596 Y62.402 E39.83297
G1 X22.482 Y59.873 E39.93873
G1 X21.302 Y57.387 E40.04404
G1 X20.054 Y54.94 E40.14916
G1 X18.728 Y52.512 E40.25503
G1 X17.375 Y50.191 E40.35785
G1 X17.038 Y49.628 E40.38296
G1 X16.843 Y49.224 E40.40012
G1 X16.722 Y48.791 E40.41733
G1 X16.68 Y48.344 E40.43451
G1 X16.718 Y47.897 E40.45168
G1 X16.834 Y47.463 E40.46887
G1 X17.026 Y47.057 E40.48606
G1 X17.286 Y46.691 E40.50324
G1 X17.607 Y46.377 E40.52043
G1 X17.979 Y46.125 E40.53762
G1 X18.384 Y45.944 E40.5546
G0 F1285.7 X18.498 Y46.275
G1 F900 X19.115 Y46.063 E40.57956
G1 X21.698 Y45.137 E40.68457
G1 X24.308 Y44.116 E40.79183
G1 X26.839 Y43.042 E40.89705
G1 X29.374 Y41.882 E41.00374
G1 X31.842 Y40.666 E41.10903
G1 X34.294 Y39.371 E41.21515
G1 X35.966 Y38.436 E41.28846
G1 X36.242 Y38.279 E41.30061
G1 X36.751 Y38.069 E41.32168
G1 X38.118 Y37.701 E41.37586
G1 X39.7 Y37.269 E41.43862
G1 X40.266 Y37.109 E41.46113
G1 X41.717 Y36.724 E41.51858
G1 X43.757 Y36.169 E41.59949
G1 X44.99 Y35.851 E41.64822
G1 X45.688 Y35.681 E41.67571
G1 X46.053 Y35.624 E41.68985
G1 X47.217 Y35.544 E41.7345
G1 X47.82 Y35.511 E41.75761
G1 X50.616 Y35.279 E41.86498
G1 X53.309 Y34.977 E41.96868
G1 X56.099 Y34.585 E42.07651
G1 X58.794 Y34.128 E42.18111
G1 X61.514 Y33.587 E42.28725
G1 X64.186 Y32.976 E42.39214
G1 X66.871 Y32.284 E42.49825
G1 X69.563 Y31.507 E42.60548
G1 X72.193 Y30.666 E42.71115
G1 X74.799 Y29.751 E42.81685
G1 X77.387 Y28.759 E42.92292
G1 X79.914 Y27.708 E43.02765
G1 X82.264 Y26.655 E43.1262
G1 X82.97 Y26.328 E43.15598
G1 X83.291 Y26.209 E43.16908
G1 X84.599 Y25.837 E43.22112
G1 X86.397 Y25.351 E43.2924
G1 X86.464 Y25.325 E43.29515
G1 X88.011 Y24.902 E43.35653
G1 X89.169 Y24.593 E43.40239
G1 X89.222 Y24.572 E43.40458
G1 X89.961 Y24.374 E43.43385
G1 X90.022 Y24.364 E43.43622
G1 X92.096 Y23.801 E43.51846
G1 X92.445 Y23.717 E43.5322
G1 X92.942 Y23.657 E43.55136
G1 X93.334 Y23.655 E43.56636
G1 X95.44 Y23.668 E43.64696
G1 X98.182 Y23.607 E43.75192
G1 X100.951 Y23.468 E43.85802
G1 X103.686 Y23.251 E43.96302
G1 X106.481 Y22.951 E44.07059
G1 X109.192 Y22.583 E44.17529
G1 X111.924 Y22.131 E44.28127
G1 X114.905 Y21.549 E44.3975
G1 X116.04 Y21.309 E44.4419
G1 X116.454 Y21.262 E44.45784
G1 X116.869 Y21.295 E44.47378
G1 X117.271 Y21.407 E44.48975
G1 X117.612 Y21.574 E44.50428
G1 X119.988 Y23.004 E44.6104
G1 X122.409 Y24.369 E44.71677
G1 X124.861 Y25.662 E44.82285
G1 X127.359 Y26.89 E44.92937
G1 X129.862 Y28.034 E45.03469
G1 X132.399 Y29.107 E45.14011
G1 X134.993 Y30.12 E45.24668
G1 X136.689 Y30.736 E45.31574
G1 X137.186 Y30.912 E45.33591
G1 X137.564 Y31.088 E45.35187
G1 X137.972 Y31.398 E45.37148
G1 X138.59 Y31.997 E45.40442
G1 X138.951 Y32.369 E45.42425
G1 X139.259 Y32.772 E45.44367
G1 X139.388 Y32.988 E45.45329
G1 X140.545 Y34.971 E45.54116
G1 X142.012 Y37.33 E45.64747
G1 X143.537 Y39.635 E45.75324
G1 X145.122 Y41.889 E45.85869
G1 X146.763 Y44.087 E45.96366
G1 X148.511 Y46.296 E46.07146
G1 X150.284 Y48.41 E46.17705
G1 X152.093 Y50.448 E46.28134
G1 X154.016 Y52.496 E46.38885
G1 X155.959 Y54.449 E46.49428
G1 X157.954 Y56.345 E46.59961
G1 X160.043 Y58.22 E46.70703
G1 X162.137 Y59.995 E46.81208
G1 X164.295 Y61.723 E46.91788
G1 X166.478 Y63.371 E47.02256
G1 X168.777 Y65.008 E47.13056
G1 X171.028 Y66.516 E47.23425
G1 X173.412 Y68.017 E47.34207
G1 X175.377 Y69.183 E47.42951
G1 X175.917 Y69.612 E47.4559
G1 X176.253 Y69.941 E47.4739
G1 X176.728 Y70.429 E47.49996
G1 X176.988 Y70.754 E47.51589
G1 X177.192 Y71.147 E47.53283
G1 X177.533 Y72.011 E47.56838
G1 X178.596 Y74.601 E47.67552
G1 X179.72 Y77.132 E47.7815
G1 X180.898 Y79.596 E47.88602
G1 X182.188 Y82.108 E47.99409
G1 X183.504 Y84.503 E48.09867
G1 X184.893 Y86.868 E48.20363
G1 X186.384 Y89.251 E48.31121
G1 X187.908 Y91.539 E48.41642
G1 X189.294 Y93.506 E48.5085
G1 X189.916 Y94.368 E48.54918
G1 X190.127 Y94.727 E48.56512
G1 X190.265 Y95.12 E48.58106
G1 X190.325 Y95.532 E48.59699
G1 X190.275 Y96.118 E48.6195
G1 X190.143 Y96.664 E48.641
G1 X164.804 Y192.67 E52.44091
G1 X164.624 Y193.313 E52.46647
G1 X164.474 Y193.702 E52.48242
G1 X164.253 Y194.055 E52.49836
G1 X163.968 Y194.359 E52.51431
G1 X163.63 Y194.603 E52.53026
