;FLAVOR:Marlin
;TIME:14089
;Filament used: 12.4521m
;Layer height: 0.2
;MINX:3.432
;MINY:20.66
;MINZ:0.26
;MAXX:158.267
;MAXY:197.441
;MAXZ:7.86
;Generated with Cura_SteamEngine 4.9.1
M82 ;absolute extrusion mode
;Begin Start Gcode for Dagoma DiscoEasy 200
;Sliced: 13-07-2021 17:23:18
;Initial extruder: 0

G90 ;Absolute positioning
M106 S255 ;Fan on full
G28 X Y ;Home stop X Y
G1 X100 ;Centre back during cooldown in case of oozing
M109 R90 ;Cooldown in case too hot
G28 ;Centre
G29 ;Auto-level
M104 S205 ;Pre-heat
M107 ;Fan off
G0 X100 Y5 Z0.5 ;Front centre for degunk
M109 S205 ;Wait for initial temp
M83 ;E Relative
G1 E10 F200 ;Degunk
G1 E-3 F5000 ;Retract
G0 Z3 ;Withdraw
M82 ;E absolute
G92 E0 ;E reset
G1 F6000 ;Set feedrate

;Finish Start Gcode for Dagoma DiscoEasy 200

G92 E0
G92 E0
G1 F3000 E-3.5
;LAYER_COUNT:39
;LAYER:0
M107
G0 F1285.7 X51.401 Y23.218 Z0.26
;TYPE:SKIRT
G1 F3000 E0
G1 F900 X51.731 Y22.631 E0.02577
G1 X52.038 Y22.167 E0.04706
G1 X52.408 Y21.751 E0.06837
G1 X52.834 Y21.393 E0.08966
G1 X53.307 Y21.1 E0.11096
G1 X53.816 Y20.877 E0.13222
G1 X54.353 Y20.729 E0.15354
G1 X54.905 Y20.66 E0.17483
G1 X55.461 Y20.671 E0.19611
G1 X56.01 Y20.761 E0.2174
G1 X56.541 Y20.929 E0.23872
G1 X57.042 Y21.171 E0.26001
G1 X57.503 Y21.483 E0.28131
G1 X57.915 Y21.857 E0.30261
G1 X58.385 Y22.46 E0.33186
G1 X58.784 Y23.093 E0.3605
G1 X157.395 Y184.428 E7.59669
G1 X157.729 Y184.992 E7.62177
G1 X157.978 Y185.49 E7.64308
G1 X158.152 Y186.019 E7.66439
G1 X158.249 Y186.567 E7.68569
G1 X158.267 Y187.123 E7.70698
G1 X158.198 Y187.713 E7.72971
G1 X158.059 Y188.346 E7.75451
G1 X156.742 Y193.81 E7.96961
G1 X156.562 Y194.513 E7.99738
G1 X156.386 Y195.041 E8.01868
G1 X156.135 Y195.538 E8.03999
G1 X155.817 Y195.994 E8.06126
G1 X155.436 Y196.4 E8.08257
G1 X155.001 Y196.747 E8.10386
G1 X154.521 Y197.028 E8.12515
G1 X154.005 Y197.237 E8.14646
G1 X153.465 Y197.371 E8.16775
G1 X152.873 Y197.426 E8.1905
G1 X151.971 Y197.441 E8.22502
G1 X57.592 Y197.441 E11.83686
G1 X56.894 Y197.431 E11.86358
G1 X56.34 Y197.383 E11.88486
G1 X55.798 Y197.256 E11.90616
G1 X55.28 Y197.053 E11.92745
G1 X54.797 Y196.778 E11.94872
G1 X54.358 Y196.436 E11.97002
G1 X53.972 Y196.035 E11.99132
G1 X53.678 Y195.631 E12.01044
G1 X53.214 Y194.899 E12.04361
G1 X4.34 Y114.937 E15.63006
G1 X3.97 Y114.312 E15.65785
G1 X3.721 Y113.814 E15.67916
G1 X3.547 Y113.286 E15.70044
G1 X3.45 Y112.738 E15.72173
G1 X3.432 Y112.182 E15.74302
G1 X3.494 Y111.629 E15.76432
G1 X3.635 Y111.09 E15.78564
G1 X3.873 Y110.537 E15.80868
G1 X4.238 Y109.843 E15.83869
G1 X51.401 Y23.218 E19.61328
G0 F1285.7 X51.706 Y23.39
G1 F900 X52.036 Y22.803 E19.63905
G1 X52.33 Y22.361 E19.65937
G1 X52.688 Y21.968 E19.67971
G1 X53.099 Y21.634 E19.69998
G1 X53.557 Y21.365 E19.72031
G1 X54.05 Y21.168 E19.74062
G1 X54.566 Y21.047 E19.76091
G1 X55.095 Y21.005 E19.78121
G1 X55.625 Y21.043 E19.80155
G1 X56.142 Y21.16 E19.82183
G1 X56.637 Y21.353 E19.84217
G1 X57.096 Y21.618 E19.86245
G1 X57.511 Y21.95 E19.88279
G1 X57.871 Y22.34 E19.9031
G1 X58.089 Y22.647 E19.91751
G1 X58.486 Y23.276 E19.94597
G1 X157.094 Y184.607 E27.18197
G1 X157.428 Y185.171 E27.20706
G1 X157.663 Y185.646 E27.22734
G1 X157.825 Y186.152 E27.24767
G1 X157.908 Y186.676 E27.26798
G1 X157.912 Y187.207 E27.2883
G1 X157.824 Y187.798 E27.31116
G1 X157.71 Y188.302 E27.33094
G1 X156.403 Y193.723 E27.54434
G1 X156.223 Y194.426 E27.57211
G1 X156.053 Y194.929 E27.59243
G1 X155.809 Y195.401 E27.61277
G1 X155.498 Y195.83 E27.63305
G1 X155.125 Y196.208 E27.65337
G1 X154.7 Y196.526 E27.67368
G1 X154.233 Y196.776 E27.69395
G1 X153.732 Y196.954 E27.7143
G1 X153.211 Y197.054 E27.7346
G1 X152.867 Y197.077 E27.7478
G1 X152.03 Y197.091 E27.77983
G1 X57.598 Y197.091 E31.3937
G1 X56.9 Y197.081 E31.42042
G1 X56.371 Y197.033 E31.44074
G1 X55.856 Y196.907 E31.46103
G1 X55.365 Y196.705 E31.48135
G1 X54.91 Y196.431 E31.50168
G1 X54.502 Y196.092 E31.52198
G1 X54.149 Y195.696 E31.54228
G1 X53.973 Y195.444 E31.55404
G1 X53.512 Y194.716 E31.58702
G1 X4.641 Y114.759 E35.17324
G1 X4.271 Y114.134 E35.20104
G1 X4.035 Y113.658 E35.22137
G1 X3.874 Y113.152 E35.24169
G1 X3.791 Y112.628 E35.26199
G1 X3.787 Y112.098 E35.28228
G1 X3.863 Y111.573 E35.30258
G1 X4.017 Y111.065 E35.32289
G1 X4.183 Y110.7 E35.33824
G1 X4.545 Y110.01 E35.36806
G1 X51.706 Y23.39 E39.14245
G0 F1285.7 X52.011 Y23.561
G1 F900 X52.341 Y22.974 E39.16822
G1 X52.622 Y22.556 E39.18749
G1 X52.966 Y22.188 E39.20677
G1 X53.363 Y21.878 E39.22605
G1 X53.804 Y21.636 E39.2453
G1 X54.278 Y21.466 E39.26457
G1 X54.773 Y21.373 E39.28384
G1 X55.277 Y21.359 E39.30314
G1 X55.776 Y21.426 E39.32241
G1 X56.258 Y21.57 E39.34166
G1 X56.712 Y21.789 E39.36095
G1 X57.125 Y22.077 E39.38022
G1 X57.487 Y22.427 E39.39949
G1 X57.793 Y22.834 E39.41897
G1 X58.187 Y23.458 E39.44722
G1 X156.793 Y184.785 E46.68304
G1 X157.127 Y185.349 E46.70813
G1 X157.348 Y185.801 E46.72738
G1 X157.495 Y186.283 E46.74667
G1 X157.565 Y186.782 E46.76595
G1 X157.554 Y187.285 E46.78521
G1 X157.459 Y187.833 E46.80649
G1 X157.37 Y188.22 E46.82169
G1 X156.064 Y193.637 E47.03493
G1 X155.884 Y194.34 E47.0627
G1 X155.721 Y194.816 E47.08196
G1 X155.484 Y195.261 E47.10125
G1 X155.18 Y195.662 E47.12051
G1 X154.817 Y196.011 E47.13978
G1 X154.403 Y196.297 E47.15904
G1 X153.949 Y196.515 E47.17831
G1 X153.466 Y196.658 E47.19759
G1 X152.861 Y196.727 E47.22089
G1 X152.024 Y196.741 E47.25293
G1 X57.603 Y196.741 E50.86638
G1 X56.905 Y196.731 E50.89309
G1 X56.403 Y196.684 E50.91239
G1 X55.916 Y196.558 E50.93164
G1 X55.454 Y196.356 E50.95093
G1 X55.03 Y196.085 E50.97019
G1 X54.654 Y195.749 E50.98949
G1 X54.269 Y195.256 E51.01343
G1 X53.811 Y194.534 E51.04615
G1 X4.942 Y114.58 E54.63223
G1 X4.572 Y113.955 E54.66003
G1 X4.35 Y113.503 E54.6793
G1 X4.203 Y113.021 E54.69858
G1 X4.134 Y112.523 E54.71782
G1 X4.145 Y112.019 E54.73712
G1 X4.235 Y111.524 E54.75637
G1 X4.493 Y110.862 E54.78356
G1 X4.853 Y110.178 E54.81314
G1 X52.011 Y23.561 E58.58737
G1 F3000 E55.08737
;MESH:support_half_hex_01.stl
G0 F1285.7 X54.196 Y24.849
G0 X55.224 Y25.408
G0 X152.401 Y193.041
;TYPE:WALL-INNER
G1 F3000 E58.58737
G1 F900 X57.235 Y193.041 E62.22933
G1 X7.898 Y112.324 E65.84967
G1 X54.991 Y25.825 E69.61875
G1 X55.135 Y25.559 E69.63032
G1 X55.293 Y25.817 E69.63688
G1 X153.845 Y187.055 E76.86872
G1 X152.401 Y193.041 E77.10438
G0 F1285.7 X152.657 Y193.366
;TYPE:WALL-OUTER
G1 F900 X57.053 Y193.366 E80.7631
G1 X7.523 Y112.333 E84.39761
G1 X54.975 Y25.176 E88.19537
G1 X55.119 Y24.91 E88.20694
G1 X55.277 Y25.168 E88.2135
G1 X154.192 Y187.001 E95.47202
G1 X152.657 Y193.366 E95.72259
G0 F1285.7 X152.457 Y193.366
G0 X152.133 Y192.701
;TYPE:SKIN
G1 F900 X57.426 Y192.701 E99.34698
G1 X8.291 Y112.315 E102.95248
G1 X55.152 Y26.239 E106.70309
G1 X153.482 Y187.112 E113.91859
G1 X152.133 Y192.701 E114.13862
G0 F1285.7 X57.909 Y192.543
G1 F900 X56.89 Y191.524 E114.19377
G1 X56.828 Y191.462
G0 F1285.7 X56.112 Y190.25
G1 F900 X58.404 Y192.543 E114.31784
G0 F1285.7 X58.899 Y192.543
G1 F900 X55.334 Y188.977 E114.51081
G1 X55.272 Y188.915
G0 F1285.7 X54.556 Y187.704
G1 F900 X59.394 Y192.543 E114.77268
G0 F1285.7 X59.889 Y192.543
G1 F900 X53.778 Y186.431 E115.10344
G1 X53.716 Y186.369
G0 F1285.7 X52.999 Y185.158
G1 F900 X60.384 Y192.543 E115.50312
G0 F1285.7 X60.879 Y192.543
G1 F900 X52.221 Y183.884 E115.97173
G1 X52.159 Y183.822
G0 F1285.7 X51.443 Y182.611
G1 F900 X61.374 Y192.543 E116.50924
G0 F1285.7 X61.869 Y192.543
G1 F900 X50.664 Y181.338 E117.11567
G1 X50.602 Y181.276
G0 F1285.7 X49.886 Y180.064
G1 F900 X62.364 Y192.543 E117.79102
G0 F1285.7 X62.859 Y192.543
G1 F900 X49.108 Y178.791 E118.53527
G1 X49.046 Y178.729
G0 F1285.7 X48.33 Y177.518
G1 F900 X63.354 Y192.543 E119.34841
G0 F1285.7 X63.849 Y192.543
G1 F900 X47.552 Y176.245 E120.23046
G1 X47.49 Y176.183
G0 F1285.7 X46.773 Y174.972
G1 F900 X64.344 Y192.543 E121.18142
G0 F1285.7 X64.839 Y192.543
G1 F900 X45.995 Y173.698 E122.20131
G1 X45.933 Y173.636
G0 F1285.7 X45.217 Y172.425
G1 F900 X65.334 Y192.543 E123.29009
G0 F1285.7 X65.829 Y192.543
G1 F900 X44.438 Y171.152 E124.4478
G1 X44.376 Y171.09
G0 F1285.7 X43.66 Y169.878
G1 F900 X66.324 Y192.543 E125.67443
G0 F1285.7 X66.819 Y192.543
G1 F900 X42.882 Y168.606 E126.96993
G1 X42.82 Y168.544
G0 F1285.7 X42.103 Y167.332
G1 F900 X67.314 Y192.543 E128.33439
G0 F1285.7 X67.809 Y192.543
G1 F900 X41.326 Y166.059 E129.76771
G1 X41.264 Y165.997
G0 F1285.7 X40.547 Y164.786
G1 F900 X68.304 Y192.543 E131.26995
G0 F1285.7 X68.799 Y192.543
G1 F900 X39.769 Y163.512 E132.84112
G1 X39.707 Y163.45
G0 F1285.7 X38.991 Y162.239
G1 F900 X69.294 Y192.543 E134.48118
G0 F1285.7 X69.789 Y192.543
G1 F900 X38.212 Y160.966 E136.19017
G1 X38.15 Y160.904
G0 F1285.7 X37.434 Y159.692
G1 F900 X70.284 Y192.543 E137.96808
G0 F1285.7 X70.779 Y192.543
G1 F900 X36.656 Y158.42 E139.81486
G1 X36.594 Y158.358
G0 F1285.7 X35.877 Y157.146
G1 F900 X71.274 Y192.543 E141.73059
G0 F1285.7 X71.769 Y192.543
G1 F900 X35.1 Y155.873 E143.71519
G1 X35.038 Y155.811
G0 F1285.7 X34.321 Y154.6
G1 F900 X72.264 Y192.543 E145.76872
G0 F1285.7 X72.759 Y192.543
G1 F900 X33.543 Y153.326 E147.89116
G1 X33.481 Y153.264
G0 F1285.7 X32.765 Y152.054
G1 F900 X73.254 Y192.543 E150.08248
G0 F1285.7 X73.749 Y192.543
G1 F900 X31.986 Y150.78 E152.34275
G1 X31.924 Y150.718
G0 F1285.7 X31.208 Y149.507
G1 F900 X74.244 Y192.543 E154.67191
G0 F1285.7 X74.739 Y192.543
G1 F900 X30.43 Y148.234 E157.06997
G1 X30.368 Y148.172
G0 F1285.7 X29.651 Y146.96
G1 F900 X75.234 Y192.543 E159.53698
G0 F1285.7 X75.729 Y192.543
G1 F900 X28.873 Y145.688 E162.07286
G1 X28.811 Y145.626
G0 F1285.7 X28.095 Y144.414
G1 F900 X76.223 Y192.543 E164.67763
G0 F1285.7 X76.718 Y192.543
G1 F900 X27.316 Y143.141 E167.35133
G1 X27.254 Y143.079
G0 F1285.7 X26.539 Y141.868
G1 F900 X77.213 Y192.543 E170.0939
G0 F1285.7 X77.708 Y192.543
G1 F900 X25.76 Y140.594 E172.90542
G1 X25.698 Y140.532
G0 F1285.7 X24.982 Y139.321
G1 F900 X78.203 Y192.543 E175.78584
G0 F1285.7 X78.698 Y192.543
G1 F900 X24.204 Y138.048 E178.73515
G1 X24.142 Y137.986
G0 F1285.7 X23.425 Y136.774
G1 F900 X79.193 Y192.543 E181.75341
G0 F1285.7 X79.688 Y192.543
G1 F900 X22.647 Y135.502 E184.84054
G1 X22.585 Y135.44
G0 F1285.7 X21.869 Y134.228
G1 F900 X80.183 Y192.543 E187.9966
G0 F1285.7 X80.678 Y192.543
G1 F900 X21.09 Y132.955 E191.22157
G1 X21.028 Y132.893
G0 F1285.7 X20.313 Y131.682
G1 F900 X81.173 Y192.543 E194.51542
G0 F1285.7 X81.668 Y192.543
G1 F900 X19.534 Y130.408 E197.87822
G1 X19.472 Y130.346
G0 F1285.7 X18.756 Y129.135
G1 F900 X82.163 Y192.543 E201.30992
G0 F1285.7 X82.658 Y192.543
G1 F900 X17.978 Y127.862 E204.81051
G1 X17.916 Y127.8
G0 F1285.7 X17.199 Y126.589
G1 F900 X83.153 Y192.543 E208.38002
G0 F1285.7 X83.648 Y192.543
G1 F900 X16.421 Y125.316 E212.01843
G1 X16.359 Y125.254
G0 F1285.7 X15.643 Y124.042
G1 F900 X84.143 Y192.543 E215.72577
G0 F1285.7 X84.638 Y192.543
G1 F900 X14.864 Y122.769 E219.50202
G1 X14.802 Y122.707
G0 F1285.7 X14.086 Y121.496
G1 F900 X85.133 Y192.543 E223.34718
G0 F1285.7 X85.628 Y192.543
G1 F900 X13.308 Y120.223 E227.26123
G1 X13.246 Y120.161
G0 F1285.7 X12.529 Y118.949
G1 F900 X86.123 Y192.543 E231.24423
G0 F1285.7 X86.618 Y192.543
G1 F900 X11.752 Y117.676 E235.2961
G1 X11.69 Y117.614
G0 F1285.7 X10.973 Y116.403
G1 F900 X87.113 Y192.543 E239.41689
G0 F1285.7 X87.608 Y192.543
G1 F900 X10.195 Y115.13 E243.60658
G1 X10.133 Y115.068
G0 F1285.7 X9.417 Y113.856
G1 F900 X88.103 Y192.543 E247.8652
G0 F1285.7 X88.598 Y192.543
G1 F900 X8.638 Y112.583 E252.19273
G0 F1285.7 X8.609 Y112.058
G1 F900 X89.093 Y192.543 E256.54866
G0 F1285.7 X89.588 Y192.543
G1 F900 X8.783 Y111.738 E260.92193
G0 F1285.7 X8.958 Y111.418
G1 F900 X90.083 Y192.543 E265.31252
G0 F1285.7 X90.578 Y192.543
G1 F900 X9.132 Y111.097 E269.72048
G0 F1285.7 X9.306 Y110.776
G1 F900 X91.073 Y192.543 E274.14581
G0 F1285.7 X91.568 Y192.543
G1 F900 X9.481 Y110.456 E278.58846
G0 F1285.7 X9.656 Y110.136
G1 F900 X92.063 Y192.543 E283.04844
G0 F1285.7 X92.558 Y192.543
G1 F900 X9.83 Y109.815 E287.52578
G0 F1285.7 X10.004 Y109.494
G1 F900 X93.053 Y192.543 E292.0205
G0 F1285.7 X93.548 Y192.543
G1 F900 X10.179 Y109.174 E296.53254
G0 F1285.7 X10.354 Y108.854
G1 F900 X94.043 Y192.543 E301.06189
G0 F1285.7 X94.538 Y192.543
G1 F900 X10.528 Y108.533 E305.60862
G0 F1285.7 X10.702 Y108.212
G1 F900 X95.033 Y192.543 E310.17272
G0 F1285.7 X95.528 Y192.543
G1 F900 X10.877 Y107.892 E314.75414
G0 F1285.7 X11.052 Y107.572
G1 F900 X96.022 Y192.543 E319.35285
G0 F1285.7 X96.517 Y192.543
G1 F900 X11.226 Y107.251 E323.96894
G0 F1285.7 X11.4 Y106.93
G1 F900 X97.012 Y192.543 E328.60239
G0 F1285.7 X97.507 Y192.543
G1 F900 X11.575 Y106.61 E333.25317
G0 F1285.7 X11.749 Y106.29
G1 F900 X98.002 Y192.543 E337.92129
G0 F1285.7 X98.497 Y192.543
G1 F900 X11.924 Y105.969 E342.60676
G0 F1285.7 X12.098 Y105.648
G1 F900 X98.992 Y192.543 E347.3096
G0 F1285.7 X99.487 Y192.543
G1 F900 X12.273 Y105.328 E352.02976
G0 F1285.7 X12.447 Y105.008
G1 F900 X99.982 Y192.543 E356.76727
G0 F1285.7 X100.477 Y192.543
G1 F900 X12.622 Y104.687 E361.52212
G0 F1285.7 X12.796 Y104.366
G1 F900 X100.972 Y192.543 E366.29434
G0 F1285.7 X101.467 Y192.543
G1 F900 X12.971 Y104.046 E371.08389
G0 F1285.7 X13.145 Y103.726
G1 F900 X101.962 Y192.543 E375.89078
G0 F1285.7 X102.457 Y192.543
G1 F900 X13.32 Y103.405 E380.71501
G0 F1285.7 X13.494 Y103.084
G1 F900 X102.952 Y192.543 E385.55662
G0 F1285.7 X103.447 Y192.543
G1 F900 X13.669 Y102.764 E390.41555
G0 F1285.7 X13.843 Y102.444
G1 F900 X103.942 Y192.543 E395.29182
G0 F1285.7 X104.437 Y192.543
G1 F900 X14.018 Y102.123 E400.18544
G0 F1285.7 X14.192 Y101.802
G1 F900 X104.932 Y192.543 E405.09643
G0 F1285.7 X105.427 Y192.543
G1 F900 X14.366 Y101.482 E410.02477
G0 F1285.7 X14.541 Y101.162
G1 F900 X105.922 Y192.543 E414.97042
G0 F1285.7 X106.417 Y192.543
G1 F900 X14.716 Y100.841 E419.93342
G0 F1285.7 X14.89 Y100.52
G1 F900 X106.912 Y192.543 E424.9138
G0 F1285.7 X107.407 Y192.543
G1 F900 X15.064 Y100.2 E429.91152
G0 F1285.7 X15.239 Y99.88
G1 F900 X107.902 Y192.543 E434.92656
G0 F1285.7 X108.397 Y192.543
G1 F900 X15.414 Y99.559 E439.95895
G0 F1285.7 X15.588 Y99.238
G1 F900 X108.892 Y192.543 E445.0087
G0 F1285.7 X109.387 Y192.543
G1 F900 X15.762 Y98.918 E450.07581
G0 F1285.7 X15.937 Y98.598
G1 F900 X109.882 Y192.543 E455.16023
G0 F1285.7 X110.377 Y192.543
G1 F900 X16.112 Y98.277 E460.262
G0 F1285.7 X16.286 Y97.956
G1 F900 X110.872 Y192.543 E465.38114
G0 F1285.7 X111.367 Y192.543
G1 F900 X16.46 Y97.636 E470.51763
G0 F1285.7 X16.635 Y97.316
G1 F900 X111.862 Y192.543 E475.67144
G0 F1285.7 X112.357 Y192.543
G1 F900 X16.81 Y96.995 E480.84259
G0 F1285.7 X16.983 Y96.674
G1 F900 X112.852 Y192.543 E486.03114
G0 F1285.7 X113.347 Y192.543
G1 F900 X17.158 Y96.354 E491.23701
G0 F1285.7 X17.333 Y96.034
G1 F900 X113.842 Y192.543 E496.4602
G0 F1285.7 X114.337 Y192.543
G1 F900 X17.507 Y95.713 E501.70077
G0 F1285.7 X17.681 Y95.392
G1 F900 X114.832 Y192.543 E506.9587
G0 F1285.7 X115.326 Y192.543
G1 F900 X17.856 Y95.072 E512.23393
G0 F1285.7 X18.031 Y94.752
G1 F900 X115.821 Y192.543 E517.52648
G0 F1285.7 X116.316 Y192.543
G1 F900 X18.205 Y94.431 E522.83639
G0 F1285.7 X18.379 Y94.11
G1 F900 X116.811 Y192.543 E528.16369
G0 F1285.7 X117.306 Y192.543
G1 F900 X18.554 Y93.79 E533.5083
G0 F1285.7 X18.729 Y93.47
G1 F900 X117.801 Y192.543 E538.87023
G0 F1285.7 X118.296 Y192.543
G1 F900 X18.903 Y93.15 E544.2495
G0 F1285.7 X19.077 Y92.828
G1 F900 X118.791 Y192.543 E549.64618
G0 F1285.7 X119.286 Y192.543
G1 F900 X19.252 Y92.508 E555.06017
G0 F1285.7 X19.427 Y92.188
G1 F900 X119.781 Y192.543 E560.49149
G0 F1285.7 X120.276 Y192.543
G1 F900 X19.601 Y91.868 E565.94015
G0 F1285.7 X19.775 Y91.546
G1 F900 X120.771 Y192.543 E571.40621
G0 F1285.7 X121.266 Y192.543
G1 F900 X19.95 Y91.226 E576.88958
G0 F1285.7 X20.124 Y90.906
G1 F900 X121.761 Y192.543 E582.39031
G0 F1285.7 X122.256 Y192.543
G1 F900 X20.299 Y90.586 E587.90835
G0 F1285.7 X20.473 Y90.265
G1 F900 X122.751 Y192.543 E593.44377
G0 F1285.7 X123.246 Y192.543
G1 F900 X20.648 Y89.944 E598.99653
G0 F1285.7 X20.822 Y89.624
G1 F900 X123.741 Y192.543 E604.56664
G0 F1285.7 X124.236 Y192.543
G1 F900 X20.997 Y89.304 E610.15406
G0 F1285.7 X21.171 Y88.983
G1 F900 X124.731 Y192.543 E615.75886
