;FLAVOR:Marlin
;TIME:12951
;Filament used: 22.7834m
;Layer height: 0.3
;MINX:17.318
;MINY:20.478
;MINZ:0.26
;MAXX:192.655
;MAXY:195.811
;MAXZ:24.26
;Generated with Cura_SteamEngine 4.9.1
M82 ;absolute extrusion mode
;Begin Start Gcode for Dagoma DiscoEasy 200
;Sliced: 01-08-2021 01:48:08
;Initial extruder: 0

G90 ;Absolute positioning
M106 S255 ;Fan on full
G28 X Y ;Home stop X Y
G1 X100 ;Centre back during cooldown in case of oozing
M109 R90 ;Cooldown in case too hot
G28 ;Centre
G29 ;Auto-level
M104 S205 ;Pre-heat
M107 ;Fan off
G0 X100 Y5 Z0.5 ;Front centre for degunk
M109 S205 ;Wait for initial temp
M83 ;E Relative
G1 E10 F200 ;Degunk
G1 E-3 F5000 ;Retract
G0 Z3 ;Withdraw
M82 ;E absolute
G92 E0 ;E reset
G1 F6000 ;Set feedrate

;Finish Start Gcode for Dagoma DiscoEasy 200

G92 E0
G92 E0
G1 F3000 E-3.5
;LAYER_COUNT:81
;LAYER:0
M107
G0 F1285.7 X20.221 Y47.898 Z0.26
;TYPE:SKIRT
G1 F3000 E0
G1 F900 X20.71 Y47.751 E0.01954
G1 X117.722 Y20.729 E3.87348
G1 X118.355 Y20.563 E3.89852
G1 X118.827 Y20.481 E3.91685
G1 X119.306 Y20.478 E3.93519
G1 X119.779 Y20.554 E3.95352
G1 X120.233 Y20.708 E3.97187
G1 X120.654 Y20.936 E3.99019
G1 X121.167 Y21.34 E4.01518
G1 X123.323 Y23.119 E4.12215
G1 X125.504 Y24.816 E4.2279
G1 X127.699 Y26.426 E4.33208
G1 X129.957 Y27.986 E4.43711
G1 X132.25 Y29.476 E4.54176
G1 X134.618 Y30.922 E4.64794
G1 X136.998 Y32.285 E4.7529
G1 X139.158 Y33.446 E4.84675
G1 X139.805 Y33.828 E4.8755
G1 X140.071 Y34.056 E4.88891
G1 X140.682 Y34.647 E4.92144
G1 X141.071 Y35.047 E4.9428
G1 X141.463 Y35.555 E4.96735
G1 X141.78 Y36.079 E4.99079
G1 X142.634 Y37.539 E5.05552
G1 X144.076 Y39.853 E5.15986
G1 X145.603 Y42.156 E5.26561
G1 X147.183 Y44.399 E5.37061
G1 X148.822 Y46.59 E5.47532
G1 X150.529 Y48.744 E5.5805
G1 X152.307 Y50.859 E5.68624
G1 X154.142 Y52.921 E5.79187
G1 X156.008 Y54.905 E5.89611
G1 X157.941 Y56.843 E6.00086
G1 X159.928 Y58.729 E6.1057
G1 X161.993 Y60.579 E6.2118
G1 X164.081 Y62.346 E6.31648
G1 X166.241 Y64.072 E6.42229
G1 X168.415 Y65.71 E6.52646
G1 X170.668 Y67.311 E6.63224
G1 X172.941 Y68.831 E6.73688
G1 X175.289 Y70.305 E6.84298
G1 X177.256 Y71.471 E6.93048
G1 X177.549 Y71.642 E6.94347
G1 X178.042 Y72.005 E6.9669
G1 X178.535 Y72.481 E6.99312
G1 X179.059 Y73.021 E7.02192
G1 X179.362 Y73.392 E7.04025
G1 X179.534 Y73.676 E7.05296
G1 X179.934 Y74.433 E7.08572
G1 X181.256 Y76.854 E7.19129
G1 X182.633 Y79.213 E7.29582
G1 X184.105 Y81.58 E7.40249
G1 X185.601 Y83.841 E7.50624
G1 X187.188 Y86.095 E7.61174
G1 X188.847 Y88.318 E7.71789
G1 X190.525 Y90.438 E7.82136
G1 X191.447 Y91.534 E7.87617
G1 X192.005 Y92.215 E7.90986
G1 X192.277 Y92.609 E7.92819
G1 X192.479 Y93.044 E7.94654
G1 X192.606 Y93.506 E7.96488
G1 X192.655 Y93.982 E7.98319
G1 X192.625 Y94.461 E8.00156
G1 X192.565 Y94.756 E8.01308
G1 X192.317 Y95.714 E8.05095
G1 X165.459 Y192.136 E11.88145
G1 X165.251 Y192.846 E11.90976
G1 X165.078 Y193.293 E11.92811
G1 X164.834 Y193.705 E11.94643
G1 X164.525 Y194.071 E11.96476
G1 X164.159 Y194.381 E11.98312
G1 X163.746 Y194.625 E12.00147
G1 X163.299 Y194.797 E12.0198
G1 X162.83 Y194.893 E12.03812
G1 X162.351 Y194.91 E12.05647
G1 X161.876 Y194.846 E12.07481
G1 X161.419 Y194.705 E12.09311
G1 X160.991 Y194.491 E12.11142
G1 X160.708 Y194.294 E12.12462
G1 X159.649 Y193.46 E12.17621
G1 X157.428 Y191.764 E12.28315
G1 X155.208 Y190.165 E12.38785
G1 X152.913 Y188.609 E12.49396
G1 X150.624 Y187.15 E12.59785
G1 X148.254 Y185.732 E12.70354
G1 X145.862 Y184.392 E12.80846
G1 X143.014 Y182.899 E12.93152
G1 X142.609 Y182.642 E12.94988
G1 X142.352 Y182.421 E12.96285
G1 X141.622 Y181.716 E13.00169
G1 X136.013 Y176.103 E13.30536
G1 X135.56 Y175.636 E13.33026
G1 X135.255 Y175.263 E13.3487
G1 X134.688 Y174.439 E13.38698
G1 X133.067 Y172.146 E13.49445
G1 X131.434 Y169.968 E13.59862
G1 X129.716 Y167.808 E13.70424
G1 X127.946 Y165.708 E13.80935
G1 X126.149 Y163.693 E13.91267
G1 X124.207 Y161.636 E14.02093
G1 X122.322 Y159.75 E14.12298
G1 X120.278 Y157.816 E14.23067
G1 X118.267 Y156.02 E14.33385
G1 X116.141 Y154.224 E14.44036
G1 X114.012 Y152.529 E14.5445
G1 X111.773 Y150.847 E14.65167
G1 X109.592 Y149.303 E14.75394
G1 X109.208 Y149.045 E14.77164
G1 X108.547 Y148.584 E14.80248
G1 X108.101 Y148.208 E14.82481
G1 X107.751 Y147.864 E14.84359
G1 X101.931 Y142.042 E15.15863
G1 X101.387 Y141.48 E15.18856
G1 X101.268 Y141.352 E15.19525
G1 X99.564 Y139.442 E15.2932
G1 X97.649 Y137.413 E15.39997
G1 X95.764 Y135.529 E15.50197
G1 X93.719 Y133.594 E15.60971
G1 X91.695 Y131.787 E15.71354
G1 X89.596 Y130.016 E15.81864
G1 X87.453 Y128.31 E15.92347
G1 X85.213 Y126.627 E16.03069
G1 X83.028 Y125.08 E16.13315
G1 X80.704 Y123.532 E16.24001
G1 X78.378 Y122.077 E16.34501
G1 X76.042 Y120.706 E16.44866
G1 X73.605 Y119.364 E16.55513
G1 X71.162 Y118.11 E16.66022
G1 X68.681 Y116.922 E16.76549
G1 X67.387 Y116.337 E16.81984
G1 X66.968 Y116.104 E16.83819
G1 X66.343 Y115.569 E16.86967
G1 X64.993 Y114.225 E16.94257
G1 X64.483 Y113.699 E16.97061
G1 X64.092 Y113.195 E16.99502
G1 X63.453 Y112.146 E17.04203
G1 X63.133 Y111.602 E17.06618
G1 X61.674 Y109.287 E17.1709
G1 X60.13 Y106.982 E17.27708
G1 X58.559 Y104.775 E17.38075
G1 X56.889 Y102.563 E17.48682
G1 X55.173 Y100.418 E17.59194
G1 X53.404 Y98.333 E17.69658
G1 X51.576 Y96.299 E17.80124
G1 X49.666 Y94.288 E17.90738
G1 X47.722 Y92.356 E18.01227
G1 X45.728 Y90.481 E18.11702
G1 X43.656 Y88.643 E18.22301
G1 X41.556 Y86.882 E18.32789
G1 X39.426 Y85.196 E18.43185
G1 X37.196 Y83.531 E18.53836
G1 X34.961 Y81.961 E18.64289
G1 X32.674 Y80.447 E18.74785
G1 X29.227 Y78.334 E18.90258
G1 X28.762 Y77.979 E18.92496
G1 X28.482 Y77.715 E18.93969
G1 X27.149 Y76.377 E19.01197
G1 X26.64 Y75.853 E19.03993
G1 X26.336 Y75.483 E19.05825
G1 X26.097 Y75.067 E19.07661
G1 X25.887 Y74.433 E19.10217
G1 X25.699 Y73.525 E19.13766
G1 X25.108 Y70.854 E19.24235
G1 X24.444 Y68.209 E19.34671
G1 X23.68 Y65.493 E19.45469
G1 X22.875 Y62.917 E19.55797
G1 X21.979 Y60.312 E19.66339
G1 X21.011 Y57.733 E19.76881
G1 X19.978 Y55.203 E19.8734
G1 X18.769 Y52.473 E19.98766
G1 X18.478 Y51.84 E20.01432
G1 X18.315 Y51.389 E20.03267
G1 X18.229 Y50.918 E20.051
G1 X18.222 Y50.439 E20.06933
G1 X18.295 Y49.965 E20.08768
G1 X18.446 Y49.51 E20.10603
G1 X18.67 Y49.087 E20.12435
G1 X18.961 Y48.707 E20.14266
G1 X19.312 Y48.38 E20.16102
G1 X19.712 Y48.116 E20.17936
G1 X20.221 Y47.898 E20.20055
G0 F1285.7 X20.327 Y48.232
G1 F900 X20.808 Y48.087 E20.21978
G1 X117.81 Y21.068 E24.07332
G1 X118.443 Y20.902 E24.09836
G1 X118.886 Y20.827 E24.11555
G1 X119.335 Y20.832 E24.13274
G1 X119.776 Y20.916 E24.14992
G1 X120.195 Y21.077 E24.1671
G1 X120.715 Y21.416 E24.19085
G1 X120.944 Y21.61 E24.20234
G1 X123.096 Y23.385 E24.30909
G1 X125.292 Y25.094 E24.41558
G1 X127.503 Y26.716 E24.52052
G1 X129.753 Y28.27 E24.62517
G1 X132.071 Y29.778 E24.731
G1 X134.432 Y31.219 E24.83685
G1 X136.816 Y32.584 E24.94199
G1 X138.996 Y33.756 E25.03671
G1 X139.616 Y34.124 E25.0643
G1 X139.827 Y34.307 E25.07499
G1 X140.498 Y34.958 E25.11076
G1 X140.819 Y35.29 E25.12844
G1 X141.163 Y35.736 E25.14999
G1 X141.478 Y36.255 E25.17323
G1 X142.341 Y37.731 E25.23866
G1 X143.794 Y40.062 E25.34378
G1 X145.305 Y42.341 E25.44842
G1 X146.897 Y44.6 E25.55418
G1 X148.528 Y46.782 E25.65844
G1 X150.281 Y48.993 E25.76642
G1 X152.026 Y51.07 E25.87023
G1 X153.875 Y53.147 E25.97665
G1 X155.752 Y55.143 E26.08151
G1 X157.719 Y57.115 E26.1881
G1 X159.678 Y58.975 E26.29148
G1 X161.762 Y60.841 E26.39853
G1 X163.864 Y62.621 E26.50394
G1 X166.021 Y64.345 E26.60962
G1 X168.211 Y65.995 E26.71455
G1 X170.465 Y67.595 E26.82033
G1 X172.771 Y69.138 E26.92652
G1 X175.099 Y70.6 E27.03172
G1 X177.08 Y71.773 E27.11983
G1 X177.373 Y71.944 E27.13281
G1 X177.805 Y72.263 E27.15336
G1 X178.289 Y72.731 E27.17913
G1 X178.807 Y73.265 E27.2076
G1 X179.224 Y73.84 E27.23478
G1 X179.614 Y74.577 E27.26669
G1 X180.953 Y77.027 E27.37354
G1 X182.355 Y79.431 E27.48004
G1 X183.779 Y81.721 E27.58324
G1 X185.331 Y84.065 E27.69083
G1 X186.901 Y86.297 E27.79526
G1 X188.559 Y88.518 E27.90133
G1 X190.263 Y90.67 E28.00637
G1 X191.176 Y91.756 E28.06067
G1 X191.734 Y92.437 E28.09436
G1 X191.987 Y92.808 E28.11155
G1 X192.169 Y93.218 E28.12871
G1 X192.277 Y93.654 E28.1459
G1 X192.305 Y94.102 E28.16308
G1 X192.226 Y94.668 E28.18495
G1 X191.979 Y95.621 E28.22263
G1 X165.123 Y192.038 E32.05292
G1 X164.915 Y192.748 E32.08124
G1 X164.751 Y193.166 E32.09842
G1 X164.516 Y193.548 E32.11559
G1 X164.216 Y193.883 E32.1328
G1 X163.862 Y194.159 E32.14997
G1 X163.465 Y194.368 E32.16714
G1 X163.037 Y194.504 E32.18433
G1 X162.592 Y194.561 E32.2015
G1 X162.143 Y194.539 E32.2187
G1 X161.549 Y194.38 E32.24224
G1 X160.925 Y194.02 E32.2698
G1 X159.861 Y193.182 E32.32164
G1 X157.635 Y191.482 E32.42883
G1 X155.399 Y189.871 E32.53429
G1 X153.112 Y188.321 E32.64002
G1 X150.807 Y186.852 E32.74462
G1 X148.435 Y185.433 E32.8504
G1 X146.025 Y184.083 E32.95612
G1 X143.176 Y182.589 E33.07923
G1 X142.595 Y182.17 E33.10664
G1 X141.87 Y181.469 E33.14524
G1 X136.265 Y175.859 E33.44872
G1 X135.812 Y175.392 E33.47362
G1 X135.544 Y175.065 E33.4898
G1 X134.974 Y174.237 E33.52827
G1 X133.353 Y171.944 E33.63573
G1 X131.708 Y169.75 E33.74068
G1 X129.992 Y167.592 E33.84619
G1 X128.212 Y165.48 E33.95189
G1 X126.375 Y163.421 E34.05749
G1 X124.496 Y161.431 E34.16223
G1 X122.526 Y159.46 E34.26888
G1 X120.54 Y157.582 E34.37348
G1 X118.477 Y155.739 E34.47935
G1 X116.374 Y153.963 E34.58469
G1 X114.23 Y152.255 E34.68959
G1 X112.005 Y150.583 E34.7961
G1 X109.755 Y148.991 E34.90158
G1 X109.409 Y148.758 E34.91755
G1 X108.748 Y148.297 E34.94839
G1 X108.346 Y147.958 E34.96851
G1 X107.998 Y147.617 E34.98716
G1 X102.182 Y141.798 E35.30201
G1 X101.643 Y141.242 E35.33164
G1 X101.53 Y141.119 E35.33804
G1 X99.817 Y139.198 E35.43654
G1 X97.938 Y137.208 E35.54128
G1 X95.968 Y135.239 E35.64787
G1 X93.981 Y133.36 E35.75253
G1 X91.923 Y131.521 E35.85815
G1 X89.811 Y129.74 E35.96387
G1 X87.655 Y128.023 E36.06935
G1 X85.462 Y126.376 E36.17431
G1 X83.19 Y124.767 E36.28085
G1 X80.914 Y123.251 E36.38551
G1 X78.581 Y121.791 E36.49083
G1 X76.176 Y120.379 E36.59756
G1 X73.791 Y119.067 E36.70173
G1 X71.331 Y117.803 E36.80758
G1 X68.838 Y116.61 E36.91334
G1 X67.531 Y116.019 E36.96824
G1 X67.14 Y115.798 E36.98543
G1 X66.583 Y115.314 E37.01366
G1 X65.21 Y113.947 E37.08781
G1 X64.734 Y113.456 E37.11398
G1 X64.391 Y113.012 E37.13545
G1 X63.755 Y111.968 E37.18224
G1 X63.453 Y111.455 E37.20502
G1 X61.954 Y109.075 E37.31266
G1 X60.426 Y106.794 E37.41773
G1 X58.827 Y104.548 E37.52324
G1 X57.176 Y102.361 E37.62811
G1 X55.436 Y100.187 E37.73467
G1 X53.689 Y98.127 E37.83804
G1 X51.824 Y96.052 E37.94481
G1 X49.919 Y94.046 E38.05068
G1 X47.979 Y92.118 E38.15535
G1 X45.953 Y90.212 E38.2618
G1 X43.885 Y88.378 E38.36758
G1 X41.788 Y86.62 E38.4723
G1 X39.62 Y84.904 E38.57811
G1 X37.419 Y83.261 E38.68323
G1 X35.169 Y81.68 E38.78846
G1 X32.862 Y80.152 E38.89436
G1 X29.409 Y78.036 E39.04934
G1 X29.001 Y77.724 E39.069
G1 X28.73 Y77.468 E39.08327
G1 X27.4 Y76.133 E39.15538
G1 X26.891 Y75.609 E39.18334
G1 X26.608 Y75.261 E39.20051
G1 X26.391 Y74.868 E39.21769
G1 X26.229 Y74.362 E39.23802
G1 X26.042 Y73.454 E39.2735
G1 X25.448 Y70.769 E39.37873
G1 X24.79 Y68.145 E39.48226
G1 X24.022 Y65.416 E39.59076
G1 X23.213 Y62.824 E39.69467
G1 X22.297 Y60.162 E39.80241
G1 X21.342 Y57.62 E39.90633
G1 X20.297 Y55.059 E40.01218
G1 X19.089 Y52.331 E40.12636
G1 X18.796 Y51.694 E40.15319
G1 X18.645 Y51.271 E40.17038
G1 X18.572 Y50.828 E40.18756
G1 X18.578 Y50.379 E40.20475
G1 X18.664 Y49.938 E40.22194
G1 X18.827 Y49.519 E40.23915
G1 X19.061 Y49.136 E40.25632
G1 X19.359 Y48.801 E40.27348
G1 X19.712 Y48.523 E40.29068
G1 X20.327 Y48.232 E40.31671
G0 F1285.7 X20.616 Y48.508
G1 F900 X20.927 Y48.417 E40.32911
G1 X117.899 Y21.406 E44.18146
G1 X118.532 Y21.24 E44.20651
G1 X118.944 Y21.174 E44.22247
G1 X119.36 Y21.187 E44.2384
G1 X119.766 Y21.279 E44.25433
G1 X120.148 Y21.447 E44.2703
G1 X120.742 Y21.897 E44.29882
G1 X122.889 Y23.669 E44.40536
G1 X125.057 Y25.356 E44.51049
G1 X127.307 Y27.006 E44.61726
G1 X129.543 Y28.551 E44.72127
G1 X131.909 Y30.089 E44.82927
G1 X134.225 Y31.503 E44.93311
G1 X136.662 Y32.898 E45.04058
G1 X138.86 Y34.08 E45.13608
G1 X139.426 Y34.42 E45.16135
G1 X139.584 Y34.559 E45.16941
G1 X140.247 Y35.201 E45.20472
G1 X140.568 Y35.533 E45.2224
G1 X140.864 Y35.918 E45.24098
G1 X141.176 Y36.432 E45.26399
G1 X142.039 Y37.908 E45.32943
G1 X143.486 Y40.23 E45.43413
G1 X145.024 Y42.549 E45.54062
G1 X146.61 Y44.801 E45.64603
G1 X148.29 Y47.047 E45.75337
G1 X149.988 Y49.188 E45.85795
G1 X151.76 Y51.297 E45.96336
G1 X153.607 Y53.372 E46.06967
G1 X155.514 Y55.401 E46.17624
G1 X157.478 Y57.369 E46.28264
G1 X159.456 Y59.247 E46.38702
G1 X161.529 Y61.104 E46.49353
G1 X163.633 Y62.884 E46.599
G1 X165.802 Y64.618 E46.70527
G1 X168.025 Y66.292 E46.81176
G1 X170.253 Y67.875 E46.91636
G1 X172.56 Y69.418 E47.02257
G1 X174.92 Y70.9 E47.12922
G1 X176.916 Y72.083 E47.21802
G1 X177.569 Y72.521 E47.24811
G1 X178.044 Y72.98 E47.27339
G1 X178.555 Y73.508 E47.30151
G1 X178.915 Y74.003 E47.32493
G1 X179.307 Y74.745 E47.35704
G1 X180.649 Y77.202 E47.46418
G1 X182.04 Y79.586 E47.56981
G1 X183.498 Y81.932 E47.67552
G1 X185.022 Y84.234 E47.78117
G1 X186.632 Y86.521 E47.88821
G1 X188.284 Y88.735 E47.99392
G1 X189.984 Y90.882 E48.09873
G1 X190.905 Y91.977 E48.15348
G1 X191.463 Y92.658 E48.18718
G1 X191.695 Y93.005 E48.20315
G1 X191.857 Y93.389 E48.2191
G1 X191.943 Y93.796 E48.23502
G1 X191.949 Y94.213 E48.25098
G1 X191.887 Y94.581 E48.26526
G1 X191.642 Y95.527 E48.30266
G1 X164.787 Y191.939 E52.13276
G1 X164.579 Y192.649 E52.16107
G1 X164.424 Y193.036 E52.17703
G1 X164.199 Y193.386 E52.19295
G1 X163.91 Y193.687 E52.20892
G1 X163.57 Y193.927 E52.22485
G1 X163.19 Y194.098 E52.24079
G1 X162.784 Y194.193 E52.25675
G1 X162.368 Y194.209 E52.27268
G1 X161.956 Y194.146 E52.28863
G1 X161.679 Y194.055 E52.29979
G1 X161.141 Y193.745 E52.32355
G1 X160.048 Y192.883 E52.37682
G1 X157.865 Y191.216 E52.48194
G1 X155.59 Y189.577 E52.58924
G1 X153.327 Y188.043 E52.69387
G1 X150.979 Y186.547 E52.80041
G1 X148.627 Y185.139 E52.90532
G1 X146.168 Y183.762 E53.01318
G1 X143.339 Y182.279 E53.13541
G1 X142.838 Y181.918 E53.15905
G1 X142.117 Y181.221 E53.19742
G1 X136.516 Y175.615 E53.50069
G1 X136.063 Y175.148 E53.52559
G1 X135.832 Y174.866 E53.53954
G1 X135.26 Y174.035 E53.57815
G1 X133.639 Y171.742 E53.68561
G1 X131.982 Y169.532 E53.79132
G1 X130.253 Y167.359 E53.89759
G1 X128.5 Y165.277 E54.00175
G1 X126.643 Y163.196 E54.10849
G1 X124.733 Y161.173 E54.21496
G1 X122.784 Y159.223 E54.32047
G1 X120.766 Y157.314 E54.42678
G1 X118.709 Y155.476 E54.53235
G1 X116.587 Y153.685 E54.63861
G1 X114.431 Y151.968 E54.74409
G1 X112.224 Y150.31 E54.84973
G1 X109.949 Y148.699 E54.95641
G1 X109.609 Y148.471 E54.97208
G1 X108.948 Y148.01 E55.00292
G1 X108.263 Y147.386 E55.03838
G1 X102.434 Y141.554 E55.35393
G1 X101.9 Y141.004 E55.38327
G1 X101.791 Y140.886 E55.38942
G1 X100.084 Y138.972 E55.48757
G1 X98.175 Y136.95 E55.59398
G1 X96.227 Y135.003 E55.69939
G1 X94.207 Y133.092 E55.8058
G1 X92.154 Y131.258 E55.91115
G1 X90.024 Y129.462 E56.01778
G1 X87.873 Y127.749 E56.12301
G1 X85.664 Y126.09 E56.22873
G1 X83.4 Y124.486 E56.33492
G1 X81.108 Y122.96 E56.44029
G1 X78.749 Y121.483 E56.54681
G1 X76.364 Y120.083 E56.65264
G1 X73.95 Y118.755 E56.75808
G1 X71.471 Y117.482 E56.86473
G1 X68.999 Y116.299 E56.96961
G1 X67.675 Y115.7 E57.02522
G1 X67.314 Y115.492 E57.04116
G1 X66.822 Y115.059 E57.06624
G1 X65.461 Y113.703 E57.13977
G1 X64.985 Y113.212 E57.16594
G1 X64.69 Y112.83 E57.18441
G1 X64.056 Y111.79 E57.23102
G1 X63.725 Y111.229 E57.25595
G1 X62.276 Y108.927 E57.36005
G1 X60.711 Y106.59 E57.46768
G1 X59.111 Y104.344 E57.57322
G1 X57.448 Y102.141 E57.67885
G1 X55.727 Y99.99 E57.78427
G1 X53.929 Y97.871 E57.89062
G1 X52.073 Y95.805 E57.99691
G1 X50.164 Y93.796 E58.10297
G1 X48.218 Y91.862 E58.20796
G1 X46.172 Y89.938 E58.31544
G1 X44.132 Y88.129 E58.41979
G1 X42.029 Y86.365 E58.52483
G1 X39.819 Y84.616 E58.63269
G1 X37.614 Y82.97 E58.73799
G1 X35.361 Y81.386 E58.84339
G1 X33.05 Y79.857 E58.94943
G1 X29.592 Y77.737 E59.10466
G1 X29.03 Y77.271 E59.1326
G1 X28.978 Y77.221 E59.13536
G1 X27.651 Y75.889 E59.20732
G1 X27.142 Y75.365 E59.23527
