;FLAVOR:Marlin
;TIME:12849
;Filament used: 10.1041m
;Layer height: 0.2
;MINX:4.058
;MINY:23.999
;MINZ:0.26
;MAXX:181.253
;MAXY:199.351
;MAXZ:7.86
;Generated with Cura_SteamEngine 4.9.1
M82 ;absolute extrusion mode
;Begin Start Gcode for Dagoma DiscoEasy 200
;Sliced: 13-07-2021 17:17:05
;Initial extruder: 0

G90 ;Absolute positioning
M106 S255 ;Fan on full
G28 X Y ;Home stop X Y
G1 X100 ;Centre back during cooldown in case of oozing
M109 R90 ;Cooldown in case too hot
G28 ;Centre
G29 ;Auto-level
M104 S205 ;Pre-heat
M107 ;Fan off
G0 X100 Y5 Z0.5 ;Front centre for degunk
M109 S205 ;Wait for initial temp
M83 ;E Relative
G1 E10 F200 ;Degunk
G1 E-3 F5000 ;Retract
G0 Z3 ;Withdraw
M82 ;E absolute
G92 E0 ;E reset
G1 F6000 ;Set feedrate

;Finish Start Gcode for Dagoma DiscoEasy 200

G92 E0
G92 E0
G1 F3000 E-3.5
;LAYER_COUNT:39
;LAYER:0
M107
G0 F1285.7 X32.454 Y25.321 Z0.26
;TYPE:SKIRT
G1 F3000 E0
G1 F900 X32.85 Y24.93 E0.0213
G1 X33.298 Y24.599 E0.04261
G1 X33.788 Y24.336 E0.0639
G1 X34.311 Y24.146 E0.08519
G1 X34.856 Y24.033 E0.10649
G1 X35.411 Y23.999 E0.12777
G1 X35.966 Y24.045 E0.14908
G1 X36.508 Y24.17 E0.17037
G1 X37.027 Y24.371 E0.19167
G1 X37.511 Y24.645 E0.21295
G1 X38.029 Y25.056 E0.23826
G1 X38.359 Y25.37 E0.25569
G1 X106.776 Y93.789 E3.95856
G1 X179.703 Y166.715 E7.90544
G1 X180.161 Y167.186 E7.93058
G1 X180.519 Y167.611 E7.95184
G1 X180.813 Y168.084 E7.97316
G1 X181.036 Y168.594 E7.99446
G1 X181.183 Y169.13 E8.01573
G1 X181.253 Y169.682 E8.03702
G1 X181.242 Y170.239 E8.05834
G1 X181.152 Y170.788 E8.07963
G1 X180.984 Y171.318 E8.10091
G1 X180.742 Y171.819 E8.1222
G1 X180.431 Y172.28 E8.14349
G1 X180.056 Y172.692 E8.16481
G1 X179.627 Y173.046 E8.18609
G1 X179.151 Y173.335 E8.2074
G1 X178.429 Y173.618 E8.23708
G1 X177.491 Y173.88 E8.27435
G1 X80.587 Y199.066 E12.10603
G1 X79.859 Y199.244 E12.13471
G1 X79.311 Y199.337 E12.15598
G1 X78.755 Y199.351 E12.17727
G1 X78.202 Y199.284 E12.19858
G1 X77.665 Y199.14 E12.21986
G1 X77.154 Y198.919 E12.24117
G1 X76.68 Y198.628 E12.26245
G1 X76.185 Y198.212 E12.2872
G1 X75.813 Y197.849 E12.30709
G1 X5.664 Y127.699 E16.10367
G1 X5.15 Y127.171 E16.13187
G1 X4.792 Y126.745 E16.15316
G1 X4.498 Y126.273 E16.17444
G1 X4.275 Y125.763 E16.19575
G1 X4.127 Y125.227 E16.21703
G1 X4.058 Y124.675 E16.23832
G1 X4.068 Y124.118 E16.25963
G1 X4.168 Y123.528 E16.28254
G1 X4.27 Y123.129 E16.2983
G1 X31.477 Y27.37 E20.10799
G1 X31.654 Y26.773 E20.13182
G1 X31.85 Y26.252 E20.15312
G1 X32.119 Y25.765 E20.17441
G1 X32.454 Y25.321 E20.1957
G0 F1285.7 X32.767 Y25.496
G1 F900 X33.153 Y25.133 E20.21598
G1 X33.59 Y24.831 E20.23631
G1 X34.067 Y24.598 E20.25662
G1 X34.573 Y24.44 E20.27691
G1 X35.098 Y24.359 E20.29724
G1 X35.628 Y24.359 E20.31752
G1 X36.153 Y24.437 E20.33783
G1 X36.66 Y24.594 E20.35814
G1 X37.138 Y24.825 E20.37846
G1 X37.575 Y25.125 E20.39875
G1 X38.039 Y25.547 E20.42275
G1 X38.112 Y25.617 E20.42662
G1 X106.529 Y94.036 E24.12949
G1 X179.418 Y166.923 E28.07428
G1 X179.91 Y167.43 E28.10132
G1 X180.25 Y167.837 E28.12161
G1 X180.526 Y168.29 E28.14191
G1 X180.73 Y168.78 E28.16222
G1 X180.858 Y169.295 E28.18253
G1 X180.907 Y169.824 E28.20286
G1 X180.877 Y170.353 E28.22314
G1 X180.767 Y170.873 E28.24348
G1 X180.581 Y171.369 E28.26375
G1 X180.322 Y171.833 E28.28409
G1 X179.997 Y172.252 E28.30438
G1 X179.612 Y172.618 E28.32471
G1 X179.177 Y172.921 E28.345
G1 X178.701 Y173.156 E28.36532
G1 X178.334 Y173.281 E28.38015
G1 X177.403 Y173.542 E28.41716
G1 X80.504 Y198.726 E32.24863
G1 X79.776 Y198.904 E32.27731
G1 X79.253 Y198.991 E32.2976
G1 X78.722 Y198.998 E32.31792
G1 X78.196 Y198.926 E32.33824
G1 X77.688 Y198.775 E32.35852
G1 X77.207 Y198.55 E32.37885
G1 X76.766 Y198.255 E32.39915
G1 X76.332 Y197.869 E32.42138
G1 X76.06 Y197.602 E32.43596
G1 X5.915 Y127.455 E36.23235
G1 X5.401 Y126.927 E36.26055
G1 X5.061 Y126.52 E36.28085
G1 X4.785 Y126.066 E36.30118
G1 X4.581 Y125.577 E36.32146
G1 X4.452 Y125.062 E36.34178
G1 X4.403 Y124.533 E36.36211
G1 X4.433 Y124.004 E36.38239
G1 X4.577 Y123.333 E36.40865
G1 X4.606 Y123.225 E36.41293
G1 X31.812 Y27.469 E40.2225
G1 X31.989 Y26.872 E40.24633
G1 X32.178 Y26.376 E40.26664
G1 X32.439 Y25.914 E40.28695
G1 X32.767 Y25.496 E40.30728
G0 F1285.7 X33.078 Y25.676
G1 F900 X33.454 Y25.342 E40.32653
G1 X33.878 Y25.071 E40.34579
G1 X34.34 Y24.87 E40.36507
G1 X34.828 Y24.745 E40.38435
G1 X35.33 Y24.699 E40.40364
G1 X35.832 Y24.733 E40.4229
G1 X36.323 Y24.846 E40.44218
G1 X36.79 Y25.035 E40.46146
G1 X37.221 Y25.295 E40.48072
G1 X37.798 Y25.801 E40.51009
G1 X37.864 Y25.865 E40.51361
G1 X106.281 Y94.284 E44.21648
G1 X179.201 Y167.203 E48.16297
G1 X179.659 Y167.674 E48.18812
G1 X179.981 Y168.061 E48.20738
G1 X180.237 Y168.495 E48.22666
G1 X180.421 Y168.964 E48.24595
G1 X180.529 Y169.456 E48.26522
G1 X180.557 Y169.958 E48.28446
G1 X180.506 Y170.459 E48.30374
G1 X180.376 Y170.946 E48.32303
G1 X180.171 Y171.406 E48.3423
G1 X179.896 Y171.828 E48.36157
G1 X179.557 Y172.2 E48.38084
G1 X179.164 Y172.515 E48.40011
G1 X178.726 Y172.764 E48.41939
G1 X178.24 Y172.944 E48.43923
G1 X177.315 Y173.203 E48.47599
G1 X80.421 Y198.386 E52.30727
G1 X79.693 Y198.564 E52.33595
G1 X79.196 Y198.645 E52.35522
G1 X78.692 Y198.645 E52.37451
G1 X78.195 Y198.567 E52.39376
G1 X77.716 Y198.41 E52.41305
G1 X77.268 Y198.18 E52.43232
G1 X76.792 Y197.819 E52.45518
G1 X76.326 Y197.372 E52.4799
G1 X6.166 Y127.211 E56.27707
G1 X5.652 Y126.683 E56.30527
G1 X5.33 Y126.295 E56.32457
G1 X5.074 Y125.862 E56.34382
G1 X4.89 Y125.393 E56.3631
G1 X4.782 Y124.901 E56.38237
G1 X4.753 Y124.398 E56.40166
G1 X4.847 Y123.698 E56.42868
G1 X4.943 Y123.32 E56.44361
G1 X32.148 Y27.568 E60.25302
G1 X32.325 Y26.971 E60.27685
G1 X32.506 Y26.502 E60.29609
G1 X32.759 Y26.066 E60.31538
G1 X33.078 Y25.676 E60.33467
G1 F3000 E56.83467
;MESH:support_half_hex_31.stl
G0 F1285.7 X34.582 Y28.273
G0 X35.545 Y28.545
G0 X39.078 Y42.142
;TYPE:WALL-INNER
G1 F3000 E60.33467
G1 F900 X18.842 Y113.363 E63.16814
G1 X19.267 Y113.799 E63.19144
G1 X91.273 Y95.083 E66.03864
G1 X91.431 Y94.496 E66.06191
G1 X39.078 Y42.142 E68.89534
G0 F1285.7 X110.099 Y113.163
G1 F900 X89.863 Y184.383 E71.72878
G1 X90.288 Y184.819 E71.75209
G1 X162.294 Y166.104 E74.59927
G1 X162.452 Y165.517 E74.62254
G1 X110.099 Y113.163 E77.45598
G0 F1285.7 X176.092 Y169.696
G1 F900 X79.094 Y194.908 E81.29139
G1 X8.505 Y124.318 E85.11178
G1 X35.546 Y29.145 E88.89817
G1 X35.627 Y28.86 E88.9095
G1 X35.837 Y29.07 E88.91596
G1 X103.665 Y96.9 E92.58696
G1 X176.172 Y169.405 E96.51107
G1 X176.387 Y169.62 E96.52271
G1 X176.092 Y169.696 E96.52931
G0 F1285.7 X176.724 Y169.868
;TYPE:WALL-OUTER
G1 F900 X78.996 Y195.27 E100.39358
G1 X8.14 Y124.413 E104.22843
G1 X35.384 Y28.523 E108.04333
G1 X35.465 Y28.238 E108.05467
G1 X35.675 Y28.448 E108.06113
G1 X103.895 Y96.67 E111.75334
G1 X176.804 Y169.577 E115.69921
G1 X177.019 Y169.792 E115.71085
G1 X176.724 Y169.868 E115.71744
G0 F1285.7 X176.531 Y169.918
G0 X176.695 Y169.825
G0 X110.176 Y113.459
G0 X110.26 Y113.784
G1 F900 X90.255 Y184.192 E118.51858
G1 X90.227 Y184.291 E118.52251
G1 X90.389 Y184.457 E118.53139
G1 X90.488 Y184.432 E118.5353
G1 X161.929 Y165.863 E121.36015
G1 X162.029 Y165.837 E121.36411
G1 X162.089 Y165.614 E121.37295
G1 X162.016 Y165.541 E121.3769
G1 X110.26 Y113.784 E124.17802
G0 F1285.7 X110.206 Y113.976
G0 X109.966 Y113.907
G0 X91.274 Y94.538
G0 X39.155 Y42.438
G0 X39.239 Y42.763
G1 F900 X19.234 Y113.172 E126.97919
G1 X19.206 Y113.271 E126.98313
G1 X19.368 Y113.437 E126.99201
G1 X19.467 Y113.412 E126.99591
G1 X90.908 Y94.842 E129.82078
G1 X91.008 Y94.816 E129.82474
G1 X91.068 Y94.593 E129.83357
G1 X90.995 Y94.52 E129.83752
G1 X39.239 Y42.763 E132.63865
G0 F1285.7 X39.185 Y42.955
G0 X38.945 Y42.886
G0 X38.909 Y41.493
;TYPE:SKIN
G1 F900 X18.461 Y113.46 E135.50181
G1 X19.162 Y114.178 E135.54021
G1 X91.55 Y95.363 E138.40251
G1 X91.81 Y94.395 E138.44087
G1 X38.909 Y41.493 E141.30396
G0 F1285.7 X35.796 Y29.511
G1 F900 X103.424 Y97.141 E144.96413
G1 X175.726 Y169.441 E148.87715
G1 X79.198 Y194.53 E152.69397
G1 X8.887 Y124.218 E156.49932
G1 X35.796 Y29.511 E160.26717
G0 F1285.7 X109.93 Y112.514
G1 F900 X89.482 Y184.48 E163.13029
G1 X90.183 Y185.198 E163.16869
G1 X162.571 Y166.384 E166.03098
G1 X162.831 Y165.416 E166.06934
G1 X109.93 Y112.514 E168.93244
G0 F1285.7 X91.961 Y94.436
G1 F900 X109.827 Y112.302 E169.89937
G0 F1285.7 X109.718 Y112.688
G1 F900 X91.856 Y94.826 E170.86608
G0 F1285.7 X91.752 Y95.216
G1 F900 X109.608 Y113.073 E171.8325
G0 F1285.7 X109.499 Y113.458
G1 F900 X91.561 Y95.521 E172.8033
G0 F1285.7 X91.169 Y95.624
G1 F900 X109.39 Y113.844 E173.78942
G0 F1285.7 X109.28 Y114.23
G1 F900 X90.776 Y95.725 E174.7909
G0 F1285.7 X90.383 Y95.828
G1 F900 X109.17 Y114.615 E175.80768
G0 F1285.7 X109.061 Y115.001
G1 F900 X89.99 Y95.93 E176.83983
G0 F1285.7 X89.597 Y96.032
G1 F900 X108.951 Y115.386 E177.88729
G0 F1285.7 X108.842 Y115.771
G1 F900 X89.205 Y96.134 E178.95007
G0 F1285.7 X88.811 Y96.236
G1 F900 X108.732 Y116.157 E180.02822
G0 F1285.7 X108.622 Y116.542
G1 F900 X88.419 Y96.339 E181.12163
G0 F1285.7 X88.026 Y96.44
G1 F900 X108.513 Y116.927 E182.23041
G0 F1285.7 X108.404 Y117.313
G1 F900 X87.633 Y96.543 E183.35454
G0 F1285.7 X87.24 Y96.645
G1 F900 X108.294 Y117.699 E184.49401
G0 F1285.7 X108.185 Y118.084
G1 F900 X86.847 Y96.747 E185.64882
G0 F1285.7 X86.455 Y96.849
G1 F900 X108.075 Y118.47 E186.81895
G0 F1285.7 X107.966 Y118.855
G1 F900 X86.061 Y96.951 E188.00445
G0 F1285.7 X85.669 Y97.053
G1 F900 X107.856 Y119.24 E189.20524
G0 F1285.7 X107.746 Y119.626
G1 F900 X85.276 Y97.155 E190.42137
G0 F1285.7 X84.883 Y97.257
G1 F900 X107.637 Y120.011 E191.65285
G0 F1285.7 X107.527 Y120.396
G1 F900 X84.49 Y97.36 E192.89961
G0 F1285.7 X84.097 Y97.461
G1 F900 X107.418 Y120.783 E194.1618
G0 F1285.7 X107.309 Y121.168
G1 F900 X83.705 Y97.564 E195.43928
G0 F1285.7 X83.312 Y97.666
G1 F900 X107.199 Y121.553 E196.73207
G0 F1285.7 X107.089 Y121.939
G1 F900 X82.918 Y97.768 E198.04024
G0 F1285.7 X82.526 Y97.87
G1 F900 X106.98 Y122.324 E199.36372
G0 F1285.7 X106.87 Y122.709
G1 F900 X82.133 Y97.972 E200.70252
G0 F1285.7 X81.74 Y98.075
G1 F900 X106.761 Y123.095 E202.05666
G0 F1285.7 X106.651 Y123.48
G1 F900 X81.347 Y98.176 E203.42614
G0 F1285.7 X80.955 Y98.279
G1 F900 X106.541 Y123.866 E204.81092
G0 F1285.7 X106.432 Y124.251
G1 F900 X80.562 Y98.381 E206.21104
G0 F1285.7 X80.168 Y98.483
G1 F900 X106.323 Y124.637 E207.62655
G0 F1285.7 X106.213 Y125.022
G1 F900 X79.776 Y98.585 E209.05735
G0 F1285.7 X79.383 Y98.687
G1 F900 X106.104 Y125.408 E210.50353
G0 F1285.7 X105.994 Y125.793
G1 F900 X78.99 Y98.789 E211.96502
G0 F1285.7 X78.597 Y98.891
G1 F900 X105.884 Y126.178 E213.44183
G0 F1285.7 X105.775 Y126.564
G1 F900 X78.204 Y98.993 E214.93401
G0 F1285.7 X77.812 Y99.096
G1 F900 X105.665 Y126.949 E216.44144
G0 F1285.7 X105.556 Y127.335
G1 F900 X77.419 Y99.197 E217.96428
G0 F1285.7 X77.026 Y99.3
G1 F900 X105.446 Y127.72 E219.50241
G0 F1285.7 X105.337 Y128.106
G1 F900 X76.633 Y99.402 E221.05591
G0 F1285.7 X76.24 Y99.504
G1 F900 X105.228 Y128.491 E222.62475
G0 F1285.7 X105.118 Y128.877
G1 F900 X75.847 Y99.606 E224.20893
G0 F1285.7 X75.454 Y99.708
G1 F900 X105.008 Y129.262 E225.80843
G0 F1285.7 X104.899 Y129.648
G1 F900 X75.062 Y99.81 E227.42327
G0 F1285.7 X74.669 Y99.912
G1 F900 X104.789 Y130.033 E229.05343
G0 F1285.7 X104.68 Y130.418
G1 F900 X74.276 Y100.015 E230.69891
G0 F1285.7 X73.883 Y100.117
G1 F900 X104.57 Y130.804 E232.35973
G0 F1285.7 X104.46 Y131.189
G1 F900 X73.49 Y100.218 E234.03589
G0 F1285.7 X73.097 Y100.321
G1 F900 X104.351 Y131.575 E235.7274
G0 F1285.7 X104.242 Y131.96
G1 F900 X72.704 Y100.423 E237.43425
G0 F1285.7 X72.312 Y100.525
G1 F900 X104.132 Y132.346 E239.15641
G0 F1285.7 X104.023 Y132.731
G1 F900 X71.919 Y100.627 E240.89392
G0 F1285.7 X71.525 Y100.729
G1 F900 X103.913 Y133.117 E242.6468
G0 F1285.7 X103.803 Y133.502
G1 F900 X71.133 Y100.832 E244.41495
G0 F1285.7 X70.74 Y100.933
G1 F900 X103.694 Y133.887 E246.19846
G0 F1285.7 X103.584 Y134.273
G1 F900 X70.347 Y101.036 E247.99729
G0 F1285.7 X69.954 Y101.138
G1 F900 X103.475 Y134.658 E249.81146
G0 F1285.7 X103.366 Y135.044
G1 F900 X69.561 Y101.24 E251.641
G0 F1285.7 X69.169 Y101.342
G1 F900 X103.256 Y135.43 E253.48586
G0 F1285.7 X103.147 Y135.815
G1 F900 X68.776 Y101.444 E255.34606
G0 F1285.7 X68.383 Y101.546
G1 F900 X103.037 Y136.2 E257.22158
G0 F1285.7 X102.927 Y136.586
G1 F900 X67.99 Y101.648 E259.11244
G0 F1285.7 X67.597 Y101.75
G1 F900 X102.818 Y136.971 E261.01865
G0 F1285.7 X102.708 Y137.356
G1 F900 X67.204 Y101.853 E262.94014
G0 F1285.7 X66.811 Y101.954
G1 F900 X102.599 Y137.742 E264.87704
G0 F1285.7 X102.489 Y138.127
G1 F900 X66.419 Y102.057 E266.82919
G0 F1285.7 X66.026 Y102.159
G1 F900 X102.38 Y138.513 E268.79671
G0 F1285.7 X102.27 Y138.899
G1 F900 X65.633 Y102.261 E270.77958
G0 F1285.7 X65.24 Y102.363
G1 F900 X102.161 Y139.284 E272.77779
G0 F1285.7 X102.051 Y139.669
G1 F900 X64.847 Y102.465 E274.79132
G0 F1285.7 X64.454 Y102.567
G1 F900 X101.942 Y140.055 E276.82022
G0 F1285.7 X101.832 Y140.44
G1 F900 X64.061 Y102.669 E278.86444
G0 F1285.7 X63.669 Y102.772
G1 F900 X101.722 Y140.825 E280.92391
G0 F1285.7 X101.613 Y141.211
G1 F900 X63.276 Y102.874 E282.99876
G0 F1285.7 X62.883 Y102.975
G1 F900 X101.503 Y141.596 E285.08895
G0 F1285.7 X101.394 Y141.982
G1 F900 X62.49 Y103.078 E287.19448
G0 F1285.7 X62.097 Y103.18
G1 F900 X101.285 Y142.368 E289.31539
G0 F1285.7 X101.175 Y142.753
G1 F900 X61.704 Y103.282 E291.45161
G0 F1285.7 X61.311 Y103.384
G1 F900 X101.066 Y143.138 E293.60317
G0 F1285.7 X100.956 Y143.524
G1 F900 X60.918 Y103.486 E295.77008
G0 F1285.7 X60.526 Y103.589
G1 F900 X100.846 Y143.909 E297.95225
G0 F1285.7 X100.737 Y144.295
G1 F900 X60.133 Y103.69 E300.14982
G0 F1285.7 X59.74 Y103.793
G1 F900 X100.627 Y144.68 E302.36267
G0 F1285.7 X100.518 Y145.065
G1 F900 X59.347 Y103.895 E304.59087
G0 F1285.7 X58.955 Y103.997
G1 F900 X100.409 Y145.451 E306.83442
G0 F1285.7 X100.299 Y145.837
G1 F900 X58.561 Y104.099 E309.09333
G0 F1285.7 X58.168 Y104.201
G1 F900 X100.189 Y146.222 E311.36756
G0 F1285.7 X100.08 Y146.607
G1 F900 X57.776 Y104.303 E313.65711
G0 F1285.7 X57.383 Y104.405
G1 F900 X99.97 Y146.993 E315.962
G0 F1285.7 X99.861 Y147.378
G1 F900 X56.99 Y104.508 E318.2822
G0 F1285.7 X56.597 Y104.61
G1 F900 X99.751 Y147.764 E320.61775
G0 F1285.7 X99.641 Y148.149
G1 F900 X56.204 Y104.711 E322.96865
G0 F1285.7 X55.811 Y104.814
G1 F900 X99.532 Y148.534 E325.33486
G0 F1285.7 X99.423 Y148.92
G1 F900 X55.418 Y104.916 E327.71644
G0 F1285.7 X55.026 Y105.018
G1 F900 X99.313 Y149.306 E330.11333
G0 F1285.7 X99.204 Y149.691
G1 F900 X54.633 Y105.12 E332.52557
G0 F1285.7 X54.24 Y105.222
G1 F900 X99.094 Y150.077 E334.95315
G0 F1285.7 X98.985 Y150.462
G1 F900 X53.847 Y105.324 E337.39608
G0 F1285.7 X53.454 Y105.426
G1 F900 X98.875 Y150.847 E339.85432
G0 F1285.7 X98.765 Y151.233
G1 F900 X53.061 Y105.529 E342.32788
G0 F1285.7 X52.668 Y105.631
G1 F900 X98.656 Y151.618 E344.81678
G0 F1285.7 X98.546 Y152.003
G1 F900 X52.276 Y105.733 E347.32097
G0 F1285.7 X51.883 Y105.835
G1 F900 X98.437 Y152.389 E349.84054
G0 F1285.7 X98.328 Y152.775
G1 F900 X51.49 Y105.937 E352.37547
G0 F1285.7 X51.097 Y106.039
G1 F900 X98.218 Y153.16 E354.92572
G0 F1285.7 X98.108 Y153.546
G1 F900 X50.704 Y106.141 E357.49131
G0 F1285.7 X50.312 Y106.244
G1 F900 X97.999 Y153.931 E360.07219
G0 F1285.7 X97.889 Y154.316
G1 F900 X49.918 Y106.346 E362.66841
G0 F1285.7 X49.525 Y106.447
G1 F900 X97.78 Y154.702 E365.28004
G0 F1285.7 X97.67 Y155.087
G1 F900 X49.133 Y106.55 E367.90692
G0 F1285.7 X48.74 Y106.652
G1 F900 X97.56 Y155.472 E370.54912
G0 F1285.7 X97.451 Y155.858
G1 F900 X48.347 Y106.754 E373.20669
G0 F1285.7 X47.954 Y106.856
G1 F900 X97.342 Y156.244 E375.87963
G0 F1285.7 X97.232 Y156.629
G1 F900 X47.561 Y106.958 E378.56789
G0 F1285.7 X47.168 Y107.06
G1 F900 X97.123 Y157.015 E381.27152
G0 F1285.7 X97.013 Y157.4
G1 F900 X46.775 Y107.162 E383.99046
G0 F1285.7 X46.383 Y107.265
G1 F900 X96.904 Y157.785 E386.7247
G0 F1285.7 X96.794 Y158.171
G1 F900 X45.99 Y107.367 E389.47428
G0 F1285.7 X45.597 Y107.469
G1 F900 X96.684 Y158.556 E392.23917
G0 F1285.7 X96.575 Y158.942
G1 F900 X45.204 Y107.571 E395.01943
G0 F1285.7 X44.811 Y107.673
