;FLAVOR:Marlin
;TIME:11653
;Filament used: 14.1734m
;Layer height: 0.3
;MINX:35.752
;MINY:11.625
;MINZ:0.26
;MAXX:193.903
;MAXY:192.812
;MAXZ:7.76
;Generated with Cura_SteamEngine 4.9.1
M82 ;absolute extrusion mode
;Begin Start Gcode for Dagoma DiscoEasy 200
;Sliced: 07-07-2021 19:57:09
;Initial extruder: 0

G90 ;Absolute positioning
M106 S255 ;Fan on full
G28 X Y ;Home stop X Y
G1 X100 ;Centre back during cooldown in case of oozing
M109 R90 ;Cooldown in case too hot
G28 ;Centre
G29 ;Auto-level
M104 S205 ;Pre-heat
M107 ;Fan off
G0 X100 Y5 Z0.5 ;Front centre for degunk
M109 S205 ;Wait for initial temp
M83 ;E Relative
G1 E10 F200 ;Degunk
G1 E-3 F5000 ;Retract
G0 Z3 ;Withdraw
M82 ;E absolute
G92 E0 ;E reset
G1 F6000 ;Set feedrate

;Finish Start Gcode for Dagoma DiscoEasy 200

G92 E0
G92 E0
G1 F3000 E-3.5
;LAYER_COUNT:26
;LAYER:0
M107
G0 F1285.7 X85.955 Y14.076 Z0.26
;TYPE:SKIRT
G1 F3000 E0
G1 F900 X86.287 Y13.521 E0.02475
G1 X86.606 Y13.065 E0.04605
G1 X86.987 Y12.66 E0.06733
G1 X87.422 Y12.313 E0.08862
G1 X87.903 Y12.032 E0.10994
G1 X88.418 Y11.823 E0.13121
G1 X88.959 Y11.69 E0.15253
G1 X89.561 Y11.635 E0.17566
G1 X90.384 Y11.625 E0.20716
G1 X189.441 Y11.875 E3.99804
G1 X190.094 Y11.886 E4.02303
G1 X190.648 Y11.935 E4.04432
G1 X191.19 Y12.063 E4.06563
G1 X191.707 Y12.267 E4.0869
G1 X192.19 Y12.544 E4.10821
G1 X192.629 Y12.886 E4.1295
G1 X193.013 Y13.288 E4.15078
G1 X193.337 Y13.741 E4.17209
G1 X193.592 Y14.236 E4.1934
G1 X193.773 Y14.762 E4.21469
G1 X193.878 Y15.308 E4.23597
G1 X193.903 Y15.864 E4.25727
G1 X193.848 Y16.418 E4.27857
G1 X193.714 Y16.958 E4.29987
G1 X193.417 Y17.64 E4.32833
G1 X193.112 Y18.189 E4.35237
G1 X93.734 Y190.317 E11.95867
G1 X93.375 Y190.92 E11.98553
G1 X93.056 Y191.377 E12.00686
G1 X92.676 Y191.783 E12.02814
G1 X92.241 Y192.13 E12.04943
G1 X91.762 Y192.412 E12.07071
G1 X91.246 Y192.622 E12.09203
G1 X90.706 Y192.756 E12.11332
G1 X90.153 Y192.812 E12.13459
G1 X89.597 Y192.787 E12.15589
G1 X89.05 Y192.683 E12.1772
G1 X88.524 Y192.502 E12.19849
G1 X88.029 Y192.247 E12.21979
G1 X87.576 Y191.925 E12.24106
G1 X87.174 Y191.54 E12.26237
G1 X86.72 Y190.928 E12.29153
G1 X86.333 Y190.281 E12.32038
G1 X36.609 Y104.654 E16.10973
G1 X36.243 Y104.004 E16.13828
G1 X36.006 Y103.501 E16.15956
G1 X35.843 Y102.969 E16.18085
G1 X35.758 Y102.419 E16.20215
G1 X35.752 Y101.863 E16.22343
G1 X35.827 Y101.311 E16.24475
G1 X35.979 Y100.776 E16.26603
G1 X36.234 Y100.219 E16.28947
G1 X36.639 Y99.491 E16.32136
G1 X85.955 Y14.076 E20.09586
G0 F1285.7 X86.255 Y14.255
G1 F900 X86.587 Y13.7 E20.12061
G1 X86.893 Y13.267 E20.1409
G1 X87.26 Y12.884 E20.1612
G1 X87.681 Y12.561 E20.18151
G1 X88.146 Y12.304 E20.20184
G1 X88.644 Y12.121 E20.22215
G1 X89.163 Y12.014 E20.24243
G1 X89.566 Y11.985 E20.25789
G1 X90.383 Y11.975 E20.28916
G1 X189.435 Y12.225 E24.07984
G1 X190.088 Y12.236 E24.10484
G1 X190.617 Y12.284 E24.12516
G1 X191.132 Y12.412 E24.14547
G1 X191.622 Y12.615 E24.16577
G1 X192.076 Y12.89 E24.18608
G1 X192.484 Y13.23 E24.20641
G1 X192.836 Y13.627 E24.22671
G1 X193.124 Y14.073 E24.24703
G1 X193.342 Y14.556 E24.26731
G1 X193.485 Y15.067 E24.28762
G1 X193.55 Y15.594 E24.30794
G1 X193.535 Y16.124 E24.32823
G1 X193.441 Y16.647 E24.34856
G1 X193.269 Y17.149 E24.36887
G1 X193.111 Y17.47 E24.38256
G1 X192.809 Y18.014 E24.40637
G1 X93.433 Y190.138 E32.01251
G1 X93.074 Y190.741 E32.03937
G1 X92.769 Y191.175 E32.05967
G1 X92.402 Y191.559 E32.07999
G1 X91.982 Y191.883 E32.10029
G1 X91.518 Y192.141 E32.12061
G1 X91.02 Y192.325 E32.14093
G1 X90.501 Y192.433 E32.16122
G1 X89.971 Y192.462 E32.18153
G1 X89.443 Y192.411 E32.20183
G1 X88.928 Y192.281 E32.22216
G1 X88.439 Y192.076 E32.24245
G1 X87.986 Y191.799 E32.26277
G1 X87.58 Y191.458 E32.28306
G1 X87.23 Y191.059 E32.30337
G1 X87.021 Y190.749 E32.31768
G1 X86.636 Y190.105 E32.34639
G1 X36.914 Y104.483 E36.13554
G1 X36.548 Y103.833 E36.16409
G1 X36.324 Y103.352 E36.18439
G1 X36.174 Y102.843 E36.2047
G1 X36.102 Y102.317 E36.22502
G1 X36.109 Y101.786 E36.24534
G1 X36.197 Y101.263 E36.26564
G1 X36.361 Y100.759 E36.28592
G1 X36.54 Y100.389 E36.30165
G1 X36.942 Y99.666 E36.33331
G1 X86.255 Y14.255 E40.10762
G0 F1285.7 X86.555 Y14.435
G1 F900 X86.887 Y13.88 E40.13237
G1 X87.179 Y13.47 E40.15164
G1 X87.532 Y13.111 E40.17091
G1 X87.938 Y12.812 E40.1902
G1 X88.386 Y12.581 E40.20949
G1 X88.864 Y12.424 E40.22875
G1 X89.57 Y12.335 E40.25598
G1 X90.382 Y12.325 E40.28705
G1 X189.429 Y12.574 E44.07755
G1 X190.082 Y12.585 E44.10254
G1 X190.584 Y12.634 E44.12184
G1 X191.071 Y12.761 E44.1411
G1 X191.532 Y12.963 E44.16037
G1 X191.955 Y13.236 E44.17963
G1 X192.33 Y13.573 E44.19893
G1 X192.647 Y13.964 E44.21819
G1 X192.898 Y14.4 E44.23744
G1 X193.077 Y14.871 E44.25673
G1 X193.179 Y15.364 E44.27599
G1 X193.202 Y15.867 E44.29526
G1 X193.145 Y16.368 E44.31456
G1 X193.01 Y16.853 E44.33383
G1 X192.805 Y17.3 E44.35265
G1 X192.506 Y17.839 E44.37623
G1 X93.132 Y189.959 E51.9822
G1 X92.773 Y190.562 E52.00905
G1 X92.482 Y190.973 E52.02833
G1 X92.13 Y191.333 E52.04759
G1 X91.725 Y191.632 E52.06686
G1 X91.278 Y191.864 E52.08613
G1 X90.799 Y192.022 E52.10544
G1 X90.302 Y192.103 E52.12471
G1 X89.799 Y192.103 E52.14396
G1 X89.301 Y192.025 E52.16325
G1 X88.823 Y191.868 E52.1825
G1 X88.375 Y191.638 E52.20177
G1 X87.969 Y191.34 E52.22105
G1 X87.615 Y190.982 E52.24031
G1 X87.321 Y190.569 E52.25972
G1 X86.938 Y189.929 E52.28826
G1 X37.219 Y104.311 E56.07722
G1 X36.853 Y103.661 E56.10576
G1 X36.642 Y103.204 E56.12503
G1 X36.505 Y102.719 E56.14431
G1 X36.447 Y102.219 E56.16358
G1 X36.469 Y101.716 E56.18284
G1 X36.57 Y101.222 E56.20214
G1 X36.846 Y100.559 E56.22962
G1 X37.245 Y99.841 E56.26106
G1 X86.555 Y14.435 E60.03515
G1 F3000 E56.53515
;MESH:support_half_hex_5.stl
G0 F1285.7 X88.75 Y15.704
G0 X89.758 Y16.285
G0 X90.108 Y187.597
G0 X90.194 Y187.648
;TYPE:WALL-INNER
G1 F3000 E60.03515
G1 F900 X90.043 Y187.909 E60.04669
G1 X89.892 Y187.648 E60.05323
G1 X40.213 Y102.1 E63.8391
G1 X89.909 Y16.023 E67.64282
G1 X188.835 Y16.274 E71.42868
G1 X188.836 Y16.274 E71.42872
G1 X189.137 Y16.274 E71.44024
G1 X188.986 Y16.535 E71.44678
G1 X90.194 Y187.648 E79.00824
G0 F1285.7 X90.195 Y188.296
;TYPE:WALL-OUTER
G1 F900 X90.044 Y188.557 E79.01978
G1 X89.893 Y188.296 E79.02631
G1 X39.838 Y102.101 E82.84082
G1 X89.722 Y15.698 E86.65894
G1 X189.397 Y15.95 E90.47347
G1 X189.398 Y15.95 E90.47351
G1 X189.699 Y15.95 E90.48503
G1 X189.548 Y16.211 E90.49157
G1 X90.195 Y188.296 E98.09597
G0 F1285.7 X90.095 Y188.469
G0 X90.043 Y187.809
G0 X90.042 Y187.229
;TYPE:SKIN
G1 F900 X40.606 Y102.099 E101.86334
G1 X90.105 Y16.363 E105.65199
G1 X188.548 Y16.612 E109.41937
G1 X90.042 Y187.229 E116.95891
G0 F1285.7 X90.17 Y186.691
G1 F900 X89.55 Y186.07 E116.99249
G1 X89.488 Y186.008
G0 F1285.7 X90.351 Y186.377
G1 F900 X88.864 Y184.89 E117.07297
G1 X88.802 Y184.828
G0 F1285.7 X88.179 Y183.709
G1 F900 X90.533 Y186.063 E117.20037
G0 F1285.7 X90.714 Y185.749
G1 F900 X87.493 Y182.529 E117.37467
G1 X87.431 Y182.467
G0 F1285.7 X86.808 Y181.348
G1 F900 X90.895 Y185.435 E117.59586
G0 F1285.7 X91.076 Y185.121
G1 F900 X86.122 Y180.167 E117.86398
G1 X86.06 Y180.105
G0 F1285.7 X85.437 Y178.987
G1 F900 X91.257 Y184.808 E118.17899
G0 F1285.7 X91.438 Y184.494
G1 F900 X84.751 Y177.806 E118.54093
G1 X84.689 Y177.744
G0 F1285.7 X84.066 Y176.626
G1 F900 X91.619 Y184.18 E118.94973
G0 F1285.7 X91.8 Y183.866
G1 F900 X83.38 Y175.445 E119.40546
G1 X83.318 Y175.383
G0 F1285.7 X82.695 Y174.265
G1 F900 X91.982 Y183.552 E119.90808
G0 F1285.7 X92.163 Y183.238
G1 F900 X82.009 Y173.084 E120.45763
G1 X81.947 Y173.022
G0 F1285.7 X81.324 Y171.904
G1 F900 X92.344 Y182.924 E121.05405
G0 F1285.7 X92.525 Y182.611
G1 F900 X80.638 Y170.723 E121.69741
G1 X80.576 Y170.661
G0 F1285.7 X79.953 Y169.543
G1 F900 X92.707 Y182.297 E122.38768
G0 F1285.7 X92.888 Y181.983
G1 F900 X79.267 Y168.362 E123.12486
G1 X79.205 Y168.3
G0 F1285.7 X78.582 Y167.182
G1 F900 X93.069 Y181.669 E123.90892
G0 F1285.7 X93.25 Y181.355
G1 F900 X77.896 Y166.001 E124.7399
G1 X77.834 Y165.939
G0 F1285.7 X77.211 Y164.821
G1 F900 X93.431 Y181.041 E125.61774
G0 F1285.7 X93.613 Y180.728
G1 F900 X76.525 Y163.64 E126.54257
G1 X76.463 Y163.578
G0 F1285.7 X75.84 Y162.46
G1 F900 X93.794 Y180.414 E127.51426
G0 F1285.7 X93.975 Y180.1
G1 F900 X75.154 Y161.279 E128.53288
G1 X75.092 Y161.217
G0 F1285.7 X74.468 Y160.099
G1 F900 X94.156 Y179.786 E129.59839
G0 F1285.7 X94.337 Y179.473
G1 F900 X73.783 Y158.918 E130.71083
G1 X73.721 Y158.856
G0 F1285.7 X73.097 Y157.737
G1 F900 X94.518 Y179.159 E131.87018
G0 F1285.7 X94.699 Y178.845
G1 F900 X72.411 Y156.557 E133.07644
G1 X72.349 Y156.495
G0 F1285.7 X71.726 Y155.376
G1 F900 X94.881 Y178.531 E134.32962
G0 F1285.7 X95.062 Y178.217
G1 F900 X71.04 Y154.196 E135.62969
G1 X70.978 Y154.134
G0 F1285.7 X70.355 Y153.015
G1 F900 X95.243 Y177.904 E136.97669
G0 F1285.7 X95.424 Y177.59
G1 F900 X69.669 Y151.835 E138.37058
G1 X69.607 Y151.773
G0 F1285.7 X68.983 Y150.654
G1 F900 X95.605 Y177.276 E139.8114
G0 F1285.7 X95.786 Y176.962
G1 F900 X68.298 Y149.474 E141.29908
G1 X68.236 Y149.412
G0 F1285.7 X67.612 Y148.293
G1 F900 X95.968 Y176.649 E142.83375
G0 F1285.7 X96.149 Y176.335
G1 F900 X66.927 Y147.113 E144.41528
G1 X66.865 Y147.051
G0 F1285.7 X66.241 Y145.932
G1 F900 X96.33 Y176.021 E146.04373
G0 F1285.7 X96.511 Y175.707
G1 F900 X65.556 Y144.752 E147.71906
G1 X65.494 Y144.69
G0 F1285.7 X64.87 Y143.571
G1 F900 X96.692 Y175.393 E149.44131
G0 F1285.7 X96.874 Y175.08
G1 F900 X64.185 Y142.391 E151.21048
G1 X64.123 Y142.329
G0 F1285.7 X63.499 Y141.21
G1 F900 X97.055 Y174.766 E153.02657
G0 F1285.7 X97.236 Y174.452
G1 F900 X62.814 Y140.03 E154.88953
G1 X62.752 Y139.968
G0 F1285.7 X62.128 Y138.849
G1 F900 X97.417 Y174.138 E156.79942
G0 F1285.7 X97.599 Y173.825
G1 F900 X61.443 Y137.669 E158.75623
G1 X61.381 Y137.607
G0 F1285.7 X60.757 Y136.488
G1 F900 X97.78 Y173.511 E160.75996
G0 F1285.7 X97.961 Y173.197
G1 F900 X60.072 Y135.308 E162.81056
G1 X60.01 Y135.246
G0 F1285.7 X59.386 Y134.127
G1 F900 X98.142 Y172.883 E164.90808
G0 F1285.7 X98.323 Y172.569
G1 F900 X58.7 Y132.946 E167.05253
G1 X58.638 Y132.884
G0 F1285.7 X58.015 Y131.766
G1 F900 X98.504 Y172.256 E169.24387
G0 F1285.7 X98.685 Y171.942
G1 F900 X57.329 Y130.585 E171.48214
G1 X57.267 Y130.523
G0 F1285.7 X56.644 Y129.405
G1 F900 X98.866 Y171.628 E173.76728
G0 F1285.7 X99.047 Y171.314
G1 F900 X55.958 Y128.224 E176.09933
G1 X55.896 Y128.162
G0 F1285.7 X55.273 Y127.044
G1 F900 X99.229 Y171 E178.47829
G0 F1285.7 X99.41 Y170.687
G1 F900 X54.587 Y125.863 E180.90419
G1 X54.525 Y125.801
G0 F1285.7 X53.902 Y124.683
G1 F900 X99.591 Y170.373 E183.37697
G0 F1285.7 X99.772 Y170.059
G1 F900 X53.216 Y123.502 E185.89667
G1 X53.154 Y123.44
G0 F1285.7 X52.53 Y122.322
G1 F900 X99.953 Y169.745 E188.46326
G0 F1285.7 X100.135 Y169.431
G1 F900 X51.845 Y121.141 E191.07677
G1 X51.783 Y121.079
G0 F1285.7 X51.159 Y119.961
G1 F900 X100.316 Y169.118 E193.73721
G0 F1285.7 X100.497 Y168.804
G1 F900 X50.473 Y118.78 E196.44458
G1 X50.411 Y118.718
G0 F1285.7 X49.788 Y117.6
G1 F900 X100.678 Y168.49 E199.19881
G0 F1285.7 X100.859 Y168.176
G1 F900 X49.102 Y116.419 E201.99996
G1 X49.04 Y116.357
G0 F1285.7 X48.417 Y115.239
G1 F900 X101.041 Y167.862 E204.84801
G0 F1285.7 X101.222 Y167.548
G1 F900 X47.731 Y114.058 E207.74299
G1 X47.669 Y113.996
G0 F1285.7 X47.046 Y112.878
G1 F900 X101.403 Y167.234 E210.68483
G0 F1285.7 X101.584 Y166.921
G1 F900 X46.36 Y111.697 E213.67362
G1 X46.298 Y111.635
G0 F1285.7 X45.675 Y110.517
G1 F900 X101.766 Y166.607 E216.70931
G0 F1285.7 X101.947 Y166.293
G1 F900 X44.989 Y109.336 E219.79193
G1 X44.927 Y109.274
G0 F1285.7 X44.304 Y108.156
G1 F900 X102.128 Y165.979 E222.92141
G0 F1285.7 X102.309 Y165.665
G1 F900 X43.618 Y106.975 E226.09781
G1 X43.556 Y106.913
G0 F1285.7 X42.932 Y105.794
G1 F900 X102.49 Y165.351 E229.32114
G0 F1285.7 X102.671 Y165.038
G1 F900 X42.247 Y104.614 E232.59136
G1 X42.185 Y104.552
G0 F1285.7 X41.561 Y103.433
G1 F900 X102.852 Y164.724 E235.90851
G0 F1285.7 X103.033 Y164.41
G1 F900 X40.876 Y102.253 E239.27253
G0 F1285.7 X40.943 Y101.825
G1 F900 X103.214 Y164.096 E242.64271
G0 F1285.7 X103.396 Y163.783
G1 F900 X41.124 Y101.511 E246.01295
G0 F1285.7 X41.305 Y101.197
G1 F900 X103.577 Y163.469 E249.38319
G0 F1285.7 X103.758 Y163.155
G1 F900 X41.487 Y100.884 E252.75338
G0 F1285.7 X41.668 Y100.57
G1 F900 X103.939 Y162.841 E256.12356
G0 F1285.7 X104.12 Y162.527
G1 F900 X41.849 Y100.256 E259.49375
G0 F1285.7 X42.03 Y99.942
G1 F900 X104.302 Y162.214 E262.86399
G0 F1285.7 X104.483 Y161.9
G1 F900 X42.212 Y99.629 E266.23418
G0 F1285.7 X42.393 Y99.315
G1 F900 X104.664 Y161.586 E269.60436
G0 F1285.7 X104.845 Y161.272
G1 F900 X42.574 Y99.001 E272.97455
G0 F1285.7 X42.755 Y98.687
G1 F900 X105.026 Y160.958 E276.34473
G0 F1285.7 X105.208 Y160.645
G1 F900 X42.936 Y98.373 E279.71497
G0 F1285.7 X43.117 Y98.06
G1 F900 X105.389 Y160.331 E283.08519
G0 F1285.7 X105.57 Y160.017
G1 F900 X43.298 Y97.746 E286.4554
G0 F1285.7 X43.479 Y97.432
G1 F900 X105.751 Y159.703 E289.82561
G0 F1285.7 X105.933 Y159.39
G1 F900 X43.661 Y97.118 E293.19585
G0 F1285.7 X43.842 Y96.805
G1 F900 X106.114 Y159.076 E296.56607
G0 F1285.7 X106.295 Y158.762
G1 F900 X44.023 Y96.491 E299.93628
G0 F1285.7 X44.204 Y96.177
G1 F900 X106.476 Y158.448 E303.30649
G0 F1285.7 X106.657 Y158.134
G1 F900 X44.385 Y95.863 E306.6767
G0 F1285.7 X44.566 Y95.549
G1 F900 X106.838 Y157.821 E310.04694
G0 F1285.7 X107.019 Y157.507
G1 F900 X44.748 Y95.235 E313.41716
G0 F1285.7 X44.929 Y94.922
G1 F900 X107.2 Y157.193 E316.78734
G0 F1285.7 X107.381 Y156.879
G1 F900 X45.11 Y94.608 E320.15753
G0 F1285.7 X45.291 Y94.294
G1 F900 X107.563 Y156.566 E323.52777
G0 F1285.7 X107.744 Y156.252
G1 F900 X45.472 Y93.98 E326.89801
G0 F1285.7 X45.654 Y93.666
G1 F900 X107.925 Y155.938 E330.26822
G0 F1285.7 X108.106 Y155.624
G1 F900 X45.835 Y93.352 E333.63843
G0 F1285.7 X46.016 Y93.038
G1 F900 X108.287 Y155.31 E337.00865
G0 F1285.7 X108.469 Y154.997
G1 F900 X46.197 Y92.725 E340.37889
G0 F1285.7 X46.379 Y92.411
G1 F900 X108.65 Y154.683 E343.7491
G0 F1285.7 X108.831 Y154.369
G1 F900 X46.56 Y92.097 E347.11931
G0 F1285.7 X46.741 Y91.783
G1 F900 X109.012 Y154.055 E350.48953
G0 F1285.7 X109.194 Y153.741
G1 F900 X46.922 Y91.469 E353.85977
G0 F1285.7 X47.103 Y91.155
G1 F900 X109.375 Y153.428 E357.23003
G0 F1285.7 X109.556 Y153.114
G1 F900 X47.284 Y90.842 E360.60027
G0 F1285.7 X47.465 Y90.528
G1 F900 X109.737 Y152.8 E363.97051
G0 F1285.7 X109.918 Y152.486
G1 F900 X47.646 Y90.214 E367.34075
G0 F1285.7 X47.827 Y89.9
G1 F900 X110.1 Y152.172 E370.71102
G0 F1285.7 X110.281 Y151.858
G1 F900 X48.009 Y89.587 E374.08123
G0 F1285.7 X48.19 Y89.273
G1 F900 X110.462 Y151.545 E377.45147
G0 F1285.7 X110.643 Y151.231
G1 F900 X48.371 Y88.959 E380.82171
G0 F1285.7 X48.552 Y88.645
G1 F900 X110.824 Y150.917 E384.19195
G0 F1285.7 X111.005 Y150.603
G1 F900 X48.733 Y88.331 E387.56219
G0 F1285.7 X48.915 Y88.018
G1 F900 X111.186 Y150.289 E390.93238
G0 F1285.7 X111.367 Y149.975
G1 F900 X49.096 Y87.704 E394.30256
G0 F1285.7 X49.277 Y87.39
G1 F900 X111.548 Y149.661 E397.67275
G0 F1285.7 X111.73 Y149.348
G1 F900 X49.458 Y87.076 E401.04299
G0 F1285.7 X49.639 Y86.762
G1 F900 X111.911 Y149.034 E404.41323
G0 F1285.7 X112.092 Y148.72
G1 F900 X49.821 Y86.449 E407.78342
G0 F1285.7 X50.002 Y86.135
G1 F900 X112.273 Y148.406 E411.1536
G0 F1285.7 X112.454 Y148.092
G1 F900 X50.183 Y85.821 E414.52379
G0 F1285.7 X50.364 Y85.507
G1 F900 X112.636 Y147.779 E417.89403
G0 F1285.7 X112.817 Y147.465
G1 F900 X50.546 Y85.194 E421.26421
G0 F1285.7 X50.727 Y84.88
G1 F900 X112.998 Y147.151 E424.6344
G0 F1285.7 X113.179 Y146.837
G1 F900 X50.908 Y84.566 E428.00459
G0 F1285.7 X51.089 Y84.252
G1 F900 X113.361 Y146.524 E431.37483
G0 F1285.7 X113.542 Y146.21
G1 F900 X51.27 Y83.938 E434.74507
G0 F1285.7 X51.451 Y83.625
G1 F900 X113.723 Y145.896 E438.11528
G0 F1285.7 X113.904 Y145.582
G1 F900 X51.632 Y83.311 E441.48549
G0 F1285.7 X51.813 Y82.997
G1 F900 X114.085 Y145.268 E444.8557
G0 F1285.7 X114.267 Y144.955
G1 F900 X51.994 Y82.683 E448.22597
G0 F1285.7 X52.175 Y82.369
G1 F900 X114.448 Y144.641 E451.59624
G0 F1285.7 X114.629 Y144.327
G1 F900 X52.357 Y82.056 E454.96645
G0 F1285.7 X52.538 Y81.742
G1 F900 X114.81 Y144.013 E458.33666
