;FLAVOR:Marlin
;TIME:13169
;Filament used: 22.72m
;Layer height: 0.3
;MINX:17.4
;MINY:18.755
;MINZ:0.26
;MAXX:190.935
;MAXY:197.704
;MAXZ:24.26
;Generated with Cura_SteamEngine 4.9.1
M82 ;absolute extrusion mode
;Begin Start Gcode for Dagoma DiscoEasy 200
;Sliced: 01-08-2021 01:42:49
;Initial extruder: 0

G90 ;Absolute positioning
M106 S255 ;Fan on full
G28 X Y ;Home stop X Y
G1 X100 ;Centre back during cooldown in case of oozing
M109 R90 ;Cooldown in case too hot
G28 ;Centre
G29 ;Auto-level
M104 S205 ;Pre-heat
M107 ;Fan off
G0 X100 Y5 Z0.5 ;Front centre for degunk
M109 S205 ;Wait for initial temp
M83 ;E Relative
G1 E10 F200 ;Degunk
G1 E-3 F5000 ;Retract
G0 Z3 ;Withdraw
M82 ;E absolute
G92 E0 ;E reset
G1 F6000 ;Set feedrate

;Finish Start Gcode for Dagoma DiscoEasy 200

G92 E0
G92 E0
G1 F3000 E-3.5
;LAYER_COUNT:81
;LAYER:0
M107
G0 F1285.7 X19.198 Y46.887 Z0.26
;TYPE:SKIRT
G1 F3000 E0
G1 F900 X20.43 Y46.393 E0.0508
G1 X20.512 Y46.353 E0.05429
G1 X21.797 Y45.839 E0.10725
G1 X24.313 Y44.749 E0.21219
G1 X26.788 Y43.594 E0.31671
G1 X29.254 Y42.357 E0.42229
G1 X31.669 Y41.057 E0.52725
G1 X34.061 Y39.681 E0.63286
G1 X37.465 Y37.564 E0.78626
G1 X37.918 Y37.27 E0.80693
G1 X38.34 Y37.044 E0.82525
G1 X38.85 Y36.869 E0.84589
G1 X39.226 Y36.764 E0.86083
G1 X47.266 Y34.603 E1.17943
G1 X47.944 Y34.432 E1.20619
G1 X48.421 Y34.354 E1.22469
G1 X49.533 Y34.266 E1.26738
G1 X52.319 Y34.007 E1.37446
G1 X55.04 Y33.676 E1.47936
G1 X57.747 Y33.27 E1.58411
G1 X60.473 Y32.781 E1.6901
G1 X63.141 Y32.224 E1.7944
G1 X65.785 Y31.593 E1.89843
G1 X68.459 Y30.877 E2.00437
G1 X71.107 Y30.085 E2.11014
G1 X73.702 Y29.229 E2.21471
G1 X76.304 Y28.288 E2.3206
G1 X78.843 Y27.287 E2.42505
G1 X81.379 Y26.203 E2.53059
G1 X83.765 Y25.105 E2.63111
G1 X84.88 Y24.574 E2.67837
G1 X85.336 Y24.403 E2.69701
G1 X85.993 Y24.218 E2.72313
G1 X93.88 Y22.104 E3.03561
G1 X94.554 Y21.934 E3.06222
G1 X95.027 Y21.856 E3.08056
G1 X95.726 Y21.862 E3.10731
G1 X97.9 Y21.967 E3.19061
G1 X100.603 Y22.024 E3.29407
G1 X103.374 Y22.002 E3.40012
G1 X106.109 Y21.905 E3.50485
G1 X108.837 Y21.73 E3.60947
G1 X111.603 Y21.472 E3.71578
G1 X114.321 Y21.143 E3.82056
G1 X115.817 Y20.919 E3.87845
G1 X116.461 Y20.832 E3.90332
G1 X116.94 Y20.808 E3.92167
G1 X117.416 Y20.863 E3.94001
G1 X118.121 Y21.104 E3.96852
G1 X119.049 Y21.563 E4.00814
G1 X121.514 Y22.74 E4.11268
G1 X124.044 Y23.86 E4.21856
G1 X126.599 Y24.908 E4.32425
G1 X129.165 Y25.874 E4.42917
G1 X131.76 Y26.768 E4.53421
G1 X134.37 Y27.587 E4.6389
G1 X137.005 Y28.332 E4.74369
G1 X138.521 Y28.725 E4.80363
G1 X138.973 Y28.884 E4.82196
G1 X139.392 Y29.115 E4.84027
G1 X139.82 Y29.463 E4.86138
G1 X140.351 Y29.988 E4.88996
G1 X141.45 Y31.11 E4.95006
G1 X141.926 Y31.61 E4.97648
G1 X142.295 Y32.09 E4.99965
G1 X143.787 Y34.524 E5.10891
G1 X145.301 Y36.845 E5.21496
G1 X146.865 Y39.098 E5.31992
G1 X148.5 Y41.317 E5.4254
G1 X150.173 Y43.458 E5.52938
G1 X151.94 Y45.592 E5.63541
G1 X153.746 Y47.652 E5.74026
G1 X155.611 Y49.663 E5.84522
G1 X157.548 Y51.634 E5.95097
G1 X159.522 Y53.534 E6.05583
G1 X161.548 Y55.376 E6.16062
G1 X163.644 Y57.175 E6.26632
G1 X165.78 Y58.907 E6.37156
G1 X167.954 Y60.569 E6.47629
G1 X170.186 Y62.179 E6.58161
G1 X172.449 Y63.715 E6.68628
G1 X174.76 Y65.191 E6.79122
G1 X175.845 Y65.839 E6.83958
G1 X176.795 Y66.422 E6.88224
G1 X177.309 Y66.824 E6.90721
G1 X177.89 Y67.398 E6.93847
G1 X179.783 Y69.326 E7.04187
G1 X180.291 Y69.858 E7.07002
G1 X180.592 Y70.23 E7.08833
G1 X180.827 Y70.648 E7.10668
G1 X180.997 Y71.128 E7.12617
G1 X181.053 Y71.346 E7.13478
G1 X181.765 Y73.953 E7.23821
G1 X182.58 Y76.633 E7.34541
G1 X183.453 Y79.235 E7.45044
G1 X184.389 Y81.788 E7.5545
G1 X185.424 Y84.378 E7.66124
G1 X186.49 Y86.841 E7.76395
G1 X187.67 Y89.371 E7.87078
G1 X188.901 Y91.825 E7.97585
G1 X190.203 Y94.249 E8.08115
G1 X190.573 Y94.915 E8.11031
G1 X190.77 Y95.352 E8.12865
G1 X190.892 Y95.815 E8.14697
G1 X190.935 Y96.292 E8.1653
G1 X190.857 Y96.976 E8.19165
G1 X190.625 Y97.949 E8.22993
G1 X165.671 Y194.889 E12.06072
G1 X165.482 Y195.584 E12.08828
G1 X165.318 Y196.035 E12.10665
G1 X165.082 Y196.452 E12.12498
G1 X164.78 Y196.823 E12.14329
G1 X164.42 Y197.14 E12.16165
G1 X164.013 Y197.392 E12.17997
G1 X163.569 Y197.573 E12.19832
G1 X163.101 Y197.678 E12.21667
G1 X162.623 Y197.704 E12.23499
G1 X162.147 Y197.65 E12.25333
G1 X161.686 Y197.517 E12.27169
G1 X161.254 Y197.31 E12.29002
G1 X160.727 Y196.914 E12.31525
G1 X160.284 Y196.478 E12.33903
G1 X95.976 Y130.89 E15.85427
G1 X94.011 Y128.94 E15.96022
G1 X92.051 Y127.105 E16.06297
G1 X89.956 Y125.25 E16.17005
G1 X87.853 Y123.492 E16.27495
G1 X85.703 Y121.796 E16.37975
G1 X83.48 Y120.143 E16.48576
G1 X81.257 Y118.585 E16.58965
G1 X78.965 Y117.073 E16.69473
G1 X76.583 Y115.596 E16.80199
G1 X74.245 Y114.236 E16.9055
G1 X71.868 Y112.943 E17.00906
G1 X69.345 Y111.662 E17.11734
G1 X67.862 Y110.951 E17.18028
G1 X67.359 Y110.714 E17.20156
G1 X66.944 Y110.474 E17.21991
G1 X66.574 Y110.169 E17.23826
G1 X66.261 Y109.807 E17.25657
G1 X66.076 Y109.519 E17.26967
G1 X65.399 Y108.308 E17.32277
G1 X64.03 Y105.936 E17.42758
G1 X62.598 Y103.609 E17.53214
G1 X61.089 Y101.304 E17.63757
G1 X59.529 Y99.066 E17.74197
G1 X57.877 Y96.829 E17.8484
G1 X56.204 Y94.693 E17.95223
G1 X54.421 Y92.546 E18.05903
G1 X52.631 Y90.512 E18.16272
G1 X50.76 Y88.501 E18.26784
G1 X48.83 Y86.54 E18.37314
G1 X46.842 Y84.634 E18.47853
G1 X44.81 Y82.792 E18.58349
G1 X42.728 Y81.01 E18.68837
G1 X40.582 Y79.274 E18.794
G1 X38.367 Y77.586 E18.90058
G1 X36.175 Y76.01 E19.0039
G1 X33.903 Y74.473 E19.10887
G1 X31.573 Y72.991 E19.21455
G1 X30.863 Y72.567 E19.2462
G1 X29.946 Y72.003 E19.2874
G1 X29.522 Y71.688 E19.30761
G1 X29.024 Y71.237 E19.33332
G1 X28.466 Y70.663 E19.36396
G1 X28.167 Y70.289 E19.38228
G1 X27.899 Y69.786 E19.4041
G1 X27.663 Y69.215 E19.42774
G1 X26.563 Y66.654 E19.53441
G1 X25.416 Y64.177 E19.63887
G1 X24.166 Y61.666 E19.74621
G1 X22.9 Y59.296 E19.84904
G1 X21.522 Y56.878 E19.95555
G1 X20.103 Y54.549 E20.05992
G1 X18.489 Y52.064 E20.17332
G1 X17.881 Y51.16 E20.21501
G1 X17.648 Y50.742 E20.23332
G1 X17.487 Y50.291 E20.25165
G1 X17.404 Y49.819 E20.26999
G1 X17.4 Y49.34 E20.28832
G1 X17.476 Y48.866 E20.30669
G1 X17.629 Y48.412 E20.32503
G1 X17.856 Y47.99 E20.34337
G1 X18.149 Y47.611 E20.3617
G1 X18.502 Y47.287 E20.38004
G1 X18.903 Y47.025 E20.39837
G1 X19.198 Y46.887 E20.41083
G0 F1285.7 X19.328 Y47.212
G1 F900 X20.589 Y46.707 E20.46281
G1 X20.642 Y46.678 E20.46513
G1 X21.924 Y46.165 E20.51797
G1 X24.458 Y45.067 E20.62366
G1 X26.95 Y43.904 E20.7289
G1 X29.407 Y42.672 E20.83409
G1 X31.84 Y41.363 E20.93982
G1 X34.228 Y39.989 E21.04525
G1 X37.673 Y37.846 E21.20052
G1 X38.108 Y37.564 E21.22036
G1 X38.739 Y37.269 E21.24701
G1 X39.299 Y37.106 E21.26933
G1 X47.352 Y34.943 E21.58844
G1 X48.03 Y34.772 E21.6152
G1 X48.448 Y34.703 E21.63141
G1 X49.582 Y34.613 E21.67495
G1 X52.324 Y34.358 E21.78034
G1 X55.099 Y34.021 E21.88731
G1 X57.826 Y33.612 E21.99284
G1 X60.497 Y33.133 E22.09669
G1 X63.233 Y32.562 E22.20365
G1 X65.881 Y31.93 E22.30784
G1 X68.572 Y31.209 E22.41445
G1 X71.185 Y30.428 E22.51882
G1 X73.852 Y29.547 E22.62631
G1 X76.409 Y28.623 E22.73036
G1 X78.98 Y27.609 E22.83613
G1 X81.508 Y26.529 E22.94133
G1 X83.911 Y25.423 E23.04256
G1 X85.031 Y24.89 E23.09003
G1 X85.431 Y24.74 E23.10638
G1 X86.083 Y24.556 E23.13231
G1 X93.965 Y22.444 E23.44459
G1 X94.639 Y22.274 E23.47119
G1 X95.346 Y22.199 E23.4984
G1 X95.748 Y22.213 E23.51379
G1 X97.876 Y22.317 E23.59533
G1 X100.598 Y22.374 E23.69952
G1 X103.39 Y22.352 E23.80637
G1 X106.107 Y22.255 E23.91042
G1 X108.891 Y22.077 E24.01718
G1 X111.606 Y21.824 E24.12153
G1 X114.38 Y21.488 E24.22846
G1 X115.864 Y21.266 E24.28589
G1 X116.508 Y21.179 E24.31076
G1 X116.956 Y21.158 E24.32792
G1 X117.402 Y21.218 E24.34514
G1 X117.965 Y21.418 E24.36801
G1 X118.882 Y21.871 E24.40715
G1 X121.363 Y23.057 E24.51239
G1 X123.912 Y24.185 E24.61906
G1 X126.484 Y25.239 E24.72543
G1 X129.027 Y26.196 E24.82942
G1 X131.652 Y27.101 E24.93568
G1 X134.247 Y27.915 E25.03976
G1 X136.948 Y28.679 E25.14718
G1 X138.433 Y29.064 E25.20589
G1 X138.856 Y29.215 E25.22308
G1 X139.245 Y29.438 E25.24023
G1 X139.574 Y29.712 E25.25662
G1 X140.101 Y30.233 E25.28498
G1 X141.197 Y31.351 E25.3449
G1 X141.673 Y31.851 E25.37131
G1 X141.997 Y32.273 E25.39168
G1 X143.486 Y34.703 E25.50074
G1 X145.017 Y37.05 E25.60798
G1 X146.571 Y39.288 E25.71225
G1 X148.21 Y41.513 E25.81801
G1 X149.925 Y43.707 E25.92458
G1 X151.647 Y45.788 E26.02795
G1 X153.508 Y47.91 E26.13596
G1 X155.369 Y49.916 E26.24068
G1 X157.269 Y51.851 E26.34446
G1 X159.292 Y53.798 E26.45191
G1 X161.332 Y55.653 E26.55743
G1 X163.423 Y57.447 E26.66287
G1 X165.557 Y59.176 E26.76798
G1 X167.73 Y60.839 E26.87269
G1 X169.988 Y62.467 E26.97922
G1 X172.258 Y64.009 E27.08424
G1 X174.587 Y65.496 E27.18999
G1 X175.662 Y66.137 E27.23789
G1 X176.612 Y66.72 E27.28055
G1 X177.063 Y67.073 E27.30246
G1 X177.64 Y67.643 E27.3335
G1 X179.53 Y69.567 E27.43672
G1 X180.038 Y70.099 E27.46487
G1 X180.318 Y70.45 E27.48205
G1 X180.532 Y70.845 E27.49924
G1 X180.704 Y71.395 E27.5213
G1 X181.441 Y74.092 E27.62829
G1 X182.245 Y76.735 E27.73402
G1 X183.113 Y79.324 E27.83852
G1 X184.072 Y81.938 E27.94507
G1 X185.095 Y84.498 E28.05057
G1 X186.19 Y87.028 E28.15608
G1 X187.346 Y89.505 E28.26068
G1 X188.592 Y91.99 E28.36707
G1 X189.877 Y94.383 E28.47102
G1 X190.267 Y95.085 E28.50175
G1 X190.45 Y95.495 E28.51893
G1 X190.556 Y95.931 E28.5361
G1 X190.584 Y96.379 E28.55328
G1 X190.517 Y96.895 E28.57319
G1 X190.286 Y97.861 E28.6112
G1 X165.334 Y194.798 E32.44186
G1 X165.145 Y195.493 E32.46943
G1 X164.989 Y195.914 E32.48661
G1 X164.761 Y196.3 E32.50377
G1 X164.468 Y196.641 E32.52097
G1 X164.119 Y196.924 E32.53817
G1 X163.726 Y197.141 E32.55535
G1 X163.301 Y197.284 E32.57251
G1 X162.857 Y197.351 E32.58969
G1 X162.408 Y197.337 E32.60688
G1 X161.968 Y197.244 E32.62409
G1 X161.553 Y197.075 E32.64124
G1 X160.968 Y196.66 E32.66869
G1 X160.552 Y196.25 E32.69104
G1 X96.226 Y130.645 E36.20723
G1 X94.266 Y128.701 E36.31287
G1 X92.269 Y126.831 E36.41757
G1 X90.164 Y124.967 E36.52518
G1 X88.084 Y123.229 E36.62891
G1 X85.919 Y121.52 E36.73446
G1 X83.703 Y119.872 E36.84015
G1 X81.432 Y118.28 E36.94629
G1 X79.141 Y116.769 E37.05132
G1 X76.808 Y115.323 E37.15636
G1 X74.418 Y113.933 E37.26216
G1 X71.977 Y112.605 E37.36851
G1 X69.555 Y111.375 E37.47247
G1 X67.995 Y110.627 E37.53868
G1 X67.508 Y110.397 E37.55929
G1 X67.12 Y110.17 E37.57649
G1 X66.779 Y109.879 E37.59365
G1 X66.381 Y109.347 E37.61907
G1 X65.73 Y108.184 E37.67008
G1 X65.711 Y108.148 E37.67164
G1 X64.325 Y105.747 E37.77773
G1 X62.892 Y103.419 E37.88235
G1 X61.388 Y101.122 E37.98742
G1 X59.801 Y98.844 E38.09367
G1 X58.171 Y96.637 E38.19867
G1 X56.468 Y94.463 E38.30435
G1 X54.704 Y92.339 E38.41001
G1 X52.884 Y90.27 E38.51547
G1 X50.98 Y88.224 E38.62243
G1 X49.092 Y86.306 E38.72542
G1 X47.09 Y84.387 E38.83155
G1 X45.025 Y82.515 E38.93822
G1 X42.945 Y80.734 E39.04301
G1 X40.805 Y79.003 E39.14835
G1 X38.603 Y77.325 E39.25429
G1 X36.366 Y75.716 E39.35975
G1 X34.077 Y74.168 E39.4655
G1 X31.781 Y72.707 E39.56965
G1 X31.046 Y72.269 E39.60239
G1 X30.129 Y71.705 E39.64359
G1 X29.466 Y71.17 E39.67619
G1 X29.023 Y70.741 E39.69979
G1 X28.443 Y70.071 E39.73371
G1 X28.222 Y69.653 E39.7518
G1 X27.971 Y69.045 E39.77697
G1 X26.883 Y66.511 E39.88251
G1 X25.728 Y64.016 E39.98773
G1 X24.489 Y61.528 E40.09409
G1 X23.201 Y59.115 E40.19877
G1 X21.834 Y56.718 E40.30437
G1 X20.389 Y54.346 E40.41066
G1 X18.78 Y51.869 E40.5237
G1 X18.172 Y50.965 E40.56539
G1 X17.955 Y50.572 E40.58257
G1 X17.812 Y50.146 E40.59977
G1 X17.746 Y49.702 E40.61695
G1 X17.76 Y49.253 E40.63414
G1 X17.853 Y48.814 E40.65131
G1 X18.023 Y48.398 E40.66851
G1 X18.264 Y48.019 E40.6857
G1 X18.567 Y47.689 E40.70284
G1 X18.925 Y47.417 E40.72005
G1 X19.328 Y47.212 E40.73735
G0 F1285.7 X19.458 Y47.537
G1 F900 X20.665 Y47.053 E40.78712
G1 X20.771 Y47.003 E40.79161
G1 X22.063 Y46.486 E40.84486
G1 X24.603 Y45.386 E40.95079
G1 X27.113 Y44.214 E41.0568
G1 X29.587 Y42.973 E41.16272
G1 X32.011 Y41.669 E41.26806
G1 X34.386 Y40.303 E41.37291
G1 X37.881 Y38.129 E41.53043
G1 X38.299 Y37.858 E41.54949
G1 X38.842 Y37.604 E41.57243
G1 X39.393 Y37.444 E41.59439
G1 X47.437 Y35.282 E41.91316
G1 X48.115 Y35.111 E41.93992
G1 X48.476 Y35.052 E41.95392
G1 X49.598 Y34.963 E41.99699
G1 X52.4 Y34.702 E42.10468
G1 X55.12 Y34.372 E42.20954
G1 X57.865 Y33.96 E42.31577
G1 X60.602 Y33.469 E42.42218
G1 X63.277 Y32.911 E42.52676
G1 X65.977 Y32.266 E42.63299
G1 X68.662 Y31.547 E42.73937
G1 X71.327 Y30.751 E42.84581
G1 X73.938 Y29.888 E42.95105
G1 X76.545 Y28.946 E43.05713
G1 X79.103 Y27.937 E43.16236
G1 X81.663 Y26.843 E43.2689
G1 X84.034 Y25.752 E43.36878
G1 X85.181 Y25.206 E43.4174
G1 X85.526 Y25.077 E43.43149
G1 X86.174 Y24.894 E43.45726
G1 X94.051 Y22.783 E43.76935
G1 X94.725 Y22.613 E43.79595
G1 X95.334 Y22.548 E43.81939
G1 X95.731 Y22.563 E43.83459
G1 X97.817 Y22.665 E43.91452
G1 X100.628 Y22.724 E44.02212
G1 X103.369 Y22.702 E44.12702
G1 X106.144 Y22.603 E44.23328
G1 X108.911 Y22.426 E44.33939
G1 X111.683 Y22.168 E44.44593
G1 X114.4 Y21.839 E44.55067
G1 X115.911 Y21.613 E44.60914
G1 X116.555 Y21.526 E44.63401
G1 X116.971 Y21.51 E44.64994
G1 X117.383 Y21.573 E44.66589
G1 X117.81 Y21.731 E44.68332
G1 X118.732 Y22.187 E44.72268
G1 X121.241 Y23.385 E44.82908
G1 X123.779 Y24.509 E44.93531
G1 X126.323 Y25.552 E45.04053
G1 X128.932 Y26.534 E45.14721
G1 X131.534 Y27.431 E45.25254
G1 X134.158 Y28.254 E45.35779
G1 X136.861 Y29.018 E45.46528
G1 X138.345 Y29.403 E45.52395
G1 X138.736 Y29.545 E45.53987
G1 X139.093 Y29.76 E45.55582
G1 X139.328 Y29.961 E45.56765
G1 X139.851 Y30.478 E45.5958
G1 X140.943 Y31.592 E45.6555
G1 X141.419 Y32.092 E45.68192
G1 X141.698 Y32.455 E45.69944
G1 X143.201 Y34.908 E45.80953
G1 X144.717 Y37.231 E45.91569
G1 X146.298 Y39.509 E46.02181
G1 X147.933 Y41.727 E46.12726
G1 X149.646 Y43.919 E46.23372
G1 X151.403 Y46.041 E46.33915
G1 X153.218 Y48.112 E46.44454
G1 X155.111 Y50.152 E46.55104
G1 X157.058 Y52.135 E46.65739
G1 X159.043 Y54.044 E46.76279
G1 X161.079 Y55.896 E46.86812
G1 X163.185 Y57.703 E46.97432
G1 X165.356 Y59.463 E47.08127
G1 X167.539 Y61.133 E47.18646
G1 X169.78 Y62.749 E47.29219
G1 X172.075 Y64.308 E47.39837
G1 X174.372 Y65.774 E47.50265
G1 X175.479 Y66.435 E47.55199
G1 X176.429 Y67.018 E47.59465
G1 X176.818 Y67.323 E47.61356
G1 X177.391 Y67.888 E47.64436
G1 X179.277 Y69.809 E47.74738
G1 X179.785 Y70.341 E47.77553
G1 X180.043 Y70.668 E47.79147
G1 X180.233 Y71.039 E47.80743
G1 X180.375 Y71.519 E47.82658
G1 X181.104 Y74.185 E47.93235
G1 X181.914 Y76.849 E48.03891
G1 X182.784 Y79.445 E48.14369
G1 X183.739 Y82.047 E48.24976
G1 X184.772 Y84.632 E48.3563
G1 X185.872 Y87.173 E48.46226
G1 X187.036 Y89.668 E48.56762
G1 X188.273 Y92.135 E48.67324
G1 X189.571 Y94.553 E48.77826
G1 X189.961 Y95.255 E48.809
G1 X190.128 Y95.637 E48.82495
G1 X190.218 Y96.043 E48.84087
G1 X190.23 Y96.46 E48.85683
G1 X190.176 Y96.814 E48.87053
G1 X189.947 Y97.774 E48.9083
G1 X164.996 Y194.706 E52.73877
G1 X164.807 Y195.401 E52.76633
G1 X164.659 Y195.79 E52.78226
G1 X164.44 Y196.145 E52.79822
G1 X164.158 Y196.451 E52.81415
G1 X163.822 Y196.698 E52.83011
G1 X163.446 Y196.876 E52.84603
G1 X163.042 Y196.979 E52.86198
G1 X162.626 Y197.003 E52.87793
G1 X162.213 Y196.948 E52.89387
G1 X161.818 Y196.815 E52.90982
G1 X161.456 Y196.609 E52.92576
G1 X161.048 Y196.252 E52.94651
G1 X160.784 Y195.988 E52.9608
G1 X96.476 Y130.4 E56.47604
G1 X94.522 Y128.462 E56.58136
G1 X92.47 Y126.54 E56.68896
G1 X90.431 Y124.735 E56.79317
G1 X88.298 Y122.952 E56.89956
G1 X86.112 Y121.228 E57.0061
G1 X83.903 Y119.585 E57.11146
G1 X81.64 Y117.998 E57.21724
G1 X79.356 Y116.491 E57.32196
G1 X76.952 Y115.001 E57.4302
G1 X74.613 Y113.641 E57.53374
G1 X72.13 Y112.29 E57.64192
G1 X69.677 Y111.045 E57.74719
G1 X68.16 Y110.318 E57.81157
G1 X67.657 Y110.081 E57.83285
G1 X67.299 Y109.868 E57.84879
G1 X66.988 Y109.59 E57.86475
G1 X66.687 Y109.176 E57.88434
G1 X66.016 Y107.976 E57.93696
G1 X64.629 Y105.574 E58.04311
G1 X63.202 Y103.255 E58.14731
G1 X61.66 Y100.901 E58.255
G1 X60.09 Y98.646 E58.36016
G1 X58.425 Y96.392 E58.4674
G1 X56.747 Y94.251 E58.5715
G1 X54.974 Y92.115 E58.67773
G1 X53.138 Y90.029 E58.78408
