;FLAVOR:Marlin
;TIME:12675
;Filament used: 22.3791m
;Layer height: 0.3
;MINX:17.282
;MINY:21.955
;MINZ:0.26
;MAXX:192.978
;MAXY:197.639
;MAXZ:24.56
;Generated with Cura_SteamEngine 4.9.1
M82 ;absolute extrusion mode
;Begin Start Gcode for Dagoma DiscoEasy 200
;Sliced: 01-08-2021 01:31:47
;Initial extruder: 0

G90 ;Absolute positioning
M106 S255 ;Fan on full
G28 X Y ;Home stop X Y
G1 X100 ;Centre back during cooldown in case of oozing
M109 R90 ;Cooldown in case too hot
G28 ;Centre
G29 ;Auto-level
M104 S205 ;Pre-heat
M107 ;Fan off
G0 X100 Y5 Z0.5 ;Front centre for degunk
M109 S205 ;Wait for initial temp
M83 ;E Relative
G1 E10 F200 ;Degunk
G1 E-3 F5000 ;Retract
G0 Z3 ;Withdraw
M82 ;E absolute
G92 E0 ;E reset
G1 F6000 ;Set feedrate

;Finish Start Gcode for Dagoma DiscoEasy 200

G92 E0
G92 E0
G1 F3000 E-3.5
;LAYER_COUNT:82
;LAYER:0
M107
G0 F1285.7 X31.799 Y42.583 Z0.26
;TYPE:SKIRT
G1 F3000 E0
G1 F900 X33.964 Y40.908 E0.10476
G1 X36.091 Y39.165 E0.20999
G1 X38.816 Y36.776 E0.34868
G1 X39.201 Y36.491 E0.36701
G1 X39.909 Y36.177 E0.39665
G1 X40.725 Y35.941 E0.42916
G1 X41.374 Y35.764 E0.4549
G1 X42.066 Y35.586 E0.48225
G1 X42.791 Y35.495 E0.51021
G1 X43.092 Y35.496 E0.52173
G1 X45.868 Y35.463 E0.62797
G1 X48.635 Y35.352 E0.73395
G1 X51.331 Y35.167 E0.83737
G1 X54.095 Y34.899 E0.94364
G1 X56.84 Y34.554 E1.04952
G1 X59.513 Y34.141 E1.15303
G1 X62.247 Y33.639 E1.2594
G1 X64.89 Y33.077 E1.36281
G1 X67.61 Y32.417 E1.46993
G1 X70.233 Y31.7 E1.57399
G1 X72.862 Y30.903 E1.67912
G1 X75.453 Y30.036 E1.78368
G1 X78.081 Y29.073 E1.89079
G1 X80.6 Y28.068 E1.99458
G1 X83.106 Y26.985 E2.09906
G1 X85.62 Y25.812 E2.20523
G1 X88.055 Y24.593 E2.30944
G1 X91.473 Y22.734 E2.45834
G1 X91.553 Y22.688 E2.46187
G1 X92.175 Y22.423 E2.48774
G1 X93.121 Y22.147 E2.52546
G1 X94.02 Y21.957 E2.56062
G1 X94.499 Y21.955 E2.57895
G1 X94.839 Y22.004 E2.5921
G1 X96.24 Y22.289 E2.64681
G1 X96.719 Y22.389 E2.66554
G1 X99.41 Y22.885 E2.77026
G1 X102.154 Y23.312 E2.87653
G1 X104.873 Y23.657 E2.98142
G1 X107.598 Y23.925 E3.08621
G1 X110.326 Y24.114 E3.19086
G1 X113.095 Y24.228 E3.29692
G1 X115.844 Y24.264 E3.40213
G1 X116.438 Y24.257 E3.42486
G1 X117.095 Y24.26 E3.45
G1 X117.572 Y24.302 E3.46833
G1 X118.036 Y24.423 E3.48668
G1 X118.473 Y24.619 E3.50501
G1 X119.083 Y25.07 E3.53404
G1 X119.44 Y25.416 E3.55307
G1 X121.485 Y27.343 E3.6606
G1 X123.516 Y29.15 E3.76464
G1 X125.633 Y30.93 E3.87048
G1 X127.778 Y32.631 E3.97525
G1 X129.973 Y34.273 E4.08015
G1 X132.214 Y35.853 E4.18509
G1 X134.656 Y37.472 E4.29722
G1 X135.264 Y37.862 E4.32486
G1 X135.714 Y38.219 E4.34684
G1 X136.322 Y38.81 E4.37929
G1 X142.06 Y44.551 E4.68992
G1 X142.57 Y45.077 E4.71796
G1 X142.877 Y45.451 E4.73648
G1 X143.485 Y46.337 E4.7776
G1 X145.084 Y48.597 E4.88355
G1 X146.715 Y50.769 E4.98749
G1 X148.442 Y52.94 E5.09366
G1 X150.203 Y55.027 E5.19816
G1 X152.032 Y57.077 E5.3033
G1 X153.931 Y59.087 E5.40912
G1 X155.835 Y60.99 E5.51214
G1 X157.873 Y62.918 E5.61951
G1 X159.889 Y64.716 E5.72288
G1 X162.017 Y66.511 E5.82942
G1 X164.168 Y68.223 E5.93463
G1 X166.357 Y69.866 E6.03938
G1 X168.612 Y71.461 E6.14508
G1 X169.247 Y71.889 E6.17438
G1 X169.849 Y72.356 E6.20354
G1 X170.199 Y72.694 E6.22216
G1 X176.182 Y78.678 E6.546
G1 X176.687 Y79.197 E6.57371
G1 X177.041 Y79.643 E6.5955
G1 X177.581 Y80.478 E6.63356
G1 X179.13 Y82.806 E6.74057
G1 X180.722 Y85.056 E6.84605
G1 X182.353 Y87.228 E6.95
G1 X184.078 Y89.396 E7.05602
G1 X185.828 Y91.472 E7.15993
G1 X187.687 Y93.553 E7.26672
G1 X189.603 Y95.583 E7.37355
G1 X190.156 Y96.209 E7.40551
G1 X190.395 Y96.625 E7.42387
G1 X190.561 Y97.074 E7.44219
G1 X190.665 Y97.82 E7.47102
G1 X190.67 Y98.515 E7.49761
G1 X190.66 Y99.859 E7.54905
G1 X190.718 Y102.623 E7.65485
G1 X190.854 Y105.358 E7.75965
G1 X191.066 Y108.086 E7.86436
G1 X191.358 Y110.839 E7.97031
G1 X191.726 Y113.556 E8.07524
G1 X192.17 Y116.27 E8.18048
G1 X192.654 Y118.785 E8.27849
G1 X192.921 Y120.086 E8.32932
G1 X192.978 Y120.562 E8.34767
G1 X192.955 Y121.04 E8.36598
G1 X192.889 Y121.381 E8.37927
G1 X192.714 Y122.059 E8.40607
G1 X192.54 Y122.672 E8.43046
G1 X192.293 Y123.274 E8.45536
G1 X191.689 Y124.368 E8.50318
G1 X191.616 Y124.495 E8.50879
G1 X190.334 Y126.888 E8.61268
G1 X189.087 Y129.386 E8.71953
G1 X187.942 Y131.85 E8.82351
G1 X186.853 Y134.377 E8.92881
G1 X185.824 Y136.968 E9.0355
G1 X184.902 Y139.491 E9.1383
G1 X184.024 Y142.126 E9.24459
G1 X183.223 Y144.773 E9.35043
G1 X182.519 Y147.362 E9.45311
G1 X181.855 Y150.11 E9.5613
G1 X181.297 Y152.741 E9.66422
G1 X180.801 Y155.468 E9.7703
G1 X180.384 Y158.181 E9.87534
G1 X180.045 Y160.904 E9.98035
G1 X179.784 Y163.622 E10.08485
G1 X179.598 Y166.386 E10.19086
G1 X179.491 Y169.124 E10.29573
G1 X179.461 Y171.207 E10.37545
G1 X179.456 Y172.158 E10.41184
G1 X179.376 Y172.816 E10.43721
G1 X179.24 Y173.353 E10.45841
G1 X178.982 Y174.295 E10.49579
G1 X178.78 Y174.999 E10.52382
G1 X178.61 Y175.447 E10.54215
G1 X178.368 Y175.86 E10.56047
G1 X178.157 Y176.126 E10.57347
G1 X177.754 Y176.575 E10.59656
G1 X175.948 Y178.64 E10.70154
G1 X174.188 Y180.772 E10.80734
G1 X172.516 Y182.918 E10.91145
G1 X170.866 Y185.163 E11.01808
G1 X169.315 Y187.404 E11.12238
G1 X167.813 Y189.709 E11.22766
G1 X166.386 Y192.045 E11.33242
G1 X165.025 Y194.419 E11.43714
G1 X164.647 Y195.126 E11.46782
G1 X164.076 Y196.16 E11.51303
G1 X163.81 Y196.559 E11.53138
G1 X163.482 Y196.908 E11.54971
G1 X163.1 Y197.197 E11.56804
G1 X162.675 Y197.419 E11.58639
G1 X162.22 Y197.568 E11.60471
G1 X161.746 Y197.639 E11.62305
G1 X161.267 Y197.63 E11.64139
G1 X160.796 Y197.542 E11.65972
G1 X160.346 Y197.377 E11.67807
G1 X159.93 Y197.139 E11.69641
G1 X159.555 Y196.832 E11.71496
G1 X159.027 Y196.318 E11.74316
G1 X96.988 Y134.28 E15.10076
G1 X95.048 Y132.393 E15.20433
G1 X92.983 Y130.497 E15.31161
G1 X90.918 Y128.704 E15.41627
G1 X88.797 Y126.967 E15.52119
G1 X86.619 Y125.284 E15.62652
G1 X84.416 Y123.678 E15.73086
G1 X82.122 Y122.103 E15.83735
G1 X79.835 Y120.626 E15.94154
G1 X77.493 Y119.207 E16.04633
G1 X75.076 Y117.834 E16.15271
G1 X72.673 Y116.557 E16.25685
G1 X69.442 Y114.97 E16.39461
G1 X69.031 Y114.723 E16.41296
G1 X68.595 Y114.348 E16.43497
G1 X68.255 Y114.012 E16.45326
G1 X67.763 Y113.503 E16.48035
G1 X67.427 Y113.084 E16.50091
G1 X67.141 Y112.614 E16.52196
G1 X66.235 Y111.061 E16.59077
G1 X64.776 Y108.714 E16.69653
G1 X63.274 Y106.442 E16.80076
G1 X61.676 Y104.17 E16.90706
G1 X60.044 Y101.981 E17.01155
G1 X58.344 Y99.831 E17.11644
G1 X56.567 Y97.71 E17.22234
G1 X54.753 Y95.669 E17.32684
G1 X52.889 Y93.682 E17.4311
G1 X50.952 Y91.731 E17.53631
G1 X48.938 Y89.817 E17.64264
G1 X46.897 Y87.983 E17.74765
G1 X44.822 Y86.223 E17.85178
G1 X42.64 Y84.473 E17.95882
G1 X40.467 Y82.833 E18.06301
G1 X38.244 Y81.251 E18.16742
G1 X35.947 Y79.711 E18.27326
G1 X33.644 Y78.259 E18.37744
G1 X31.523 Y77.001 E18.47182
G1 X31.3 Y76.872 E18.48168
G1 X30.784 Y76.49 E18.50625
G1 X30.293 Y76.017 E18.53234
G1 X29.776 Y75.485 E18.56073
G1 X29.472 Y75.115 E18.57905
G1 X29.227 Y74.686 E18.59796
G1 X28.95 Y74.083 E18.62335
G1 X28.314 Y72.652 E18.68328
G1 X27.137 Y70.192 E18.78765
G1 X25.852 Y67.693 E18.89519
G1 X24.567 Y65.356 E18.99725
G1 X23.143 Y62.933 E19.1048
G1 X21.685 Y60.607 E19.20986
G1 X20.174 Y58.339 E19.31415
G1 X18.606 Y56.125 E19.41798
G1 X17.83 Y55.058 E19.46847
G1 X17.581 Y54.648 E19.48683
G1 X17.404 Y54.203 E19.50516
G1 X17.304 Y53.735 E19.52347
G1 X17.282 Y53.256 E19.54182
G1 X17.34 Y52.78 E19.56017
G1 X17.477 Y52.321 E19.5785
G1 X17.688 Y51.891 E19.59683
G1 X17.967 Y51.502 E19.61515
G1 X18.308 Y51.164 E19.63353
G1 X18.768 Y50.849 E19.65486
G1 X19.642 Y50.368 E19.69304
G1 X20.251 Y50.044 E19.71944
G1 X22.668 Y48.669 E19.82586
G1 X25 Y47.254 E19.93025
G1 X27.305 Y45.765 E20.03526
G1 X29.582 Y44.201 E20.14098
G1 X31.799 Y42.583 E20.24601
G0 F1285.7 X32.009 Y42.863
G1 F900 X34.173 Y41.189 E20.35072
G1 X36.326 Y39.425 E20.45723
G1 X39.047 Y37.039 E20.59573
G1 X39.409 Y36.774 E20.6129
G1 X40.007 Y36.513 E20.63787
G1 X40.817 Y36.278 E20.67015
G1 X41.461 Y36.103 E20.69568
G1 X42.153 Y35.925 E20.72303
G1 X42.79 Y35.845 E20.7476
G1 X43.096 Y35.846 E20.75931
G1 X45.886 Y35.812 E20.86609
G1 X48.638 Y35.702 E20.97149
G1 X51.39 Y35.513 E21.07706
G1 X54.138 Y35.247 E21.18271
G1 X56.863 Y34.905 E21.28782
G1 X59.595 Y34.483 E21.39361
G1 X62.279 Y33.99 E21.49804
G1 X64.969 Y33.418 E21.60329
G1 X67.683 Y32.759 E21.71017
G1 X70.349 Y32.031 E21.81593
G1 X72.974 Y31.235 E21.92091
G1 X75.573 Y30.364 E22.02581
G1 X78.189 Y29.406 E22.13242
G1 X80.738 Y28.389 E22.23745
G1 X83.28 Y27.291 E22.34342
G1 X85.739 Y26.144 E22.44725
G1 X88.247 Y24.888 E22.5546
G1 X91.618 Y23.054 E22.70146
G1 X91.727 Y22.992 E22.70626
G1 X92.273 Y22.759 E22.72898
G1 X93.209 Y22.486 E22.76629
G1 X94.078 Y22.303 E22.80028
G1 X94.769 Y22.347 E22.82677
G1 X96.669 Y22.735 E22.90099
G1 X99.368 Y23.233 E23.00602
G1 X102.091 Y23.657 E23.11148
G1 X104.833 Y24.005 E23.21726
G1 X107.572 Y24.273 E23.32258
G1 X110.323 Y24.464 E23.42811
G1 X113.077 Y24.577 E23.5336
G1 X115.843 Y24.614 E23.63946
G1 X116.437 Y24.607 E23.66219
G1 X117.094 Y24.61 E23.68734
G1 X117.541 Y24.652 E23.70452
G1 X117.973 Y24.772 E23.72168
G1 X118.377 Y24.968 E23.73886
G1 X118.839 Y25.322 E23.76113
G1 X119.2 Y25.671 E23.78035
G1 X121.259 Y27.611 E23.88861
G1 X123.265 Y29.396 E23.99138
G1 X125.418 Y31.206 E24.09902
G1 X127.543 Y32.892 E24.20283
G1 X129.772 Y34.56 E24.30937
G1 X132.022 Y36.145 E24.4147
G1 X134.474 Y37.771 E24.52729
G1 X135.075 Y38.157 E24.55463
G1 X135.471 Y38.47 E24.57394
G1 X136.075 Y39.057 E24.60618
G1 X141.809 Y44.794 E24.91659
G1 X142.319 Y45.32 E24.94463
G1 X142.588 Y45.649 E24.96089
G1 X143.177 Y46.508 E25.00075
G1 X144.798 Y48.799 E25.10815
G1 X146.441 Y50.987 E25.21286
G1 X148.164 Y53.153 E25.31878
G1 X149.941 Y55.258 E25.42421
G1 X151.765 Y57.302 E25.52905
G1 X153.677 Y59.327 E25.63563
G1 X155.631 Y61.28 E25.74135
G1 X157.614 Y63.156 E25.84582
G1 X159.678 Y64.997 E25.95167
G1 X161.783 Y66.773 E26.05706
G1 X163.95 Y68.497 E26.16304
G1 X166.131 Y70.135 E26.26742
G1 X168.418 Y71.752 E26.37461
G1 X169.045 Y72.175 E26.40356
G1 X169.606 Y72.608 E26.43068
G1 X169.952 Y72.942 E26.44908
G1 X175.931 Y78.922 E26.7727
G1 X176.436 Y79.441 E26.80041
G1 X176.747 Y79.833 E26.81956
G1 X177.289 Y80.672 E26.85779
G1 X178.833 Y82.992 E26.96444
G1 X180.436 Y85.258 E27.07066
G1 X182.079 Y87.446 E27.17537
G1 X183.803 Y89.612 E27.28132
G1 X185.579 Y91.72 E27.3868
G1 X187.4 Y93.759 E27.49142
G1 X189.355 Y95.829 E27.60039
G1 X189.884 Y96.431 E27.63106
G1 X190.101 Y96.825 E27.64827
G1 X190.245 Y97.25 E27.66544
G1 X190.315 Y97.823 E27.68753
G1 X190.32 Y98.512 E27.7139
G1 X190.31 Y99.891 E27.76668
G1 X190.367 Y102.595 E27.87018
G1 X190.506 Y105.403 E27.97777
G1 X190.715 Y108.098 E28.08122
G1 X191.012 Y110.888 E28.18859
G1 X191.377 Y113.591 E28.29298
G1 X191.824 Y116.317 E28.39869
G1 X192.317 Y118.886 E28.4988
G1 X192.578 Y120.156 E28.54842
G1 X192.629 Y120.602 E28.5656
G1 X192.55 Y121.293 E28.59221
G1 X192.377 Y121.963 E28.6187
G1 X192.203 Y122.576 E28.64308
G1 X191.986 Y123.105 E28.66496
G1 X191.386 Y124.194 E28.71255
G1 X191.31 Y124.326 E28.71838
G1 X190.011 Y126.751 E28.82365
G1 X188.783 Y129.211 E28.92888
G1 X187.618 Y131.72 E29.03474
G1 X186.532 Y134.239 E29.13972
G1 X185.503 Y136.83 E29.24641
G1 X184.562 Y139.402 E29.35122
G1 X183.689 Y142.024 E29.45698
G1 X182.895 Y144.647 E29.56186
G1 X182.161 Y147.349 E29.66901
G1 X181.525 Y149.982 E29.77267
G1 X180.944 Y152.72 E29.87978
G1 X180.459 Y155.387 E29.98352
G1 X180.04 Y158.12 E30.08934
G1 X179.693 Y160.9 E30.19655
G1 X179.434 Y163.6 E30.30035
G1 X179.249 Y166.351 E30.40587
G1 X179.141 Y169.086 E30.51062
G1 X179.111 Y171.202 E30.5916
G1 X179.106 Y172.156 E30.62811
G1 X179.036 Y172.734 E30.6504
G1 X178.901 Y173.265 E30.67136
G1 X178.646 Y174.198 E30.70838
G1 X178.444 Y174.902 E30.73641
G1 X178.282 Y175.321 E30.7536
G1 X177.896 Y175.893 E30.78001
G1 X177.493 Y176.342 E30.8031
G1 X175.678 Y178.417 E30.9086
G1 X173.922 Y180.544 E31.01415
G1 X172.225 Y182.723 E31.11985
G1 X170.588 Y184.95 E31.22562
G1 X169.031 Y187.2 E31.33033
G1 X167.518 Y189.521 E31.43636
G1 X166.075 Y191.884 E31.54232
G1 X164.718 Y194.25 E31.6467
G1 X164.34 Y194.957 E31.67738
G1 X163.769 Y195.991 E31.72259
G1 X163.518 Y196.363 E31.73976
G1 X163.205 Y196.685 E31.75695
G1 X162.84 Y196.946 E31.77412
G1 X162.434 Y197.138 E31.79131
G1 X162.001 Y197.256 E31.80848
G1 X161.554 Y197.295 E31.82565
G1 X161.107 Y197.254 E31.84283
G1 X160.674 Y197.135 E31.86002
G1 X160.269 Y196.941 E31.8772
G1 X159.799 Y196.581 E31.89986
G1 X159.275 Y196.07 E31.92787
G1 X97.261 Y134.057 E35.28412
G1 X95.275 Y132.125 E35.39015
G1 X93.222 Y130.24 E35.49681
G1 X91.138 Y128.432 E35.6024
G1 X89.023 Y126.699 E35.70704
G1 X86.813 Y124.991 E35.81393
G1 X84.634 Y123.402 E35.91714
G1 X82.324 Y121.817 E36.02435
G1 X80.021 Y120.329 E36.12928
G1 X77.651 Y118.894 E36.23531
G1 X75.27 Y117.54 E36.34013
G1 X72.81 Y116.233 E36.44674
G1 X69.596 Y114.655 E36.58376
G1 X69.212 Y114.422 E36.60095
G1 X68.552 Y113.815 E36.63526
G1 X68.014 Y113.26 E36.66484
G1 X67.697 Y112.857 E36.68447
G1 X67.425 Y112.407 E36.70459
G1 X66.529 Y110.87 E36.77267
G1 X65.085 Y108.547 E36.87735
G1 X63.56 Y106.241 E36.98315
G1 X61.95 Y103.951 E37.09028
G1 X60.32 Y101.765 E37.19463
G1 X58.626 Y99.623 E37.29914
G1 X56.848 Y97.5 E37.40512
G1 X55.004 Y95.425 E37.51135
G1 X53.128 Y93.426 E37.61627
G1 X51.194 Y91.478 E37.72132
G1 X49.158 Y89.543 E37.82881
G1 X47.12 Y87.713 E37.93363
G1 X45.057 Y85.963 E38.03716
G1 X42.86 Y84.201 E38.14494
G1 X40.685 Y82.559 E38.24923
G1 X38.432 Y80.955 E38.35507
G1 X36.144 Y79.421 E38.46049
G1 X33.824 Y77.959 E38.56544
G1 X31.675 Y76.684 E38.66106
G1 X31.476 Y76.569 E38.66986
G1 X31.022 Y76.234 E38.69145
G1 X30.539 Y75.767 E38.71716
G1 X30.027 Y75.241 E38.74525
G1 X29.744 Y74.893 E38.76242
G1 X29.545 Y74.539 E38.77796
G1 X29.269 Y73.941 E38.80316
G1 X28.629 Y72.501 E38.86347
G1 X27.443 Y70.023 E38.9686
G1 X26.179 Y67.563 E39.07445
G1 X24.833 Y65.116 E39.18133
G1 X23.464 Y62.788 E39.28468
G1 X21.971 Y60.405 E39.3923
G1 X20.47 Y58.154 E39.49584
G1 X18.87 Y55.893 E39.60184
G1 X18.113 Y54.852 E39.6511
G1 X17.882 Y54.467 E39.66828
G1 X17.723 Y54.047 E39.68546
G1 X17.641 Y53.606 E39.70263
G1 X17.639 Y53.157 E39.71981
G1 X17.716 Y52.714 E39.73702
G1 X17.87 Y52.293 E39.75418
G1 X18.096 Y51.905 E39.77136
G1 X18.388 Y51.563 E39.78857
G1 X18.937 Y51.155 E39.81475
G1 X19.807 Y50.677 E39.85274
G1 X20.404 Y50.359 E39.87862
G1 X22.837 Y48.975 E39.98574
G1 X25.202 Y47.541 E40.09159
G1 X27.507 Y46.051 E40.19662
G1 X29.776 Y44.492 E40.30198
G1 X32.009 Y42.863 E40.40776
G0 F1285.7 X32.219 Y43.143
G1 F900 X34.399 Y41.457 E40.51322
G1 X36.53 Y39.71 E40.61868
G1 X39.277 Y37.302 E40.75848
G1 X39.615 Y37.059 E40.77441
G1 X40.104 Y36.849 E40.79477
G1 X40.909 Y36.616 E40.82685
G1 X41.548 Y36.442 E40.85219
G1 X42.24 Y36.264 E40.87954
G1 X42.788 Y36.195 E40.90067
G1 X43.098 Y36.196 E40.91254
G1 X45.904 Y36.162 E41.01993
G1 X48.641 Y36.053 E41.12476
G1 X51.413 Y35.862 E41.23109
G1 X54.176 Y35.594 E41.33732
G1 X56.93 Y35.249 E41.44354
G1 X59.637 Y34.83 E41.54837
G1 X62.381 Y34.326 E41.65514
G1 X65.023 Y33.765 E41.7585
G1 X67.781 Y33.095 E41.86712
G1 X70.442 Y32.368 E41.97269
G1 X73.076 Y31.569 E42.07802
G1 X75.705 Y30.689 E42.18412
G1 X78.297 Y29.74 E42.28976
G1 X80.852 Y28.721 E42.39502
G1 X83.441 Y27.602 E42.50296
G1 X85.902 Y26.454 E42.60689
G1 X88.391 Y25.208 E42.71341
G1 X91.929 Y23.282 E42.86757
G1 X92.372 Y23.095 E42.88597
G1 X93.296 Y22.825 E42.92281
G1 X94.134 Y22.65 E42.95557
G1 X94.699 Y22.69 E42.97725
G1 X96.097 Y22.974 E43.03184
G1 X96.578 Y23.074 E43.05064
G1 X99.314 Y23.579 E43.15712
G1 X102.033 Y24.002 E43.26242
G1 X104.79 Y24.352 E43.36878
G1 X107.548 Y24.622 E43.47483
G1 X110.321 Y24.815 E43.58121
G1 X113.057 Y24.927 E43.686
G1 X115.842 Y24.964 E43.79259
G1 X116.435 Y24.957 E43.81529
G1 X117.092 Y24.96 E43.84043
G1 X117.506 Y25.002 E43.85636
G1 X117.905 Y25.122 E43.8723
G1 X118.274 Y25.316 E43.88826
G1 X118.595 Y25.573 E43.90399
G1 X118.96 Y25.926 E43.92342
G1 X120.999 Y27.847 E44.03063
G1 X123.059 Y29.68 E44.13616
G1 X125.186 Y31.468 E44.2425
G1 X127.366 Y33.197 E44.34898
G1 X129.547 Y34.83 E44.45325
G1 X131.821 Y36.432 E44.5597
