;FLAVOR:Marlin
;TIME:11946
;Filament used: 14.4889m
;Layer height: 0.3
;MINX:39.762
;MINY:10.46
;MINZ:0.26
;MAXX:198.337
;MAXY:195.39
;MAXZ:7.76
;Generated with Cura_SteamEngine 4.9.1
M82 ;absolute extrusion mode
;Begin Start Gcode for Dagoma DiscoEasy 200
;Sliced: 07-07-2021 20:05:29
;Initial extruder: 0

G90 ;Absolute positioning
M106 S255 ;Fan on full
G28 X Y ;Home stop X Y
G1 X100 ;Centre back during cooldown in case of oozing
M109 R90 ;Cooldown in case too hot
G28 ;Centre
G29 ;Auto-level
M104 S205 ;Pre-heat
M107 ;Fan off
G0 X100 Y5 Z0.5 ;Front centre for degunk
M109 S205 ;Wait for initial temp
M83 ;E Relative
G1 E10 F200 ;Degunk
G1 E-3 F5000 ;Retract
G0 Z3 ;Withdraw
M82 ;E absolute
G92 E0 ;E reset
G1 F6000 ;Set feedrate

;Finish Start Gcode for Dagoma DiscoEasy 200

G92 E0
G92 E0
G1 F3000 E-3.5
;LAYER_COUNT:26
;LAYER:0
M107
G0 F1285.7 X90.822 Y12.923 Z0.26
;TYPE:SKIRT
G1 F3000 E0
G1 F900 X91.156 Y12.362 E0.02499
G1 X91.475 Y11.905 E0.04631
G1 X91.855 Y11.499 E0.0676
G1 X92.29 Y11.152 E0.08889
G1 X92.769 Y10.87 E0.11016
G1 X93.285 Y10.66 E0.13148
G1 X93.825 Y10.526 E0.15277
G1 X94.449 Y10.469 E0.17675
G1 X95.477 Y10.46 E0.2161
G1 X193.858 Y11.431 E3.98127
G1 X194.553 Y11.447 E4.00788
G1 X195.107 Y11.5 E4.02918
G1 X195.648 Y11.631 E4.05048
G1 X196.164 Y11.839 E4.07177
G1 X196.645 Y12.118 E4.09305
G1 X197.081 Y12.464 E4.11435
G1 X197.464 Y12.868 E4.13566
G1 X197.784 Y13.323 E4.15694
G1 X198.036 Y13.819 E4.17823
G1 X198.214 Y14.346 E4.19952
G1 X198.315 Y14.893 E4.22081
G1 X198.337 Y15.449 E4.2421
G1 X198.279 Y16.003 E4.26342
G1 X198.142 Y16.542 E4.2847
G1 X197.892 Y17.127 E4.30905
G1 X197.648 Y17.575 E4.32857
G1 X96.424 Y192.902 E12.07622
G1 X96.065 Y193.503 E12.10301
G1 X95.746 Y193.959 E12.12431
G1 X95.365 Y194.365 E12.14562
G1 X94.93 Y194.712 E12.16691
G1 X94.45 Y194.993 E12.1882
G1 X93.934 Y195.202 E12.2095
G1 X93.394 Y195.335 E12.23079
G1 X92.84 Y195.39 E12.25209
G1 X92.284 Y195.364 E12.27339
G1 X91.738 Y195.26 E12.29467
G1 X91.212 Y195.078 E12.31597
G1 X90.717 Y194.823 E12.33728
G1 X90.265 Y194.499 E12.35856
G1 X89.863 Y194.114 E12.37986
G1 X89.406 Y193.494 E12.40934
G1 X89.107 Y192.976 E12.43222
G1 X40.525 Y104.859 E16.28299
G1 X40.211 Y104.27 E16.30853
G1 X39.985 Y103.761 E16.32984
G1 X39.834 Y103.226 E16.35112
G1 X39.762 Y102.674 E16.37242
G1 X39.769 Y102.118 E16.3937
G1 X39.856 Y101.568 E16.41501
G1 X40.021 Y101.037 E16.43629
G1 X40.236 Y100.576 E16.45576
G1 X40.731 Y99.68 E16.49493
G1 X90.822 Y12.923 E20.32874
G0 F1285.7 X91.123 Y13.102
G1 F900 X91.457 Y12.541 E20.35373
G1 X91.762 Y12.106 E20.37406
G1 X92.129 Y11.723 E20.39436
G1 X92.549 Y11.399 E20.41466
G1 X93.013 Y11.141 E20.43498
G1 X93.511 Y10.957 E20.4553
G1 X94.03 Y10.849 E20.47558
G1 X94.453 Y10.819 E20.49181
G1 X95.474 Y10.81 E20.53089
G1 X193.85 Y11.781 E24.29587
G1 X194.545 Y11.797 E24.32248
G1 X195.073 Y11.849 E24.34278
G1 X195.588 Y11.98 E24.36312
G1 X196.076 Y12.186 E24.38339
G1 X196.529 Y12.464 E24.40373
G1 X196.934 Y12.806 E24.42401
G1 X197.284 Y13.206 E24.44436
G1 X197.569 Y13.653 E24.46464
G1 X197.784 Y14.138 E24.48495
G1 X197.924 Y14.65 E24.50526
G1 X197.986 Y15.177 E24.52557
G1 X197.968 Y15.707 E24.54586
G1 X197.87 Y16.229 E24.56619
G1 X197.583 Y16.964 E24.59638
G1 X197.328 Y17.43 E24.61671
G1 X96.123 Y192.723 E32.36287
G1 X95.764 Y193.324 E32.38966
G1 X95.459 Y193.757 E32.40993
G1 X95.091 Y194.14 E32.43026
G1 X94.671 Y194.464 E32.45056
G1 X94.206 Y194.721 E32.47089
G1 X93.708 Y194.905 E32.49121
G1 X93.189 Y195.012 E32.51149
G1 X92.659 Y195.04 E32.5318
G1 X92.131 Y194.988 E32.5521
G1 X91.616 Y194.858 E32.57243
G1 X91.127 Y194.652 E32.59274
G1 X90.675 Y194.374 E32.61304
G1 X90.269 Y194.032 E32.63336
G1 X89.92 Y193.633 E32.65365
G1 X89.612 Y193.156 E32.67538
G1 X89.391 Y192.767 E32.6925
G1 X40.833 Y104.694 E36.54134
G1 X40.519 Y104.105 E36.56688
G1 X40.306 Y103.62 E36.58716
G1 X40.167 Y103.107 E36.6075
G1 X40.108 Y102.58 E36.62779
G1 X40.127 Y102.05 E36.64809
G1 X40.227 Y101.528 E36.66843
G1 X40.403 Y101.028 E36.68871
G1 X40.543 Y100.745 E36.70079
G1 X41.034 Y99.855 E36.73969
G1 X91.123 Y13.102 E40.57333
G0 F1285.7 X91.424 Y13.281
G1 F900 X91.758 Y12.72 E40.59832
G1 X92.049 Y12.309 E40.61759
G1 X92.401 Y11.949 E40.63686
G1 X92.806 Y11.65 E40.65613
G1 X93.253 Y11.418 E40.6754
G1 X93.732 Y11.26 E40.6947
G1 X94.456 Y11.169 E40.72263
G1 X95.47 Y11.16 E40.76143
G1 X193.842 Y12.131 E44.52627
G1 X194.537 Y12.147 E44.55287
G1 X195.038 Y12.198 E44.57214
G1 X195.525 Y12.328 E44.59143
G1 X195.984 Y12.534 E44.61069
G1 X196.406 Y12.809 E44.62996
G1 X196.779 Y13.148 E44.64925
G1 X197.093 Y13.541 E44.6685
G1 X197.342 Y13.979 E44.68779
G1 X197.517 Y14.451 E44.70705
G1 X197.617 Y14.945 E44.72634
G1 X197.636 Y15.448 E44.7456
G1 X197.576 Y15.948 E44.76487
G1 X197.438 Y16.432 E44.78413
G1 X197.175 Y16.987 E44.80764
G1 X197.025 Y17.255 E44.81939
G1 X95.823 Y192.543 E52.56533
G1 X95.464 Y193.144 E52.59212
G1 X95.172 Y193.555 E52.61141
G1 X94.819 Y193.914 E52.63068
G1 X94.414 Y194.213 E52.64995
G1 X93.966 Y194.444 E52.66924
G1 X93.488 Y194.601 E52.68849
G1 X92.991 Y194.681 E52.70776
G1 X92.487 Y194.681 E52.72704
G1 X91.99 Y194.602 E52.7463
G1 X91.511 Y194.444 E52.7656
G1 X91.064 Y194.214 E52.78484
G1 X90.658 Y193.915 E52.80414
G1 X90.305 Y193.556 E52.82341
G1 X90.008 Y193.137 E52.84306
G1 X89.716 Y192.631 E52.86542
G1 X41.142 Y104.53 E56.7155
G1 X40.828 Y103.941 E56.74104
G1 X40.627 Y103.479 E56.76032
G1 X40.502 Y102.991 E56.7796
G1 X40.455 Y102.49 E56.79886
G1 X40.488 Y101.987 E56.81815
G1 X40.601 Y101.496 E56.83743
G1 X40.85 Y100.914 E56.86166
G1 X41.337 Y100.03 E56.90028
G1 X91.424 Y13.281 E60.73375
G1 F3000 E57.23375
;MESH:support_half_hex_16.stl
G0 F1285.7 X93.825 Y14.192
G0 X94.696 Y14.695
G0 X193.28 Y15.828
;TYPE:WALL-INNER
G1 F3000 E60.73375
G1 F900 X193.577 Y15.829 E60.74512
G1 X193.428 Y16.087 E60.75159
G1 X92.904 Y190.199 E68.44557
G1 X92.749 Y190.467 E68.45742
G1 X92.6 Y190.196 E68.4641
G1 X44.217 Y102.443 E72.29898
G1 X94.787 Y14.854 E76.16953
G1 X193.279 Y15.827 E79.93896
G1 X193.28 Y15.828 E79.93901
G0 F1285.7 X193.84 Y15.508
;TYPE:WALL-OUTER
G1 F900 X194.137 Y15.509 E79.95038
G1 X193.988 Y15.767 E79.95685
G1 X92.897 Y190.861 E87.69423
G1 X92.742 Y191.129 E87.70608
G1 X92.593 Y190.858 E87.71275
G1 X43.844 Y102.44 E91.57669
G1 X94.601 Y14.527 E95.46156
G1 X193.839 Y15.507 E99.25953
G1 X193.84 Y15.508 E99.25959
G0 F1285.7 X194.04 Y15.508
G0 X193.792 Y15.706
G0 X192.99 Y16.163
;TYPE:SKIN
G1 F900 X92.755 Y189.775 E106.93147
G1 X44.607 Y102.448 E110.74774
G1 X94.983 Y15.196 E114.60341
G1 X192.99 Y16.163 E118.35427
G0 F1285.7 X192.649 Y16.438
G1 F900 X192.526 Y16.315 E118.36093
G0 F1285.7 X192.467 Y16.751
G1 F900 X192.026 Y16.31 E118.3848
G0 F1285.7 X191.526 Y16.305
G1 F900 X192.286 Y17.065 E118.42593
G0 F1285.7 X192.105 Y17.379
G1 F900 X191.026 Y16.3 E118.48433
G0 F1285.7 X190.526 Y16.295
G1 F900 X191.924 Y17.693 E118.55999
G0 F1285.7 X191.743 Y18.007
G1 F900 X190.026 Y16.29 E118.65292
G0 F1285.7 X189.526 Y16.285
G1 F900 X191.561 Y18.32 E118.76305
G0 F1285.7 X191.38 Y18.634
G1 F900 X189.026 Y16.28 E118.89045
G0 F1285.7 X188.526 Y16.275
G1 F900 X191.199 Y18.948 E119.03512
G0 F1285.7 X191.018 Y19.262
G1 F900 X188.026 Y16.27 E119.19705
G0 F1285.7 X187.526 Y16.265
G1 F900 X190.837 Y19.576 E119.37625
G0 F1285.7 X190.655 Y19.889
G1 F900 X187.026 Y16.26 E119.57265
G0 F1285.7 X186.526 Y16.255
G1 F900 X190.474 Y20.203 E119.78632
G0 F1285.7 X190.293 Y20.517
G1 F900 X186.027 Y16.25 E120.01723
G0 F1285.7 X185.527 Y16.245
G1 F900 X190.112 Y20.831 E120.2654
G0 F1285.7 X189.931 Y21.144
G1 F900 X185.027 Y16.24 E120.53082
G0 F1285.7 X184.527 Y16.235
G1 F900 X189.749 Y21.458 E120.81346
G0 F1285.7 X189.568 Y21.772
G1 F900 X184.027 Y16.23 E121.11338
G0 F1285.7 X183.527 Y16.225
G1 F900 X189.387 Y22.086 E121.43055
G0 F1285.7 X189.206 Y22.4
G1 F900 X183.027 Y16.221 E121.76497
G0 F1285.7 X182.527 Y16.216
G1 F900 X189.025 Y22.713 E122.11662
G0 F1285.7 X188.844 Y23.027
G1 F900 X182.027 Y16.211 E122.48554
G0 F1285.7 X181.528 Y16.206
G1 F900 X188.663 Y23.341 E122.8717
G0 F1285.7 X188.482 Y23.655
G1 F900 X181.028 Y16.201 E123.27512
G0 F1285.7 X180.528 Y16.196
G1 F900 X188.3 Y23.968 E123.69575
G0 F1285.7 X188.119 Y24.282
G1 F900 X180.028 Y16.192 E124.13361
G0 F1285.7 X179.528 Y16.187
G1 F900 X187.938 Y24.596 E124.58875
G0 F1285.7 X187.757 Y24.91
G1 F900 X179.028 Y16.182 E125.06115
G0 F1285.7 X178.528 Y16.177
G1 F900 X187.576 Y25.224 E125.55081
G0 F1285.7 X187.394 Y25.537
G1 F900 X178.028 Y16.172 E126.05768
G0 F1285.7 X177.529 Y16.167
G1 F900 X187.213 Y25.851 E126.58179
G0 F1285.7 X187.032 Y26.165
G1 F900 X177.029 Y16.162 E127.12317
G0 F1285.7 X176.529 Y16.157
G1 F900 X186.851 Y26.479 E127.68181
G0 F1285.7 X186.67 Y26.793
G1 F900 X176.029 Y16.152 E128.25771
G0 F1285.7 X175.529 Y16.147
G1 F900 X186.488 Y27.106 E128.85082
G0 F1285.7 X186.307 Y27.42
G1 F900 X175.029 Y16.142 E129.4612
G0 F1285.7 X174.529 Y16.137
G1 F900 X186.126 Y27.734 E130.08885
G0 F1285.7 X185.945 Y28.048
G1 F900 X174.029 Y16.132 E130.73376
G0 F1285.7 X173.529 Y16.127
G1 F900 X185.764 Y28.362 E131.39593
G0 F1285.7 X185.583 Y28.676
G1 F900 X173.029 Y16.122 E132.07537
G0 F1285.7 X172.529 Y16.117
G1 F900 X185.401 Y28.989 E132.77202
G0 F1285.7 X185.22 Y29.303
G1 F900 X172.029 Y16.112 E133.48593
G0 F1285.7 X171.529 Y16.107
G1 F900 X185.039 Y29.617 E134.21711
G0 F1285.7 X184.858 Y29.931
G1 F900 X171.03 Y16.102 E134.96553
G0 F1285.7 X170.53 Y16.097
G1 F900 X184.677 Y30.245 E135.73121
G0 F1285.7 X184.496 Y30.559
G1 F900 X170.03 Y16.093 E136.51413
G0 F1285.7 X169.53 Y16.088
G1 F900 X184.315 Y30.872 E137.31428
G0 F1285.7 X184.133 Y31.186
G1 F900 X169.03 Y16.083 E138.13168
G0 F1285.7 X168.53 Y16.078
G1 F900 X183.952 Y31.5 E138.96633
G0 F1285.7 X183.771 Y31.814
G1 F900 X168.03 Y16.073 E139.81826
G0 F1285.7 X167.53 Y16.068
G1 F900 X183.59 Y32.128 E140.68745
G0 F1285.7 X183.409 Y32.442
G1 F900 X167.03 Y16.063 E141.5739
G0 F1285.7 X166.53 Y16.058
G1 F900 X183.227 Y32.755 E142.47756
G0 F1285.7 X183.046 Y33.069
G1 F900 X166.031 Y16.054 E143.39843
G0 F1285.7 X165.531 Y16.049
G1 F900 X182.865 Y33.383 E144.33657
G0 F1285.7 X182.684 Y33.697
G1 F900 X165.031 Y16.044 E145.29197
G0 F1285.7 X164.531 Y16.039
G1 F900 X182.503 Y34.011 E146.26464
G0 F1285.7 X182.321 Y34.324
G1 F900 X164.031 Y16.034 E147.25452
G0 F1285.7 X163.531 Y16.029
G1 F900 X182.14 Y34.638 E148.26166
G0 F1285.7 X181.959 Y34.952
G1 F900 X163.031 Y16.024 E149.28607
G0 F1285.7 X162.532 Y16.019
G1 F900 X181.778 Y35.266 E150.32772
G0 F1285.7 X181.597 Y35.579
G1 F900 X162.032 Y16.014 E151.3866
G0 F1285.7 X161.532 Y16.009
G1 F900 X181.416 Y35.893 E152.46275
G0 F1285.7 X181.235 Y36.207
G1 F900 X161.032 Y16.004 E153.55616
G0 F1285.7 X160.532 Y15.999
G1 F900 X181.053 Y36.521 E154.66681
G0 F1285.7 X180.872 Y36.835
G1 F900 X160.032 Y15.994 E155.79472
G0 F1285.7 X159.532 Y15.989
G1 F900 X180.691 Y37.148 E156.93987
G0 F1285.7 X180.51 Y37.462
G1 F900 X159.032 Y15.984 E158.10229
G0 F1285.7 X158.532 Y15.979
G1 F900 X180.329 Y37.776 E159.28197
G0 F1285.7 X180.148 Y38.09
G1 F900 X158.032 Y15.974 E160.47892
G0 F1285.7 X157.532 Y15.97
G1 F900 X179.967 Y38.404 E161.6931
G0 F1285.7 X179.785 Y38.717
G1 F900 X157.032 Y15.965 E162.9245
G0 F1285.7 X156.532 Y15.96
G1 F900 X179.604 Y39.031 E164.17316
G0 F1285.7 X179.423 Y39.345
G1 F900 X156.033 Y15.955 E165.43905
G0 F1285.7 X155.533 Y15.95
G1 F900 X179.242 Y39.659 E166.72221
G0 F1285.7 X179.06 Y39.972
G1 F900 X155.033 Y15.945 E168.02259
G0 F1285.7 X154.533 Y15.94
G1 F900 X178.879 Y40.286 E169.34022
G0 F1285.7 X178.698 Y40.6
G1 F900 X154.033 Y15.935 E170.67512
G0 F1285.7 X153.533 Y15.93
G1 F900 X178.517 Y40.914 E172.02729
G0 F1285.7 X178.336 Y41.228
G1 F900 X153.033 Y15.925 E173.39672
G0 F1285.7 X152.533 Y15.92
G1 F900 X178.154 Y41.541 E174.78336
G0 F1285.7 X177.973 Y41.855
G1 F900 X152.033 Y15.915 E176.18727
G0 F1285.7 X151.533 Y15.91
G1 F900 X177.792 Y42.169 E177.60844
G0 F1285.7 X177.611 Y42.483
G1 F900 X151.033 Y15.905 E179.04687
G0 F1285.7 X150.534 Y15.901
G1 F900 X177.43 Y42.796 E180.50249
G0 F1285.7 X177.249 Y43.11
G1 F900 X150.034 Y15.896 E181.97537
G0 F1285.7 X149.534 Y15.891
G1 F900 X177.068 Y43.424 E183.46552
G0 F1285.7 X176.887 Y43.738
G1 F900 X149.034 Y15.886 E184.97294
G0 F1285.7 X148.534 Y15.881
G1 F900 X176.705 Y44.052 E186.49759
G0 F1285.7 X176.524 Y44.366
G1 F900 X148.034 Y15.876 E188.0395
G0 F1285.7 X147.535 Y15.871
G1 F900 X176.343 Y44.679 E189.59863
G0 F1285.7 X176.162 Y44.993
G1 F900 X147.035 Y15.866 E191.17502
G0 F1285.7 X146.535 Y15.861
G1 F900 X175.981 Y45.307 E192.76867
G0 F1285.7 X175.8 Y45.621
G1 F900 X146.035 Y15.856 E194.37959
G0 F1285.7 X145.535 Y15.851
G1 F900 X175.618 Y45.935 E196.00775
G0 F1285.7 X175.437 Y46.249
G1 F900 X145.035 Y15.846 E197.65317
G0 F1285.7 X144.535 Y15.842
G1 F900 X175.256 Y46.562 E199.3158
G0 F1285.7 X175.075 Y46.876
G1 F900 X144.035 Y15.837 E200.9957
G0 F1285.7 X143.535 Y15.832
G1 F900 X174.893 Y47.19 E202.69284
G0 F1285.7 X174.712 Y47.504
G1 F900 X143.035 Y15.827 E204.40724
G0 F1285.7 X142.535 Y15.822
G1 F900 X174.531 Y47.818 E206.1389
G0 F1285.7 X174.35 Y48.132
G1 F900 X142.035 Y15.817 E207.88783
G0 F1285.7 X141.535 Y15.812
G1 F900 X174.169 Y48.446 E209.65402
G0 F1285.7 X173.987 Y48.759
G1 F900 X141.035 Y15.807 E211.43743
G0 F1285.7 X140.536 Y15.802
G1 F900 X173.806 Y49.073 E213.23807
G0 F1285.7 X173.625 Y49.387
G1 F900 X140.036 Y15.797 E215.05598
G0 F1285.7 X139.536 Y15.792
G1 F900 X173.444 Y49.701 E216.89115
G0 F1285.7 X173.263 Y50.015
G1 F900 X139.036 Y15.787 E218.74358
G0 F1285.7 X138.536 Y15.782
G1 F900 X173.082 Y50.328 E220.61326
G0 F1285.7 X172.901 Y50.642
G1 F900 X138.036 Y15.777 E222.50019
G0 F1285.7 X137.536 Y15.772
G1 F900 X172.72 Y50.956 E224.4044
G0 F1285.7 X172.539 Y51.27
G1 F900 X137.036 Y15.767 E226.32586
G0 F1285.7 X136.536 Y15.762
G1 F900 X172.357 Y51.583 E228.26454
G0 F1285.7 X172.176 Y51.897
G1 F900 X136.036 Y15.757 E230.22049
G0 F1285.7 X135.536 Y15.752
G1 F900 X171.995 Y52.211 E232.19369
G0 F1285.7 X171.814 Y52.525
G1 F900 X135.037 Y15.748 E234.18411
G0 F1285.7 X134.537 Y15.743
G1 F900 X171.633 Y52.839 E236.19179
G0 F1285.7 X171.451 Y53.152
G1 F900 X134.037 Y15.738 E238.21669
G0 F1285.7 X133.537 Y15.733
G1 F900 X171.27 Y53.466 E240.25885
G0 F1285.7 X171.089 Y53.78
G1 F900 X133.037 Y15.728 E242.31827
G0 F1285.7 X132.537 Y15.723
G1 F900 X170.908 Y54.094 E244.39496
G0 F1285.7 X170.726 Y54.407
G1 F900 X132.038 Y15.718 E246.48883
G0 F1285.7 X131.538 Y15.714
G1 F900 X170.545 Y54.721 E248.59993
G0 F1285.7 X170.364 Y55.035
G1 F900 X131.038 Y15.709 E250.72831
G0 F1285.7 X130.538 Y15.704
G1 F900 X170.183 Y55.349 E252.87395
G0 F1285.7 X170.002 Y55.663
G1 F900 X130.038 Y15.699 E255.03685
G0 F1285.7 X129.538 Y15.694
G1 F900 X169.82 Y55.976 E257.21696
G0 F1285.7 X169.639 Y56.29
G1 F900 X129.038 Y15.689 E259.41434
G0 F1285.7 X128.538 Y15.684
G1 F900 X169.458 Y56.604 E261.62898
G0 F1285.7 X169.277 Y56.918
G1 F900 X128.038 Y15.679 E263.86089
G0 F1285.7 X127.538 Y15.674
G1 F900 X169.096 Y57.232 E266.11006
G0 F1285.7 X168.915 Y57.545
G1 F900 X127.038 Y15.669 E268.37647
G0 F1285.7 X126.538 Y15.664
G1 F900 X168.734 Y57.859 E270.66015
G0 F1285.7 X168.553 Y58.173
G1 F900 X126.038 Y15.659 E272.96108
G0 F1285.7 X125.539 Y15.654
G1 F900 X168.372 Y58.487 E275.27926
G0 F1285.7 X168.19 Y58.8
G1 F900 X125.039 Y15.649 E277.61465
G0 F1285.7 X124.539 Y15.644
G1 F900 X168.009 Y59.114 E279.9673
G0 F1285.7 X167.828 Y59.428
G1 F900 X124.039 Y15.639 E282.33722
G0 F1285.7 X123.539 Y15.634
G1 F900 X167.647 Y59.742 E284.7244
G0 F1285.7 X167.466 Y60.056
G1 F900 X123.039 Y15.629 E287.12884
G0 F1285.7 X122.539 Y15.624
G1 F900 X167.284 Y60.369 E289.5505
G0 F1285.7 X167.103 Y60.683
G1 F900 X122.039 Y15.619 E291.98942
G0 F1285.7 X121.539 Y15.615
G1 F900 X166.922 Y60.997 E294.44558
G0 F1285.7 X166.741 Y61.311
G1 F900 X121.039 Y15.61 E296.919
G0 F1285.7 X120.539 Y15.605
G1 F900 X166.559 Y61.625 E299.40966
G0 F1285.7 X166.378 Y61.939
G1 F900 X120.039 Y15.6 E301.91759
G0 F1285.7 X119.54 Y15.595
G1 F900 X166.197 Y62.252 E304.44273
G0 F1285.7 X166.016 Y62.566
G1 F900 X119.04 Y15.59 E306.98513
G0 F1285.7 X118.54 Y15.586
G1 F900 X165.835 Y62.88 E309.54477
G0 F1285.7 X165.653 Y63.194
