;FLAVOR:Marlin
;TIME:23890
;Filament used: 25.6858m
;Layer height: 0.3
;MINX:11.687
;MINY:12.374
;MINZ:0.26
;MAXX:185.07
;MAXY:185.743
;MAXZ:29.66
;Generated with Cura_SteamEngine 4.9.1
M82 ;absolute extrusion mode
;Begin Start Gcode for Dagoma DiscoEasy 200
;Sliced: 26-07-2021 01:27:21
;Initial extruder: 0

G90 ;Absolute positioning
M106 S255 ;Fan on full
G28 X Y ;Home stop X Y
G1 X100 ;Centre back during cooldown in case of oozing
M109 R90 ;Cooldown in case too hot
G28 ;Centre
G29 ;Auto-level
M104 S205 ;Pre-heat
M107 ;Fan off
G0 X100 Y5 Z0.5 ;Front centre for degunk
M109 S205 ;Wait for initial temp
M83 ;E Relative
G1 E10 F200 ;Degunk
G1 E-3 F5000 ;Retract
G0 Z3 ;Withdraw
M82 ;E absolute
G92 E0 ;E reset
G1 F6000 ;Set feedrate

;Finish Start Gcode for Dagoma DiscoEasy 200

G92 E0
G92 E0
G1 F3000 E-3.5
;LAYER_COUNT:99
;LAYER:0
M107
G0 F1285.7 X38.028 Y14.458 Z0.26
;TYPE:SKIRT
G1 F3000 E0
G1 F900 X38.197 Y14.01 E0.01832
G1 X38.439 Y13.596 E0.03668
G1 X38.746 Y13.228 E0.05502
G1 X39.109 Y12.916 E0.07333
G1 X39.52 Y12.668 E0.0917
G1 X39.965 Y12.493 E0.11
G1 X40.434 Y12.393 E0.12836
G1 X40.913 Y12.374 E0.1467
G1 X41.388 Y12.433 E0.16502
G1 X41.847 Y12.571 E0.18336
G1 X42.277 Y12.784 E0.20173
G1 X42.739 Y13.13 E0.22381
G1 X43.782 Y14.09 E0.27806
G1 X43.888 Y14.19 E0.28364
G1 X45.929 Y16.015 E0.38842
G1 X48.028 Y17.787 E0.49355
G1 X50.186 Y19.507 E0.59915
G1 X52.362 Y21.142 E0.70332
G1 X54.618 Y22.74 E0.80912
G1 X56.906 Y24.266 E0.91437
G1 X58.015 Y24.954 E0.96431
G1 X59.19 Y25.704 E1.01766
G1 X59.64 Y26.059 E1.03959
G1 X60.401 Y26.794 E1.08008
G1 X64.781 Y31.181 E1.31732
G1 X65.287 Y31.702 E1.34511
G1 X65.641 Y32.147 E1.36688
G1 X65.807 Y32.405 E1.37862
G1 X67.352 Y34.726 E1.48532
G1 X68.932 Y36.96 E1.59004
G1 X70.583 Y39.162 E1.69536
G1 X72.303 Y41.324 E1.80109
G1 X74.053 Y43.401 E1.90503
G1 X75.893 Y45.462 E2.01076
G1 X77.811 Y47.493 E2.11767
G1 X79.695 Y49.378 E2.21966
G1 X81.721 Y51.295 E2.3264
G1 X83.789 Y53.141 E2.43248
G1 X85.861 Y54.89 E2.53625
G1 X88.029 Y56.616 E2.6423
G1 X90.194 Y58.243 E2.74594
G1 X92.449 Y59.839 E2.85167
G1 X93.424 Y60.484 E2.89641
G1 X94.582 Y61.271 E2.94999
G1 X94.963 Y61.581 E2.96879
G1 X95.669 Y62.264 E3.00638
G1 X100.022 Y66.618 E3.242
G1 X100.524 Y67.137 E3.26963
G1 X101.027 Y67.683 E3.29804
G1 X101.964 Y68.733 E3.3519
G1 X103.862 Y70.744 E3.45772
G1 X105.799 Y72.681 E3.56255
G1 X107.772 Y74.546 E3.66645
G1 X109.858 Y76.409 E3.77349
G1 X111.93 Y78.158 E3.87725
G1 X114.075 Y79.866 E3.98219
G1 X116.285 Y81.527 E4.08799
G1 X118.523 Y83.111 E4.19292
G1 X120.824 Y84.644 E4.29873
G1 X123.135 Y86.09 E4.40305
G1 X125.502 Y87.48 E4.5081
G1 X127.922 Y88.812 E4.61382
G1 X130.349 Y90.059 E4.71824
G1 X132.862 Y91.26 E4.82483
G1 X133.455 Y91.526 E4.8497
G1 X134.922 Y92.216 E4.91174
G1 X135.318 Y92.412 E4.92865
G1 X135.941 Y92.731 E4.95544
G1 X136.534 Y93.122 E4.98262
G1 X137.481 Y93.872 E5.02885
G1 X138.046 Y94.333 E5.05676
G1 X138.446 Y94.732 E5.07838
G1 X138.858 Y95.232 E5.10317
G1 X139.333 Y95.826 E5.13228
G1 X139.771 Y96.39 E5.15961
G1 X139.909 Y96.584 E5.16872
G1 X140.262 Y97.126 E5.19347
G1 X141.08 Y98.428 E5.25232
G1 X142.598 Y100.7 E5.35689
G1 X144.2 Y102.954 E5.46271
G1 X145.838 Y105.128 E5.56688
G1 X147.56 Y107.283 E5.67245
G1 X149.335 Y109.381 E5.77762
G1 X151.161 Y111.418 E5.88231
G1 X153.067 Y113.428 E5.98832
G1 X154.991 Y115.343 E6.0922
G1 X157.019 Y117.254 E6.19884
G1 X159.056 Y119.064 E6.30313
G1 X161.167 Y120.839 E6.40868
G1 X163.32 Y122.546 E6.51382
G1 X165.504 Y124.18 E6.61821
G1 X167.758 Y125.767 E6.7237
G1 X171.059 Y127.929 E6.87471
G1 X171.645 Y128.309 E6.90144
G1 X172.582 Y129.024 E6.94655
G1 X172.858 Y129.243 E6.96003
G1 X173.387 Y129.676 E6.98619
G1 X173.789 Y130.078 E7.00795
G1 X174.291 Y130.69 E7.03824
G1 X174.697 Y131.202 E7.06325
G1 X175.121 Y131.75 E7.08977
G1 X175.402 Y132.185 E7.10958
G1 X175.728 Y132.801 E7.13626
G1 X175.943 Y133.217 E7.15418
G1 X176.278 Y133.891 E7.18298
G1 X176.48 Y134.426 E7.20487
G1 X176.53 Y134.614 E7.21231
G1 X177.293 Y137.292 E7.31888
G1 X178.123 Y139.923 E7.42445
G1 X179.026 Y142.522 E7.52975
G1 X179.983 Y145.044 E7.63298
G1 X181.048 Y147.633 E7.74011
G1 X182.156 Y150.12 E7.84431
G1 X183.351 Y152.612 E7.95007
G1 X184.553 Y154.95 E8.05068
G1 X184.926 Y155.744 E8.08425
G1 X185.037 Y156.21 E8.10259
G1 X185.07 Y156.688 E8.12092
G1 X185.022 Y157.165 E8.13927
G1 X184.896 Y157.627 E8.15759
G1 X184.695 Y158.062 E8.17593
G1 X184.425 Y158.458 E8.19428
G1 X184.093 Y158.803 E8.2126
G1 X183.708 Y159.088 E8.23093
G1 X183.28 Y159.305 E8.24929
G1 X182.981 Y159.408 E8.2614
G1 X182.313 Y159.598 E8.28798
G1 X86.632 Y185.495 E12.08139
G1 X85.976 Y185.663 E12.10731
G1 X85.504 Y185.743 E12.12563
G1 X85.025 Y185.743 E12.14396
G1 X84.552 Y185.664 E12.16231
G1 X84.099 Y185.507 E12.18066
G1 X83.511 Y185.157 E12.20685
G1 X82.568 Y184.432 E12.25237
G1 X82.117 Y184.076 E12.27436
G1 X79.923 Y182.441 E12.37907
G1 X77.678 Y180.866 E12.48402
G1 X75.362 Y179.335 E12.59027
G1 X73.065 Y177.909 E12.69373
G1 X70.641 Y176.498 E12.80107
G1 X68.263 Y175.201 E12.90473
G1 X65.105 Y173.61 E13.04006
G1 X63.858 Y173.009 E13.09303
G1 X63.221 Y172.629 E13.12142
G1 X62.659 Y172.19 E13.14871
G1 X62.23 Y171.779 E13.17145
G1 X61.825 Y171.379 E13.19323
G1 X61.777 Y171.322 E13.19608
G1 X60.817 Y170.357 E13.24817
G1 X60.433 Y169.91 E13.27073
G1 X60.017 Y169.345 E13.29758
G1 X59.259 Y168.154 E13.3516
G1 X57.892 Y166.056 E13.44743
G1 X56.333 Y163.804 E13.55225
G1 X54.704 Y161.584 E13.65763
G1 X53.011 Y159.408 E13.76314
G1 X51.264 Y157.292 E13.86815
G1 X49.458 Y155.226 E13.97317
G1 X47.578 Y153.194 E14.07911
G1 X45.689 Y151.263 E14.18248
G1 X43.69 Y149.334 E14.2888
G1 X41.664 Y147.486 E14.39374
G1 X39.604 Y145.712 E14.49778
G1 X37.445 Y143.955 E14.6043
G1 X35.271 Y142.287 E14.70917
G1 X33.057 Y140.687 E14.81371
G1 X30.776 Y139.131 E14.91938
G1 X28.576 Y137.735 E15.01909
G1 X28.072 Y137.408 E15.04208
G1 X27.635 Y137.088 E15.06281
G1 X27.039 Y136.583 E15.0927
G1 X26.832 Y136.373 E15.10399
G1 X25.605 Y135.162 E15.16996
G1 X25.132 Y134.637 E15.19701
G1 X24.761 Y134.143 E15.22065
G1 X24.597 Y133.879 E15.23254
G1 X24.278 Y133.294 E15.25804
G1 X24.184 Y133.107 E15.26605
G1 X22.952 Y130.584 E15.3735
G1 X21.688 Y128.168 E15.47785
G1 X20.348 Y125.775 E15.58281
G1 X18.934 Y123.413 E15.68816
G1 X17.47 Y121.112 E15.79253
G1 X15.915 Y118.817 E15.89862
G1 X14.291 Y116.559 E16.00507
G1 X13.13 Y115.027 E16.07863
G1 X12.286 Y113.934 E16.13148
G1 X12.026 Y113.532 E16.1498
G1 X11.836 Y113.092 E16.16814
G1 X11.722 Y112.626 E16.1865
G1 X11.687 Y112.149 E16.2048
G1 X11.776 Y111.468 E16.23109
G1 X11.987 Y110.64 E16.26379
G1 X37.851 Y15.079 E20.05244
G1 X38.028 Y14.458 E20.07715
G0 F1285.7 X38.365 Y14.554
G1 F900 X38.526 Y14.135 E20.09433
G1 X38.758 Y13.751 E20.1115
G1 X39.055 Y13.414 E20.12869
G1 X39.407 Y13.135 E20.14588
G1 X39.803 Y12.923 E20.16307
G1 X40.23 Y12.785 E20.18024
G1 X40.675 Y12.724 E20.19743
G1 X41.124 Y12.743 E20.21463
G1 X41.562 Y12.841 E20.2318
G1 X41.976 Y13.015 E20.24899
G1 X42.503 Y13.388 E20.2737
G1 X43.542 Y14.344 E20.32773
G1 X43.662 Y14.457 E20.33404
G1 X45.697 Y16.278 E20.43855
G1 X47.816 Y18.065 E20.54463
G1 X49.946 Y19.763 E20.64887
G1 X52.183 Y21.444 E20.75596
G1 X54.408 Y23.021 E20.86033
G1 X56.708 Y24.554 E20.96611
G1 X57.827 Y25.249 E21.01652
G1 X59.002 Y25.999 E21.06986
G1 X59.397 Y26.31 E21.0891
G1 X60.154 Y27.042 E21.1294
G1 X64.53 Y31.425 E21.36643
G1 X65.036 Y31.946 E21.39422
G1 X65.536 Y32.629 E21.42661
G1 X67.055 Y34.911 E21.53152
G1 X68.664 Y37.186 E21.63816
G1 X70.309 Y39.38 E21.7431
G1 X72.024 Y41.536 E21.84853
G1 X73.79 Y43.632 E21.95342
G1 X75.659 Y45.725 E22.06081
G1 X77.522 Y47.698 E22.16465
G1 X79.491 Y49.668 E22.27125
G1 X81.477 Y51.547 E22.37588
G1 X83.513 Y53.365 E22.48033
G1 X85.665 Y55.182 E22.58812
G1 X87.788 Y56.872 E22.69196
G1 X90.014 Y58.545 E22.79853
G1 X92.248 Y60.126 E22.90327
G1 X93.227 Y60.774 E22.9482
G1 X94.385 Y61.561 E23.00178
G1 X94.72 Y61.833 E23.01829
G1 X95.422 Y62.511 E23.05564
G1 X99.77 Y66.862 E23.29104
G1 X100.267 Y67.375 E23.31838
G1 X100.765 Y67.916 E23.34652
G1 X101.711 Y68.977 E23.40092
G1 X103.607 Y70.985 E23.50661
G1 X105.522 Y72.9 E23.61025
G1 X107.565 Y74.832 E23.71786
G1 X109.582 Y76.633 E23.82134
G1 X111.735 Y78.45 E23.92915
G1 X113.873 Y80.153 E24.03376
G1 X116.066 Y81.8 E24.13872
G1 X118.337 Y83.408 E24.24521
G1 X120.614 Y84.925 E24.34991
G1 X122.958 Y86.392 E24.45574
G1 X125.341 Y87.792 E24.56151
G1 X127.736 Y89.109 E24.66611
G1 X130.208 Y90.38 E24.77248
G1 X132.691 Y91.567 E24.8778
G1 X133.306 Y91.843 E24.9036
G1 X134.768 Y92.53 E24.96542
G1 X135.159 Y92.723 E24.98211
G1 X135.782 Y93.042 E25.00889
G1 X136.326 Y93.403 E25.03388
G1 X137.234 Y94.123 E25.07823
G1 X137.824 Y94.605 E25.10738
G1 X138.176 Y94.955 E25.12638
G1 X138.584 Y95.45 E25.15093
G1 X139.056 Y96.04 E25.17984
G1 X139.494 Y96.604 E25.20717
G1 X139.616 Y96.775 E25.21521
G1 X139.965 Y97.312 E25.23972
G1 X140.773 Y98.598 E25.29784
G1 X142.314 Y100.903 E25.40395
G1 X143.915 Y103.158 E25.50979
G1 X145.569 Y105.352 E25.61494
G1 X147.299 Y107.517 E25.72099
G1 X149.07 Y109.61 E25.82592
G1 X150.887 Y111.637 E25.93009
G1 X152.83 Y113.687 E26.03819
G1 X154.737 Y115.585 E26.14115
G1 X156.794 Y117.523 E26.24931
G1 X158.803 Y119.309 E26.35218
G1 X160.935 Y121.101 E26.45876
G1 X163.12 Y122.833 E26.56547
G1 X165.287 Y124.454 E26.66903
G1 X167.58 Y126.069 E26.77636
G1 X170.836 Y128.201 E26.92531
G1 X171.432 Y128.588 E26.9525
G1 X172.364 Y129.298 E26.99734
G1 X172.636 Y129.514 E27.01063
G1 X173.165 Y129.947 E27.03679
G1 X173.518 Y130.3 E27.0559
G1 X174.017 Y130.908 E27.086
G1 X174.42 Y131.416 E27.11081
G1 X174.844 Y131.964 E27.13733
G1 X175.092 Y132.349 E27.15486
G1 X175.417 Y132.961 E27.18137
G1 X175.629 Y133.373 E27.19911
G1 X175.964 Y134.047 E27.22791
G1 X176.142 Y134.516 E27.24711
G1 X176.204 Y134.747 E27.25626
G1 X176.957 Y137.393 E27.36154
G1 X177.79 Y140.033 E27.46748
G1 X178.689 Y142.618 E27.57222
G1 X179.669 Y145.203 E27.67802
G1 X180.706 Y147.725 E27.78238
G1 X181.841 Y150.272 E27.88909
G1 X183.038 Y152.768 E27.99503
G1 X184.243 Y155.113 E28.09592
G1 X184.602 Y155.88 E28.12833
G1 X184.699 Y156.319 E28.14554
G1 X184.717 Y156.767 E28.1627
G1 X184.655 Y157.212 E28.17989
G1 X184.515 Y157.639 E28.19709
G1 X184.302 Y158.034 E28.21426
G1 X184.023 Y158.385 E28.23142
G1 X183.685 Y158.681 E28.24861
G1 X183.301 Y158.913 E28.26578
G1 X182.886 Y159.072 E28.28279
G1 X182.222 Y159.26 E28.3092
G1 X86.545 Y185.156 E32.10246
G1 X85.889 Y185.324 E32.12837
G1 X85.446 Y185.396 E32.14555
G1 X84.997 Y185.389 E32.16274
G1 X84.557 Y185.302 E32.1799
G1 X84.139 Y185.139 E32.19707
G1 X83.724 Y184.88 E32.21579
G1 X82.785 Y184.158 E32.26112
G1 X82.334 Y183.802 E32.28311
G1 X80.123 Y182.154 E32.38864
G1 X77.862 Y180.567 E32.49436
G1 X75.554 Y179.042 E32.60022
G1 X73.215 Y177.59 E32.70558
G1 X70.857 Y176.217 E32.81
G1 X68.418 Y174.888 E32.9163
G1 X65.287 Y173.31 E33.05048
G1 X64.093 Y172.735 E33.10119
G1 X63.433 Y172.35 E33.13044
G1 X62.88 Y171.918 E33.15729
G1 X62.48 Y171.534 E33.17851
G1 X62.071 Y171.13 E33.20051
G1 X62.026 Y171.077 E33.20317
G1 X61.065 Y170.11 E33.25535
G1 X60.712 Y169.698 E33.27611
G1 X60.312 Y169.158 E33.30183
G1 X59.554 Y167.966 E33.35589
G1 X58.176 Y165.852 E33.45246
G1 X56.623 Y163.608 E33.55689
G1 X54.982 Y161.372 E33.66304
G1 X53.283 Y159.188 E33.76893
G1 X51.532 Y157.067 E33.87419
G1 X49.715 Y154.989 E33.97982
G1 X47.854 Y152.977 E34.08471
G1 X45.917 Y150.997 E34.19071
G1 X43.94 Y149.089 E34.29586
G1 X41.898 Y147.226 E34.40164
G1 X39.804 Y145.423 E34.50739
G1 X37.699 Y143.709 E34.61128
G1 X35.455 Y141.988 E34.7195
G1 X33.249 Y140.393 E34.82368
G1 X31.001 Y138.861 E34.92779
G1 X28.767 Y137.441 E35.02909
G1 X28.263 Y137.114 E35.05208
G1 X27.855 Y136.816 E35.07142
G1 X27.289 Y136.338 E35.09977
G1 X27.082 Y136.128 E35.11105
G1 X25.855 Y134.916 E35.17705
G1 X25.402 Y134.415 E35.2029
G1 X25.051 Y133.947 E35.22529
G1 X24.904 Y133.711 E35.23593
G1 X24.628 Y133.207 E35.25792
G1 X24.499 Y132.954 E35.26879
G1 X23.271 Y130.44 E35.37586
G1 X21.997 Y128.005 E35.48103
G1 X20.656 Y125.609 E35.58611
G1 X19.223 Y123.215 E35.69289
G1 X17.759 Y120.914 E35.79726
G1 X16.209 Y118.626 E35.90302
G1 X14.575 Y116.355 E36.01009
G1 X13.407 Y114.813 E36.08412
G1 X12.563 Y113.72 E36.13697
G1 X12.322 Y113.342 E36.15412
G1 X12.151 Y112.927 E36.1713
G1 X12.056 Y112.488 E36.18849
G1 X12.041 Y112.039 E36.20568
G1 X12.115 Y111.554 E36.22446
G1 X12.325 Y110.731 E36.25696
G1 X38.188 Y15.175 E40.04542
G1 X38.365 Y14.554 E40.07013
G0 F1285.7 X38.701 Y14.65
G1 F900 X38.853 Y14.262 E40.08608
G1 X39.077 Y13.91 E40.10205
G1 X39.363 Y13.607 E40.11799
G1 X39.702 Y13.365 E40.13393
G1 X40.08 Y13.191 E40.14986
G1 X40.485 Y13.093 E40.1658
G1 X40.901 Y13.074 E40.18174
G1 X41.314 Y13.134 E40.19771
G1 X41.707 Y13.272 E40.21365
G1 X42.266 Y13.645 E40.23937
G1 X43.301 Y14.598 E40.29321
G1 X43.418 Y14.709 E40.29938
G1 X45.469 Y16.543 E40.40468
G1 X47.578 Y18.322 E40.51027
G1 X49.749 Y20.054 E40.61655
G1 X51.974 Y21.725 E40.72304
G1 X54.205 Y23.306 E40.82768
G1 X56.544 Y24.866 E40.93528
G1 X57.638 Y25.544 E40.98453
G1 X58.813 Y26.294 E41.03788
G1 X59.154 Y26.562 E41.05448
G1 X59.906 Y27.289 E41.09451
G1 X64.279 Y31.669 E41.33137
G1 X64.785 Y32.19 E41.35916
G1 X65.225 Y32.793 E41.38773
G1 X66.775 Y35.121 E41.49476
G1 X68.378 Y37.388 E41.60102
G1 X70.035 Y39.598 E41.70672
G1 X71.749 Y41.752 E41.81207
G1 X73.542 Y43.88 E41.91856
G1 X75.373 Y45.931 E42.02378
G1 X77.285 Y47.956 E42.13036
G1 X79.233 Y49.905 E42.23582
G1 X81.252 Y51.814 E42.34215
G1 X83.309 Y53.652 E42.44772
G1 X85.411 Y55.426 E42.55298
G1 X87.592 Y57.162 E42.65966
G1 X89.812 Y58.831 E42.76595
G1 X92.047 Y60.413 E42.87074
G1 X93.031 Y61.063 E42.91587
G1 X94.189 Y61.85 E42.96945
G1 X94.477 Y62.084 E42.98366
G1 X95.174 Y62.758 E43.02076
G1 X99.519 Y67.106 E43.256
G1 X100.009 Y67.612 E43.28295
G1 X100.504 Y68.149 E43.3109
G1 X101.444 Y69.203 E43.36495
G1 X103.353 Y71.225 E43.47137
G1 X105.318 Y73.19 E43.57772
G1 X107.302 Y75.066 E43.68221
G1 X109.378 Y76.92 E43.78873
G1 X111.501 Y78.711 E43.89503
G1 X113.655 Y80.427 E44.00042
G1 X115.864 Y82.086 E44.10614
G1 X118.127 Y83.689 E44.21227
G1 X120.42 Y85.216 E44.3177
G1 X122.79 Y86.7 E44.42472
G1 X125.153 Y88.088 E44.52959
G1 X127.605 Y89.436 E44.63668
G1 X130.04 Y90.687 E44.74144
G1 X132.522 Y91.874 E44.84673
G1 X133.157 Y92.16 E44.87338
G1 X134.613 Y92.844 E44.93494
G1 X134.999 Y93.035 E44.95143
G1 X135.622 Y93.354 E44.97821
G1 X136.117 Y93.684 E45.00098
G1 X137.038 Y94.415 E45.04598
G1 X137.603 Y94.876 E45.07388
G1 X137.906 Y95.177 E45.09023
G1 X138.311 Y95.669 E45.11462
G1 X138.78 Y96.255 E45.14334
G1 X139.218 Y96.819 E45.17067
G1 X139.322 Y96.966 E45.17756
G1 X139.669 Y97.499 E45.2019
G1 X140.482 Y98.794 E45.26041
G1 X142.022 Y101.098 E45.36647
G1 X143.63 Y103.361 E45.47271
G1 X145.292 Y105.567 E45.57841
G1 X147.025 Y107.734 E45.6846
G1 X148.787 Y109.817 E45.78901
G1 X150.662 Y111.908 E45.89649
G1 X152.577 Y113.928 E46.00301
G1 X154.497 Y115.84 E46.10671
G1 X156.533 Y117.758 E46.21375
G1 X158.599 Y119.594 E46.31953
G1 X160.74 Y121.394 E46.42657
G1 X162.862 Y123.077 E46.53022
G1 X165.125 Y124.769 E46.63836
G1 X167.353 Y126.339 E46.74266
G1 X170.65 Y128.498 E46.89348
G1 X171.22 Y128.866 E46.91945
G1 X172.147 Y129.573 E46.96406
G1 X172.415 Y129.785 E46.97714
G1 X172.944 Y130.218 E47.0033
G1 X173.248 Y130.522 E47.01976
G1 X173.743 Y131.126 E47.04964
G1 X174.143 Y131.63 E47.07427
G1 X174.567 Y132.178 E47.10078
G1 X174.783 Y132.513 E47.11604
G1 X175.106 Y133.122 E47.14242
G1 X175.316 Y133.529 E47.15994
G1 X175.651 Y134.203 E47.18875
G1 X175.857 Y134.806 E47.21313
G1 X176.629 Y137.516 E47.32097
G1 X177.461 Y140.153 E47.42679
G1 X178.353 Y142.72 E47.53079
G1 X179.339 Y145.318 E47.63714
G1 X180.401 Y147.901 E47.74401
G1 X181.525 Y150.424 E47.84972
G1 X182.731 Y152.937 E47.95639
G1 X183.933 Y155.276 E48.05703
G1 X184.277 Y156.015 E48.08822
G1 X184.359 Y156.423 E48.10415
G1 X184.361 Y156.84 E48.12011
G1 X184.284 Y157.249 E48.13604
G1 X184.13 Y157.636 E48.15198
G1 X183.905 Y157.987 E48.16793
G1 X183.617 Y158.289 E48.1839
G1 X183.277 Y158.53 E48.19985
G1 X182.79 Y158.735 E48.22007
G1 X182.13 Y158.922 E48.24632
