;FLAVOR:Marlin
;TIME:24026
;Filament used: 25.9719m
;Layer height: 0.3
;MINX:11.501
;MINY:9.309
;MINZ:0.26
;MAXX:184.85
;MAXY:186.45
;MAXZ:29.36
;Generated with Cura_SteamEngine 4.9.1
M82 ;absolute extrusion mode
;Begin Start Gcode for Dagoma DiscoEasy 200
;Sliced: 26-07-2021 02:10:29
;Initial extruder: 0

G90 ;Absolute positioning
M106 S255 ;Fan on full
G28 X Y ;Home stop X Y
G1 X100 ;Centre back during cooldown in case of oozing
M109 R90 ;Cooldown in case too hot
G28 ;Centre
G29 ;Auto-level
M104 S205 ;Pre-heat
M107 ;Fan off
G0 X100 Y5 Z0.5 ;Front centre for degunk
M109 S205 ;Wait for initial temp
M83 ;E Relative
G1 E10 F200 ;Degunk
G1 E-3 F5000 ;Retract
G0 Z3 ;Withdraw
M82 ;E absolute
G92 E0 ;E reset
G1 F6000 ;Set feedrate

;Finish Start Gcode for Dagoma DiscoEasy 200

G92 E0
G92 E0
G1 F3000 E-3.5
;LAYER_COUNT:98
;LAYER:0
M107
G0 F1285.7 X37.186 Y13.354 Z0.26
;TYPE:SKIRT
G1 F3000 E0
G1 F900 X37.352 Y12.904 E0.01836
G1 X37.59 Y12.488 E0.0367
G1 X37.894 Y12.118 E0.05502
G1 X38.255 Y11.803 E0.07336
G1 X38.663 Y11.552 E0.09169
G1 X39.108 Y11.373 E0.11005
G1 X39.576 Y11.27 E0.12839
G1 X40.054 Y11.247 E0.1467
G1 X40.53 Y11.303 E0.16504
G1 X40.99 Y11.437 E0.18338
G1 X41.422 Y11.646 E0.20174
G1 X41.995 Y12.07 E0.22902
G1 X44.189 Y13.785 E0.33559
G1 X46.393 Y15.412 E0.44043
G1 X48.645 Y16.975 E0.54534
G1 X50.966 Y18.492 E0.65145
G1 X53.299 Y19.923 E0.75619
G1 X55.688 Y21.297 E0.86166
G1 X57.493 Y22.276 E0.94024
G1 X57.612 Y22.344 E0.94549
G1 X58.125 Y22.717 E0.96976
G1 X58.697 Y23.24 E0.99942
G1 X59.425 Y23.925 E1.03768
G1 X60.936 Y25.409 E1.11873
G1 X62.177 Y26.605 E1.18468
G1 X63.304 Y27.732 E1.24568
G1 X63.754 Y28.196 E1.27041
G1 X64.12 Y28.658 E1.29297
G1 X64.256 Y28.869 E1.30258
G1 X65.794 Y31.181 E1.40885
G1 X67.404 Y33.458 E1.51557
G1 X69.017 Y35.609 E1.61846
G1 X70.749 Y37.787 E1.72495
G1 X72.516 Y39.882 E1.82984
G1 X74.341 Y41.927 E1.93473
G1 X76.224 Y43.923 E2.03974
G1 X78.161 Y45.86 E2.14458
G1 X80.168 Y47.759 E2.25032
G1 X82.236 Y49.605 E2.3564
G1 X84.308 Y51.354 E2.46017
G1 X86.467 Y53.074 E2.56581
G1 X88.64 Y54.707 E2.66983
G1 X90.89 Y56.299 E2.77531
G1 X92.044 Y57.064 E2.8283
G1 X93.15 Y57.813 E2.87942
G1 X93.467 Y58.061 E2.89482
G1 X93.968 Y58.515 E2.92069
G1 X94.746 Y59.246 E2.96155
G1 X95.094 Y59.58 E2.98001
G1 X96.012 Y60.461 E3.0287
G1 X96.072 Y60.529 E3.03217
G1 X97.426 Y61.851 E3.10459
G1 X98.614 Y63.04 E3.16891
G1 X99.165 Y63.608 E3.1992
G1 X101.073 Y65.628 E3.30553
G1 X103.027 Y67.584 E3.41134
G1 X105.001 Y69.451 E3.51532
G1 X107.066 Y71.296 E3.6213
G1 X109.178 Y73.08 E3.7271
G1 X111.297 Y74.768 E3.83078
G1 X113.511 Y76.432 E3.93677
G1 X115.758 Y78.022 E4.04211
G1 X118.026 Y79.535 E4.14645
G1 X120.375 Y81.006 E4.25251
G1 X122.727 Y82.388 E4.35691
G1 X125.146 Y83.719 E4.46257
G1 X127.589 Y84.973 E4.56766
G1 X130.052 Y86.152 E4.67216
G1 X132.586 Y87.279 E4.7783
G1 X134.412 Y88.033 E4.8539
G1 X134.746 Y88.182 E4.8679
G1 X135.621 Y88.623 E4.90539
G1 X136.351 Y89.017 E4.93714
G1 X136.752 Y89.279 E4.95547
G1 X137.104 Y89.604 E4.97381
G1 X137.516 Y90.183 E5.001
G1 X138.853 Y92.663 E5.10882
G1 X140.223 Y95.043 E5.21392
G1 X141.649 Y97.366 E5.31823
G1 X143.166 Y99.686 E5.42431
G1 X144.727 Y101.932 E5.52899
G1 X146.386 Y104.18 E5.63591
G1 X148.046 Y106.302 E5.73901
G1 X149.793 Y108.409 E5.84376
G1 X151.634 Y110.508 E5.9506
G1 X153.484 Y112.499 E6.05461
G1 X155.422 Y114.468 E6.16034
G1 X157.38 Y116.35 E6.26428
G1 X159.449 Y118.228 E6.37121
G1 X161.532 Y120.016 E6.47626
G1 X163.64 Y121.721 E6.58002
G1 X165.823 Y123.389 E6.68516
G1 X168.069 Y125.007 E6.79109
G1 X170.07 Y126.369 E6.88373
G1 X170.662 Y126.762 E6.91092
G1 X170.936 Y126.968 E6.92404
G1 X171.493 Y127.442 E6.95203
G1 X171.98 Y127.94 E6.97869
G1 X172.121 Y128.137 E6.98796
G1 X172.422 Y128.599 E7.00906
G1 X173.308 Y129.928 E7.07019
G1 X173.601 Y130.404 E7.09158
G1 X173.878 Y130.931 E7.11436
G1 X174.197 Y131.65 E7.14446
G1 X174.348 Y132.121 E7.16339
G1 X174.689 Y133.252 E7.2086
G1 X175.56 Y135.878 E7.31448
G1 X176.503 Y138.47 E7.42003
G1 X177.499 Y140.984 E7.52352
G1 X178.605 Y143.559 E7.63077
G1 X179.728 Y145.987 E7.73314
G1 X180.977 Y148.494 E7.84033
G1 X182.255 Y150.891 E7.94429
G1 X184.249 Y154.337 E8.09665
G1 X184.65 Y155.077 E8.12886
G1 X184.789 Y155.535 E8.14718
G1 X184.85 Y156.011 E8.16554
G1 X184.831 Y156.49 E8.18389
G1 X184.733 Y156.959 E8.20223
G1 X184.558 Y157.405 E8.22056
G1 X184.312 Y157.816 E8.23889
G1 X184.001 Y158.18 E8.25721
G1 X183.633 Y158.488 E8.27558
G1 X183.22 Y158.73 E8.2939
G1 X182.517 Y158.981 E8.32246
G1 X182.44 Y159.005 E8.32555
G1 X86.803 Y186.177 E12.13039
G1 X86.124 Y186.359 E12.15729
G1 X85.653 Y186.444 E12.17561
G1 X85.174 Y186.45 E12.19394
G1 X84.7 Y186.375 E12.2123
G1 X84.246 Y186.224 E12.23061
G1 X83.823 Y185.999 E12.24895
G1 X83.41 Y185.677 E12.26899
G1 X81.287 Y183.839 E12.37645
G1 X79.176 Y182.116 E12.48074
G1 X77.008 Y180.444 E12.58551
G1 X74.764 Y178.814 E12.69165
G1 X72.516 Y177.275 E12.79591
G1 X70.19 Y175.779 E12.90175
G1 X67.877 Y174.38 E13.0052
G1 X65.456 Y173.01 E13.11165
G1 X64.128 Y172.296 E13.16936
G1 X63.211 Y171.811 E13.20905
G1 X62.763 Y171.527 E13.22935
G1 X62.272 Y171.139 E13.2533
G1 X61.982 Y170.869 E13.26847
G1 X61.268 Y170.179 E13.30647
G1 X60.422 Y169.376 E13.3511
G1 X60.201 Y169.142 E13.36342
G1 X59.708 Y168.556 E13.39273
G1 X59.482 Y168.248 E13.40735
G1 X58.789 Y167.158 E13.45678
G1 X58.63 Y166.9 E13.46838
G1 X57.124 Y164.603 E13.57349
G1 X55.55 Y162.348 E13.67873
G1 X53.922 Y160.145 E13.78356
G1 X52.22 Y157.976 E13.88907
G1 X50.45 Y155.847 E13.99503
G1 X48.658 Y153.812 E14.0988
G1 X46.787 Y151.805 E14.2038
G1 X44.856 Y149.846 E14.30907
G1 X42.868 Y147.942 E14.41442
G1 X40.811 Y146.08 E14.5206
G1 X38.754 Y144.32 E14.6242
G1 X36.6 Y142.58 E14.73017
G1 X34.417 Y140.918 E14.83517
G1 X32.194 Y139.322 E14.9399
G1 X29.927 Y137.79 E15.04461
G1 X28.843 Y137.109 E15.0936
G1 X28.772 Y137.056 E15.09699
G1 X27.608 Y136.308 E15.14994
G1 X26.885 Y135.77 E15.18443
G1 X26.212 Y135.129 E15.22
G1 X25.926 Y134.848 E15.23534
G1 X25.056 Y134.013 E15.28149
G1 X24.703 Y133.625 E15.30156
G1 X24.411 Y133.281 E15.31883
G1 X24.028 Y132.714 E15.34502
G1 X23.439 Y131.569 E15.39429
G1 X22.149 Y129.151 E15.49917
G1 X20.788 Y126.762 E15.60439
G1 X19.354 Y124.404 E15.71001
G1 X17.868 Y122.108 E15.81468
G1 X16.306 Y119.841 E15.92003
G1 X14.692 Y117.632 E16.02473
G1 X12.185 Y114.441 E16.18003
G1 X11.909 Y114.024 E16.19917
G1 X11.697 Y113.594 E16.21751
G1 X11.56 Y113.135 E16.23584
G1 X11.501 Y112.66 E16.25416
G1 X11.566 Y111.926 E16.28236
G1 X11.705 Y111.347 E16.30515
G1 X14.422 Y100.893 E16.71851
G1 X15.076 Y98.225 E16.82364
G1 X15.657 Y95.527 E16.92925
G1 X16.158 Y92.822 E17.03453
G1 X16.576 Y90.145 E17.13822
G1 X16.927 Y87.395 E17.24432
G1 X17.035 Y86.352 E17.28445
G1 X17.143 Y85.603 E17.31341
G1 X17.356 Y84.72 E17.34817
G1 X18.993 Y78.403 E17.5979
G1 X19.185 Y77.713 E17.62531
G1 X19.373 Y77.201 E17.64618
G1 X20.31 Y74.977 E17.73854
G1 X21.297 Y72.432 E17.84301
G1 X22.235 Y69.796 E17.95008
G1 X23.069 Y67.227 E18.05345
G1 X23.846 Y64.578 E18.15909
G1 X24.279 Y62.966 E18.22297
G1 X26.85 Y53.074 E18.61411
G1 X27.51 Y50.387 E18.72
G1 X28.08 Y47.728 E18.82407
G1 X28.586 Y45.001 E18.93021
G1 X29.006 Y42.324 E19.03391
G1 X29.42 Y39.002 E19.16202
G1 X29.517 Y38.109 E19.1964
G1 X29.631 Y37.514 E19.21958
G1 X30.247 Y35.107 E19.31467
G1 X31.298 Y31.098 E19.47327
G1 X31.485 Y30.427 E19.49993
G1 X31.648 Y29.975 E19.51832
G1 X32.595 Y27.722 E19.61185
G1 X33.599 Y25.132 E19.71815
G1 X34.518 Y22.545 E19.82322
G1 X35.364 Y19.935 E19.92822
G1 X36.131 Y17.317 E20.03262
G1 X36.562 Y15.711 E20.09625
G1 X37.009 Y13.994 E20.16415
G1 X37.186 Y13.354 E20.18956
G0 F1285.7 X37.523 Y13.447
G1 F900 X37.681 Y13.027 E20.20674
G1 X37.911 Y12.641 E20.22393
G1 X38.205 Y12.302 E20.24111
G1 X38.555 Y12.02 E20.25831
G1 X38.949 Y11.805 E20.27548
G1 X39.375 Y11.663 E20.29267
G1 X39.819 Y11.599 E20.30984
G1 X40.268 Y11.614 E20.32703
G1 X40.707 Y11.709 E20.34422
G1 X41.122 Y11.88 E20.3614
G1 X41.541 Y12.153 E20.38053
G1 X41.808 Y12.368 E20.39365
G1 X43.975 Y14.063 E20.49894
G1 X46.172 Y15.685 E20.60345
G1 X48.464 Y17.275 E20.7102
G1 X50.786 Y18.793 E20.81637
G1 X53.1 Y20.212 E20.92025
G1 X55.533 Y21.612 E21.02767
G1 X57.376 Y22.612 E21.10792
G1 X57.439 Y22.648 E21.11069
G1 X57.889 Y22.976 E21.132
G1 X58.457 Y23.495 E21.16145
G1 X59.179 Y24.175 E21.1994
G1 X60.673 Y25.641 E21.27951
G1 X61.896 Y26.819 E21.34449
G1 X63.053 Y27.976 E21.40711
G1 X63.503 Y28.44 E21.43185
G1 X63.826 Y28.848 E21.45176
G1 X63.965 Y29.063 E21.46156
G1 X65.524 Y31.407 E21.56929
G1 X67.106 Y33.643 E21.67411
G1 X68.743 Y35.827 E21.77857
G1 X70.471 Y37.999 E21.88478
G1 X72.253 Y40.113 E21.99059
G1 X74.09 Y42.172 E22.09619
G1 X75.985 Y44.18 E22.20186
G1 X77.92 Y46.115 E22.30658
G1 X79.924 Y48.011 E22.41216
G1 X81.96 Y49.829 E22.51662
G1 X84.113 Y51.646 E22.62443
G1 X86.234 Y53.336 E22.72822
G1 X88.476 Y55.021 E22.83555
G1 X90.688 Y56.585 E22.93922
G1 X91.848 Y57.353 E22.99246
G1 X92.954 Y58.102 E23.04358
G1 X93.232 Y58.32 E23.0571
G1 X93.728 Y58.77 E23.08273
G1 X94.554 Y59.547 E23.12613
G1 X95.769 Y60.713 E23.19057
G1 X95.823 Y60.775 E23.19372
G1 X97.202 Y62.123 E23.26752
G1 X98.363 Y63.284 E23.33035
G1 X98.911 Y63.848 E23.36045
G1 X100.837 Y65.887 E23.46779
G1 X102.769 Y67.821 E23.5724
G1 X104.776 Y69.718 E23.67809
G1 X106.855 Y71.577 E23.78482
G1 X108.923 Y73.323 E23.8884
G1 X111.112 Y75.068 E23.99553
G1 X113.292 Y76.705 E24.09986
G1 X115.548 Y78.302 E24.20564
G1 X117.856 Y79.842 E24.31182
G1 X120.182 Y81.298 E24.41684
G1 X122.566 Y82.699 E24.52266
G1 X124.96 Y84.016 E24.62723
G1 X127.42 Y85.28 E24.73307
G1 X129.93 Y86.481 E24.83956
G1 X132.422 Y87.589 E24.94393
G1 X134.274 Y88.355 E25.02062
G1 X134.589 Y88.495 E25.03382
G1 X135.454 Y88.931 E25.07089
G1 X136.184 Y89.325 E25.10263
G1 X136.559 Y89.573 E25.11984
G1 X136.884 Y89.883 E25.13703
G1 X137.208 Y90.349 E25.15875
G1 X138.554 Y92.845 E25.26727
G1 X139.912 Y95.205 E25.37147
G1 X141.365 Y97.571 E25.47773
G1 X142.882 Y99.892 E25.58384
G1 X144.438 Y102.13 E25.68816
G1 X146.079 Y104.354 E25.79393
G1 X147.781 Y106.53 E25.89965
G1 X149.541 Y108.653 E26.00518
G1 X151.38 Y110.748 E26.11187
G1 X153.225 Y112.735 E26.21563
G1 X155.177 Y114.719 E26.32215
G1 X157.168 Y116.632 E26.42781
G1 X159.195 Y118.472 E26.53258
G1 X161.294 Y120.273 E26.63842
G1 X163.418 Y121.991 E26.74297
G1 X165.634 Y123.684 E26.84969
G1 X167.877 Y125.3 E26.95549
G1 X169.848 Y126.642 E27.04674
G1 X170.469 Y127.054 E27.07526
G1 X170.709 Y127.235 E27.08677
G1 X171.266 Y127.709 E27.11476
G1 X171.418 Y127.846 E27.12259
G1 X171.828 Y128.329 E27.14683
G1 X172.131 Y128.793 E27.16804
G1 X173.014 Y130.117 E27.22894
G1 X173.291 Y130.567 E27.24917
G1 X173.603 Y131.164 E27.27494
G1 X173.864 Y131.757 E27.29974
G1 X174.013 Y132.222 E27.31843
G1 X174.363 Y133.385 E27.36491
G1 X175.222 Y135.972 E27.46922
G1 X176.169 Y138.576 E27.57526
G1 X177.184 Y141.139 E27.68076
G1 X178.272 Y143.672 E27.78626
G1 X179.435 Y146.184 E27.8922
G1 X180.66 Y148.645 E27.9974
G1 X181.951 Y151.064 E28.10233
G1 X183.932 Y154.489 E28.25375
G1 X184.335 Y155.232 E28.2861
G1 X184.458 Y155.664 E28.30329
G1 X184.503 Y156.111 E28.32048
G1 X184.468 Y156.559 E28.33768
G1 X184.354 Y156.993 E28.35485
G1 X184.164 Y157.4 E28.37204
G1 X183.906 Y157.767 E28.38921
G1 X183.587 Y158.083 E28.40639
G1 X183.217 Y158.337 E28.42357
G1 X182.736 Y158.545 E28.44362
G1 X182.344 Y158.668 E28.45934
G1 X86.713 Y185.839 E32.26395
G1 X86.034 Y186.021 E32.29085
G1 X85.591 Y186.098 E32.30806
G1 X85.142 Y186.096 E32.32524
G1 X84.701 Y186.014 E32.34241
G1 X84.281 Y185.855 E32.35959
G1 X83.693 Y185.461 E32.38668
G1 X83.623 Y185.398 E32.39029
G1 X81.527 Y183.583 E32.49639
G1 X79.401 Y181.848 E32.60141
G1 X77.2 Y180.151 E32.70777
G1 X74.951 Y178.517 E32.81416
G1 X72.735 Y177 E32.91693
G1 X70.375 Y175.482 E33.02431
G1 X68.019 Y174.058 E33.12967
G1 X65.621 Y172.7 E33.23513
G1 X64.309 Y171.996 E33.29211
G1 X63.374 Y171.502 E33.33258
G1 X62.785 Y171.108 E33.3597
G1 X62.263 Y170.654 E33.38618
G1 X61.511 Y169.928 E33.42618
G1 X60.663 Y169.122 E33.47095
G1 X60.469 Y168.917 E33.48175
G1 X59.976 Y168.331 E33.51106
G1 X59.778 Y168.06 E33.5239
G1 X59.087 Y166.975 E33.57313
G1 X58.915 Y166.695 E33.58571
G1 X57.423 Y164.421 E33.68979
G1 X55.815 Y162.116 E33.79735
G1 X54.2 Y159.931 E33.90133
G1 X52.501 Y157.767 E34.00662
G1 X50.733 Y155.64 E34.11246
G1 X48.887 Y153.544 E34.21935
G1 X47.045 Y151.568 E34.32273
G1 X45.099 Y149.595 E34.42879
G1 X43.097 Y147.677 E34.53489
G1 X41.085 Y145.855 E34.63877
G1 X38.953 Y144.031 E34.74614
G1 X36.822 Y142.31 E34.85097
G1 X34.623 Y140.636 E34.95673
G1 X32.384 Y139.028 E35.06223
G1 X30.094 Y137.481 E35.16799
G1 X29.03 Y136.812 E35.21608
G1 X28.977 Y136.772 E35.21863
G1 X27.797 Y136.014 E35.2723
G1 X27.126 Y135.516 E35.30428
G1 X26.457 Y134.879 E35.33963
G1 X26.171 Y134.598 E35.35497
G1 X25.299 Y133.761 E35.40123
G1 X24.753 Y133.14 E35.43287
G1 X24.676 Y133.051 E35.43738
G1 X24.34 Y132.554 E35.46034
G1 X23.768 Y131.442 E35.50819
G1 X22.456 Y128.982 E35.61489
G1 X21.08 Y126.568 E35.72122
G1 X19.666 Y124.243 E35.82536
G1 X18.159 Y121.913 E35.93156
G1 X16.574 Y119.612 E36.03848
G1 X14.987 Y117.442 E36.14137
G1 X12.46 Y114.225 E36.29792
G1 X12.209 Y113.844 E36.31538
G1 X12.013 Y113.44 E36.33257
G1 X11.892 Y113.008 E36.34974
G1 X11.849 Y112.561 E36.36692
G1 X11.908 Y112.001 E36.38847
G1 X12.045 Y111.431 E36.41091
G1 X14.752 Y101.015 E36.82276
G1 X15.425 Y98.267 E36.93103
G1 X16 Y95.596 E37.03559
G1 X16.498 Y92.905 E37.14033
G1 X16.925 Y90.174 E37.24611
G1 X17.275 Y87.432 E37.3519
G1 X17.383 Y86.392 E37.39191
G1 X17.484 Y85.685 E37.41924
G1 X17.695 Y84.808 E37.45376
G1 X19.33 Y78.497 E37.70325
G1 X19.522 Y77.807 E37.73066
G1 X19.695 Y77.337 E37.74983
G1 X20.646 Y75.079 E37.84359
G1 X21.633 Y72.534 E37.94806
G1 X22.559 Y69.932 E38.05375
G1 X23.403 Y67.333 E38.15833
G1 X24.184 Y64.671 E38.2645
G1 X24.617 Y63.057 E38.32845
G1 X27.189 Y53.162 E38.71971
G1 X27.849 Y50.474 E38.82563
G1 X28.423 Y47.796 E38.93045
G1 X28.927 Y45.079 E39.0362
G1 X29.354 Y42.355 E39.14172
G1 X29.767 Y39.046 E39.26933
G1 X29.865 Y38.146 E39.30398
G1 X29.973 Y37.59 E39.32565
G1 X30.585 Y35.196 E39.42022
G1 X31.635 Y31.192 E39.57863
G1 X31.822 Y30.521 E39.60529
G1 X31.97 Y30.11 E39.62201
G1 X32.942 Y27.798 E39.71799
G1 X33.924 Y25.265 E39.82195
G1 X34.845 Y22.671 E39.92729
G1 X35.698 Y20.041 E40.0331
G1 X36.468 Y17.41 E40.13802
G1 X36.9 Y15.802 E40.20174
G1 X37.346 Y14.087 E40.26955
G1 X37.523 Y13.447 E40.29496
G0 F1285.7 X37.861 Y13.54
G1 F900 X38.01 Y13.151 E40.3109
G1 X38.23 Y12.798 E40.32682
G1 X38.514 Y12.493 E40.34277
G1 X38.851 Y12.247 E40.35874
G1 X39.228 Y12.071 E40.37466
G1 X39.632 Y11.969 E40.39061
G1 X40.048 Y11.947 E40.40655
G1 X40.461 Y12.004 E40.4225
G1 X40.855 Y12.139 E40.43844
G1 X41.321 Y12.426 E40.45939
G1 X41.564 Y12.622 E40.47133
G1 X43.755 Y14.335 E40.57777
G1 X45.981 Y15.979 E40.68367
G1 X48.259 Y17.559 E40.78977
G1 X50.597 Y19.087 E40.89665
G1 X52.939 Y20.524 E41.00181
G1 X55.349 Y21.91 E41.1082
G1 X57.16 Y22.892 E41.18704
G1 X57.653 Y23.234 E41.21
G1 X58.218 Y23.75 E41.23929
G1 X58.934 Y24.424 E41.27692
G1 X60.43 Y25.893 E41.35715
G1 X61.653 Y27.071 E41.42214
G1 X62.801 Y28.22 E41.4843
G1 X63.251 Y28.684 E41.50903
G1 X63.69 Y29.282 E41.53742
G1 X65.204 Y31.56 E41.6421
G1 X66.825 Y33.851 E41.7495
G1 X68.482 Y36.062 E41.85524
G1 X70.195 Y38.215 E41.96053
G1 X71.987 Y40.341 E42.06694
G1 X73.823 Y42.397 E42.17243
G1 X75.731 Y44.42 E42.27885
G1 X77.68 Y46.369 E42.38433
G1 X79.699 Y48.278 E42.49067
G1 X81.756 Y50.116 E42.59624
G1 X83.879 Y51.907 E42.70253
G1 X86.011 Y53.606 E42.80686
G1 X88.251 Y55.289 E42.91408
G1 X90.508 Y56.886 E43.01989
G1 X91.652 Y57.643 E43.07239
G1 X92.758 Y58.392 E43.12351
G1 X92.997 Y58.58 E43.13515
G1 X93.488 Y59.025 E43.16051
G1 X94.308 Y59.796 E43.20358
G1 X94.609 Y60.085 E43.21955
G1 X95.527 Y60.966 E43.26824
G1 X95.577 Y61.024 E43.27117
G1 X96.937 Y62.352 E43.34392
G1 X98.112 Y63.527 E43.40751
G1 X98.656 Y64.089 E43.43744
G1 X100.556 Y66.101 E43.54335
G1 X102.546 Y68.093 E43.6511
G1 X104.53 Y69.968 E43.75557
G1 X106.606 Y71.824 E43.86214
G1 X108.711 Y73.602 E43.96759
G1 X110.898 Y75.345 E44.07461
