;FLAVOR:Marlin
;TIME:11647
;Filament used: 14.1757m
;Layer height: 0.3
;MINX:34.907
;MINY:10.137
;MINZ:0.26
;MAXX:192.839
;MAXY:192.074
;MAXZ:7.76
;Generated with Cura_SteamEngine 4.9.1
M82 ;absolute extrusion mode
;Begin Start Gcode for Dagoma DiscoEasy 200
;Sliced: 07-07-2021 19:55:52
;Initial extruder: 0

G90 ;Absolute positioning
M106 S255 ;Fan on full
G28 X Y ;Home stop X Y
G1 X100 ;Centre back during cooldown in case of oozing
M109 R90 ;Cooldown in case too hot
G28 ;Centre
G29 ;Auto-level
M104 S205 ;Pre-heat
M107 ;Fan off
G0 X100 Y5 Z0.5 ;Front centre for degunk
M109 S205 ;Wait for initial temp
M83 ;E Relative
G1 E10 F200 ;Degunk
G1 E-3 F5000 ;Retract
G0 Z3 ;Withdraw
M82 ;E absolute
G92 E0 ;E reset
G1 F6000 ;Set feedrate

;Finish Start Gcode for Dagoma DiscoEasy 200

G92 E0
G92 E0
G1 F3000 E-3.5
;LAYER_COUNT:26
;LAYER:0
M107
G0 F1285.7 X85.283 Y12.663 Z0.26
;TYPE:SKIRT
G1 F3000 E0
G1 F900 X85.659 Y12.034 E0.02804
G1 X85.978 Y11.578 E0.04934
G1 X86.359 Y11.173 E0.07062
G1 X86.794 Y10.826 E0.09192
G1 X87.274 Y10.545 E0.1132
G1 X87.79 Y10.336 E0.13451
G1 X88.33 Y10.203 E0.15579
G1 X88.934 Y10.147 E0.179
G1 X89.757 Y10.137 E0.2105
G1 X188.376 Y10.386 E3.98462
G1 X189.03 Y10.397 E4.00965
G1 X189.584 Y10.446 E4.03093
G1 X190.126 Y10.574 E4.05224
G1 X190.643 Y10.778 E4.07351
G1 X191.126 Y11.055 E4.09482
G1 X191.565 Y11.397 E4.11612
G1 X191.949 Y11.799 E4.13739
G1 X192.273 Y12.252 E4.15871
G1 X192.528 Y12.747 E4.18002
G1 X192.709 Y13.273 E4.20131
G1 X192.814 Y13.819 E4.22258
G1 X192.839 Y14.375 E4.24388
G1 X192.784 Y14.929 E4.26519
G1 X192.65 Y15.469 E4.28648
G1 X192.344 Y16.167 E4.31565
G1 X191.981 Y16.815 E4.34407
G1 X92.266 Y189.523 E11.97605
G1 X91.874 Y190.182 E12.00539
G1 X91.556 Y190.639 E12.0267
G1 X91.176 Y191.045 E12.04798
G1 X90.742 Y191.393 E12.06927
G1 X90.262 Y191.674 E12.09056
G1 X89.747 Y191.885 E12.11185
G1 X89.207 Y192.019 E12.13315
G1 X88.653 Y192.074 E12.15445
G1 X88.097 Y192.05 E12.17575
G1 X87.551 Y191.946 E12.19702
G1 X87.024 Y191.766 E12.21833
G1 X86.53 Y191.511 E12.23961
G1 X86.076 Y191.189 E12.26091
G1 X85.674 Y190.804 E12.28221
G1 X85.212 Y190.18 E12.31192
G1 X84.729 Y189.366 E12.34815
G1 X35.738 Y103.511 E16.13106
G1 X35.383 Y102.87 E16.15911
G1 X35.149 Y102.366 E16.18037
G1 X34.99 Y101.832 E16.20169
G1 X34.909 Y101.282 E16.22297
G1 X34.907 Y100.725 E16.24428
G1 X34.985 Y100.175 E16.26554
G1 X35.142 Y99.641 E16.28684
G1 X35.388 Y99.103 E16.30948
G1 X35.685 Y98.57 E16.33283
G1 X85.283 Y12.663 E20.12904
G0 F1285.7 X85.613 Y12.793
G1 F900 X85.959 Y12.214 E20.15486
G1 X86.265 Y11.78 E20.17518
G1 X86.632 Y11.397 E20.19548
G1 X87.053 Y11.074 E20.21578
G1 X87.517 Y10.817 E20.23608
G1 X88.015 Y10.633 E20.2564
G1 X88.535 Y10.526 E20.27672
G1 X88.939 Y10.497 E20.29222
G1 X89.756 Y10.487 E20.32349
G1 X188.37 Y10.735 E24.09741
G1 X189.024 Y10.746 E24.12244
G1 X189.553 Y10.795 E24.14277
G1 X190.068 Y10.923 E24.16308
G1 X190.558 Y11.126 E24.18338
G1 X191.012 Y11.401 E24.20369
G1 X191.419 Y11.741 E24.22399
G1 X191.771 Y12.138 E24.24429
G1 X192.06 Y12.584 E24.26463
G1 X192.278 Y13.067 E24.28491
G1 X192.421 Y13.578 E24.30522
G1 X192.486 Y14.105 E24.32554
G1 X192.471 Y14.635 E24.34583
G1 X192.377 Y15.158 E24.36616
G1 X192.205 Y15.66 E24.38647
G1 X192.039 Y15.996 E24.40081
G1 X191.678 Y16.64 E24.42907
G1 X91.966 Y189.344 E32.06085
G1 X91.574 Y190.003 E32.0902
G1 X91.269 Y190.437 E32.1105
G1 X90.902 Y190.821 E32.13083
G1 X90.482 Y191.145 E32.15113
G1 X90.018 Y191.403 E32.17144
G1 X89.521 Y191.588 E32.19174
G1 X89.001 Y191.696 E32.21206
G1 X88.471 Y191.725 E32.23238
G1 X87.943 Y191.674 E32.25268
G1 X87.429 Y191.545 E32.27296
G1 X86.939 Y191.34 E32.29328
G1 X86.486 Y191.063 E32.31361
G1 X86.08 Y190.722 E32.3339
G1 X85.729 Y190.323 E32.35423
G1 X85.513 Y190.001 E32.36907
G1 X85.033 Y189.192 E32.40507
G1 X36.044 Y103.342 E36.18778
G1 X35.689 Y102.701 E36.21583
G1 X35.468 Y102.219 E36.23612
G1 X35.321 Y101.709 E36.25643
G1 X35.253 Y101.182 E36.27677
G1 X35.265 Y100.652 E36.29705
G1 X35.356 Y100.129 E36.31737
G1 X35.524 Y99.626 E36.33766
G1 X35.754 Y99.163 E36.35745
G1 X36.011 Y98.704 E36.37758
G1 X85.613 Y12.793 E40.174
G0 F1285.7 X85.889 Y13.013
G1 F900 X86.26 Y12.393 E40.20165
G1 X86.551 Y11.983 E40.22089
G1 X86.904 Y11.624 E40.24016
G1 X87.31 Y11.325 E40.25945
G1 X87.757 Y11.094 E40.27871
G1 X88.236 Y10.937 E40.298
G1 X88.943 Y10.847 E40.32527
G1 X89.755 Y10.837 E40.35635
G1 X188.364 Y11.085 E44.13008
G1 X189.018 Y11.096 E44.15511
G1 X189.52 Y11.145 E44.17442
G1 X190.007 Y11.272 E44.19368
G1 X190.468 Y11.474 E44.21294
G1 X190.891 Y11.747 E44.23221
G1 X191.266 Y12.083 E44.25148
G1 X191.583 Y12.475 E44.27077
G1 X191.834 Y12.911 E44.29002
G1 X192.013 Y13.382 E44.3093
G1 X192.115 Y13.875 E44.32857
G1 X192.138 Y14.378 E44.34784
G1 X192.081 Y14.879 E44.36714
G1 X191.946 Y15.364 E44.3864
G1 X191.734 Y15.825 E44.40582
G1 X191.375 Y16.465 E44.4339
G1 X91.665 Y189.165 E52.06552
G1 X91.273 Y189.824 E52.09486
G1 X90.982 Y190.235 E52.11414
G1 X90.629 Y190.595 E52.13343
G1 X90.225 Y190.895 E52.15269
G1 X89.778 Y191.127 E52.17196
G1 X89.3 Y191.285 E52.19123
G1 X88.803 Y191.365 E52.21049
G1 X88.299 Y191.367 E52.22978
G1 X87.802 Y191.288 E52.24904
G1 X87.323 Y191.132 E52.26832
G1 X86.875 Y190.902 E52.28759
G1 X86.469 Y190.604 E52.30686
G1 X86.115 Y190.246 E52.32613
G1 X85.814 Y189.822 E52.34603
G1 X85.337 Y189.019 E52.38177
G1 X36.351 Y103.172 E56.16433
G1 X35.996 Y102.531 E56.19237
G1 X35.787 Y102.073 E56.21164
G1 X35.654 Y101.587 E56.23092
G1 X35.599 Y101.086 E56.25021
G1 X35.625 Y100.584 E56.26945
G1 X35.729 Y100.091 E56.28873
G1 X35.955 Y99.53 E56.31188
G1 X36.296 Y98.912 E56.33889
G1 X85.889 Y13.013 E60.13473
G1 F3000 E56.63473
;MESH:support_half_hex_4.stl
G0 F1285.7 X88.084 Y14.283
G0 X88.957 Y14.786
G0 X88.696 Y186.909
;TYPE:WALL-INNER
G1 F3000 E60.13473
G1 F900 X88.544 Y187.172 E60.14636
G1 X88.394 Y186.908 E60.15293
G1 X39.366 Y100.993 E63.93854
G1 X89.282 Y14.535 E67.7591
G1 X187.77 Y14.785 E71.5282
G1 X187.771 Y14.785 E71.52823
G1 X188.072 Y14.785 E71.53975
G1 X187.921 Y15.046 E71.5463
G1 X88.696 Y186.909 E79.14089
G0 F1285.7 X88.694 Y187.561
;TYPE:WALL-OUTER
G1 F900 X88.542 Y187.824 E79.15252
G1 X88.392 Y187.56 E79.15909
G1 X38.992 Y100.992 E82.97346
G1 X89.095 Y14.21 E86.80833
G1 X188.332 Y14.461 E90.6061
G1 X188.333 Y14.461 E90.60614
G1 X188.634 Y14.461 E90.61765
G1 X188.483 Y14.722 E90.6242
G1 X88.694 Y187.561 E98.26193
G0 F1285.7 X88.594 Y187.734
G0 X88.508 Y187.684
G0 X88.546 Y186.488
;TYPE:SKIN
G1 F900 X39.758 Y100.993 E102.02904
G1 X89.478 Y14.875 E105.83457
G1 X187.483 Y15.123 E109.58519
G1 X88.546 Y186.488 E117.15777
G0 F1285.7 X88.589 Y186.099
G1 F900 X88.395 Y185.905 E117.16827
G0 F1285.7 X88.77 Y185.785
G1 F900 X87.737 Y184.752 E117.22417
G1 X87.675 Y184.69
G0 F1285.7 X87.079 Y183.599
G1 F900 X88.951 Y185.471 E117.32549
G0 F1285.7 X89.132 Y185.158
G1 F900 X86.421 Y182.446 E117.47224
G1 X86.359 Y182.384
G0 F1285.7 X85.763 Y181.293
G1 F900 X89.313 Y184.844 E117.6644
G0 F1285.7 X89.494 Y184.53
G1 F900 X85.105 Y180.141 E117.90193
G1 X85.043 Y180.079
G0 F1285.7 X84.448 Y178.988
G1 F900 X89.675 Y184.216 E118.18485
G0 F1285.7 X89.857 Y183.902
G1 F900 X83.79 Y177.835 E118.51321
G1 X83.728 Y177.773
G0 F1285.7 X83.132 Y176.682
G1 F900 X90.038 Y183.588 E118.88697
G0 F1285.7 X90.219 Y183.275
G1 F900 X82.474 Y175.529 E119.30616
G1 X82.412 Y175.467
G0 F1285.7 X81.816 Y174.376
G1 F900 X90.4 Y182.961 E119.77077
G0 F1285.7 X90.582 Y182.647
G1 F900 X81.158 Y173.224 E120.28078
G1 X81.096 Y173.162
G0 F1285.7 X80.5 Y172.07
G1 F900 X90.763 Y182.333 E120.83623
G0 F1285.7 X90.944 Y182.019
G1 F900 X79.842 Y170.918 E121.43705
G1 X79.78 Y170.856
G0 F1285.7 X79.184 Y169.765
G1 F900 X91.125 Y181.705 E122.08329
G0 F1285.7 X91.306 Y181.391
G1 F900 X78.527 Y168.612 E122.77491
G1 X78.465 Y168.55
G0 F1285.7 X77.869 Y167.459
G1 F900 X91.488 Y181.078 E123.51198
G0 F1285.7 X91.669 Y180.764
G1 F900 X77.211 Y166.306 E124.29447
G1 X77.149 Y166.244
G0 F1285.7 X76.553 Y165.153
G1 F900 X91.85 Y180.45 E125.12236
G0 F1285.7 X92.031 Y180.136
G1 F900 X75.895 Y164 E125.99566
G1 X75.833 Y163.938
G0 F1285.7 X75.237 Y162.848
G1 F900 X92.212 Y179.822 E126.91434
G0 F1285.7 X92.394 Y179.509
G1 F900 X74.579 Y161.695 E127.87849
G1 X74.517 Y161.633
G0 F1285.7 X73.921 Y160.542
G1 F900 X92.575 Y179.195 E128.88804
G0 F1285.7 X92.756 Y178.881
G1 F900 X73.264 Y159.389 E129.94297
G1 X73.202 Y159.327
G0 F1285.7 X72.605 Y158.236
G1 F900 X92.937 Y178.567 E131.04334
G0 F1285.7 X93.118 Y178.254
G1 F900 X71.948 Y157.083 E132.18911
G1 X71.886 Y157.021
G0 F1285.7 X71.289 Y155.93
G1 F900 X93.299 Y177.94 E133.38032
G0 F1285.7 X93.48 Y177.626
G1 F900 X70.632 Y154.777 E134.61691
G1 X70.57 Y154.715
G0 F1285.7 X69.974 Y153.625
G1 F900 X93.661 Y177.312 E135.89888
G0 F1285.7 X93.842 Y176.998
G1 F900 X69.316 Y152.472 E137.22626
G1 X69.254 Y152.41
G0 F1285.7 X68.658 Y151.319
G1 F900 X94.024 Y176.685 E138.5991
G0 F1285.7 X94.205 Y176.371
G1 F900 X68 Y150.166 E140.01735
G1 X67.938 Y150.104
G0 F1285.7 X67.342 Y149.013
G1 F900 X94.386 Y176.057 E141.481
G0 F1285.7 X94.567 Y175.743
G1 F900 X66.685 Y147.86 E142.99004
G1 X66.623 Y147.798
G0 F1285.7 X66.026 Y146.707
G1 F900 X94.749 Y175.43 E144.54457
G0 F1285.7 X94.93 Y175.116
G1 F900 X65.369 Y145.555 E146.14444
G1 X65.307 Y145.493
G0 F1285.7 X64.71 Y144.401
G1 F900 X95.111 Y174.802 E147.78979
G0 F1285.7 X95.292 Y174.488
G1 F900 X64.053 Y143.249 E149.48048
G1 X63.991 Y143.187
G0 F1285.7 X63.395 Y142.096
G1 F900 X95.473 Y174.174 E151.21658
G0 F1285.7 X95.655 Y173.861
G1 F900 X62.737 Y140.943 E152.99815
G1 X62.675 Y140.881
G0 F1285.7 X62.079 Y139.79
G1 F900 X95.836 Y173.547 E154.82512
G0 F1285.7 X96.017 Y173.233
G1 F900 X61.421 Y138.637 E156.6975
G1 X61.359 Y138.575
G0 F1285.7 X60.763 Y137.484
G1 F900 X96.198 Y172.919 E158.61529
G0 F1285.7 X96.379 Y172.605
G1 F900 X60.106 Y136.332 E160.57843
G1 X60.044 Y136.27
G0 F1285.7 X59.447 Y135.179
G1 F900 X96.561 Y172.292 E162.58706
G0 F1285.7 X96.742 Y171.978
G1 F900 X58.79 Y134.026 E164.64107
G1 X58.728 Y133.964
G0 F1285.7 X58.131 Y132.873
G1 F900 X96.923 Y171.664 E166.74051
G0 F1285.7 X97.104 Y171.35
G1 F900 X57.474 Y131.72 E168.88534
G1 X57.412 Y131.658
G0 F1285.7 X56.816 Y130.567
G1 F900 X97.285 Y171.037 E171.0756
G0 F1285.7 X97.466 Y170.723
G1 F900 X56.158 Y129.414 E173.31127
G1 X56.096 Y129.352
G0 F1285.7 X55.5 Y128.262
G1 F900 X97.647 Y170.409 E175.59232
G0 F1285.7 X97.828 Y170.095
G1 F900 X54.842 Y127.108 E177.9188
G1 X54.78 Y127.046
G0 F1285.7 X54.184 Y125.956
G1 F900 X98.009 Y169.781 E180.29067
G0 F1285.7 X98.191 Y169.468
G1 F900 X53.526 Y124.802 E182.70802
G1 X53.464 Y124.74
G0 F1285.7 X52.868 Y123.65
G1 F900 X98.372 Y169.154 E185.17075
G0 F1285.7 X98.553 Y168.84
G1 F900 X52.211 Y122.497 E187.67887
G1 X52.149 Y122.435
G0 F1285.7 X51.553 Y121.344
G1 F900 X98.734 Y168.526 E190.23239
G0 F1285.7 X98.915 Y168.212
G1 F900 X50.895 Y120.191 E192.83132
G1 X50.833 Y120.129
G0 F1285.7 X50.237 Y119.038
G1 F900 X99.097 Y167.898 E195.47569
G0 F1285.7 X99.278 Y167.585
G1 F900 X49.579 Y117.886 E198.16546
G1 X49.517 Y117.824
G0 F1285.7 X48.921 Y116.733
G1 F900 X99.459 Y167.271 E200.90064
G0 F1285.7 X99.64 Y166.957
G1 F900 X48.263 Y115.58 E203.68123
G1 X48.201 Y115.518
G0 F1285.7 X47.605 Y114.427
G1 F900 X99.822 Y166.643 E206.50725
G0 F1285.7 X100.003 Y166.329
G1 F900 X46.947 Y113.274 E209.37869
G1 X46.885 Y113.212
G0 F1285.7 X46.29 Y112.121
G1 F900 X100.184 Y166.015 E212.2955
G0 F1285.7 X100.365 Y165.701
G1 F900 X45.632 Y110.969 E215.25769
G1 X45.57 Y110.907
G0 F1285.7 X44.974 Y109.815
G1 F900 X100.546 Y165.388 E218.26535
G0 F1285.7 X100.728 Y165.074
G1 F900 X44.316 Y108.663 E221.31841
G1 X44.254 Y108.601
G0 F1285.7 X43.658 Y107.509
G1 F900 X100.909 Y164.76 E224.4169
G0 F1285.7 X101.09 Y164.446
G1 F900 X43 Y106.357 E227.56078
G1 X42.938 Y106.295
G0 F1285.7 X42.342 Y105.204
G1 F900 X101.271 Y164.132 E230.75007
G0 F1285.7 X101.452 Y163.818
G1 F900 X41.684 Y104.051 E233.98476
G1 X41.622 Y103.989
G0 F1285.7 X41.027 Y102.898
G1 F900 X101.633 Y163.505 E237.26486
G0 F1285.7 X101.814 Y163.191
G1 F900 X40.368 Y101.745 E240.5904
G1 X40.306 Y101.683
G0 F1285.7 X40.001 Y100.882
G1 F900 X101.995 Y162.877 E243.94562
G0 F1285.7 X102.176 Y162.563
G1 F900 X40.182 Y100.568 E247.30084
G0 F1285.7 X40.363 Y100.255
G1 F900 X102.358 Y162.25 E250.65609
G0 F1285.7 X102.539 Y161.936
G1 F900 X40.544 Y99.941 E254.01134
G0 F1285.7 X40.725 Y99.627
G1 F900 X102.72 Y161.622 E257.36659
G0 F1285.7 X102.901 Y161.308
G1 F900 X40.906 Y99.313 E260.72183
G0 F1285.7 X41.087 Y98.999
G1 F900 X103.082 Y160.994 E264.07708
G0 F1285.7 X103.264 Y160.681
G1 F900 X41.269 Y98.686 E267.43233
G0 F1285.7 X41.45 Y98.372
G1 F900 X103.445 Y160.367 E270.78758
G0 F1285.7 X103.626 Y160.053
G1 F900 X41.631 Y98.058 E274.14283
G0 F1285.7 X41.812 Y97.744
G1 F900 X103.807 Y159.739 E277.49808
G0 F1285.7 X103.989 Y159.426
G1 F900 X41.994 Y97.431 E280.85332
G0 F1285.7 X42.175 Y97.117
G1 F900 X104.17 Y159.112 E284.20857
G0 F1285.7 X104.351 Y158.798
G1 F900 X42.356 Y96.803 E287.56382
G0 F1285.7 X42.537 Y96.489
G1 F900 X104.532 Y158.484 E290.91907
G0 F1285.7 X104.713 Y158.17
G1 F900 X42.718 Y96.175 E294.27432
G0 F1285.7 X42.9 Y95.862
G1 F900 X104.895 Y157.857 E297.62957
G0 F1285.7 X105.076 Y157.543
G1 F900 X43.081 Y95.548 E300.98481
G0 F1285.7 X43.262 Y95.234
G1 F900 X105.257 Y157.229 E304.34006
G0 F1285.7 X105.438 Y156.915
G1 F900 X43.443 Y94.92 E307.69531
G0 F1285.7 X43.624 Y94.607
G1 F900 X105.619 Y156.601 E311.05053
G0 F1285.7 X105.8 Y156.288
G1 F900 X43.805 Y94.293 E314.40578
G0 F1285.7 X43.986 Y93.979
G1 F900 X105.981 Y155.974 E317.76103
G0 F1285.7 X106.162 Y155.66
G1 F900 X44.168 Y93.665 E321.11625
G0 F1285.7 X44.349 Y93.351
G1 F900 X106.343 Y155.346 E324.47147
G0 F1285.7 X106.525 Y155.033
G1 F900 X44.53 Y93.038 E327.82672
G0 F1285.7 X44.711 Y92.724
G1 F900 X106.706 Y154.719 E331.18197
G0 F1285.7 X106.887 Y154.405
G1 F900 X44.892 Y92.41 E334.53722
G0 F1285.7 X45.073 Y92.096
G1 F900 X107.068 Y154.091 E337.89247
G0 F1285.7 X107.249 Y153.777
G1 F900 X45.254 Y91.782 E341.24771
G0 F1285.7 X45.436 Y91.469
G1 F900 X107.431 Y153.464 E344.60296
G0 F1285.7 X107.612 Y153.15
G1 F900 X45.617 Y91.155 E347.95821
G0 F1285.7 X45.798 Y90.841
G1 F900 X107.793 Y152.836 E351.31346
G0 F1285.7 X107.974 Y152.522
G1 F900 X45.979 Y90.527 E354.66871
G0 F1285.7 X46.161 Y90.214
G1 F900 X108.155 Y152.208 E358.0239
G0 F1285.7 X108.337 Y151.895
G1 F900 X46.342 Y89.9 E361.37915
G0 F1285.7 X46.523 Y89.586
G1 F900 X108.518 Y151.581 E364.7344
G0 F1285.7 X108.699 Y151.267
G1 F900 X46.704 Y89.272 E368.08965
G0 F1285.7 X46.885 Y88.958
G1 F900 X108.88 Y150.953 E371.4449
G0 F1285.7 X109.062 Y150.639
G1 F900 X47.067 Y88.645 E374.80012
G0 F1285.7 X47.248 Y88.331
G1 F900 X109.243 Y150.325 E378.15534
G0 F1285.7 X109.424 Y150.011
G1 F900 X47.429 Y88.017 E381.51056
G0 F1285.7 X47.61 Y87.703
G1 F900 X109.605 Y149.698 E384.86581
G0 F1285.7 X109.786 Y149.384
G1 F900 X47.791 Y87.389 E388.22106
G0 F1285.7 X47.972 Y87.075
G1 F900 X109.967 Y149.07 E391.5763
G0 F1285.7 X110.148 Y148.756
G1 F900 X48.153 Y86.762 E394.93153
G0 F1285.7 X48.334 Y86.448
G1 F900 X110.329 Y148.442 E398.28675
G0 F1285.7 X110.51 Y148.128
G1 F900 X48.516 Y86.134 E401.64194
G0 F1285.7 X48.697 Y85.82
G1 F900 X110.692 Y147.815 E404.99719
G0 F1285.7 X110.873 Y147.501
G1 F900 X48.878 Y85.506 E408.35244
G0 F1285.7 X49.059 Y85.192
G1 F900 X111.054 Y147.187 E411.70769
G0 F1285.7 X111.235 Y146.873
G1 F900 X49.24 Y84.878 E415.06294
G0 F1285.7 X49.422 Y84.565
G1 F900 X111.416 Y146.559 E418.41813
G0 F1285.7 X111.598 Y146.246
G1 F900 X49.603 Y84.251 E421.77338
G0 F1285.7 X49.784 Y83.937
G1 F900 X111.779 Y145.932 E425.12863
G0 F1285.7 X111.96 Y145.618
G1 F900 X49.965 Y83.623 E428.48387
G0 F1285.7 X50.146 Y83.309
G1 F900 X112.141 Y145.304 E431.83912
G0 F1285.7 X112.322 Y144.99
G1 F900 X50.328 Y82.996 E435.19432
G0 F1285.7 X50.509 Y82.682
G1 F900 X112.504 Y144.677 E438.54957
G0 F1285.7 X112.685 Y144.363
G1 F900 X50.69 Y82.368 E441.90481
G0 F1285.7 X50.871 Y82.054
G1 F900 X112.866 Y144.049 E445.26006
G0 F1285.7 X113.047 Y143.735
G1 F900 X51.053 Y81.741 E448.61526
G0 F1285.7 X51.234 Y81.427
G1 F900 X113.229 Y143.422 E451.97051
