;FLAVOR:Marlin
;TIME:11652
;Filament used: 14.1574m
;Layer height: 0.3
;MINX:35.418
;MINY:16.566
;MINZ:0.26
;MAXX:194.006
;MAXY:198.006
;MAXZ:7.76
;Generated with Cura_SteamEngine 4.9.1
M82 ;absolute extrusion mode
;Begin Start Gcode for Dagoma DiscoEasy 200
;Sliced: 07-07-2021 19:58:40
;Initial extruder: 0

G90 ;Absolute positioning
M106 S255 ;Fan on full
G28 X Y ;Home stop X Y
G1 X100 ;Centre back during cooldown in case of oozing
M109 R90 ;Cooldown in case too hot
G28 ;Centre
G29 ;Auto-level
M104 S205 ;Pre-heat
M107 ;Fan off
G0 X100 Y5 Z0.5 ;Front centre for degunk
M109 S205 ;Wait for initial temp
M83 ;E Relative
G1 E10 F200 ;Degunk
G1 E-3 F5000 ;Retract
G0 Z3 ;Withdraw
M82 ;E absolute
G92 E0 ;E reset
G1 F6000 ;Set feedrate

;Finish Start Gcode for Dagoma DiscoEasy 200

G92 E0
G92 E0
G1 F3000 E-3.5
;LAYER_COUNT:26
;LAYER:0
M107
G0 F1285.7 X86.021 Y19.34 Z0.26
;TYPE:SKIRT
G1 F3000 E0
G1 F900 X86.396 Y18.713 E0.02796
G1 X86.716 Y18.257 E0.04928
G1 X87.097 Y17.852 E0.07056
G1 X87.532 Y17.505 E0.09185
G1 X88.012 Y17.225 E0.11312
G1 X88.528 Y17.016 E0.13442
G1 X89.068 Y16.883 E0.15571
G1 X89.674 Y16.826 E0.179
G1 X90.219 Y16.816 E0.19986
G1 X189.523 Y16.566 E4.00019
G1 X190.174 Y16.573 E4.02511
G1 X190.728 Y16.619 E4.04638
G1 X191.27 Y16.744 E4.06767
G1 X191.789 Y16.945 E4.08897
G1 X192.274 Y17.219 E4.11028
G1 X192.714 Y17.559 E4.13156
G1 X193.101 Y17.958 E4.15284
G1 X193.427 Y18.409 E4.17413
G1 X193.685 Y18.902 E4.19543
G1 X193.87 Y19.427 E4.21673
G1 X193.978 Y19.973 E4.23803
G1 X194.006 Y20.529 E4.25933
G1 X193.955 Y21.083 E4.28062
G1 X193.824 Y21.624 E4.30193
G1 X193.517 Y22.334 E4.33153
G1 X193.059 Y23.155 E4.36751
G1 X92.98 Y195.492 E11.99418
G1 X92.609 Y196.115 E12.02193
G1 X92.291 Y196.571 E12.0432
G1 X91.911 Y196.977 E12.06448
G1 X91.476 Y197.325 E12.0858
G1 X90.996 Y197.606 E12.10709
G1 X90.481 Y197.816 E12.12837
G1 X89.941 Y197.95 E12.14966
G1 X89.387 Y198.006 E12.17097
G1 X88.831 Y197.981 E12.19227
G1 X88.285 Y197.877 E12.21354
G1 X87.759 Y197.696 E12.23483
G1 X87.264 Y197.441 E12.25614
G1 X86.811 Y197.118 E12.27743
G1 X86.408 Y196.734 E12.29873
G1 X86.083 Y196.322 E12.31882
G1 X85.931 Y196.085 E12.32959
G1 X85.586 Y195.504 E12.35545
G1 X36.221 Y110.001 E16.13381
G1 X35.928 Y109.478 E16.15675
G1 X35.825 Y109.281 E16.16526
G1 X35.613 Y108.767 E16.18654
G1 X35.476 Y108.227 E16.20786
G1 X35.418 Y107.674 E16.22914
G1 X35.44 Y107.118 E16.25043
G1 X35.541 Y106.571 E16.27172
G1 X35.72 Y106.044 E16.29302
G1 X35.912 Y105.651 E16.30976
G1 X36.315 Y104.934 E16.34123
G1 X86.021 Y19.34 E20.12915
G0 F1285.7 X86.322 Y19.52
G1 F900 X86.697 Y18.893 E20.15711
G1 X87.003 Y18.459 E20.17743
G1 X87.37 Y18.076 E20.19773
G1 X87.791 Y17.753 E20.21804
G1 X88.256 Y17.496 E20.23837
G1 X88.753 Y17.313 E20.25864
G1 X89.273 Y17.206 E20.27895
G1 X89.79 Y17.172 E20.29878
G1 X90.264 Y17.166 E20.31692
G1 X189.519 Y16.916 E24.11538
G1 X190.17 Y16.923 E24.14029
G1 X190.699 Y16.969 E24.16061
G1 X191.214 Y17.093 E24.18088
G1 X191.706 Y17.294 E24.20122
G1 X192.161 Y17.566 E24.22151
G1 X192.571 Y17.903 E24.24182
G1 X192.925 Y18.298 E24.26212
G1 X193.217 Y18.742 E24.28246
G1 X193.438 Y19.224 E24.30275
G1 X193.584 Y19.734 E24.32305
G1 X193.652 Y20.261 E24.34339
G1 X193.64 Y20.791 E24.36367
G1 X193.549 Y21.314 E24.38399
G1 X193.38 Y21.817 E24.4043
G1 X193.211 Y22.164 E24.41907
G1 X192.756 Y22.979 E24.45479
G1 X92.68 Y195.313 E32.0813
G1 X92.309 Y195.936 E32.10905
G1 X92.004 Y196.37 E32.12935
G1 X91.637 Y196.753 E32.14965
G1 X91.217 Y197.077 E32.16995
G1 X90.753 Y197.335 E32.19027
G1 X90.255 Y197.519 E32.21059
G1 X89.735 Y197.627 E32.23091
G1 X89.206 Y197.656 E32.25119
G1 X88.677 Y197.605 E32.27152
G1 X88.163 Y197.475 E32.29181
G1 X87.674 Y197.27 E32.31211
G1 X87.221 Y196.993 E32.33243
G1 X86.815 Y196.652 E32.35272
G1 X86.386 Y196.145 E32.37813
G1 X86.232 Y195.907 E32.38898
G1 X85.889 Y195.329 E32.4147
G1 X36.527 Y109.83 E36.19287
G1 X36.234 Y109.307 E36.21581
G1 X36.138 Y109.124 E36.22372
G1 X35.937 Y108.633 E36.24403
G1 X35.812 Y108.118 E36.26431
G1 X35.766 Y107.589 E36.28463
G1 X35.8 Y107.059 E36.30495
G1 X35.913 Y106.541 E36.32524
G1 X36.217 Y105.822 E36.35512
G1 X36.618 Y105.11 E36.38639
G1 X86.322 Y19.52 E40.17413
G0 F1285.7 X86.622 Y19.699
G1 F900 X86.997 Y19.072 E40.20209
G1 X87.289 Y18.662 E40.22135
G1 X87.642 Y18.303 E40.24062
G1 X88.048 Y18.004 E40.25992
G1 X88.495 Y17.774 E40.27916
G1 X88.974 Y17.616 E40.29846
G1 X89.586 Y17.53 E40.32211
G1 X90.229 Y17.516 E40.34672
G1 X189.515 Y17.266 E44.14636
G1 X190.166 Y17.273 E44.17128
G1 X190.668 Y17.319 E44.19057
G1 X191.156 Y17.443 E44.20984
G1 X191.618 Y17.642 E44.22909
G1 X192.043 Y17.913 E44.24838
G1 X192.42 Y18.247 E44.26765
G1 X192.739 Y18.636 E44.28691
G1 X192.993 Y19.071 E44.30618
G1 X193.175 Y19.541 E44.32547
G1 X193.28 Y20.033 E44.34472
G1 X193.306 Y20.536 E44.364
G1 X193.252 Y21.037 E44.38328
G1 X193.12 Y21.523 E44.40256
G1 X192.906 Y21.993 E44.42232
G1 X192.454 Y22.803 E44.45782
G1 X92.379 Y195.134 E52.08421
G1 X92.008 Y195.757 E52.11196
G1 X91.717 Y196.167 E52.1312
G1 X91.364 Y196.527 E52.1505
G1 X90.959 Y196.826 E52.16976
G1 X90.512 Y197.058 E52.18904
G1 X90.034 Y197.216 E52.2083
G1 X89.537 Y197.297 E52.22757
G1 X89.033 Y197.297 E52.24686
G1 X88.536 Y197.219 E52.26611
G1 X88.057 Y197.062 E52.2854
G1 X87.609 Y196.832 E52.30468
G1 X87.204 Y196.534 E52.32392
G1 X86.85 Y196.175 E52.34321
G1 X86.533 Y195.728 E52.36419
G1 X86.192 Y195.154 E52.38974
G1 X36.832 Y109.659 E56.16774
G1 X36.539 Y109.136 E56.19068
G1 X36.451 Y108.968 E56.19794
G1 X36.262 Y108.501 E56.21722
G1 X36.15 Y108.01 E56.23649
G1 X36.116 Y107.508 E56.25574
G1 X36.163 Y107.006 E56.27504
G1 X36.288 Y106.518 E56.29432
G1 X36.522 Y105.994 E56.31628
G1 X36.92 Y105.286 E56.34736
G1 X86.622 Y19.699 E60.13497
G1 F3000 E56.63497
;MESH:support_half_hex_7.stl
G0 F1285.7 X88.814 Y20.974
G0 X89.687 Y21.481
G0 X89.432 Y192.842
;TYPE:WALL-INNER
G1 F3000 E60.13497
G1 F900 X89.281 Y193.103 E60.14651
G1 X89.13 Y192.842 E60.15304
G1 X39.885 Y107.547 E63.92221
G1 X90.019 Y21.217 E67.74271
G1 X188.938 Y20.966 E71.5283
G1 X188.94 Y20.966 E71.52838
G1 X189.242 Y20.966 E71.53994
G1 X189.09 Y21.228 E71.5465
G1 X89.432 Y192.842 E79.14115
G0 F1285.7 X89.431 Y193.49
;TYPE:WALL-OUTER
G1 F900 X89.28 Y193.751 E79.15269
G1 X89.129 Y193.49 E79.15923
G1 X39.51 Y107.547 E82.95703
G1 X89.832 Y20.892 E86.7919
G1 X189.503 Y20.64 E90.60627
G1 X189.505 Y20.64 E90.60635
G1 X189.807 Y20.64 E90.6179
G1 X189.655 Y20.902 E90.62447
G1 X89.431 Y193.49 E98.26223
G0 F1285.7 X89.331 Y193.663
G0 X89.281 Y193.352
G0 X89.282 Y192.423
;TYPE:SKIN
G1 F900 X40.278 Y107.546 E102.01293
G1 X90.216 Y21.557 E105.81838
G1 X188.651 Y21.308 E109.58545
G1 X89.282 Y192.423 E117.15803
G0 F1285.7 X89.417 Y191.877
G1 F900 X88.785 Y191.244 E117.19227
G1 X88.723 Y191.182
G0 F1285.7 X89.599 Y191.564
G1 F900 X88.108 Y190.073 E117.27296
G1 X88.046 Y190.011
G0 F1285.7 X87.432 Y188.902
G1 F900 X89.781 Y191.251 E117.40009
G0 F1285.7 X89.963 Y190.938
G1 F900 X86.756 Y187.731 E117.57366
G1 X86.694 Y187.669
G0 F1285.7 X86.08 Y186.56
G1 F900 X90.145 Y190.625 E117.79366
G0 F1285.7 X90.327 Y190.312
G1 F900 X85.403 Y185.388 E118.06016
G1 X85.341 Y185.326
G0 F1285.7 X84.727 Y184.217
G1 F900 X90.508 Y189.998 E118.37303
G0 F1285.7 X90.69 Y189.685
G1 F900 X84.051 Y183.046 E118.73234
G1 X83.989 Y182.984
G0 F1285.7 X83.374 Y181.874
G1 F900 X90.872 Y189.372 E119.13814
G0 F1285.7 X91.054 Y189.059
G1 F900 X82.698 Y180.703 E119.59038
G1 X82.636 Y180.641
G0 F1285.7 X82.022 Y179.532
G1 F900 X91.236 Y188.746 E120.08905
G0 F1285.7 X91.418 Y188.433
G1 F900 X81.346 Y178.362 E120.63414
G1 X81.284 Y178.3
G0 F1285.7 X80.67 Y177.19
G1 F900 X91.6 Y188.12 E121.22568
G0 F1285.7 X91.781 Y187.806
G1 F900 X79.994 Y176.019 E121.86361
G1 X79.932 Y175.957
G0 F1285.7 X79.318 Y174.848
G1 F900 X91.963 Y187.493 E122.54797
G0 F1285.7 X92.145 Y187.18
G1 F900 X78.642 Y173.677 E123.27877
G1 X78.58 Y173.615
G0 F1285.7 X77.965 Y172.505
G1 F900 X92.327 Y186.867 E124.05606
G0 F1285.7 X92.509 Y186.554
G1 F900 X77.289 Y171.334 E124.87979
G1 X77.227 Y171.272
G0 F1285.7 X76.613 Y170.163
G1 F900 X92.691 Y186.241 E125.74995
G0 F1285.7 X92.872 Y185.928
G1 F900 X75.937 Y168.992 E126.66652
G1 X75.875 Y168.93
G0 F1285.7 X75.26 Y167.821
G1 F900 X93.054 Y185.614 E127.62953
G0 F1285.7 X93.236 Y185.301
G1 F900 X74.584 Y166.65 E128.63897
G1 X74.522 Y166.588
G0 F1285.7 X73.908 Y165.479
G1 F900 X93.418 Y184.989 E129.69488
G0 F1285.7 X93.6 Y184.675
G1 F900 X73.232 Y164.307 E130.79722
G1 X73.17 Y164.245
G0 F1285.7 X72.556 Y163.136
G1 F900 X93.782 Y184.362 E131.946
G0 F1285.7 X93.963 Y184.049
G1 F900 X71.88 Y161.965 E133.14118
G1 X71.818 Y161.903
G0 F1285.7 X71.204 Y160.794
G1 F900 X94.145 Y183.736 E134.38281
G0 F1285.7 X94.327 Y183.422
G1 F900 X70.527 Y159.622 E135.67089
G1 X70.465 Y159.56
G0 F1285.7 X69.851 Y158.452
G1 F900 X94.509 Y183.11 E137.00542
G0 F1285.7 X94.691 Y182.797
G1 F900 X69.175 Y157.281 E138.38637
G1 X69.113 Y157.219
G0 F1285.7 X68.499 Y156.11
G1 F900 X94.873 Y182.483 E139.81374
G0 F1285.7 X95.054 Y182.17
G1 F900 X67.822 Y154.938 E141.28757
G1 X67.76 Y154.876
G0 F1285.7 X67.146 Y153.767
G1 F900 X95.236 Y181.857 E142.80784
G0 F1285.7 X95.418 Y181.544
G1 F900 X66.47 Y152.596 E144.37454
G1 X66.408 Y152.534
G0 F1285.7 X65.794 Y151.424
G1 F900 X95.6 Y181.231 E145.98771
G0 F1285.7 X95.782 Y180.918
G1 F900 X65.118 Y150.253 E147.64731
G1 X65.056 Y150.191
G0 F1285.7 X64.442 Y149.082
G1 F900 X95.964 Y180.604 E149.35332
G0 F1285.7 X96.146 Y180.291
G1 F900 X63.766 Y147.911 E151.10577
G1 X63.704 Y147.849
G0 F1285.7 X63.089 Y146.74
G1 F900 X96.327 Y179.978 E152.90465
G0 F1285.7 X96.509 Y179.665
G1 F900 X62.413 Y145.569 E154.74997
G1 X62.351 Y145.507
G0 F1285.7 X61.737 Y144.398
G1 F900 X96.691 Y179.352 E156.64172
G0 F1285.7 X96.873 Y179.039
G1 F900 X61.061 Y143.227 E158.57991
G1 X60.999 Y143.165
G0 F1285.7 X60.384 Y142.055
G1 F900 X97.055 Y178.726 E160.5646
G0 F1285.7 X97.237 Y178.412
G1 F900 X59.708 Y140.884 E162.59569
G1 X59.646 Y140.822
G0 F1285.7 X59.032 Y139.713
G1 F900 X97.418 Y178.099 E164.67318
G0 F1285.7 X97.6 Y177.786
G1 F900 X58.356 Y138.542 E166.79712
G1 X58.294 Y138.48
G0 F1285.7 X57.68 Y137.371
G1 F900 X97.782 Y177.473 E168.96749
G0 F1285.7 X97.964 Y177.16
G1 F900 X57.004 Y136.2 E171.1843
G1 X56.942 Y136.138
G0 F1285.7 X56.328 Y135.029
G1 F900 X98.146 Y176.847 E173.44754
G0 F1285.7 X98.328 Y176.534
G1 F900 X55.651 Y133.857 E175.75728
G1 X55.589 Y133.795
G0 F1285.7 X54.975 Y132.686
G1 F900 X98.509 Y176.22 E178.11339
G0 F1285.7 X98.691 Y175.907
G1 F900 X54.299 Y131.515 E180.51594
G1 X54.237 Y131.453
G0 F1285.7 X53.623 Y130.344
G1 F900 X98.873 Y175.594 E182.96493
G0 F1285.7 X99.055 Y175.281
G1 F900 X52.946 Y129.172 E185.46041
G1 X52.884 Y129.11
G0 F1285.7 X52.27 Y128.001
G1 F900 X99.237 Y174.968 E188.00232
G0 F1285.7 X99.419 Y174.655
G1 F900 X51.594 Y126.83 E190.59067
G1 X51.532 Y126.768
G0 F1285.7 X50.918 Y125.659
G1 F900 X99.6 Y174.342 E193.22543
G0 F1285.7 X99.782 Y174.028
G1 F900 X50.242 Y124.488 E195.9066
G1 X50.18 Y124.426
G0 F1285.7 X49.566 Y123.317
G1 F900 X99.964 Y173.715 E198.6342
G0 F1285.7 X100.146 Y173.403
G1 F900 X48.89 Y122.146 E201.40827
G1 X48.828 Y122.084
G0 F1285.7 X48.214 Y120.975
G1 F900 X100.328 Y173.089 E204.22875
G0 F1285.7 X100.51 Y172.776
G1 F900 X47.537 Y119.803 E207.09571
G1 X47.475 Y119.741
G0 F1285.7 X46.861 Y118.632
G1 F900 X100.692 Y172.463 E210.00911
G0 F1285.7 X100.873 Y172.15
G1 F900 X46.185 Y117.461 E212.96893
G1 X46.123 Y117.399
G0 F1285.7 X45.508 Y116.29
G1 F900 X101.055 Y171.836 E215.97517
G0 F1285.7 X101.237 Y171.524
G1 F900 X44.832 Y115.119 E219.02788
G1 X44.77 Y115.057
G0 F1285.7 X44.156 Y113.948
G1 F900 X101.419 Y171.211 E222.12703
G0 F1285.7 X101.601 Y170.897
G1 F900 X43.48 Y112.777 E225.27259
G1 X43.418 Y112.715
G0 F1285.7 X42.804 Y111.605
G1 F900 X101.783 Y170.584 E228.4646
G0 F1285.7 X101.964 Y170.271
G1 F900 X42.128 Y110.434 E231.70303
G1 X42.066 Y110.372
G0 F1285.7 X41.452 Y109.263
G1 F900 X102.146 Y169.958 E234.9879
G0 F1285.7 X102.328 Y169.645
G1 F900 X40.776 Y108.092 E238.3192
G1 X40.714 Y108.03
G0 F1285.7 X40.555 Y107.376
G1 F900 X102.51 Y169.332 E241.67231
G0 F1285.7 X102.692 Y169.019
G1 F900 X40.737 Y107.063 E245.02542
G0 F1285.7 X40.919 Y106.751
G1 F900 X102.874 Y168.705 E248.37847
G0 F1285.7 X103.055 Y168.392
G1 F900 X41.101 Y106.437 E251.73153
G0 F1285.7 X41.283 Y106.124
G1 F900 X103.237 Y168.079 E255.08459
G0 F1285.7 X103.419 Y167.766
G1 F900 X41.464 Y105.811 E258.43767
G0 F1285.7 X41.646 Y105.498
G1 F900 X103.601 Y167.453 E261.79075
G0 F1285.7 X103.783 Y167.14
G1 F900 X41.828 Y105.184 E265.14386
G0 F1285.7 X42.01 Y104.872
G1 F900 X103.965 Y166.826 E268.49692
G0 F1285.7 X104.146 Y166.513
G1 F900 X42.192 Y104.559 E271.84995
G0 F1285.7 X42.374 Y104.245
G1 F900 X104.328 Y166.2 E275.20301
G0 F1285.7 X104.51 Y165.887
G1 F900 X42.555 Y103.932 E278.55609
G0 F1285.7 X42.737 Y103.619
G1 F900 X104.692 Y165.574 E281.90917
G0 F1285.7 X104.874 Y165.261
G1 F900 X42.919 Y103.306 E285.26226
G0 F1285.7 X43.101 Y102.993
G1 F900 X105.056 Y164.948 E288.61534
G0 F1285.7 X105.237 Y164.634
G1 F900 X43.283 Y102.68 E291.96837
G0 F1285.7 X43.465 Y102.367
G1 F900 X105.419 Y164.321 E295.3214
G0 F1285.7 X105.601 Y164.008
G1 F900 X43.646 Y102.053 E298.67448
G0 F1285.7 X43.828 Y101.74
G1 F900 X105.783 Y163.695 E302.02757
G0 F1285.7 X105.965 Y163.382
G1 F900 X44.011 Y101.428 E305.3806
G0 F1285.7 X44.192 Y101.114
G1 F900 X106.147 Y163.069 E308.73368
G0 F1285.7 X106.329 Y162.756
G1 F900 X44.374 Y100.801 E312.08676
G0 F1285.7 X44.556 Y100.488
G1 F900 X106.51 Y162.442 E315.43979
G0 F1285.7 X106.692 Y162.129
G1 F900 X44.737 Y100.175 E318.79285
G0 F1285.7 X44.919 Y99.861
G1 F900 X106.874 Y161.817 E322.14596
G0 F1285.7 X107.056 Y161.503
G1 F900 X45.102 Y99.549 E325.49899
G0 F1285.7 X45.283 Y99.236
G1 F900 X107.238 Y161.19 E328.85205
G0 F1285.7 X107.42 Y160.877
G1 F900 X45.465 Y98.922 E332.20513
G0 F1285.7 X45.647 Y98.609
G1 F900 X107.601 Y160.564 E335.55819
G0 F1285.7 X107.783 Y160.25
G1 F900 X45.829 Y98.296 E338.91121
G0 F1285.7 X46.01 Y97.983
G1 F900 X107.966 Y159.938 E342.26433
G0 F1285.7 X108.147 Y159.625
G1 F900 X46.193 Y97.67 E345.61738
G0 F1285.7 X46.374 Y97.357
G1 F900 X108.329 Y159.311 E348.97044
G0 F1285.7 X108.511 Y158.998
G1 F900 X46.556 Y97.044 E352.32349
G0 F1285.7 X46.738 Y96.73
G1 F900 X108.692 Y158.685 E355.67655
G0 F1285.7 X108.874 Y158.372
G1 F900 X46.92 Y96.417 E359.02961
G0 F1285.7 X47.101 Y96.104
G1 F900 X109.056 Y158.058 E362.38266
G0 F1285.7 X109.238 Y157.746
G1 F900 X47.284 Y95.791 E365.73572
G0 F1285.7 X47.465 Y95.478
G1 F900 X109.42 Y157.433 E369.0888
G0 F1285.7 X109.602 Y157.119
G1 F900 X47.647 Y95.165 E372.44186
G0 F1285.7 X47.829 Y94.852
G1 F900 X109.783 Y156.806 E375.79489
G0 F1285.7 X109.965 Y156.493
G1 F900 X48.011 Y94.538 E379.14795
G0 F1285.7 X48.193 Y94.226
G1 F900 X110.147 Y156.18 E382.50098
G0 F1285.7 X110.329 Y155.867
G1 F900 X48.375 Y93.912 E385.85403
G0 F1285.7 X48.557 Y93.599
G1 F900 X110.511 Y155.554 E389.20709
G0 F1285.7 X110.693 Y155.241
G1 F900 X48.738 Y93.286 E392.56017
G0 F1285.7 X48.92 Y92.973
G1 F900 X110.875 Y154.927 E395.91323
G0 F1285.7 X111.056 Y154.614
G1 F900 X49.102 Y92.659 E399.26629
G0 F1285.7 X49.284 Y92.347
G1 F900 X111.238 Y154.301 E402.61931
G0 F1285.7 X111.42 Y153.988
G1 F900 X49.466 Y92.034 E405.97234
G0 F1285.7 X49.648 Y91.72
G1 F900 X111.602 Y153.675 E409.3254
G0 F1285.7 X111.784 Y153.362
G1 F900 X49.829 Y91.407 E412.67848
G0 F1285.7 X50.011 Y91.094
G1 F900 X111.966 Y153.049 E416.03157
G0 F1285.7 X112.147 Y152.735
G1 F900 X50.193 Y90.781 E419.3846
G0 F1285.7 X50.375 Y90.468
G1 F900 X112.329 Y152.422 E422.73763
G0 F1285.7 X112.512 Y152.109
G1 F900 X50.557 Y90.155 E426.09068
G0 F1285.7 X50.739 Y89.842
G1 F900 X112.693 Y151.796 E429.44371
G0 F1285.7 X112.875 Y151.483
G1 F900 X50.92 Y89.528 E432.7968
G0 F1285.7 X51.102 Y89.215
G1 F900 X113.057 Y151.17 E436.14988
G0 F1285.7 X113.238 Y150.856
G1 F900 X51.285 Y88.903 E439.50286
G0 F1285.7 X51.466 Y88.589
G1 F900 X113.42 Y150.543 E442.85588
G0 F1285.7 X113.603 Y150.231
G1 F900 X51.648 Y88.276 E446.20897
G0 F1285.7 X51.83 Y87.963
G1 F900 X113.784 Y149.917 E449.562
G0 F1285.7 X113.966 Y149.604
