;FLAVOR:Marlin
;TIME:23607
;Filament used: 25.5282m
;Layer height: 0.3
;MINX:14.203
;MINY:9.035
;MINZ:0.26
;MAXX:187.459
;MAXY:182.912
;MAXZ:29.66
;Generated with Cura_SteamEngine 4.9.1
M82 ;absolute extrusion mode
;Begin Start Gcode for Dagoma DiscoEasy 200
;Sliced: 26-07-2021 01:23:16
;Initial extruder: 0

G90 ;Absolute positioning
M106 S255 ;Fan on full
G28 X Y ;Home stop X Y
G1 X100 ;Centre back during cooldown in case of oozing
M109 R90 ;Cooldown in case too hot
G28 ;Centre
G29 ;Auto-level
M104 S205 ;Pre-heat
M107 ;Fan off
G0 X100 Y5 Z0.5 ;Front centre for degunk
M109 S205 ;Wait for initial temp
M83 ;E Relative
G1 E10 F200 ;Degunk
G1 E-3 F5000 ;Retract
G0 Z3 ;Withdraw
M82 ;E absolute
G92 E0 ;E reset
G1 F6000 ;Set feedrate

;Finish Start Gcode for Dagoma DiscoEasy 200

G92 E0
G92 E0
G1 F3000 E-3.5
;LAYER_COUNT:99
;LAYER:0
M107
G0 F1285.7 X39.794 Y11.145 Z0.26
;TYPE:SKIRT
G1 F3000 E0
G1 F900 X39.959 Y10.695 E0.01834
G1 X40.197 Y10.279 E0.03668
G1 X40.5 Y9.908 E0.05502
G1 X40.861 Y9.593 E0.07335
G1 X41.269 Y9.342 E0.09168
G1 X41.714 Y9.162 E0.11005
G1 X42.182 Y9.059 E0.12839
G1 X42.66 Y9.035 E0.14671
G1 X43.136 Y9.09 E0.16505
G1 X43.596 Y9.224 E0.18338
G1 X44.028 Y9.432 E0.20173
G1 X44.564 Y9.84 E0.22751
G1 X45.125 Y10.382 E0.25736
G1 X108.411 Y73.668 E3.68248
G1 X110.424 Y75.625 E3.78992
G1 X112.421 Y77.46 E3.89371
G1 X114.518 Y79.278 E3.99992
G1 X116.627 Y81.006 E4.10426
G1 X118.801 Y82.687 E4.20943
G1 X121.043 Y84.32 E4.31558
G1 X123.283 Y85.858 E4.41956
G1 X125.593 Y87.35 E4.5248
G1 X127.95 Y88.778 E4.63027
G1 X130.322 Y90.126 E4.73468
G1 X132.776 Y91.431 E4.84104
G1 X135.244 Y92.654 E4.94645
G1 X136.041 Y93.027 E4.98013
G1 X136.551 Y93.277 E5.00187
G1 X137.351 Y93.747 E5.03737
G1 X137.851 Y94.135 E5.06159
G1 X138.145 Y94.393 E5.07656
G1 X139.156 Y95.39 E5.1309
G1 X139.201 Y95.425 E5.13308
G1 X139.767 Y95.998 E5.16391
G1 X140.14 Y96.426 E5.18563
G1 X140.507 Y96.89 E5.20827
G1 X140.672 Y97.123 E5.2192
G1 X142.171 Y99.481 E5.32613
G1 X143.71 Y101.756 E5.43124
G1 X145.314 Y103.992 E5.53655
G1 X146.972 Y106.168 E5.64125
G1 X148.711 Y108.322 E5.74719
G1 X150.474 Y110.383 E5.85099
G1 X152.331 Y112.433 E5.95684
G1 X154.225 Y114.41 E6.06162
G1 X156.206 Y116.364 E6.1681
G1 X158.203 Y118.223 E6.27251
G1 X160.265 Y120.037 E6.37762
G1 X162.366 Y121.784 E6.48219
G1 X164.528 Y123.48 E6.58734
G1 X166.728 Y125.107 E6.69206
G1 X169.003 Y126.693 E6.79819
G1 X171.289 Y128.192 E6.90281
G1 X171.702 Y128.447 E6.92138
G1 X172.528 Y128.976 E6.95892
G1 X173.006 Y129.33 E6.98168
G1 X173.486 Y129.733 E7.00567
G1 X173.737 Y129.975 E7.01901
G1 X174.458 Y130.696 E7.05803
G1 X175.113 Y131.341 E7.09321
G1 X175.489 Y131.771 E7.11507
G1 X175.554 Y131.852 E7.11905
G1 X175.885 Y132.28 E7.13975
G1 X176.253 Y132.905 E7.16751
G1 X176.804 Y134.189 E7.22098
G1 X177.786 Y136.407 E7.31381
G1 X178.968 Y138.894 E7.41919
G1 X180.224 Y141.354 E7.52489
G1 X181.523 Y143.733 E7.62862
G1 X182.916 Y146.117 E7.73429
G1 X184.376 Y148.462 E7.84
G1 X185.889 Y150.745 E7.94482
G1 X186.185 Y151.164 E7.96445
G1 X186.961 Y152.295 E8.01694
G1 X187.198 Y152.712 E8.0353
G1 X187.363 Y153.162 E8.05364
G1 X187.45 Y153.633 E8.07197
G1 X187.459 Y154.112 E8.0903
G1 X187.387 Y154.586 E8.10865
G1 X187.238 Y155.041 E8.12698
G1 X187.016 Y155.465 E8.14529
G1 X186.726 Y155.847 E8.16365
G1 X186.376 Y156.175 E8.182
G1 X185.977 Y156.44 E8.20033
G1 X185.454 Y156.664 E8.22211
G1 X184.112 Y157.087 E8.27595
G1 X183.784 Y157.186 E8.28907
G1 X181.199 Y158.049 E8.39336
G1 X178.623 Y158.988 E8.49829
G1 X176.031 Y160.018 E8.60503
G1 X173.54 Y161.091 E8.70882
G1 X171.065 Y162.241 E8.81327
G1 X168.569 Y163.486 E8.92001
G1 X167.285 Y164.163 E8.97556
G1 X166.354 Y164.662 E9.01599
G1 X165.84 Y164.876 E9.03729
G1 X165.467 Y164.989 E9.05221
G1 X158.81 Y166.79 E9.31613
G1 X158.108 Y166.967 E9.34383
G1 X157.549 Y167.05 E9.36546
G1 X157.431 Y167.056 E9.36998
G1 X154.66 Y167.236 E9.47625
G1 X151.907 Y167.492 E9.58206
G1 X149.184 Y167.824 E9.68704
G1 X146.477 Y168.231 E9.7918
G1 X143.758 Y168.719 E9.89752
G1 X141.077 Y169.28 E10.00234
G1 X138.439 Y169.911 E10.10614
G1 X135.742 Y170.634 E10.213
G1 X133.13 Y171.416 E10.31734
G1 X130.502 Y172.285 E10.42327
G1 X127.922 Y173.219 E10.52828
G1 X125.382 Y174.221 E10.63277
G1 X122.861 Y175.3 E10.73772
G1 X120.345 Y176.46 E10.84374
G1 X119.145 Y177.062 E10.89512
G1 X117.899 Y177.669 E10.94816
G1 X117.438 Y177.846 E10.96706
G1 X116.53 Y178.108 E11.00323
G1 X110.605 Y179.714 E11.23816
G1 X109.926 Y179.888 E11.26498
G1 X109.368 Y179.974 E11.28659
G1 X108.606 Y180.015 E11.31579
G1 X107.182 Y180.07 E11.37033
G1 X104.417 Y180.256 E11.47638
G1 X101.698 Y180.517 E11.58091
G1 X98.97 Y180.857 E11.68612
G1 X96.241 Y181.275 E11.79178
G1 X93.578 Y181.761 E11.89537
G1 X90.843 Y182.34 E12.00236
G1 X89.152 Y182.747 E12.06892
G1 X88.237 Y182.912 E12.1045
G1 X87.759 Y182.898 E12.1228
G1 X87.289 Y182.805 E12.14114
G1 X86.602 Y182.506 E12.16981
G1 X85.659 Y181.94 E12.2119
G1 X83.264 Y180.544 E12.31799
G1 X80.839 Y179.221 E12.42371
G1 X78.379 Y177.968 E12.52936
G1 X75.915 Y176.8 E12.63371
G1 X73.396 Y175.693 E12.73901
G1 X70.843 Y174.653 E12.84451
G1 X67.876 Y173.552 E12.96562
G1 X66.634 Y173.113 E13.01603
G1 X66.329 Y172.985 E13.02869
G1 X65.875 Y172.763 E13.04803
G1 X65.131 Y172.323 E13.08111
G1 X64.567 Y171.876 E13.10865
G1 X64.071 Y171.411 E13.13467
G1 X62.994 Y170.336 E13.1929
G1 X62.579 Y169.905 E13.2158
G1 X62.222 Y169.463 E13.23754
G1 X61.923 Y169.046 E13.25718
G1 X60.519 Y166.827 E13.35767
G1 X58.958 Y164.51 E13.46459
G1 X57.355 Y162.267 E13.5701
G1 X55.704 Y160.092 E13.6746
G1 X53.985 Y157.955 E13.77955
G1 X52.208 Y155.871 E13.88436
G1 X50.354 Y153.816 E13.99028
G1 X48.462 Y151.835 E14.09512
G1 X46.503 Y149.897 E14.20057
G1 X44.497 Y148.021 E14.30568
G1 X42.45 Y146.214 E14.41018
G1 X40.337 Y144.449 E14.51554
G1 X38.183 Y142.752 E14.62048
G1 X35.966 Y141.107 E14.72613
G1 X33.688 Y139.515 E14.83249
G1 X31.448 Y138.039 E14.93515
G1 X30.774 Y137.62 E14.96552
G1 X30.061 Y137.163 E14.99793
G1 X29.484 Y136.733 E15.02547
G1 X29.03 Y136.348 E15.04825
G1 X28.492 Y135.824 E15.07699
G1 X28.047 Y135.376 E15.10115
G1 X27.423 Y134.764 E15.1346
G1 X27.047 Y134.336 E15.1564
G1 X26.621 Y133.772 E15.18345
G1 X26.235 Y133.137 E15.21189
G1 X26.026 Y132.701 E15.2304
G1 X25.679 Y131.782 E15.26799
G1 X25.642 Y131.679 E15.27218
G1 X24.642 Y129.116 E15.37746
G1 X23.566 Y126.572 E15.48317
G1 X22.433 Y124.09 E15.58758
G1 X21.23 Y121.641 E15.692
G1 X19.929 Y119.172 E15.79881
G1 X18.603 Y116.819 E15.90217
G1 X17.172 Y114.44 E16.00841
G1 X15.692 Y112.13 E16.1134
G1 X14.685 Y110.634 E16.18242
G1 X14.452 Y110.216 E16.20073
G1 X14.291 Y109.764 E16.21909
G1 X14.207 Y109.292 E16.23744
G1 X14.203 Y108.813 E16.25577
G1 X14.302 Y108.224 E16.27863
G1 X14.424 Y107.742 E16.29766
G1 X39.628 Y11.748 E20.09582
G1 X39.794 Y11.145 E20.11975
G0 F1285.7 X40.132 Y11.238
G1 F900 X40.289 Y10.817 E20.13695
G1 X40.518 Y10.431 E20.15412
G1 X40.812 Y10.092 E20.17129
G1 X41.161 Y9.81 E20.18847
G1 X41.555 Y9.594 E20.20566
G1 X41.981 Y9.452 E20.22285
G1 X42.425 Y9.387 E20.24002
G1 X42.874 Y9.402 E20.25721
G1 X43.313 Y9.496 E20.27439
G1 X43.728 Y9.666 E20.29155
G1 X44.32 Y10.092 E20.31947
G1 X44.881 Y10.634 E20.34932
G1 X108.167 Y73.919 E23.77441
G1 X110.191 Y75.886 E23.88242
G1 X112.183 Y77.716 E23.98594
G1 X114.276 Y79.532 E24.09198
G1 X116.422 Y81.291 E24.19817
G1 X118.591 Y82.967 E24.30307
G1 X120.825 Y84.594 E24.40884
G1 X123.105 Y86.16 E24.51469
G1 X125.417 Y87.653 E24.62002
G1 X127.781 Y89.086 E24.72581
G1 X130.136 Y90.424 E24.82946
G1 X132.626 Y91.748 E24.93739
G1 X135.063 Y92.956 E25.04148
G1 X135.887 Y93.342 E25.0763
G1 X136.47 Y93.629 E25.10117
G1 X137.137 Y94.024 E25.13084
G1 X137.56 Y94.351 E25.1513
G1 X137.899 Y94.642 E25.1684
G1 X138.876 Y95.605 E25.22089
G1 X138.952 Y95.671 E25.22475
G1 X139.518 Y96.244 E25.25557
G1 X139.873 Y96.652 E25.27627
G1 X140.232 Y97.106 E25.29842
G1 X140.377 Y97.311 E25.30803
G1 X141.883 Y99.679 E25.41542
G1 X143.432 Y101.97 E25.52126
G1 X145.008 Y104.167 E25.62473
G1 X146.702 Y106.39 E25.73169
G1 X148.439 Y108.542 E25.83753
G1 X150.213 Y110.615 E25.94194
G1 X152.084 Y112.681 E26.04861
G1 X153.977 Y114.657 E26.15333
G1 X155.938 Y116.591 E26.25874
G1 X157.962 Y118.476 E26.36458
G1 X160.041 Y120.305 E26.47055
G1 X162.154 Y122.062 E26.57572
G1 X164.314 Y123.756 E26.68077
G1 X166.554 Y125.413 E26.7874
G1 X168.797 Y126.977 E26.89204
G1 X171.099 Y128.487 E26.9974
G1 X171.513 Y128.742 E27.01601
G1 X172.339 Y129.271 E27.05355
G1 X172.793 Y129.607 E27.07516
G1 X173.244 Y129.985 E27.09768
G1 X173.529 Y130.261 E27.11287
G1 X174.213 Y130.946 E27.14991
G1 X174.868 Y131.591 E27.18509
G1 X175.22 Y131.995 E27.2056
G1 X175.277 Y132.066 E27.20908
G1 X175.608 Y132.494 E27.22979
G1 X175.931 Y133.043 E27.25417
G1 X176.484 Y134.331 E27.30781
G1 X177.477 Y136.574 E27.40168
G1 X178.645 Y139.032 E27.50583
G1 X179.903 Y141.495 E27.61167
G1 X181.234 Y143.933 E27.71797
G1 X182.622 Y146.309 E27.82328
G1 X184.068 Y148.63 E27.92793
G1 X185.603 Y150.946 E28.03426
G1 X185.896 Y151.362 E28.05373
G1 X186.672 Y152.493 E28.10622
G1 X186.892 Y152.885 E28.12343
G1 X187.039 Y153.309 E28.1406
G1 X187.109 Y153.752 E28.15776
G1 X187.099 Y154.201 E28.17495
G1 X187.01 Y154.641 E28.19213
G1 X186.845 Y155.059 E28.20933
G1 X186.608 Y155.44 E28.2265
G1 X186.307 Y155.773 E28.24368
G1 X185.952 Y156.048 E28.26086
G1 X185.349 Y156.33 E28.28634
G1 X184.011 Y156.752 E28.34003
G1 X183.672 Y156.855 E28.35359
G1 X181.079 Y157.72 E28.4582
G1 X178.485 Y158.666 E28.56386
G1 X175.936 Y159.679 E28.66883
G1 X173.396 Y160.773 E28.77467
G1 X170.874 Y161.944 E28.88108
G1 X168.444 Y163.157 E28.98502
G1 X167.122 Y163.854 E29.04221
G1 X166.189 Y164.354 E29.08272
G1 X165.457 Y164.628 E29.11263
G1 X159.305 Y166.295 E29.35656
G1 X158.724 Y166.45 E29.37957
G1 X158.022 Y166.627 E29.40728
G1 X157.398 Y166.708 E29.43136
G1 X154.607 Y166.889 E29.53839
G1 X151.864 Y167.144 E29.64382
G1 X149.164 Y167.473 E29.74791
G1 X146.398 Y167.889 E29.85495
G1 X143.727 Y168.369 E29.95881
G1 X140.992 Y168.941 E30.06574
G1 X138.343 Y169.574 E30.16997
G1 X135.652 Y170.296 E30.2766
G1 X133.008 Y171.087 E30.38221
G1 X130.405 Y171.948 E30.48714
G1 X127.817 Y172.885 E30.59247
G1 X125.246 Y173.899 E30.69824
G1 X122.702 Y174.987 E30.80412
G1 X120.186 Y176.148 E30.91017
G1 X118.992 Y176.747 E30.96129
G1 X117.746 Y177.354 E31.01433
G1 X117.341 Y177.51 E31.03094
G1 X116.439 Y177.77 E31.06686
G1 X110.518 Y179.375 E31.30163
G1 X109.839 Y179.549 E31.32846
G1 X109.349 Y179.624 E31.34743
G1 X108.592 Y179.665 E31.37644
G1 X107.147 Y179.721 E31.43178
G1 X104.395 Y179.906 E31.53734
G1 X101.691 Y180.165 E31.64129
G1 X98.908 Y180.513 E31.74863
G1 X96.194 Y180.928 E31.8537
G1 X93.477 Y181.424 E31.95939
G1 X90.799 Y181.991 E32.06415
G1 X89.075 Y182.405 E32.132
G1 X88.19 Y182.564 E32.16641
G1 X87.742 Y182.543 E32.18358
G1 X87.304 Y182.443 E32.20077
G1 X86.782 Y182.206 E32.22271
G1 X85.835 Y181.638 E32.26497
G1 X83.41 Y180.225 E32.37238
G1 X81.008 Y178.914 E32.4771
G1 X78.543 Y177.659 E32.58296
G1 X76.064 Y176.484 E32.68795
G1 X73.527 Y175.369 E32.794
G1 X70.967 Y174.326 E32.89979
G1 X67.993 Y173.222 E33.02119
G1 X66.751 Y172.783 E33.0716
G1 X66.483 Y172.67 E33.08273
G1 X65.959 Y172.413 E33.10507
G1 X65.345 Y172.046 E33.13244
G1 X64.788 Y171.605 E33.15963
G1 X64.315 Y171.159 E33.18451
G1 X63.238 Y170.085 E33.24272
G1 X62.85 Y169.684 E33.26407
G1 X62.501 Y169.251 E33.28536
G1 X62.218 Y168.859 E33.30386
G1 X60.77 Y166.571 E33.40748
G1 X59.27 Y164.344 E33.51024
G1 X57.624 Y162.042 E33.61854
G1 X55.989 Y159.888 E33.72203
G1 X54.235 Y157.708 E33.82911
G1 X52.471 Y155.64 E33.93313
G1 X50.62 Y153.587 E34.03891
G1 X48.714 Y151.592 E34.14451
G1 X46.741 Y149.64 E34.25072
G1 X44.737 Y147.766 E34.35572
G1 X42.661 Y145.933 E34.4617
G1 X40.568 Y144.185 E34.56606
G1 X38.376 Y142.459 E34.67283
G1 X36.189 Y140.835 E34.77708
G1 X33.916 Y139.247 E34.88319
G1 X31.614 Y137.729 E34.98872
G1 X30.962 Y137.326 E35.01805
G1 X30.249 Y136.869 E35.05046
G1 X29.697 Y136.456 E35.07685
G1 X29.274 Y136.098 E35.09805
G1 X28.741 Y135.577 E35.12658
G1 X28.318 Y135.152 E35.14953
G1 X27.668 Y134.514 E35.18438
G1 X27.323 Y134.121 E35.20439
G1 X26.914 Y133.581 E35.23032
G1 X26.537 Y132.96 E35.25812
G1 X26.354 Y132.577 E35.27436
G1 X26.008 Y131.664 E35.31173
G1 X25.965 Y131.544 E35.31661
G1 X24.972 Y128.998 E35.42119
G1 X23.886 Y126.432 E35.52782
G1 X22.745 Y123.932 E35.63299
G1 X21.533 Y121.465 E35.73818
G1 X20.246 Y119.021 E35.84389
G1 X18.9 Y116.633 E35.94879
G1 X17.47 Y114.256 E36.05495
G1 X15.967 Y111.909 E36.16161
G1 X14.976 Y110.438 E36.22948
G1 X14.759 Y110.045 E36.24667
G1 X14.615 Y109.62 E36.26384
G1 X14.549 Y109.176 E36.28102
G1 X14.591 Y108.547 E36.30514
G1 X14.757 Y107.852 E36.33249
G1 X39.966 Y11.841 E40.13132
G1 X40.132 Y11.238 E40.15526
G0 F1285.7 X40.469 Y11.331
G1 F900 X40.618 Y10.941 E40.17124
G1 X40.838 Y10.588 E40.18715
G1 X41.121 Y10.282 E40.2031
G1 X41.458 Y10.037 E40.21905
G1 X41.835 Y9.86 E40.23499
G1 X42.239 Y9.758 E40.25093
G1 X42.655 Y9.735 E40.26688
G1 X43.068 Y9.792 E40.28283
G1 X43.462 Y9.926 E40.29876
G1 X43.823 Y10.133 E40.31469
G1 X44.077 Y10.344 E40.32732
G1 X44.665 Y10.912 E40.35861
G1 X107.923 Y74.17 E43.78221
G1 X109.921 Y76.112 E43.88884
G1 X111.984 Y78.008 E43.99607
G1 X114.053 Y79.801 E44.10085
G1 X116.196 Y81.558 E44.2069
G1 X118.381 Y83.247 E44.31259
G1 X120.631 Y84.886 E44.41912
G1 X122.903 Y86.446 E44.52459
G1 X125.231 Y87.95 E44.63065
G1 X127.596 Y89.383 E44.73648
G1 X130.002 Y90.75 E44.84238
G1 X132.415 Y92.033 E44.94697
G1 X134.934 Y93.282 E45.05457
G1 X135.733 Y93.656 E45.08833
G1 X136.306 Y93.938 E45.11277
G1 X136.923 Y94.301 E45.14016
G1 X137.404 Y94.674 E45.16346
G1 X137.654 Y94.892 E45.17615
G1 X138.656 Y95.879 E45.22998
G1 X138.703 Y95.917 E45.23229
G1 X139.269 Y96.49 E45.26311
G1 X139.605 Y96.877 E45.28273
G1 X139.956 Y97.322 E45.30442
G1 X140.081 Y97.499 E45.31271
G1 X141.578 Y99.852 E45.41944
G1 X143.138 Y102.16 E45.52605
G1 X144.748 Y104.404 E45.63174
G1 X146.43 Y106.613 E45.73799
G1 X148.163 Y108.759 E45.84355
G1 X149.953 Y110.85 E45.94889
G1 X151.819 Y112.911 E46.05529
G1 X153.726 Y114.901 E46.16077
G1 X155.715 Y116.862 E46.26766
G1 X157.723 Y118.731 E46.37264
G1 X159.814 Y120.571 E46.47923
G1 X161.945 Y122.344 E46.58532
G1 X164.094 Y124.029 E46.68983
G1 X166.338 Y125.689 E46.79665
G1 X168.591 Y127.26 E46.90176
G1 X170.919 Y128.786 E47.00829
G1 X171.324 Y129.036 E47.0265
G1 X172.15 Y129.565 E47.06404
G1 X172.58 Y129.885 E47.08455
G1 X173.001 Y130.237 E47.10555
G1 X173.281 Y130.508 E47.12047
G1 X173.967 Y131.195 E47.15762
G1 X174.622 Y131.84 E47.1928
G1 X174.952 Y132.219 E47.21203
G1 X175.332 Y132.708 E47.23573
G1 X175.61 Y133.181 E47.25673
G1 X176.174 Y134.495 E47.31145
G1 X177.154 Y136.71 E47.40415
G1 X178.337 Y139.199 E47.50961
G1 X179.583 Y141.64 E47.61449
G1 X180.931 Y144.108 E47.72211
G1 X182.32 Y146.485 E47.82747
G1 X183.786 Y148.839 E47.9336
G1 X185.305 Y151.132 E48.03886
G1 X185.607 Y151.56 E48.0589
G1 X186.383 Y152.691 E48.1114
G1 X186.585 Y153.056 E48.12736
G1 X186.714 Y153.452 E48.1433
G1 X186.764 Y153.866 E48.15926
G1 X186.735 Y154.282 E48.17522
G1 X186.627 Y154.684 E48.19115
G1 X186.444 Y155.058 E48.20708
G1 X186.194 Y155.391 E48.22302
G1 X185.884 Y155.67 E48.23898
G1 X185.527 Y155.885 E48.25493
G1 X185.244 Y155.996 E48.26656
G1 X183.909 Y156.417 E48.32013
G1 X183.57 Y156.52 E48.33369
G1 X180.959 Y157.391 E48.43902
G1 X178.366 Y158.336 E48.54464
G1 X175.81 Y159.352 E48.6499
G1 X173.252 Y160.454 E48.75649
G1 X170.727 Y161.627 E48.86304
G1 X168.261 Y162.857 E48.9685
G1 X166.958 Y163.544 E49.02487
G1 X166.023 Y164.045 E49.06547
G1 X165.355 Y164.293 E49.09274
G1 X159.215 Y165.957 E49.33619
G1 X158.639 Y166.111 E49.35901
G1 X157.937 Y166.288 E49.38671
G1 X157.359 Y166.359 E49.409
G1 X154.62 Y166.536 E49.51404
G1 X151.827 Y166.796 E49.62139
G1 X149.104 Y167.128 E49.72637
G1 X146.353 Y167.542 E49.83283
G1 X143.628 Y168.031 E49.93878
G1 X140.915 Y168.599 E50.04486
G1 X138.273 Y169.23 E50.14881
G1 X135.57 Y169.955 E50.25591
G1 X132.898 Y170.755 E50.36265
G1 X130.287 Y171.618 E50.46789
G1 X127.669 Y172.567 E50.57446
G1 X125.122 Y173.572 E50.67924
