;FLAVOR:Marlin
;TIME:12950
;Filament used: 10.068m
;Layer height: 0.2
;MINX:4.762
;MINY:33.477
;MINZ:0.26
;MAXX:185.972
;MAXY:198.397
;MAXZ:7.86
;Generated with Cura_SteamEngine 4.9.1
M82 ;absolute extrusion mode
;Begin Start Gcode for Dagoma DiscoEasy 200
;Sliced: 13-07-2021 17:24:40
;Initial extruder: 0

G90 ;Absolute positioning
M106 S255 ;Fan on full
G28 X Y ;Home stop X Y
G1 X100 ;Centre back during cooldown in case of oozing
M109 R90 ;Cooldown in case too hot
G28 ;Centre
G29 ;Auto-level
M104 S205 ;Pre-heat
M107 ;Fan off
G0 X100 Y5 Z0.5 ;Front centre for degunk
M109 S205 ;Wait for initial temp
M83 ;E Relative
G1 E10 F200 ;Degunk
G1 E-3 F5000 ;Retract
G0 Z3 ;Withdraw
M82 ;E absolute
G92 E0 ;E reset
G1 F6000 ;Set feedrate

;Finish Start Gcode for Dagoma DiscoEasy 200

G92 E0
G92 E0
G1 F3000 E-3.5
;LAYER_COUNT:39
;LAYER:0
M107
G0 F1285.7 X15.855 Y33.88 Z0.26
;TYPE:SKIRT
G1 F3000 E0
G1 F900 X16.369 Y33.669 E0.02126
G1 X16.909 Y33.533 E0.04257
G1 X17.463 Y33.477 E0.06388
G1 X18.018 Y33.5 E0.08514
G1 X18.565 Y33.603 E0.10644
G1 X19.092 Y33.783 E0.12775
G1 X19.754 Y34.143 E0.15659
G1 X20.342 Y34.543 E0.18381
G1 X183.8 Y148.977 E7.81986
G1 X184.371 Y149.389 E7.84681
G1 X184.798 Y149.746 E7.86811
G1 X185.169 Y150.16 E7.88938
G1 X185.477 Y150.624 E7.9107
G1 X185.716 Y151.126 E7.93197
G1 X185.879 Y151.658 E7.95327
G1 X185.966 Y152.208 E7.97458
G1 X185.972 Y152.764 E7.99586
G1 X185.899 Y153.316 E8.01717
G1 X185.747 Y153.851 E8.03845
G1 X185.52 Y154.359 E8.05974
G1 X185.223 Y154.83 E8.08105
G1 X184.862 Y155.253 E8.10234
G1 X184.444 Y155.62 E8.12362
G1 X183.79 Y156.02 E8.15296
G1 X182.956 Y156.422 E8.18839
G1 X93.094 Y197.784 E11.97417
G1 X92.466 Y198.063 E12.00047
G1 X91.943 Y198.252 E12.02175
G1 X91.398 Y198.364 E12.04305
G1 X90.842 Y198.397 E12.06436
G1 X90.288 Y198.349 E12.08564
G1 X89.746 Y198.223 E12.10694
G1 X89.228 Y198.021 E12.12821
G1 X88.741 Y197.746 E12.14962
G1 X88.632 Y197.674 E12.15462
G1 X88.161 Y197.351 E12.17647
G1 X6.937 Y140.488 E15.9709
G1 X6.355 Y140.067 E15.99839
G1 X5.929 Y139.709 E16.01968
G1 X5.558 Y139.294 E16.04099
G1 X5.251 Y138.83 E16.06228
G1 X5.013 Y138.327 E16.08357
G1 X4.85 Y137.795 E16.10487
G1 X4.764 Y137.245 E16.12617
G1 X4.762 Y136.639 E16.14936
G1 X4.826 Y135.788 E16.18202
G1 X13.654 Y37.632 E19.95357
G1 X13.725 Y36.949 E19.97985
G1 X13.822 Y36.401 E20.00114
G1 X13.996 Y35.873 E20.02242
G1 X14.245 Y35.375 E20.04373
G1 X14.562 Y34.918 E20.06501
G1 X14.942 Y34.511 E20.08632
G1 X15.375 Y34.163 E20.10758
G1 X15.855 Y33.88 E20.12891
G0 F1285.7 X16.166 Y34.121
G1 F900 X16.667 Y33.945 E20.14923
G1 X17.188 Y33.847 E20.16952
G1 X17.719 Y33.828 E20.18985
G1 X18.246 Y33.889 E20.21015
G1 X18.758 Y34.028 E20.23046
G1 X19.243 Y34.243 E20.25076
G1 X19.558 Y34.433 E20.26484
G1 X20.142 Y34.829 E20.29184
G1 X183.596 Y149.26 E27.9277
G1 X184.167 Y149.672 E27.95465
G1 X184.572 Y150.014 E27.97494
G1 X184.922 Y150.413 E27.99525
G1 X185.208 Y150.861 E28.01559
G1 X185.424 Y151.345 E28.03587
G1 X185.564 Y151.857 E28.05618
G1 X185.626 Y152.384 E28.07649
G1 X185.608 Y152.915 E28.09682
G1 X185.511 Y153.436 E28.1171
G1 X185.336 Y153.937 E28.13741
G1 X185.089 Y154.407 E28.15773
G1 X184.773 Y154.833 E28.17803
G1 X184.397 Y155.208 E28.19835
G1 X183.969 Y155.522 E28.21867
G1 X183.637 Y155.705 E28.23318
G1 X182.81 Y156.104 E28.26832
G1 X92.952 Y197.464 E32.05393
G1 X92.324 Y197.743 E32.08022
G1 X91.824 Y197.922 E32.10055
G1 X91.303 Y198.023 E32.12086
G1 X90.773 Y198.045 E32.14116
G1 X90.246 Y197.987 E32.16145
G1 X89.733 Y197.851 E32.18176
G1 X89.246 Y197.639 E32.20209
G1 X88.83 Y197.385 E32.22074
G1 X88.361 Y197.065 E32.24247
G1 X7.142 Y140.204 E36.03669
G1 X6.56 Y139.783 E36.06418
G1 X6.155 Y139.441 E36.08447
G1 X5.805 Y139.041 E36.10481
G1 X5.52 Y138.594 E36.1251
G1 X5.305 Y138.109 E36.1454
G1 X5.165 Y137.597 E36.16571
G1 X5.104 Y137.07 E36.18601
G1 X5.111 Y136.665 E36.20152
G1 X5.174 Y135.819 E36.23398
G1 X14.002 Y37.669 E40.0053
G1 X14.073 Y36.986 E40.03158
G1 X14.167 Y36.463 E40.05191
G1 X14.339 Y35.961 E40.07222
G1 X14.584 Y35.491 E40.0925
G1 X14.897 Y35.062 E40.11283
G1 X15.271 Y34.686 E40.13312
G1 X15.697 Y34.369 E40.15344
G1 X16.166 Y34.121 E40.17375
G0 F1285.7 X16.016 Y34.586
G1 F900 X16.473 Y34.374 E40.19303
G1 X16.958 Y34.236 E40.21232
G1 X17.458 Y34.177 E40.23159
G1 X17.961 Y34.198 E40.25086
G1 X18.454 Y34.298 E40.27011
G1 X18.926 Y34.475 E40.2894
G1 X19.361 Y34.723 E40.30856
G1 X19.941 Y35.116 E40.33537
G1 X183.391 Y149.544 E47.97105
G1 X183.962 Y149.956 E47.99799
G1 X184.346 Y150.282 E48.01727
G1 X184.673 Y150.665 E48.03654
G1 X184.936 Y151.095 E48.05583
G1 X185.127 Y151.56 E48.07507
G1 X185.242 Y152.051 E48.09437
G1 X185.279 Y152.553 E48.11363
G1 X185.236 Y153.055 E48.13292
G1 X185.113 Y153.543 E48.15217
G1 X184.915 Y154.006 E48.17145
G1 X184.647 Y154.432 E48.19071
G1 X184.314 Y154.81 E48.20998
G1 X183.926 Y155.131 E48.22926
G1 X183.485 Y155.39 E48.24883
G1 X182.664 Y155.786 E48.28371
G1 X92.81 Y197.145 E52.06917
G1 X92.182 Y197.424 E52.09547
G1 X91.707 Y197.591 E52.11473
G1 X91.212 Y197.681 E52.13399
G1 X90.708 Y197.692 E52.15328
G1 X90.209 Y197.623 E52.17256
G1 X89.728 Y197.475 E52.19182
G1 X89.191 Y197.202 E52.21487
G1 X89.027 Y197.096 E52.22234
G1 X88.562 Y196.778 E52.2439
G1 X7.347 Y139.921 E56.03792
G1 X6.765 Y139.5 E56.0654
G1 X6.382 Y139.173 E56.08468
G1 X6.055 Y138.79 E56.10395
G1 X5.793 Y138.36 E56.12322
G1 X5.602 Y137.894 E56.14249
G1 X5.487 Y137.404 E56.16176
G1 X5.46 Y136.691 E56.18906
G1 X5.523 Y135.851 E56.2213
G1 X14.35 Y37.705 E59.99246
G1 X14.421 Y37.022 E60.01874
G1 X14.513 Y36.527 E60.038
G1 X14.681 Y36.052 E60.05729
G1 X14.923 Y35.61 E60.07657
G1 X15.232 Y35.212 E60.09585
G1 X15.599 Y34.868 E60.1151
G1 X16.016 Y34.586 E60.13437
G1 F3000 E56.63437
;MESH:support_half_hex_03.stl
G0 F1285.7 X16.878 Y37.895
G0 X17.874 Y37.984
G0 X23.861 Y50.861
;TYPE:WALL-INNER
G1 F3000 E60.13437
G1 F900 X17.215 Y124.744 E62.97325
G1 X84.342 Y93.846 E65.80124
G1 X84.397 Y93.241 E65.82449
G1 X23.861 Y50.861 E68.65247
G0 F1285.7 X106.14 Y108.463
G1 F900 X99.494 Y182.346 E71.49135
G1 X166.621 Y151.449 E74.31933
G1 X166.676 Y150.844 E74.34258
G1 X106.14 Y108.463 E77.17058
G0 F1285.7 X180.802 Y152.569
G1 F900 X90.946 Y193.93 E80.95613
G1 X9.163 Y136.675 E84.77669
G1 X17.986 Y38.583 E88.54578
G1 X18.013 Y38.283 E88.5573
G1 X18.26 Y38.456 E88.56385
G1 X180.829 Y152.268 E96.15838
G1 X181.078 Y152.442 E96.17001
G1 X180.802 Y152.569 E96.17658
G0 F1285.7 X181.452 Y152.628
;TYPE:WALL-OUTER
G1 F900 X90.913 Y194.303 E99.9909
G1 X8.822 Y136.833 E103.82583
G1 X17.712 Y37.995 E107.62358
G1 X17.739 Y37.695 E107.63511
G1 X17.986 Y37.868 E107.64166
G1 X181.479 Y152.327 E115.27936
G1 X181.728 Y152.501 E115.29099
G1 X181.452 Y152.628 E115.29756
G0 F1285.7 X181.271 Y152.711
G0 X181.415 Y152.59
G0 X106.272 Y108.744
G0 X106.413 Y109.051
G1 F900 X99.868 Y181.816 E118.09348
G1 X166.22 Y151.275 E120.88882
G1 X166.314 Y151.232 E120.89277
G1 X166.335 Y151.002 E120.90161
G1 X166.25 Y150.943 E120.90557
G1 X106.413 Y109.051 E123.70092
G0 F1285.7 X106.396 Y109.25
G0 X106.148 Y109.228
G0 X84.25 Y93.311
G0 X23.993 Y51.142
G0 X24.134 Y51.449
G1 F900 X17.589 Y124.214 E126.49685
G1 X83.941 Y93.672 E129.2922
G1 X84.035 Y93.629 E129.29616
G1 X84.056 Y93.399 E129.305
G1 X83.971 Y93.34 E129.30895
G1 X24.134 Y51.449 E132.10429
G0 F1285.7 X24.117 Y51.648
G0 X23.869 Y51.626
G0 X23.575 Y50.245
;TYPE:SKIN
G1 F900 X16.824 Y125.298 E134.98813
G1 X84.663 Y94.073 E137.8461
G1 X84.753 Y93.076 E137.88441
G1 X23.575 Y50.245 E140.74241
G0 F1285.7 X18.299 Y38.897
G1 F900 X180.398 Y152.38 E148.31499
G1 X90.981 Y193.539 E152.08205
G1 X9.519 Y136.509 E155.88761
G1 X18.299 Y38.897 E159.63825
G0 F1285.7 X105.854 Y107.847
G1 F900 X99.103 Y182.9 E162.52209
G1 X166.942 Y151.676 E165.38005
G1 X167.032 Y150.679 E165.41836
G1 X105.854 Y107.847 E168.27638
G0 F1285.7 X179.734 Y152.51
G1 F900 X178.387 Y151.163 E168.34929
G1 X178.325 Y151.101
G0 F1285.7 X179.056 Y152.822
G1 F900 X175.086 Y148.853 E168.56412
G1 X175.024 Y148.791
G0 F1285.7 X173.436 Y147.697
G1 F900 X178.717 Y152.979 E168.84996
G0 F1285.7 X178.378 Y153.134
G1 F900 X171.785 Y146.542 E169.20676
G1 X171.723 Y146.48
G0 F1285.7 X170.135 Y145.386
G1 F900 X178.039 Y153.29 E169.63453
G0 F1285.7 X177.7 Y153.447
G1 F900 X168.485 Y144.231 E170.13329
G1 X168.423 Y144.169
G0 F1285.7 X166.834 Y143.075
G1 F900 X177.361 Y153.602 E170.70302
G0 F1285.7 X177.022 Y153.758
G1 F900 X165.184 Y141.92 E171.34371
G1 X165.122 Y141.858
G0 F1285.7 X163.533 Y140.765
G1 F900 X176.684 Y153.915 E172.05543
G0 F1285.7 X176.344 Y154.07
G1 F900 X161.883 Y139.609 E172.83808
G1 X161.821 Y139.547
G0 F1285.7 X160.233 Y138.454
G1 F900 X176.005 Y154.227 E173.69171
G0 F1285.7 X175.667 Y154.383
G1 F900 X158.582 Y137.298 E174.61637
G1 X158.52 Y137.236
G0 F1285.7 X156.931 Y136.142
G1 F900 X175.327 Y154.538 E175.61198
G0 F1285.7 X174.989 Y154.695
G1 F900 X155.281 Y134.987 E176.6786
G1 X155.219 Y134.925
G0 F1285.7 X153.63 Y133.831
G1 F900 X174.65 Y154.851 E177.81623
G0 F1285.7 X174.311 Y155.006
G1 F900 X151.98 Y132.676 E179.02479
G1 X151.918 Y132.614
G0 F1285.7 X150.33 Y131.521
G1 F900 X173.972 Y155.163 E180.30432
G0 F1285.7 X173.633 Y155.319
G1 F900 X148.679 Y130.365 E181.65487
G1 X148.617 Y130.303
G0 F1285.7 X147.029 Y129.21
G1 F900 X173.294 Y155.475 E183.07636
G0 F1285.7 X172.955 Y155.631
G1 F900 X145.379 Y128.054 E184.56884
G1 X145.317 Y127.992
G0 F1285.7 X143.728 Y126.899
G1 F900 X172.616 Y155.787 E186.13229
G0 F1285.7 X172.277 Y155.943
G1 F900 X167.173 Y150.839 E186.40853
G0 F1285.7 X167.132 Y151.293
G1 F900 X171.938 Y156.099 E186.66863
G0 F1285.7 X171.599 Y156.255
G1 F900 X167.092 Y151.747 E186.91259
G0 F1285.7 X166.774 Y151.925
G1 F900 X171.26 Y156.411 E187.15537
G0 F1285.7 X170.921 Y156.567
G1 F900 X166.435 Y152.081 E187.39816
G0 F1285.7 X166.097 Y152.237
G1 F900 X170.582 Y156.723 E187.64092
G0 F1285.7 X170.243 Y156.879
G1 F900 X165.757 Y152.393 E187.88371
G0 F1285.7 X165.419 Y152.549
G1 F900 X169.905 Y157.035 E188.1265
G0 F1285.7 X169.565 Y157.191
G1 F900 X165.08 Y152.706 E188.36923
G0 F1285.7 X164.741 Y152.861
G1 F900 X169.226 Y157.347 E188.61199
G0 F1285.7 X168.888 Y157.503
G1 F900 X164.402 Y153.017 E188.85478
G0 F1285.7 X164.062 Y153.173
G1 F900 X168.548 Y157.659 E189.09757
G0 F1285.7 X168.21 Y157.815
G1 F900 X163.724 Y153.329 E189.34036
G0 F1285.7 X163.385 Y153.486
G1 F900 X167.871 Y157.971 E189.58312
G0 F1285.7 X167.531 Y158.127
G1 F900 X163.046 Y153.641 E189.82588
G0 F1285.7 X162.707 Y153.797
G1 F900 X167.193 Y158.283 E190.06867
G0 F1285.7 X166.854 Y158.44
G1 F900 X162.368 Y153.954 E190.31146
G0 F1285.7 X162.029 Y154.109
G1 F900 X166.515 Y158.595 E190.55424
G0 F1285.7 X166.176 Y158.751
G1 F900 X161.69 Y154.265 E190.79703
G0 F1285.7 X161.351 Y154.422
G1 F900 X165.837 Y158.908 E191.03982
G0 F1285.7 X165.498 Y159.063
G1 F900 X161.012 Y154.577 E191.28261
G0 F1285.7 X160.673 Y154.734
G1 F900 X165.159 Y159.219 E191.52537
G0 F1285.7 X164.82 Y159.376
G1 F900 X160.334 Y154.889 E191.76818
G0 F1285.7 X159.995 Y155.045
G1 F900 X164.481 Y159.531 E192.01097
G0 F1285.7 X164.142 Y159.688
G1 F900 X159.656 Y155.202 E192.25376
G0 F1285.7 X159.317 Y155.357
G1 F900 X163.803 Y159.843 E192.49655
G0 F1285.7 X163.464 Y159.999
G1 F900 X158.978 Y155.513 E192.73934
G0 F1285.7 X158.64 Y155.67
G1 F900 X163.125 Y160.156 E192.9821
G0 F1285.7 X162.786 Y160.311
G1 F900 X158.3 Y155.825 E193.22489
G0 F1285.7 X157.961 Y155.982
G1 F900 X162.447 Y160.467 E193.46765
G0 F1285.7 X162.109 Y160.624
G1 F900 X157.622 Y156.137 E193.71049
G0 F1285.7 X157.283 Y156.293
G1 F900 X161.769 Y160.779 E193.95328
G0 F1285.7 X161.431 Y160.936
G1 F900 X156.945 Y156.45 E194.19606
G0 F1285.7 X156.605 Y156.605
G1 F900 X161.092 Y161.092 E194.43891
G0 F1285.7 X160.752 Y161.247
G1 F900 X156.267 Y156.762 E194.68164
G0 F1285.7 X155.928 Y156.918
G1 F900 X160.414 Y161.404 E194.92443
G0 F1285.7 X160.075 Y161.56
G1 F900 X155.588 Y157.073 E195.16727
G0 F1285.7 X155.25 Y157.23
G1 F900 X159.736 Y161.716 E195.41006
G0 F1285.7 X159.397 Y161.872
G1 F900 X154.911 Y157.386 E195.65285
G0 F1285.7 X154.572 Y157.541
G1 F900 X159.058 Y162.028 E195.89566
G0 F1285.7 X158.719 Y162.184
G1 F900 X154.233 Y157.698 E196.13845
G0 F1285.7 X153.894 Y157.853
G1 F900 X158.38 Y162.34 E196.38126
G0 F1285.7 X158.041 Y162.496
G1 F900 X153.555 Y158.01 E196.62405
G0 F1285.7 X153.216 Y158.166
G1 F900 X157.702 Y162.652 E196.86684
G0 F1285.7 X157.363 Y162.808
G1 F900 X152.877 Y158.321 E197.10966
G0 F1285.7 X152.538 Y158.478
G1 F900 X157.025 Y162.964 E197.35247
G0 F1285.7 X156.685 Y163.12
G1 F900 X152.199 Y158.634 E197.59526
G0 F1285.7 X151.86 Y158.79
G1 F900 X156.346 Y163.276 E197.83805
G0 F1285.7 X156.007 Y163.432
G1 F900 X151.521 Y158.946 E198.08084
G0 F1285.7 X151.182 Y159.102
G1 F900 X155.668 Y163.588 E198.32362
G0 F1285.7 X155.33 Y163.744
G1 F900 X150.843 Y159.258 E198.56644
G0 F1285.7 X150.504 Y159.414
G1 F900 X154.99 Y163.9 E198.80923
G0 F1285.7 X154.652 Y164.056
G1 F900 X150.165 Y159.569 E199.05207
G0 F1285.7 X149.826 Y159.726
G1 F900 X154.313 Y164.212 E199.29488
G0 F1285.7 X153.973 Y164.368
G1 F900 X149.488 Y159.882 E199.53764
G0 F1285.7 X149.148 Y160.038
G1 F900 X153.635 Y164.524 E199.78046
G0 F1285.7 X153.296 Y164.68
G1 F900 X148.809 Y160.194 E200.02327
G0 F1285.7 X148.471 Y160.35
G1 F900 X152.957 Y164.836 E200.26606
G0 F1285.7 X152.618 Y164.992
G1 F900 X148.131 Y160.506 E200.50888
G0 F1285.7 X147.793 Y160.662
G1 F900 X152.279 Y165.149 E200.75169
G0 F1285.7 X151.94 Y165.304
G1 F900 X147.453 Y160.818 E200.99451
G0 F1285.7 X147.114 Y160.974
G1 F900 X151.601 Y165.46 E201.23732
G0 F1285.7 X151.262 Y165.617
G1 F900 X146.776 Y161.13 E201.48014
G0 F1285.7 X146.436 Y161.286
G1 F900 X150.923 Y165.772 E201.72295
G0 F1285.7 X150.584 Y165.928
G1 F900 X146.098 Y161.442 E201.96574
G0 F1285.7 X145.759 Y161.598
G1 F900 X150.246 Y166.085 E202.20858
G0 F1285.7 X149.906 Y166.24
G1 F900 X145.42 Y161.754 E202.45137
G0 F1285.7 X145.081 Y161.91
G1 F900 X149.567 Y166.397 E202.69419
G0 F1285.7 X149.229 Y166.553
G1 F900 X144.742 Y162.066 E202.93703
G0 F1285.7 X144.403 Y162.222
G1 F900 X148.889 Y166.708 E203.17982
G0 F1285.7 X148.551 Y166.865
G1 F900 X144.064 Y162.378 E203.42266
G0 F1285.7 X143.725 Y162.534
G1 F900 X148.211 Y167.02 E203.66545
G0 F1285.7 X147.872 Y167.177
G1 F900 X143.386 Y162.69 E203.90826
G0 F1285.7 X143.047 Y162.846
G1 F900 X147.534 Y167.333 E204.1511
G0 F1285.7 X147.194 Y167.488
G1 F900 X142.708 Y163.002 E204.39389
G0 F1285.7 X142.369 Y163.158
G1 F900 X146.856 Y167.645 E204.63673
G0 F1285.7 X146.517 Y167.801
G1 F900 X142.03 Y163.314 E204.87958
G0 F1285.7 X141.691 Y163.47
G1 F900 X146.178 Y167.956 E205.12239
G0 F1285.7 X145.839 Y168.113
G1 F900 X141.352 Y163.626 E205.36523
G0 F1285.7 X141.014 Y163.782
G1 F900 X145.5 Y168.269 E205.60805
G0 F1285.7 X145.161 Y168.425
G1 F900 X140.674 Y163.938 E205.85089
G0 F1285.7 X140.335 Y164.094
G1 F900 X144.822 Y168.581 E206.09373
G0 F1285.7 X144.483 Y168.737
G1 F900 X139.996 Y164.25 E206.33658
G0 F1285.7 X139.657 Y164.406
G1 F900 X144.144 Y168.893 E206.57942
G0 F1285.7 X143.805 Y169.049
G1 F900 X139.319 Y164.562 E206.82223
G0 F1285.7 X138.979 Y164.718
G1 F900 X143.467 Y169.205 E207.0651
G0 F1285.7 X143.127 Y169.361
G1 F900 X138.641 Y164.874 E207.30792
G0 F1285.7 X138.302 Y165.03
G1 F900 X142.788 Y169.517 E207.55073
G0 F1285.7 X142.45 Y169.673
G1 F900 X137.962 Y165.186 E207.7936
G0 F1285.7 X137.624 Y165.342
G1 F900 X142.11 Y169.829 E208.03642
G0 F1285.7 X141.772 Y169.985
G1 F900 X137.284 Y165.498 E208.27929
G0 F1285.7 X136.946 Y165.654
G1 F900 X141.433 Y170.141 E208.52213
G0 F1285.7 X141.093 Y170.297
G1 F900 X136.607 Y165.81 E208.76494
G0 F1285.7 X136.267 Y165.966
G1 F900 X140.755 Y170.453 E209.00781
G0 F1285.7 X140.415 Y170.609
G1 F900 X135.929 Y166.122 E209.25063
G0 F1285.7 X135.59 Y166.278
G1 F900 X140.077 Y170.765 E209.49347
G0 F1285.7 X139.738 Y170.921
G1 F900 X135.251 Y166.434 E209.73631
G0 F1285.7 X134.912 Y166.59
G1 F900 X139.399 Y171.077 E209.97915
G0 F1285.7 X139.06 Y171.233
G1 F900 X134.573 Y166.747 E210.22197
G0 F1285.7 X134.234 Y166.902
G1 F900 X138.721 Y171.389 E210.46481
G0 F1285.7 X138.382 Y171.545
G1 F900 X133.895 Y167.058 E210.70765
G0 F1285.7 X133.556 Y167.214
