;FLAVOR:Marlin
;TIME:23981
;Filament used: 25.6039m
;Layer height: 0.3
;MINX:16.941
;MINY:6.178
;MINZ:0.26
;MAXX:191.037
;MAXY:180.808
;MAXZ:29.66
;Generated with Cura_SteamEngine 4.9.1
M82 ;absolute extrusion mode
;Begin Start Gcode for Dagoma DiscoEasy 200
;Sliced: 26-07-2021 01:15:07
;Initial extruder: 0

G90 ;Absolute positioning
M106 S255 ;Fan on full
G28 X Y ;Home stop X Y
G1 X100 ;Centre back during cooldown in case of oozing
M109 R90 ;Cooldown in case too hot
G28 ;Centre
G29 ;Auto-level
M104 S205 ;Pre-heat
M107 ;Fan off
G0 X100 Y5 Z0.5 ;Front centre for degunk
M109 S205 ;Wait for initial temp
M83 ;E Relative
G1 E10 F200 ;Degunk
G1 E-3 F5000 ;Retract
G0 Z3 ;Withdraw
M82 ;E absolute
G92 E0 ;E reset
G1 F6000 ;Set feedrate

;Finish Start Gcode for Dagoma DiscoEasy 200

G92 E0
G92 E0
G1 F3000 E-3.5
;LAYER_COUNT:99
;LAYER:0
M107
G0 F1285.7 X36.321 Y21.999 Z0.26
;TYPE:SKIRT
G1 F3000 E0
G1 F900 X37.693 Y19.628 E0.10483
G1 X38.981 Y17.254 E0.2082
G1 X40.241 Y14.761 E0.31509
G1 X41.409 Y12.283 E0.41993
G1 X42.751 Y9.188 E0.54903
G1 X43.263 Y7.952 E0.60023
G1 X43.483 Y7.527 E0.61855
G1 X43.77 Y7.143 E0.63689
G1 X44.117 Y6.813 E0.65522
G1 X44.514 Y6.545 E0.67355
G1 X44.95 Y6.346 E0.69189
G1 X45.413 Y6.223 E0.71022
G1 X45.89 Y6.178 E0.72856
G1 X46.368 Y6.213 E0.7469
G1 X46.834 Y6.327 E0.76526
G1 X47.274 Y6.517 E0.7836
G1 X47.676 Y6.777 E0.80192
G1 X47.923 Y6.992 E0.81446
G1 X48.418 Y7.473 E0.84087
G1 X51.332 Y10.387 E0.99858
G1 X53.345 Y12.344 E1.10602
G1 X55.342 Y14.179 E1.20981
G1 X57.439 Y15.997 E1.31602
G1 X59.548 Y17.725 E1.42036
G1 X61.722 Y19.406 E1.52553
G1 X63.965 Y21.04 E1.63173
G1 X65.351 Y22.002 E1.6963
G1 X65.713 Y22.3 E1.71424
G1 X66.366 Y22.933 E1.74905
G1 X66.934 Y23.501 E1.77979
G1 X67.55 Y24.138 E1.8137
G1 X68.724 Y25.332 E1.87778
G1 X71.025 Y27.634 E2.00234
G1 X71.552 Y28.176 E2.03127
G1 X71.96 Y28.696 E2.05656
G1 X73.584 Y30.991 E2.16416
G1 X75.211 Y33.156 E2.2678
G1 X76.921 Y35.304 E2.37287
G1 X78.721 Y37.437 E2.47968
G1 X80.52 Y39.451 E2.58303
G1 X83.383 Y42.439 E2.7414
G1 X86.043 Y45.098 E2.88533
G1 X88.056 Y47.055 E2.99277
G1 X90.053 Y48.89 E3.09656
G1 X92.15 Y50.708 E3.20277
G1 X94.259 Y52.436 E3.30711
G1 X96.449 Y54.13 E3.41307
G1 X98.641 Y55.726 E3.51684
G1 X99.507 Y56.318 E3.55698
G1 X100.675 Y57.135 E3.61153
G1 X101.069 Y57.462 E3.63113
G1 X101.475 Y57.858 E3.65283
G1 X102.926 Y59.313 E3.73147
G1 X104.328 Y60.744 E3.80814
G1 X106.593 Y63.008 E3.93069
G1 X107.07 Y63.498 E3.95686
G1 X107.183 Y63.62 E3.96323
G1 X107.935 Y64.488 E4.00718
G1 X109.806 Y66.584 E4.1147
G1 X111.688 Y68.576 E4.21958
G1 X113.609 Y70.496 E4.32352
G1 X115.616 Y72.394 E4.42923
G1 X117.647 Y74.205 E4.53337
G1 X119.775 Y76 E4.63991
G1 X121.926 Y77.712 E4.74511
G1 X124.115 Y79.355 E4.84986
G1 X126.354 Y80.939 E4.95482
G1 X128.64 Y82.461 E5.05992
G1 X130.97 Y83.919 E5.16511
G1 X133.33 Y85.303 E5.26981
G1 X135.756 Y86.638 E5.37578
G1 X138.174 Y87.878 E5.47977
G1 X140.662 Y89.059 E5.58517
G1 X141.281 Y89.383 E5.61191
G1 X141.727 Y89.669 E5.63218
G1 X142.292 Y90.079 E5.6589
G1 X142.658 Y90.406 E5.67768
G1 X143.319 Y91.07 E5.71354
G1 X143.761 Y91.53 E5.73795
G1 X144.165 Y91.937 E5.75989
G1 X144.341 Y92.131 E5.76992
G1 X144.779 Y92.662 E5.79626
G1 X145.02 Y92.991 E5.81187
G1 X145.528 Y93.783 E5.84788
G1 X146.021 Y94.576 E5.88361
G1 X147.564 Y96.908 E5.99062
G1 X149.138 Y99.146 E6.09533
G1 X150.783 Y101.351 E6.20061
G1 X152.497 Y103.518 E6.30635
G1 X154.259 Y105.62 E6.41131
G1 X156.076 Y107.665 E6.516
G1 X157.938 Y109.648 E6.6201
G1 X159.879 Y111.601 E6.72548
G1 X161.893 Y113.515 E6.83181
G1 X163.933 Y115.346 E6.93671
G1 X166.022 Y117.119 E7.04157
G1 X168.156 Y118.828 E7.1462
G1 X170.374 Y120.502 E7.25254
G1 X172.588 Y122.078 E7.35654
G1 X175.806 Y124.209 E7.50425
G1 X177.045 Y124.996 E7.56042
G1 X177.677 Y125.456 E7.59034
G1 X178.014 Y125.771 E7.60799
G1 X179.569 Y127.349 E7.69277
G1 X180.036 Y127.898 E7.72036
G1 X180.493 Y128.557 E7.75105
G1 X180.754 Y129.052 E7.77246
G1 X181.016 Y129.631 E7.79678
G1 X181.45 Y130.86 E7.84666
G1 X182.403 Y133.442 E7.95199
G1 X183.415 Y135.967 E8.05609
G1 X184.52 Y138.51 E8.1622
G1 X185.684 Y140.996 E8.26725
G1 X186.919 Y143.449 E8.37235
G1 X188.22 Y145.864 E8.47733
G1 X189.981 Y148.889 E8.61129
G1 X190.401 Y149.583 E8.64233
G1 X190.614 Y150.013 E8.66069
G1 X190.753 Y150.471 E8.67901
G1 X190.813 Y150.947 E8.69737
G1 X190.794 Y151.425 E8.71568
G1 X190.696 Y151.894 E8.73401
G1 X190.521 Y152.34 E8.75235
G1 X190.275 Y152.751 E8.77068
G1 X189.963 Y153.116 E8.78906
G1 X189.596 Y153.423 E8.80737
G1 X189.326 Y153.591 E8.81954
G1 X188.217 Y154.201 E8.86797
G1 X185.794 Y155.577 E8.97461
G1 X183.455 Y156.994 E9.07927
G1 X181.114 Y158.503 E9.18586
G1 X178.86 Y160.049 E9.29046
G1 X176.659 Y161.651 E9.39464
G1 X174.466 Y163.345 E9.50068
G1 X171.679 Y165.648 E9.63904
G1 X171.194 Y166.064 E9.6635
G1 X170.723 Y166.414 E9.68595
G1 X170.273 Y166.704 E9.70644
G1 X169.816 Y166.942 E9.72616
G1 X169.129 Y167.222 E9.75455
G1 X168.776 Y167.342 E9.76882
G1 X167.972 Y167.565 E9.80075
G1 X166.592 Y167.927 E9.85535
G1 X166.041 Y168.03 E9.8768
G1 X165.357 Y168.11 E9.90316
G1 X164.902 Y168.131 E9.92059
G1 X162.99 Y168.191 E9.99379
G1 X160.262 Y168.353 E10.09838
G1 X157.53 Y168.595 E10.20334
G1 X154.781 Y168.916 E10.30926
G1 X152.069 Y169.31 E10.41413
G1 X149.367 Y169.782 E10.5191
G1 X146.725 Y170.319 E10.62228
G1 X143.992 Y170.958 E10.72969
G1 X141.34 Y171.657 E10.83465
G1 X138.717 Y172.428 E10.93927
G1 X136.097 Y173.28 E11.04471
G1 X133.502 Y174.205 E11.15014
G1 X131.008 Y175.175 E11.25255
G1 X128.4 Y176.273 E11.36084
G1 X125.936 Y177.396 E11.46447
G1 X123.463 Y178.608 E11.56986
G1 X122.406 Y179.165 E11.61559
G1 X121.607 Y179.57 E11.64987
G1 X121.102 Y179.787 E11.6709
G1 X120.434 Y180.027 E11.69807
G1 X119.043 Y180.415 E11.75333
G1 X118.314 Y180.605 E11.78216
G1 X118.055 Y180.66 E11.79229
G1 X117.365 Y180.772 E11.81905
G1 X116.77 Y180.808 E11.84186
G1 X116.238 Y180.786 E11.86224
G1 X115.622 Y180.731 E11.8859
G1 X115.259 Y180.674 E11.89997
G1 X113.278 Y180.336 E11.97687
G1 X110.527 Y179.946 E12.0832
G1 X107.815 Y179.64 E12.18765
G1 X105.052 Y179.406 E12.29377
G1 X102.349 Y179.254 E12.39737
G1 X99.583 Y179.178 E12.50327
G1 X96.847 Y179.18 E12.60797
G1 X94.08 Y179.26 E12.71391
G1 X91.146 Y179.43 E12.82638
G1 X90.667 Y179.418 E12.84472
G1 X90.107 Y179.31 E12.86654
G1 X89.65 Y179.166 E12.88488
G1 X89.224 Y178.948 E12.90319
G1 X88.732 Y178.563 E12.9271
G1 X88.318 Y178.158 E12.94926
G1 X18.254 Y108.092 E16.74127
G1 X17.74 Y107.564 E16.76947
G1 X17.435 Y107.194 E16.78782
G1 X17.197 Y106.779 E16.80613
G1 X17.03 Y106.33 E16.82446
G1 X16.941 Y105.859 E16.84281
G1 X16.951 Y105.176 E16.86895
G1 X17.094 Y104.114 E16.90996
G1 X17.17 Y103.61 E16.92946
G1 X17.502 Y100.883 E17.03459
G1 X17.76 Y98.123 E17.14068
G1 X17.937 Y95.392 E17.24541
G1 X18.035 Y92.66 E17.35003
G1 X18.058 Y89.885 E17.45623
G1 X18.003 Y87.186 E17.55954
G1 X17.788 Y83.228 E17.71124
G1 X17.705 Y82.122 E17.75368
G1 X17.717 Y81.368 E17.78254
G1 X17.783 Y80.863 E17.80203
G1 X17.893 Y80.301 E17.82395
G1 X18.07 Y79.666 E17.84918
G1 X18.492 Y78.113 E17.91076
G1 X18.69 Y77.558 E17.93331
G1 X18.968 Y76.923 E17.95984
G1 X19.548 Y75.817 E18.00764
G1 X19.653 Y75.624 E18.01604
G1 X20.89 Y73.189 E18.12056
G1 X22.063 Y70.708 E18.22559
G1 X23.168 Y68.188 E18.33089
G1 X24.22 Y65.598 E18.43787
G1 X25.153 Y63.087 E18.54039
G1 X26.06 Y60.425 E18.64801
G1 X26.863 Y57.832 E18.75189
G1 X27.597 Y55.199 E18.8565
G1 X28.26 Y52.534 E18.9616
G1 X28.858 Y49.81 E19.06833
G1 X29.357 Y47.16 E19.17152
G1 X29.792 Y44.445 E19.27675
G1 X30.152 Y41.696 E19.38285
G1 X30.433 Y38.967 E19.48784
G1 X30.635 Y36.233 E19.59275
G1 X30.716 Y34.315 E19.66622
G1 X30.772 Y33.258 E19.70673
G1 X30.837 Y32.721 E19.72743
G1 X30.949 Y32.102 E19.7515
G1 X31.154 Y31.286 E19.7837
G1 X31.185 Y31.196 E19.78734
G1 X31.513 Y29.992 E19.8351
G1 X31.595 Y29.739 E19.84528
G1 X31.863 Y29.024 E19.8745
G1 X32.124 Y28.498 E19.89697
G1 X32.426 Y28.023 E19.91851
G1 X33.338 Y26.678 E19.9807
G1 X34.875 Y24.339 E20.08781
G1 X36.321 Y21.999 E20.19308
G0 F1285.7 X36.615 Y22.188
G1 F900 X37.983 Y19.827 E20.2975
G1 X39.317 Y17.366 E20.40463
G1 X40.558 Y14.912 E20.50987
G1 X41.722 Y12.442 E20.61437
G1 X43.057 Y9.363 E20.7428
G1 X43.586 Y8.086 E20.7957
G1 X43.794 Y7.689 E20.81285
G1 X44.07 Y7.334 E20.83006
G1 X44.403 Y7.033 E20.84724
G1 X44.785 Y6.797 E20.86442
G1 X45.203 Y6.632 E20.88162
G1 X45.643 Y6.543 E20.8988
G1 X46.092 Y6.534 E20.91598
G1 X46.535 Y6.604 E20.93315
G1 X46.959 Y6.752 E20.95033
G1 X47.35 Y6.973 E20.96752
G1 X47.679 Y7.242 E20.98378
G1 X48.17 Y7.721 E21.01004
G1 X51.088 Y10.638 E21.16793
G1 X53.112 Y12.605 E21.27594
G1 X55.104 Y14.435 E21.37946
G1 X57.197 Y16.251 E21.48551
G1 X59.343 Y18.01 E21.5917
G1 X61.512 Y19.686 E21.6966
G1 X63.763 Y21.326 E21.80318
G1 X65.152 Y22.29 E21.86788
G1 X65.47 Y22.551 E21.88363
G1 X66.119 Y23.181 E21.91824
G1 X66.683 Y23.744 E21.94874
G1 X67.316 Y24.399 E21.9836
G1 X68.49 Y25.594 E22.04771
G1 X70.774 Y27.878 E22.17132
G1 X71.301 Y28.42 E22.20025
G1 X71.674 Y28.898 E22.22346
G1 X73.282 Y31.171 E22.33001
G1 X74.955 Y33.397 E22.43657
G1 X76.66 Y35.538 E22.54132
G1 X78.44 Y37.648 E22.64696
G1 X80.268 Y39.694 E22.75196
G1 X83.13 Y42.681 E22.91027
G1 X85.799 Y45.349 E23.05469
G1 X87.823 Y47.316 E23.1627
G1 X89.815 Y49.146 E23.26622
G1 X91.908 Y50.962 E23.37227
G1 X94.054 Y52.721 E23.47846
G1 X96.239 Y54.41 E23.58415
G1 X98.431 Y56.006 E23.68791
G1 X99.306 Y56.605 E23.72849
G1 X100.474 Y57.422 E23.78304
G1 X100.907 Y57.791 E23.80481
G1 X101.246 Y58.124 E23.823
G1 X102.676 Y59.558 E23.9005
G1 X104.061 Y60.971 E23.97622
G1 X106.342 Y63.252 E24.09967
G1 X106.819 Y63.742 E24.12584
G1 X106.918 Y63.849 E24.13142
G1 X107.698 Y64.749 E24.177
G1 X109.52 Y66.79 E24.2817
G1 X111.434 Y68.816 E24.38836
G1 X113.369 Y70.75 E24.49306
G1 X115.39 Y72.661 E24.5995
G1 X117.436 Y74.486 E24.70443
G1 X119.541 Y76.262 E24.80983
G1 X121.708 Y77.986 E24.9158
G1 X123.889 Y79.624 E25.02018
G1 X126.169 Y81.236 E25.12704
G1 X128.471 Y82.768 E25.23287
G1 X130.777 Y84.212 E25.33699
G1 X133.17 Y85.615 E25.44315
G1 X135.57 Y86.935 E25.54797
G1 X138.046 Y88.205 E25.65446
G1 X140.508 Y89.373 E25.75875
G1 X141.092 Y89.677 E25.78394
G1 X141.538 Y89.963 E25.80422
G1 X142.063 Y90.343 E25.82902
G1 X142.41 Y90.653 E25.84683
G1 X143.067 Y91.314 E25.88249
G1 X143.487 Y91.749 E25.90564
G1 X143.917 Y92.183 E25.92902
G1 X144.071 Y92.353 E25.93779
G1 X144.509 Y92.884 E25.96414
G1 X144.726 Y93.18 E25.97818
G1 X145.231 Y93.968 E26.014
G1 X145.74 Y94.787 E26.0509
G1 X147.271 Y97.1 E26.15705
G1 X148.851 Y99.346 E26.26215
G1 X150.508 Y101.568 E26.36822
G1 X152.217 Y103.729 E26.47366
G1 X153.978 Y105.829 E26.57854
G1 X155.825 Y107.908 E26.68497
G1 X157.7 Y109.904 E26.78977
G1 X159.637 Y111.854 E26.89495
G1 X161.646 Y113.763 E27.00101
G1 X163.703 Y115.61 E27.10681
G1 X165.787 Y117.378 E27.2114
G1 X167.975 Y119.131 E27.31869
G1 X170.147 Y120.77 E27.42282
G1 X172.393 Y122.368 E27.52831
G1 X175.578 Y124.478 E27.67452
G1 X176.85 Y125.286 E27.73219
G1 X177.442 Y125.716 E27.76019
G1 X177.765 Y126.016 E27.77706
G1 X178.396 Y126.657 E27.81148
G1 X178.51 Y126.77 E27.81763
G1 X179.32 Y127.594 E27.86185
G1 X179.766 Y128.121 E27.88827
G1 X180.184 Y128.72 E27.91622
G1 X180.445 Y129.215 E27.93764
G1 X180.686 Y129.748 E27.96002
G1 X181.108 Y130.944 E28.00856
G1 X182.07 Y133.551 E28.1149
G1 X183.107 Y136.137 E28.22153
G1 X184.195 Y138.642 E28.32604
G1 X185.381 Y141.174 E28.43305
G1 X186.592 Y143.58 E28.53613
G1 X187.923 Y146.049 E28.64347
G1 X189.681 Y149.071 E28.77727
G1 X190.101 Y149.765 E28.80831
G1 X190.299 Y150.168 E28.82549
G1 X190.421 Y150.6 E28.84267
G1 X190.466 Y151.047 E28.85987
G1 X190.43 Y151.494 E28.87703
G1 X190.316 Y151.928 E28.8942
G1 X190.127 Y152.336 E28.91141
G1 X189.869 Y152.703 E28.92858
G1 X189.549 Y153.018 E28.94576
G1 X189.158 Y153.285 E28.96388
G1 X188.014 Y153.914 E29.01384
G1 X185.599 Y155.285 E29.12012
G1 X183.254 Y156.707 E29.22507
G1 X180.937 Y158.2 E29.33055
G1 X178.666 Y159.757 E29.43593
G1 X176.449 Y161.371 E29.54087
G1 X174.263 Y163.06 E29.64659
G1 X171.451 Y165.383 E29.78618
G1 X170.966 Y165.799 E29.81063
G1 X170.522 Y166.127 E29.83176
G1 X170.085 Y166.41 E29.85168
G1 X169.683 Y166.618 E29.869
G1 X169.007 Y166.894 E29.89695
G1 X168.682 Y167.005 E29.91009
G1 X167.884 Y167.226 E29.94178
G1 X166.504 Y167.588 E29.99638
G1 X165.995 Y167.683 E30.01619
G1 X165.341 Y167.76 E30.04139
G1 X164.891 Y167.781 E30.05863
G1 X162.994 Y167.841 E30.13127
G1 X160.211 Y168.006 E30.23796
G1 X157.497 Y168.246 E30.34223
G1 X154.755 Y168.566 E30.44787
G1 X151.998 Y168.967 E30.55449
G1 X149.306 Y169.437 E30.65907
G1 X146.644 Y169.978 E30.76303
G1 X143.933 Y170.612 E30.86958
G1 X141.22 Y171.327 E30.97695
G1 X138.62 Y172.091 E31.08065
G1 X135.982 Y172.949 E31.18682
G1 X133.389 Y173.873 E31.29216
G1 X130.857 Y174.858 E31.39613
G1 X128.29 Y175.939 E31.50273
G1 X125.753 Y177.095 E31.60942
G1 X123.301 Y178.296 E31.71391
G1 X122.248 Y178.853 E31.7595
G1 X121.449 Y179.258 E31.79378
G1 X120.969 Y179.464 E31.81377
G1 X120.34 Y179.69 E31.83935
G1 X118.955 Y180.076 E31.89437
G1 X118.226 Y180.266 E31.9232
G1 X117.999 Y180.315 E31.93209
G1 X117.32 Y180.425 E31.95841
G1 X116.784 Y180.458 E31.97896
G1 X116.263 Y180.437 E31.99892
G1 X115.677 Y180.385 E32.02143
G1 X115.318 Y180.329 E32.03533
G1 X113.312 Y179.987 E32.11321
G1 X110.585 Y179.6 E32.21862
G1 X107.848 Y179.291 E32.32403
G1 X105.099 Y179.059 E32.4296
G1 X102.344 Y178.904 E32.5352
G1 X99.592 Y178.828 E32.64056
G1 X96.836 Y178.83 E32.74603
G1 X94.084 Y178.91 E32.85139
G1 X91.126 Y179.081 E32.96478
G1 X90.424 Y179.023 E32.99174
G1 X89.757 Y178.831 E33.0183
G1 X89.361 Y178.62 E33.03547
G1 X88.977 Y178.312 E33.05431
G1 X88.566 Y177.91 E33.07632
G1 X18.505 Y107.848 E36.86813
G1 X17.991 Y107.32 E36.89633
G1 X17.707 Y106.972 E36.91352
G1 X17.49 Y106.579 E36.9307
G1 X17.346 Y106.154 E36.94788
G1 X17.28 Y105.71 E36.96505
G1 X17.298 Y105.222 E36.98374
G1 X17.44 Y104.166 E37.02452
G1 X17.523 Y103.613 E37.04592
G1 X17.85 Y100.926 E37.14951
G1 X18.107 Y98.176 E37.25521
G1 X18.288 Y95.379 E37.36247
G1 X18.385 Y92.676 E37.46598
G1 X18.408 Y89.867 E37.57348
G1 X18.353 Y87.16 E37.6771
G1 X18.141 Y83.26 E37.82657
G1 X18.054 Y82.096 E37.87124
G1 X18.064 Y81.412 E37.89742
G1 X18.17 Y80.668 E37.92618
G1 X18.23 Y80.395 E37.93688
G1 X18.407 Y79.76 E37.9621
G1 X18.83 Y78.205 E38.02378
G1 X19.017 Y77.685 E38.04492
G1 X19.278 Y77.085 E38.06996
G1 X19.855 Y75.984 E38.11753
G1 X19.974 Y75.765 E38.12707
G1 X21.198 Y73.356 E38.23048
G1 X22.4 Y70.813 E38.33812
G1 X23.488 Y68.331 E38.44183
G1 X24.541 Y65.739 E38.5489
G1 X25.493 Y63.179 E38.65343
G1 X26.375 Y60.588 E38.75817
G1 X27.207 Y57.904 E38.86571
G1 X27.939 Y55.276 E38.97011
G1 X28.6 Y52.617 E39.07497
G1 X29.201 Y49.881 E39.18217
G1 X29.704 Y47.212 E39.28611
G1 X30.136 Y44.511 E39.39079
G1 X30.5 Y41.739 E39.49778
G1 X30.781 Y38.997 E39.60326
G1 X30.983 Y36.273 E39.7078
G1 X31.066 Y34.333 E39.78211
G1 X31.122 Y33.276 E39.82262
G1 X31.182 Y32.778 E39.84181
G1 X31.288 Y32.188 E39.86475
G1 X31.493 Y31.372 E39.89695
G1 X31.525 Y31.282 E39.90061
G1 X31.851 Y30.084 E39.94812
G1 X31.923 Y29.862 E39.95705
G1 X32.191 Y29.147 E39.98627
G1 X32.42 Y28.685 E40.00601
G1 X32.715 Y28.22 E40.02708
G1 X33.651 Y26.84 E40.09089
G1 X35.158 Y24.546 E40.19593
G1 X36.615 Y22.188 E40.30201
G0 F1285.7 X36.91 Y22.378
G1 F900 X38.296 Y19.983 E40.40791
G1 X39.616 Y17.548 E40.5139
G1 X40.882 Y15.046 E40.62121
G1 X42.035 Y12.6 E40.7247
G1 X43.393 Y9.467 E40.85538
G1 X43.91 Y8.22 E40.90704
G1 X44.105 Y7.853 E40.92294
G1 X44.368 Y7.529 E40.93891
G1 X44.687 Y7.261 E40.95486
G1 X45.051 Y7.059 E40.97079
G1 X45.447 Y6.93 E40.98673
G1 X45.861 Y6.879 E41.00269
G1 X46.276 Y6.908 E41.01861
G1 X46.679 Y7.015 E41.03457
G1 X47.054 Y7.197 E41.05052
G1 X47.435 Y7.493 E41.06898
G1 X47.901 Y7.946 E41.09386
G1 X50.844 Y10.889 E41.25313
G1 X52.842 Y12.831 E41.35976
G1 X54.905 Y14.727 E41.46699
G1 X56.974 Y16.52 E41.57177
G1 X59.117 Y18.277 E41.67782
G1 X61.302 Y19.966 E41.78351
G1 X63.552 Y21.605 E41.89004
G1 X64.952 Y22.577 E41.95526
G1 X65.226 Y22.802 E41.96883
G1 X65.872 Y23.429 E42.00328
G1 X66.431 Y23.988 E42.03354
