;FLAVOR:Marlin
;TIME:24417
;Filament used: 25.8365m
;Layer height: 0.3
;MINX:7.989
;MINY:8.859
;MINZ:0.26
;MAXX:189.398
;MAXY:183.801
;MAXZ:29.36
;Generated with Cura_SteamEngine 4.9.1
M82 ;absolute extrusion mode
;Begin Start Gcode for Dagoma DiscoEasy 200
;Sliced: 26-07-2021 02:05:28
;Initial extruder: 0

G90 ;Absolute positioning
M106 S255 ;Fan on full
G28 X Y ;Home stop X Y
G1 X100 ;Centre back during cooldown in case of oozing
M109 R90 ;Cooldown in case too hot
G28 ;Centre
G29 ;Auto-level
M104 S205 ;Pre-heat
M107 ;Fan off
G0 X100 Y5 Z0.5 ;Front centre for degunk
M109 S205 ;Wait for initial temp
M83 ;E Relative
G1 E10 F200 ;Degunk
G1 E-3 F5000 ;Retract
G0 Z3 ;Withdraw
M82 ;E absolute
G92 E0 ;E reset
G1 F6000 ;Set feedrate

;Finish Start Gcode for Dagoma DiscoEasy 200

G92 E0
G92 E0
G1 F3000 E-3.5
;LAYER_COUNT:98
;LAYER:0
M107
G0 F1285.7 X30.072 Y27.034 Z0.26
;TYPE:SKIRT
G1 F3000 E0
G1 F900 X31.847 Y24.975 E0.10403
G1 X33.604 Y22.817 E0.21053
G1 X35.261 Y20.66 E0.31462
G1 X36.882 Y18.421 E0.42041
G1 X38.434 Y16.146 E0.5258
G1 X39.911 Y13.841 E0.63057
G1 X41.873 Y10.543 E0.77743
G1 X42.273 Y9.917 E0.80586
G1 X42.605 Y9.572 E0.82418
G1 X42.99 Y9.286 E0.84253
G1 X43.417 Y9.069 E0.86086
G1 X43.874 Y8.925 E0.8792
G1 X44.348 Y8.859 E0.89752
G1 X44.827 Y8.873 E0.91586
G1 X45.297 Y8.967 E0.9342
G1 X45.745 Y9.137 E0.95254
G1 X46.159 Y9.379 E0.97089
G1 X46.729 Y9.877 E0.99985
G1 X111.701 Y74.847 E4.51617
G1 X113.695 Y76.785 E4.62258
G1 X115.731 Y78.655 E4.72837
G1 X117.809 Y80.457 E4.83364
G1 X119.918 Y82.187 E4.93803
G1 X122.091 Y83.866 E5.04312
G1 X124.308 Y85.481 E5.14809
G1 X126.597 Y87.052 E5.25433
G1 X128.885 Y88.53 E5.35857
G1 X131.252 Y89.965 E5.4645
G1 X133.628 Y91.315 E5.56908
G1 X135.667 Y92.404 E5.65755
G1 X136.14 Y92.72 E5.67932
G1 X136.598 Y93.101 E5.70212
G1 X136.968 Y93.439 E5.72129
G1 X137.742 Y94.244 E5.76403
G1 X138.6 Y95.17 E5.81234
G1 X138.711 Y95.297 E5.8188
G1 X139.097 Y95.766 E5.84204
G1 X139.299 Y96.043 E5.85516
G1 X140.07 Y97.25 E5.90997
G1 X140.243 Y97.528 E5.9225
G1 X141.756 Y99.814 E6.02741
G1 X143.347 Y102.074 E6.13319
G1 X144.985 Y104.266 E6.23791
G1 X146.689 Y106.417 E6.34292
G1 X148.468 Y108.539 E6.44889
G1 X150.287 Y110.585 E6.55366
G1 X152.182 Y112.601 E6.65955
G1 X154.098 Y114.526 E6.76349
G1 X156.082 Y116.411 E6.86822
G1 X158.147 Y118.262 E6.97435
G1 X160.234 Y120.03 E7.07902
G1 X162.376 Y121.744 E7.18401
G1 X164.583 Y123.409 E7.28981
G1 X166.803 Y124.988 E7.39407
G1 X170.157 Y127.201 E7.54785
G1 X171.241 Y127.886 E7.59692
G1 X171.869 Y128.387 E7.62766
G1 X172.359 Y128.833 E7.65302
G1 X173.253 Y129.788 E7.70308
G1 X174.053 Y130.632 E7.74759
G1 X174.487 Y131.162 E7.7738
G1 X174.753 Y131.579 E7.79273
G1 X174.996 Y132.045 E7.81284
G1 X176.331 Y134.518 E7.92039
G1 X177.682 Y136.856 E8.02373
G1 X179.142 Y139.226 E8.13026
G1 X180.63 Y141.498 E8.23419
G1 X182.221 Y143.78 E8.34065
G1 X183.848 Y145.98 E8.44537
G1 X185.528 Y148.122 E8.54955
G1 X187.3 Y150.253 E8.65561
G1 X187.763 Y150.778 E8.6824
G1 X187.828 Y150.865 E8.68656
G1 X188.697 Y151.866 E8.73729
G1 X188.98 Y152.252 E8.7556
G1 X189.194 Y152.681 E8.77395
G1 X189.335 Y153.139 E8.79229
G1 X189.398 Y153.614 E8.81063
G1 X189.381 Y154.093 E8.82897
G1 X189.284 Y154.562 E8.8473
G1 X189.111 Y155.009 E8.86564
G1 X188.866 Y155.421 E8.88398
G1 X188.557 Y155.786 E8.90229
G1 X188.19 Y156.095 E8.92065
G1 X187.618 Y156.41 E8.94564
G1 X186.401 Y156.91 E8.99599
G1 X183.833 Y158.007 E9.10286
G1 X181.355 Y159.149 E9.20727
G1 X178.881 Y160.375 E9.31294
G1 X176.456 Y161.664 E9.41804
G1 X174.076 Y163.016 E9.52279
G1 X171.702 Y164.457 E9.62907
G1 X169.425 Y165.926 E9.73277
G1 X167.141 Y167.495 E9.83882
G1 X165.379 Y168.77 E9.92205
G1 X164.504 Y169.418 E9.96372
G1 X164.055 Y169.727 E9.98458
G1 X163.547 Y170.002 E10.00668
G1 X162.742 Y170.326 E10.03989
G1 X162.471 Y170.416 E10.05082
G1 X161.037 Y170.812 E10.10775
G1 X160.436 Y170.968 E10.13151
G1 X159.619 Y171.122 E10.16333
G1 X159.269 Y171.148 E10.17676
G1 X158.755 Y171.171 E10.19645
G1 X158.706 Y171.179 E10.19835
G1 X157.289 Y171.244 E10.25264
G1 X155.337 Y171.328 E10.32741
G1 X152.581 Y171.525 E10.43315
G1 X149.814 Y171.802 E10.53957
G1 X147.135 Y172.147 E10.64294
G1 X144.39 Y172.579 E10.74928
G1 X141.721 Y173.076 E10.85318
G1 X139.012 Y173.662 E10.95925
G1 X136.38 Y174.308 E11.06296
G1 X133.719 Y175.043 E11.16861
G1 X131.082 Y175.852 E11.27417
G1 X128.437 Y176.746 E11.38102
G1 X125.897 Y177.686 E11.48467
G1 X123.389 Y178.694 E11.58811
G1 X120.802 Y179.821 E11.6961
G1 X118.367 Y180.965 E11.79906
G1 X115.985 Y182.18 E11.90139
G1 X115.315 Y182.515 E11.93006
G1 X114.824 Y182.727 E11.95052
G1 X114.352 Y182.907 E11.96986
G1 X113.711 Y183.103 E11.99551
G1 X112.757 Y183.363 E12.03335
G1 X111.829 Y183.605 E12.07005
G1 X111.273 Y183.693 E12.09159
G1 X109.676 Y183.786 E12.15281
G1 X109.278 Y183.801 E12.16806
G1 X108.715 Y183.767 E12.18964
G1 X108.111 Y183.67 E12.21305
G1 X104.361 Y183.135 E12.35802
G1 X102.518 Y182.909 E12.42907
G1 X99.805 Y182.615 E12.53351
G1 X97.036 Y182.394 E12.63981
G1 X94.305 Y182.254 E12.74446
G1 X91.565 Y182.191 E12.84935
G1 X89.341 Y182.197 E12.93446
G1 X88.116 Y182.214 E12.98135
G1 X87.638 Y182.18 E12.99969
G1 X87.172 Y182.068 E13.01803
G1 X86.731 Y181.88 E13.03637
G1 X86.175 Y181.496 E13.06223
G1 X85.263 Y180.692 E13.10876
G1 X84.858 Y180.326 E13.12965
G1 X82.748 Y178.525 E13.23581
G1 X80.623 Y176.813 E13.34025
G1 X78.414 Y175.134 E13.44643
G1 X76.214 Y173.556 E13.55004
G1 X73.94 Y172.022 E13.65502
G1 X71.608 Y170.543 E13.7607
G1 X69.245 Y169.136 E13.86594
G1 X67.101 Y167.935 E13.95999
G1 X66.543 Y167.526 E13.98647
G1 X66.287 Y167.285 E13.99992
G1 X64.786 Y165.784 E14.08116
G1 X63.439 Y164.395 E14.1552
G1 X63.208 Y164.152 E14.16804
G1 X62.792 Y163.73 E14.19071
G1 X61.876 Y162.786 E14.24105
G1 X61.028 Y161.867 E14.28891
G1 X60.752 Y161.516 E14.30599
G1 X59.13 Y159.092 E14.41761
G1 X57.519 Y156.832 E14.52383
G1 X55.866 Y154.642 E14.62883
G1 X54.152 Y152.502 E14.73376
G1 X52.378 Y150.412 E14.83867
G1 X50.531 Y148.357 E14.94441
G1 X48.659 Y146.389 E15.04835
G1 X46.687 Y144.429 E15.15476
G1 X44.699 Y142.563 E15.2591
G1 X42.627 Y140.725 E15.3651
G1 X40.532 Y138.969 E15.46971
G1 X38.398 Y137.281 E15.57384
G1 X36.159 Y135.612 E15.68071
G1 X33.939 Y134.052 E15.78455
G1 X32.752 Y133.276 E15.83882
G1 X32.574 Y133.137 E15.84746
G1 X31.552 Y132.46 E15.89438
G1 X30.978 Y131.977 E15.92309
G1 X29.475 Y130.478 E16.00432
G1 X28.053 Y129.017 E16.08234
G1 X27.627 Y128.591 E16.1054
G1 X27.514 Y128.451 E16.11228
G1 X26.358 Y127.261 E16.17578
G1 X25.668 Y126.509 E16.21483
G1 X25.251 Y125.921 E16.24242
G1 X25.145 Y125.723 E16.25102
G1 X23.799 Y123.275 E16.35793
G1 X22.402 Y120.898 E16.46344
G1 X20.957 Y118.591 E16.56762
G1 X19.435 Y116.306 E16.67269
G1 X17.847 Y114.065 E16.7778
G1 X16.182 Y111.848 E16.8839
G1 X15.119 Y110.512 E16.94924
G1 X14.785 Y110.079 E16.97017
G1 X14.525 Y109.676 E16.98852
G1 X14.335 Y109.236 E17.00686
G1 X14.182 Y108.562 E17.03331
G1 X13.824 Y106.381 E17.1179
G1 X13.293 Y103.639 E17.22478
G1 X12.697 Y100.97 E17.32944
G1 X12.036 Y98.353 E17.43273
G1 X11.275 Y95.672 E17.53939
G1 X10.445 Y93.029 E17.6454
G1 X9.557 Y90.463 E17.74932
G1 X8.42 Y87.46 E17.8722
G1 X8.158 Y86.73 E17.90188
G1 X8.034 Y86.267 E17.92023
G1 X7.989 Y85.79 E17.93856
G1 X8.024 Y85.312 E17.9569
G1 X8.138 Y84.847 E17.97523
G1 X8.431 Y84.228 E18.00144
G1 X8.725 Y83.761 E18.02255
G1 X9.638 Y82.349 E18.0869
G1 X11.063 Y80.003 E18.19195
G1 X12.406 Y77.644 E18.29583
G1 X13.703 Y75.207 E18.40148
G1 X14.939 Y72.72 E18.50776
G1 X16.09 Y70.231 E18.61271
G1 X17.158 Y67.734 E18.71664
G1 X18.177 Y65.155 E18.82276
G1 X19.115 Y62.567 E18.92811
G1 X19.974 Y59.973 E19.03268
G1 X20.763 Y57.342 E19.1378
G1 X21.477 Y54.691 E19.24286
G1 X22.127 Y51.978 E19.34963
G1 X22.676 Y49.35 E19.45237
G1 X23.167 Y46.62 E19.55852
G1 X23.579 Y43.9 E19.6638
G1 X23.91 Y41.189 E19.76832
G1 X24.17 Y38.405 E19.87533
G1 X24.303 Y36.491 E19.94875
G1 X24.351 Y35.945 E19.96973
G1 X24.421 Y35.459 E19.98852
G1 X24.529 Y34.828 E20.01302
G1 X24.649 Y34.364 E20.03136
G1 X24.812 Y33.987 E20.04708
G1 X25.343 Y32.966 E20.09112
G1 X25.728 Y32.249 E20.12227
G1 X26.076 Y31.602 E20.15038
G1 X26.319 Y31.226 E20.16751
G1 X26.655 Y30.747 E20.1899
G1 X26.904 Y30.44 E20.20503
G1 X27.357 Y29.954 E20.23046
G1 X28.224 Y29.058 E20.27817
G1 X30.072 Y27.034 E20.38306
G0 F1285.7 X30.332 Y27.268
G1 F900 X32.132 Y25.179 E20.48859
G1 X33.877 Y23.037 E20.59432
G1 X35.543 Y20.868 E20.69899
G1 X37.176 Y18.613 E20.80554
G1 X38.721 Y16.346 E20.91052
G1 X40.199 Y14.042 E21.01528
G1 X42.165 Y10.735 E21.16251
G1 X42.562 Y10.116 E21.19066
G1 X42.879 Y9.798 E21.20784
G1 X43.247 Y9.54 E21.22504
G1 X43.655 Y9.352 E21.24223
G1 X44.089 Y9.239 E21.25939
G1 X44.537 Y9.205 E21.27659
G1 X44.983 Y9.251 E21.29375
G1 X45.415 Y9.375 E21.31095
G1 X45.818 Y9.574 E21.32815
G1 X46.238 Y9.894 E21.34835
G1 X46.489 Y10.131 E21.36156
G1 X111.457 Y75.098 E24.87769
G1 X113.462 Y77.046 E24.98467
G1 X115.493 Y78.912 E25.09022
G1 X117.589 Y80.729 E25.19638
G1 X119.692 Y82.454 E25.30047
G1 X121.881 Y84.146 E25.40635
G1 X124.114 Y85.773 E25.51208
G1 X126.395 Y87.338 E25.61795
G1 X128.708 Y88.832 E25.72332
G1 X131.057 Y90.256 E25.82845
G1 X133.476 Y91.631 E25.93493
G1 X135.502 Y92.713 E26.02283
G1 X136.058 Y93.106 E26.04888
G1 X136.562 Y93.536 E26.07424
G1 X136.715 Y93.682 E26.08233
G1 X137.485 Y94.482 E26.12483
G1 X138.343 Y95.408 E26.17314
G1 X138.441 Y95.519 E26.1788
G1 X138.827 Y95.988 E26.20205
G1 X139.004 Y96.232 E26.21358
G1 X139.773 Y97.435 E26.26823
G1 X139.934 Y97.694 E26.2799
G1 X141.486 Y100.038 E26.38748
G1 X143.06 Y102.275 E26.49216
G1 X144.714 Y104.488 E26.59789
G1 X146.426 Y106.65 E26.70343
G1 X148.201 Y108.766 E26.80912
G1 X150.017 Y110.809 E26.91373
G1 X151.926 Y112.84 E27.0204
G1 X153.857 Y114.779 E27.12513
G1 X155.854 Y116.678 E27.23059
G1 X157.915 Y118.524 E27.33647
G1 X159.999 Y120.29 E27.44101
G1 X162.179 Y122.034 E27.54785
G1 X164.357 Y123.678 E27.65228
G1 X166.595 Y125.269 E27.75736
G1 X169.995 Y127.512 E27.91324
G1 X170.98 Y128.134 E27.95783
G1 X171.644 Y128.655 E27.99013
G1 X172.104 Y129.073 E28.01391
G1 X172.999 Y130.029 E28.06403
G1 X173.799 Y130.873 E28.10853
G1 X174.209 Y131.375 E28.13334
G1 X174.442 Y131.741 E28.14994
G1 X174.688 Y132.211 E28.17024
G1 X176.026 Y134.689 E28.27802
G1 X177.387 Y137.045 E28.38214
G1 X178.837 Y139.4 E28.48798
G1 X180.357 Y141.719 E28.59409
G1 X181.915 Y143.954 E28.69835
G1 X183.572 Y146.194 E28.80498
G1 X185.264 Y148.352 E28.90993
G1 X187.032 Y150.478 E29.01575
G1 X187.501 Y151.01 E29.04289
G1 X187.563 Y151.095 E29.04691
G1 X188.432 Y152.095 E29.09761
G1 X188.695 Y152.459 E29.1148
G1 X188.89 Y152.864 E29.132
G1 X189.01 Y153.296 E29.14916
G1 X189.051 Y153.744 E29.16638
G1 X189.012 Y154.191 E29.18355
G1 X188.895 Y154.624 E29.20071
G1 X188.703 Y155.03 E29.2179
G1 X188.442 Y155.396 E29.2351
G1 X188.12 Y155.709 E29.25229
G1 X187.748 Y155.96 E29.26946
G1 X187.485 Y156.087 E29.28064
G1 X186.231 Y156.602 E29.33252
G1 X183.691 Y157.687 E29.43822
G1 X181.196 Y158.837 E29.54336
G1 X178.732 Y160.058 E29.6486
G1 X176.256 Y161.374 E29.7559
G1 X173.922 Y162.7 E29.85863
G1 X171.533 Y164.15 E29.96558
G1 X169.207 Y165.65 E30.0715
G1 X166.941 Y167.207 E30.17672
G1 X165.174 Y168.486 E30.2602
G1 X164.3 Y169.133 E30.30181
G1 X163.858 Y169.437 E30.32234
G1 X163.412 Y169.679 E30.34176
G1 X162.616 Y170 E30.37461
G1 X162.377 Y170.079 E30.38424
G1 X160.948 Y170.474 E30.44098
G1 X160.358 Y170.627 E30.4643
G1 X159.592 Y170.774 E30.49415
G1 X159.253 Y170.798 E30.50716
G1 X158.741 Y170.821 E30.52677
G1 X158.689 Y170.829 E30.52878
G1 X157.274 Y170.895 E30.583
G1 X155.299 Y170.98 E30.65865
G1 X152.519 Y171.178 E30.76531
G1 X149.804 Y171.45 E30.86973
G1 X147.075 Y171.802 E30.97503
G1 X144.341 Y172.232 E31.08095
G1 X141.651 Y172.733 E31.18566
G1 X138.931 Y173.322 E31.29217
G1 X136.304 Y173.966 E31.39568
G1 X133.591 Y174.716 E31.5034
G1 X130.978 Y175.517 E31.60799
G1 X128.35 Y176.406 E31.71416
G1 X125.788 Y177.353 E31.81869
G1 X123.218 Y178.387 E31.9247
G1 X120.685 Y179.49 E32.03043
G1 X118.191 Y180.661 E32.13587
G1 X115.828 Y181.867 E32.2374
G1 X115.158 Y182.202 E32.26607
G1 X114.7 Y182.4 E32.28516
G1 X114.228 Y182.58 E32.3045
G1 X113.614 Y182.766 E32.32905
G1 X112.669 Y183.024 E32.36654
G1 X111.741 Y183.266 E32.40324
G1 X111.252 Y183.344 E32.42219
G1 X109.657 Y183.436 E32.48333
G1 X108.771 Y183.421 E32.51724
G1 X108.21 Y183.331 E32.53898
G1 X104.354 Y182.781 E32.68805
G1 X102.568 Y182.562 E32.75691
G1 X99.836 Y182.266 E32.86207
G1 X97.082 Y182.047 E32.9678
G1 X94.296 Y181.904 E33.07456
G1 X91.572 Y181.841 E33.17883
G1 X89.336 Y181.847 E33.2644
G1 X88.111 Y181.864 E33.31129
G1 X87.663 Y181.83 E33.32848
G1 X87.229 Y181.718 E33.34563
G1 X86.821 Y181.53 E33.36283
G1 X86.406 Y181.233 E33.38236
G1 X85.498 Y180.432 E33.42869
G1 X85.08 Y180.055 E33.45023
G1 X82.967 Y178.252 E33.55654
G1 X80.844 Y176.541 E33.66088
G1 X78.66 Y174.88 E33.76589
G1 X76.387 Y173.251 E33.87291
G1 X74.129 Y171.727 E33.97716
G1 X71.789 Y170.243 E34.0832
G1 X69.422 Y168.834 E34.18862
G1 X67.273 Y167.63 E34.28289
G1 X66.782 Y167.271 E34.30617
G1 X66.535 Y167.037 E34.31919
G1 X65.037 Y165.54 E34.40023
G1 X63.693 Y164.154 E34.47412
G1 X63.457 Y163.906 E34.48722
G1 X63.043 Y163.486 E34.50979
G1 X62.133 Y162.548 E34.5598
G1 X61.285 Y161.629 E34.60766
G1 X61.043 Y161.322 E34.62262
G1 X59.414 Y158.889 E34.73467
G1 X57.803 Y156.628 E34.84092
G1 X56.138 Y154.423 E34.94666
G1 X54.426 Y152.284 E35.0515
G1 X52.642 Y150.183 E35.15698
G1 X50.797 Y148.13 E35.26262
G1 X48.894 Y146.129 E35.36829
G1 X46.927 Y144.173 E35.47445
G1 X44.941 Y142.31 E35.57866
G1 X42.856 Y140.46 E35.68534
G1 X40.764 Y138.706 E35.78981
G1 X38.592 Y136.989 E35.89577
G1 X36.383 Y135.342 E36.00122
G1 X34.131 Y133.759 E36.10656
G1 X32.943 Y132.983 E36.16087
G1 X32.772 Y132.849 E36.16918
G1 X31.745 Y132.168 E36.21634
G1 X31.217 Y131.722 E36.24279
G1 X29.751 Y130.26 E36.32202
G1 X28.397 Y128.868 E36.39634
G1 X27.881 Y128.349 E36.42435
G1 X27.776 Y128.219 E36.43074
G1 X26.616 Y127.024 E36.49448
G1 X25.926 Y126.272 E36.53353
G1 X25.56 Y125.756 E36.55774
G1 X25.438 Y125.528 E36.56764
G1 X24.11 Y123.114 E36.67308
G1 X22.709 Y120.73 E36.7789
G1 X21.247 Y118.397 E36.88427
G1 X19.716 Y116.097 E36.99
G1 X18.133 Y113.863 E37.09479
G1 X16.456 Y111.63 E37.20166
G1 X15.396 Y110.298 E37.2668
G1 X15.062 Y109.865 E37.28773
G1 X14.82 Y109.487 E37.30491
G1 X14.649 Y109.071 E37.32212
G1 X14.526 Y108.499 E37.34451
G1 X14.163 Y106.288 E37.43026
G1 X13.637 Y103.571 E37.53617
G1 X13.043 Y100.91 E37.64051
G1 X12.368 Y98.24 E37.7459
G1 X11.614 Y95.582 E37.85164
G1 X10.774 Y92.909 E37.95886
G1 X9.884 Y90.335 E38.06309
G1 X8.771 Y87.399 E38.18325
G1 X8.487 Y86.612 E38.21527
G1 X8.374 Y86.178 E38.23243
G1 X8.339 Y85.73 E38.24963
G1 X8.384 Y85.283 E38.26682
G1 X8.508 Y84.851 E38.28402
G1 X8.727 Y84.414 E38.30273
G1 X9.019 Y83.951 E38.32368
G1 X9.924 Y82.551 E38.38748
G1 X11.369 Y80.172 E38.494
G1 X12.713 Y77.811 E38.59797
G1 X14.028 Y75.342 E38.70502
G1 X15.251 Y72.881 E38.81019
G1 X16.41 Y70.373 E38.91592
G1 X17.486 Y67.858 E39.02061
G1 X18.495 Y65.303 E39.12574
G1 X19.445 Y62.685 E39.23232
G1 X20.306 Y60.083 E39.33721
G1 X21.103 Y57.423 E39.44347
G1 X21.827 Y54.738 E39.5499
G1 X22.46 Y52.096 E39.65387
G1 X23.027 Y49.38 E39.76005
G1 X23.509 Y46.699 E39.86429
G1 X23.93 Y43.918 E39.97193
G1 X24.258 Y41.229 E40.0756
G1 X24.516 Y38.472 E40.18157
G1 X24.652 Y36.516 E40.25661
G1 X24.697 Y35.995 E40.27662
G1 X24.766 Y35.518 E40.29507
G1 X24.874 Y34.887 E40.31956
G1 X24.989 Y34.453 E40.33675
G1 X25.123 Y34.149 E40.34946
G1 X25.651 Y33.131 E40.39335
G1 X26.036 Y32.414 E40.42449
G1 X26.371 Y31.79 E40.4516
G1 X26.606 Y31.427 E40.46815
G1 X26.942 Y30.948 E40.49054
G1 X27.16 Y30.678 E40.50382
G1 X27.608 Y30.197 E40.52897
G1 X28.485 Y29.29 E40.57726
G1 X30.332 Y27.268 E40.68206
G0 F1285.7 X30.59 Y27.504
G1 F900 X32.406 Y25.398 E40.78848
G1 X34.129 Y23.283 E40.89288
G1 X35.824 Y21.076 E40.99938
G1 X37.472 Y18.8 E41.10691
G1 X39.008 Y16.546 E41.2113
G1 X40.507 Y14.208 E41.31758
G1 X42.486 Y10.881 E41.46573
G1 X42.851 Y10.317 E41.49144
G1 X43.151 Y10.027 E41.5074
G1 X43.5 Y9.801 E41.52332
