;FLAVOR:Marlin
;TIME:12637
;Filament used: 9.99472m
;Layer height: 0.2
;MINX:8.714
;MINY:14.925
;MINZ:0.26
;MAXX:184.085
;MAXY:190.302
;MAXZ:7.86
;Generated with Cura_SteamEngine 4.9.1
M82 ;absolute extrusion mode
;Begin Start Gcode for Dagoma DiscoEasy 200
;Sliced: 13-07-2021 16:55:53
;Initial extruder: 0

G90 ;Absolute positioning
M106 S255 ;Fan on full
G28 X Y ;Home stop X Y
G1 X100 ;Centre back during cooldown in case of oozing
M109 R90 ;Cooldown in case too hot
G28 ;Centre
G29 ;Auto-level
M104 S205 ;Pre-heat
M107 ;Fan off
G0 X100 Y5 Z0.5 ;Front centre for degunk
M109 S205 ;Wait for initial temp
M83 ;E Relative
G1 E10 F200 ;Degunk
G1 E-3 F5000 ;Retract
G0 Z3 ;Withdraw
M82 ;E absolute
G92 E0 ;E reset
G1 F6000 ;Set feedrate

;Finish Start Gcode for Dagoma DiscoEasy 200

G92 E0
G92 E0
G1 F3000 E-3.5
;LAYER_COUNT:39
;LAYER:0
M107
G0 F1285.7 X35.278 Y17.217 Z0.26
;TYPE:SKIRT
G1 F3000 E0
G1 F900 X35.542 Y16.726 E0.02133
G1 X35.872 Y16.279 E0.0426
G1 X36.264 Y15.883 E0.06392
G1 X36.708 Y15.548 E0.08521
G1 X37.195 Y15.28 E0.10648
G1 X37.716 Y15.084 E0.12778
G1 X38.26 Y14.965 E0.14909
G1 X38.815 Y14.925 E0.17039
G1 X39.37 Y14.965 E0.19168
G1 X39.913 Y15.084 E0.21296
G1 X40.434 Y15.279 E0.23425
G1 X40.922 Y15.548 E0.25557
G1 X41.512 Y16.017 E0.28441
G1 X41.967 Y16.458 E0.30866
G1 X182.529 Y157.02 E7.91606
G1 X182.993 Y157.497 E7.94152
G1 X183.351 Y157.923 E7.96282
G1 X183.645 Y158.395 E7.9841
G1 X183.868 Y158.905 E8.0054
G1 X184.015 Y159.442 E8.02671
G1 X184.085 Y159.994 E8.048
G1 X184.074 Y160.55 E8.06928
G1 X183.984 Y161.099 E8.09058
G1 X183.816 Y161.63 E8.11189
G1 X183.574 Y162.131 E8.13318
G1 X183.263 Y162.592 E8.15446
G1 X182.889 Y163.004 E8.17576
G1 X182.46 Y163.358 E8.19704
G1 X181.984 Y163.647 E8.21835
G1 X181.273 Y163.927 E8.2476
G1 X180.596 Y164.118 E8.27452
G1 X84.891 Y190.022 E12.06889
G1 X84.239 Y190.187 E12.09463
G1 X83.691 Y190.284 E12.11593
G1 X83.135 Y190.302 E12.13722
G1 X82.582 Y190.24 E12.15851
G1 X82.043 Y190.1 E12.17982
G1 X81.531 Y189.884 E12.20109
G1 X81.054 Y189.596 E12.22241
G1 X80.598 Y189.219 E12.24506
G1 X80.01 Y188.651 E12.27634
G1 X10.275 Y118.915 E16.05052
G1 X9.807 Y118.434 E16.0762
G1 X9.448 Y118.009 E16.09749
G1 X9.155 Y117.536 E16.11878
G1 X8.932 Y117.026 E16.14008
G1 X8.784 Y116.49 E16.16137
G1 X8.714 Y115.938 E16.18266
G1 X8.725 Y115.381 E16.20398
G1 X8.829 Y114.776 E16.22747
G1 X9.044 Y113.934 E16.26073
G1 X34.911 Y18.361 E20.04986
G1 X35.088 Y17.739 E20.0746
G1 X35.278 Y17.217 E20.09586
G0 F1285.7 X35.608 Y17.337
G1 F900 X35.864 Y16.872 E20.11618
G1 X36.187 Y16.451 E20.13648
G1 X36.569 Y16.083 E20.15678
G1 X37.002 Y15.777 E20.17707
G1 X37.477 Y15.539 E20.19741
G1 X37.981 Y15.375 E20.21769
G1 X38.505 Y15.289 E20.23801
G1 X39.036 Y15.282 E20.25833
G1 X39.561 Y15.355 E20.27862
G1 X40.07 Y15.506 E20.29894
G1 X40.55 Y15.732 E20.31924
G1 X40.991 Y16.027 E20.33955
G1 X41.268 Y16.269 E20.35362
G1 X41.763 Y16.748 E20.37998
G1 X182.278 Y157.264 E27.98486
G1 X182.742 Y157.741 E28.01033
G1 X183.082 Y158.148 E28.03062
G1 X183.357 Y158.602 E28.05094
G1 X183.562 Y159.092 E28.07126
G1 X183.69 Y159.607 E28.09157
G1 X183.739 Y160.135 E28.11186
G1 X183.709 Y160.665 E28.13218
G1 X183.6 Y161.184 E28.15247
G1 X183.413 Y161.681 E28.1728
G1 X183.155 Y162.144 E28.19308
G1 X182.829 Y162.563 E28.2134
G1 X182.445 Y162.929 E28.2337
G1 X182.01 Y163.233 E28.25401
G1 X181.534 Y163.468 E28.27432
G1 X181.177 Y163.59 E28.28876
G1 X180.505 Y163.781 E28.3155
G1 X84.805 Y189.682 E32.10966
G1 X84.153 Y189.847 E32.13539
G1 X83.63 Y189.938 E32.15571
G1 X83.099 Y189.95 E32.17604
G1 X82.573 Y189.882 E32.19633
G1 X82.063 Y189.735 E32.21664
G1 X81.581 Y189.514 E32.23694
G1 X81.137 Y189.223 E32.25725
G1 X80.841 Y188.967 E32.27223
G1 X80.257 Y188.404 E32.30327
G1 X10.526 Y118.671 E36.07726
G1 X10.058 Y118.19 E36.10294
G1 X9.717 Y117.783 E36.12326
G1 X9.442 Y117.329 E36.14357
G1 X9.238 Y116.84 E36.16385
G1 X9.109 Y116.325 E36.18417
G1 X9.06 Y115.796 E36.2045
G1 X9.09 Y115.267 E36.22478
G1 X9.168 Y114.863 E36.24052
G1 X9.381 Y114.025 E36.27361
G1 X35.248 Y18.457 E40.06256
G1 X35.425 Y17.835 E40.0873
G1 X35.608 Y17.337 E40.10761
G0 F1285.7 X35.937 Y17.459
G1 F900 X36.185 Y17.021 E40.12687
G1 X36.5 Y16.628 E40.14615
G1 X36.872 Y16.289 E40.16541
G1 X37.294 Y16.013 E40.1847
G1 X37.753 Y15.808 E40.20394
G1 X38.24 Y15.678 E40.22323
G1 X38.741 Y15.626 E40.24251
G1 X39.244 Y15.654 E40.26179
G1 X39.736 Y15.761 E40.28106
G1 X40.205 Y15.945 E40.30034
G1 X40.638 Y16.201 E40.31959
G1 X41.025 Y16.52 E40.33878
G1 X41.48 Y16.961 E40.36303
G1 X182.027 Y157.508 E47.96961
G1 X182.491 Y157.985 E47.99508
G1 X182.812 Y158.373 E48.01435
G1 X183.068 Y158.806 E48.0336
G1 X183.253 Y159.275 E48.05289
G1 X183.36 Y159.767 E48.07216
G1 X183.389 Y160.27 E48.09144
G1 X183.338 Y160.771 E48.11072
G1 X183.208 Y161.257 E48.12997
G1 X183.003 Y161.717 E48.14924
G1 X182.728 Y162.139 E48.16852
G1 X182.39 Y162.512 E48.18778
G1 X181.997 Y162.827 E48.20706
G1 X181.559 Y163.076 E48.22634
G1 X181.081 Y163.253 E48.24584
G1 X180.413 Y163.443 E48.27242
G1 X84.719 Y189.343 E52.06635
G1 X84.067 Y189.508 E52.09209
G1 X83.57 Y189.592 E52.11138
G1 X83.067 Y189.597 E52.13063
G1 X82.569 Y189.522 E52.1499
G1 X82.089 Y189.37 E52.16917
G1 X81.639 Y189.143 E52.18846
G1 X81.084 Y188.715 E52.21528
G1 X80.505 Y188.156 E52.24608
G1 X10.776 Y118.427 E56.0199
G1 X10.308 Y117.946 E56.04558
G1 X9.987 Y117.558 E56.06486
G1 X9.731 Y117.125 E56.08411
G1 X9.546 Y116.656 E56.1034
G1 X9.439 Y116.164 E56.12267
G1 X9.41 Y115.662 E56.14191
G1 X9.507 Y114.949 E56.16945
G1 X9.719 Y114.117 E56.20231
G1 X35.584 Y18.553 E59.99108
G1 X35.761 Y17.931 E60.01583
G1 X35.937 Y17.459 E60.03511
G1 F3000 E56.53511
;MESH:support_half_hex_05.stl
G0 F1285.7 X37.952 Y19.507
G0 X39.086 Y19.813
G0 X42.63 Y33.1
G0 X42.655 Y33.196
;TYPE:WALL-INNER
G1 F3000 E60.03511
G1 F900 X23.349 Y104.525 E62.86306
G1 X23.778 Y104.954 E62.88627
G1 X95.109 Y85.649 E65.71428
G1 X42.655 Y33.196 E68.55313
G0 F1285.7 X42.63 Y33.1
G0 X113.34 Y103.809
G0 X113.365 Y103.905
G1 F900 X94.06 Y175.235 E71.38111
G1 X94.489 Y175.664 E71.40432
G1 X165.82 Y156.359 E74.23233
G1 X113.365 Y103.905 E77.07124
G0 F1285.7 X113.34 Y103.809
G0 X178.904 Y159.915
G0 X178.929 Y160.011
G1 F900 X83.438 Y185.857 E80.85713
G1 X13.157 Y115.576 E84.66082
G1 X39.003 Y20.085 E88.44671
G1 X39.081 Y19.794 E88.45824
G1 X39.294 Y20.007 E88.46478
G1 X179.007 Y159.72 E96.02623
G1 X179.22 Y159.933 E96.03775
G1 X178.929 Y160.011 E96.04429
G0 F1285.7 X179.556 Y160.178
;TYPE:WALL-OUTER
G1 F900 X83.341 Y186.22 E99.85889
G1 X12.794 Y115.673 E103.67698
G1 X38.836 Y19.458 E107.49157
G1 X38.914 Y19.167 E107.5031
G1 X39.127 Y19.38 E107.50964
G1 X179.634 Y159.887 E115.11406
G1 X179.847 Y160.1 E115.12559
G1 X179.556 Y160.178 E115.13213
G0 F1285.7 X179.363 Y160.23
G0 X179.124 Y159.908
G0 X113.355 Y103.867
G0 X113.532 Y104.532
G1 F900 X94.45 Y175.038 E117.92743
G1 X94.423 Y175.138 E117.9314
G1 X94.586 Y175.301 E117.94022
G1 X94.686 Y175.274 E117.94418
G1 X165.193 Y156.192 E120.73952
G1 X113.532 Y104.532 E123.53546
G0 F1285.7 X113.48 Y104.725
G0 X113.071 Y104.614
G0 X95.147 Y85.659
G0 X42.645 Y33.158
G0 X42.822 Y33.822
G1 F900 X23.739 Y104.328 E126.33077
G1 X23.712 Y104.428 E126.33473
G1 X23.875 Y104.591 E126.34356
G1 X23.975 Y104.564 E126.34752
G1 X94.191 Y85.56 E129.13133
G1 X94.482 Y85.482 E129.14286
G1 X94.269 Y85.269 E129.1494
G1 X92.564 Y83.566 E129.24162
G1 X42.822 Y33.822 E131.93378
G0 F1285.7 X42.77 Y34.015
G0 X42.361 Y33.904
G0 X42.48 Y32.541
;TYPE:SKIN
G1 F900 X22.97 Y104.626 E134.79169
G1 X23.677 Y105.333 E134.82996
G1 X95.764 Y85.824 E137.68793
G1 X42.48 Y32.541 E140.5717
G0 F1285.7 X39.255 Y20.45
G1 F900 X178.564 Y159.759 E148.11128
G1 X83.54 Y185.477 E151.87864
G1 X13.537 Y115.474 E155.66729
G1 X39.255 Y20.45 E159.43465
G0 F1285.7 X113.19 Y103.25
G1 F900 X93.681 Y175.336 E162.29259
G1 X94.388 Y176.043 E162.33085
G1 X166.475 Y156.534 E165.18883
G1 X113.19 Y103.25 E168.07265
G0 F1285.7 X13.764 Y115.234
G1 F900 X83.778 Y185.247 E171.86187
G0 F1285.7 X84.167 Y185.142
G1 F900 X13.869 Y114.844 E175.66649
G0 F1285.7 X13.975 Y114.455
G1 F900 X84.557 Y185.037 E179.48648
G0 F1285.7 X84.946 Y184.931
G1 F900 X14.08 Y114.065 E183.32184
G0 F1285.7 X14.185 Y113.675
G1 F900 X85.336 Y184.826 E187.17262
G0 F1285.7 X85.726 Y184.721
G1 F900 X14.291 Y113.286 E191.03877
G0 F1285.7 X14.396 Y112.896
G1 F900 X86.115 Y184.615 E194.9203
G0 F1285.7 X86.505 Y184.51
G1 F900 X14.502 Y112.507 E198.81719
G0 F1285.7 X14.608 Y112.118
G1 F900 X86.894 Y184.404 E202.7294
G0 F1285.7 X87.283 Y184.298
G1 F900 X14.713 Y111.728 E206.65698
G0 F1285.7 X14.818 Y111.338
G1 F900 X87.673 Y184.193 E210.59999
G0 F1285.7 X88.063 Y184.088
G1 F900 X14.924 Y110.949 E214.55836
G0 F1285.7 X15.029 Y110.559
G1 F900 X88.452 Y183.982 E218.53211
G0 F1285.7 X88.842 Y183.877
G1 F900 X15.134 Y110.17 E222.52125
G0 F1285.7 X15.24 Y109.78
G1 F900 X89.231 Y183.772 E226.52577
G0 F1285.7 X89.621 Y183.666
G1 F900 X15.345 Y109.39 E230.54568
G0 F1285.7 X15.45 Y109.001
G1 F900 X90.011 Y183.561 E234.58099
G0 F1285.7 X90.4 Y183.456
G1 F900 X15.556 Y108.611 E238.63167
G0 F1285.7 X15.662 Y108.222
G1 F900 X90.789 Y183.349 E242.69764
G0 F1285.7 X91.179 Y183.244
G1 F900 X15.767 Y107.833 E246.779
G0 F1285.7 X15.873 Y107.443
G1 F900 X91.568 Y183.139 E250.87574
G0 F1285.7 X91.958 Y183.033
G1 F900 X15.978 Y107.053 E254.98787
G0 F1285.7 X16.083 Y106.664
G1 F900 X92.348 Y182.928 E259.11541
G0 F1285.7 X92.737 Y182.823
G1 F900 X16.189 Y106.274 E263.25831
G0 F1285.7 X16.294 Y105.884
G1 F900 X93.127 Y182.717 E267.41661
G0 F1285.7 X93.516 Y182.612
G1 F900 X16.399 Y105.495 E271.59028
G0 F1285.7 X16.505 Y105.105
G1 F900 X93.906 Y182.507 E275.77935
G0 F1285.7 X94.296 Y182.401
G1 F900 X16.61 Y104.716 E279.98379
G0 F1285.7 X16.716 Y104.327
G1 F900 X94.685 Y182.295 E284.20354
G0 F1285.7 X95.074 Y182.19
G1 F900 X16.822 Y103.937 E288.43866
G0 F1285.7 X16.927 Y103.548
G1 F900 X95.464 Y182.084 E292.68916
G0 F1285.7 X95.853 Y181.979
G1 F900 X17.032 Y103.158 E296.95505
G0 F1285.7 X17.138 Y102.768
G1 F900 X96.243 Y181.874 E301.23634
G0 F1285.7 X96.633 Y181.768
G1 F900 X17.243 Y102.379 E305.533
G0 F1285.7 X17.348 Y101.989
G1 F900 X97.022 Y181.663 E309.84506
G0 F1285.7 X97.412 Y181.558
G1 F900 X17.454 Y101.599 E314.17252
G0 F1285.7 X17.559 Y101.21
G1 F900 X97.802 Y181.452 E318.51535
G0 F1285.7 X98.191 Y181.347
G1 F900 X17.664 Y100.82 E322.87357
G0 F1285.7 X17.771 Y100.431
G1 F900 X98.58 Y181.241 E327.24708
G0 F1285.7 X98.97 Y181.136
G1 F900 X17.876 Y100.042 E331.63599
G0 F1285.7 X17.981 Y99.652
G1 F900 X22.838 Y104.509 E331.89886
G0 F1285.7 X22.944 Y104.12
G1 F900 X18.087 Y99.262 E332.16175
G0 F1285.7 X18.192 Y98.873
G1 F900 X23.049 Y103.73 E332.42462
G0 F1285.7 X23.155 Y103.341
G1 F900 X18.297 Y98.483 E332.68754
G0 F1285.7 X18.403 Y98.094
G1 F900 X23.26 Y102.951 E332.95041
G0 F1285.7 X23.366 Y102.562
G1 F900 X18.508 Y97.704 E333.21333
G0 F1285.7 X18.613 Y97.314
G1 F900 X23.471 Y102.172 E333.47625
G0 F1285.7 X23.577 Y101.783
G1 F900 X18.719 Y96.925 E333.73917
G0 F1285.7 X18.824 Y96.535
G1 F900 X23.682 Y101.393 E334.00209
G0 F1285.7 X23.787 Y101.003
G1 F900 X18.93 Y96.146 E334.26496
G0 F1285.7 X19.036 Y95.757
G1 F900 X23.893 Y100.614 E334.52783
G0 F1285.7 X23.998 Y100.224
G1 F900 X19.141 Y95.367 E334.79069
G0 F1285.7 X19.246 Y94.977
G1 F900 X24.103 Y99.834 E335.05356
G0 F1285.7 X24.209 Y99.446
G1 F900 X19.352 Y94.588 E335.31646
G0 F1285.7 X19.457 Y94.198
G1 F900 X24.315 Y99.056 E335.57938
G0 F1285.7 X24.42 Y98.666
G1 F900 X19.562 Y93.809 E335.84227
G0 F1285.7 X19.668 Y93.419
G1 F900 X24.525 Y98.277 E336.10517
G0 F1285.7 X24.631 Y97.887
G1 F900 X19.773 Y93.029 E336.36809
G0 F1285.7 X19.878 Y92.64
G1 F900 X24.736 Y97.498 E336.63101
G0 F1285.7 X24.842 Y97.108
G1 F900 X19.984 Y92.251 E336.8939
G0 F1285.7 X20.09 Y91.861
G1 F900 X24.947 Y96.718 E337.15677
G0 F1285.7 X25.052 Y96.329
G1 F900 X20.195 Y91.472 E337.41964
G0 F1285.7 X20.301 Y91.082
G1 F900 X25.158 Y95.94 E337.68253
G0 F1285.7 X25.264 Y95.55
G1 F900 X20.406 Y90.692 E337.94545
G0 F1285.7 X20.511 Y90.303
G1 F900 X25.369 Y95.161 E338.20837
G0 F1285.7 X25.474 Y94.771
G1 F900 X20.617 Y89.913 E338.47127
G0 F1285.7 X20.722 Y89.523
G1 F900 X25.58 Y94.381 E338.73419
G0 F1285.7 X25.685 Y93.992
G1 F900 X20.827 Y89.134 E338.99711
G0 F1285.7 X20.933 Y88.744
G1 F900 X25.791 Y93.602 E339.26003
G0 F1285.7 X25.896 Y93.212
G1 F900 X21.039 Y88.355 E339.5229
G0 F1285.7 X21.144 Y87.966
G1 F900 X26.001 Y92.823 E339.78576
G0 F1285.7 X26.107 Y92.433
G1 F900 X21.249 Y87.576 E340.04866
G0 F1285.7 X21.355 Y87.186
G1 F900 X26.213 Y92.044 E340.31158
G0 F1285.7 X26.318 Y91.655
G1 F900 X21.46 Y86.797 E340.5745
G0 F1285.7 X21.566 Y86.407
G1 F900 X26.423 Y91.265 E340.83739
G0 F1285.7 X26.529 Y90.875
G1 F900 X21.671 Y86.018 E341.10029
G0 F1285.7 X21.776 Y85.628
G1 F900 X26.634 Y90.486 E341.36321
G0 F1285.7 X26.739 Y90.096
G1 F900 X21.882 Y85.238 E341.6261
G0 F1285.7 X21.987 Y84.849
G1 F900 X26.845 Y89.707 E341.88902
G0 F1285.7 X26.95 Y89.317
G1 F900 X22.093 Y84.46 E342.15189
G0 F1285.7 X22.198 Y84.07
G1 F900 X27.056 Y88.927 E342.41479
G0 F1285.7 X27.161 Y88.538
G1 F900 X22.304 Y83.681 E342.67765
G0 F1285.7 X22.409 Y83.291
G1 F900 X27.267 Y88.149 E342.94057
G0 F1285.7 X27.372 Y87.759
G1 F900 X22.514 Y82.901 E343.2035
G0 F1285.7 X22.62 Y82.512
G1 F900 X27.478 Y87.37 E343.46642
G0 F1285.7 X27.583 Y86.98
G1 F900 X22.725 Y82.122 E343.72934
G0 F1285.7 X22.831 Y81.733
G1 F900 X27.688 Y86.59 E343.9922
G0 F1285.7 X27.794 Y86.201
G1 F900 X22.936 Y81.343 E344.25513
G0 F1285.7 X23.041 Y80.953
G1 F900 X27.899 Y85.811 E344.51805
G0 F1285.7 X28.004 Y85.422
G1 F900 X23.147 Y80.564 E344.78094
G0 F1285.7 X23.253 Y80.175
G1 F900 X28.11 Y85.032 E345.04381
G0 F1285.7 X28.215 Y84.642
G1 F900 X23.358 Y79.785 E345.30667
G0 F1285.7 X23.463 Y79.396
G1 F900 X28.321 Y84.253 E345.56957
G0 F1285.7 X28.427 Y83.864
G1 F900 X23.569 Y79.006 E345.83249
G0 F1285.7 X23.674 Y78.616
G1 F900 X28.532 Y83.474 E346.09541
G0 F1285.7 X28.637 Y83.085
G1 F900 X23.78 Y78.227 E346.35831
G0 F1285.7 X23.885 Y77.837
G1 F900 X28.743 Y82.695 E346.62123
G0 F1285.7 X28.848 Y82.305
G1 F900 X23.99 Y77.447 E346.88415
G0 F1285.7 X24.096 Y77.058
G1 F900 X28.953 Y81.916 E347.14704
G0 F1285.7 X29.059 Y81.526
G1 F900 X24.202 Y76.669 E347.40991
G0 F1285.7 X24.307 Y76.279
G1 F900 X29.164 Y81.136 E347.67278
G0 F1285.7 X29.269 Y80.747
G1 F900 X24.412 Y75.89 E347.93564
G0 F1285.7 X24.518 Y75.5
G1 F900 X29.376 Y80.358 E348.19856
G0 F1285.7 X29.481 Y79.968
G1 F900 X24.623 Y75.111 E348.46146
G0 F1285.7 X24.728 Y74.721
G1 F900 X29.586 Y79.579 E348.72438
G0 F1285.7 X29.692 Y79.189
G1 F900 X24.834 Y74.331 E348.9873
G0 F1285.7 X24.939 Y73.942
G1 F900 X29.797 Y78.799 E349.25019
G0 F1285.7 X29.902 Y78.41
G1 F900 X25.045 Y73.552 E349.51309
G0 F1285.7 X25.15 Y73.162
G1 F900 X30.008 Y78.02 E349.77601
G0 F1285.7 X30.113 Y77.631
G1 F900 X25.255 Y72.773 E350.03893
G0 F1285.7 X25.361 Y72.384
G1 F900 X30.218 Y77.241 E350.3018
G0 F1285.7 X30.324 Y76.852
G1 F900 X25.467 Y71.994 E350.56469
G0 F1285.7 X25.572 Y71.605
G1 F900 X30.43 Y76.462 E350.82759
G0 F1285.7 X30.535 Y76.073
G1 F900 X25.677 Y71.215 E351.09051
G0 F1285.7 X25.783 Y70.825
G1 F900 X30.641 Y75.683 E351.35343
G0 F1285.7 X30.746 Y75.294
G1 F900 X25.888 Y70.436 E351.61635
G0 F1285.7 X25.993 Y70.046
G1 F900 X30.851 Y74.904 E351.87927
G0 F1285.7 X30.957 Y74.514
G1 F900 X26.099 Y69.657 E352.14216
G0 F1285.7 X26.204 Y69.267
G1 F900 X31.062 Y74.125 E352.40509
G0 F1285.7 X31.167 Y73.735
G1 F900 X26.31 Y68.877 E352.66798
G0 F1285.7 X26.416 Y68.488
G1 F900 X31.273 Y73.346 E352.93087
G0 F1285.7 X31.379 Y72.957
G1 F900 X26.521 Y68.099 E353.1938
G0 F1285.7 X26.626 Y67.709
G1 F900 X31.484 Y72.567 E353.45672
G0 F1285.7 X31.589 Y72.177
G1 F900 X26.732 Y67.32 E353.71958
G0 F1285.7 X26.837 Y66.93
G1 F900 X31.695 Y71.788 E353.9825
G0 F1285.7 X31.8 Y71.398
G1 F900 X26.942 Y66.54 E354.24543
G0 F1285.7 X27.048 Y66.151
G1 F900 X31.906 Y71.009 E354.50835
G0 F1285.7 X32.011 Y70.619
G1 F900 X27.153 Y65.761 E354.77127
G0 F1285.7 X27.258 Y65.372
G1 F900 X32.116 Y70.229 E355.03416
G0 F1285.7 X32.222 Y69.84
G1 F900 X27.364 Y64.982 E355.29708
G0 F1285.7 X27.47 Y64.593
