;FLAVOR:Marlin
;TIME:27028
;Filament used: 30.5959m
;Layer height: 0.3
;MINX:0.235
;MINY:1.375
;MINZ:0.26
;MAXX:205.179
;MAXY:199.527
;MAXZ:26.06
;Generated with Cura_SteamEngine 4.9.1
M82 ;absolute extrusion mode
;Begin Start Gcode for Dagoma DiscoEasy 200
;Sliced: 15-07-2021 12:49:28
;Initial extruder: 0

G90 ;Absolute positioning
M106 S255 ;Fan on full
G28 X Y ;Home stop X Y
G1 X100 ;Centre back during cooldown in case of oozing
M109 R90 ;Cooldown in case too hot
G28 ;Centre
G29 ;Auto-level
M104 S205 ;Pre-heat
M107 ;Fan off
G0 X100 Y5 Z0.5 ;Front centre for degunk
M109 S205 ;Wait for initial temp
M83 ;E Relative
G1 E10 F200 ;Degunk
G1 E-3 F5000 ;Retract
G0 Z3 ;Withdraw
M82 ;E absolute
G92 E0 ;E reset
G1 F6000 ;Set feedrate

;Finish Start Gcode for Dagoma DiscoEasy 200

G92 E0
G92 E0
G1 F3000 E-3.5
;LAYER_COUNT:87
;LAYER:0
M107
G0 F1285.7 X47.376 Y2.739 Z0.26
;TYPE:SKIRT
G1 F3000 E0
G1 F900 X47.86 Y2.242 E0.02655
G1 X48.222 Y1.928 E0.04489
G1 X48.631 Y1.678 E0.06323
G1 X49.076 Y1.5 E0.08157
G1 X49.544 Y1.398 E0.0999
G1 X50.022 Y1.375 E0.11822
G1 X50.498 Y1.432 E0.13657
G1 X50.958 Y1.567 E0.15491
G1 X51.389 Y1.777 E0.17326
G1 X51.779 Y2.055 E0.19159
G1 X52.011 Y2.275 E0.20382
G1 X52.707 Y3.013 E0.24265
G1 X53.269 Y3.626 E0.27447
G1 X55.175 Y5.592 E0.37926
G1 X57.114 Y7.48 E0.48283
G1 X59.174 Y9.377 E0.59
G1 X61.249 Y11.182 E0.69525
G1 X63.345 Y12.904 E0.79906
G1 X65.524 Y14.593 E0.90457
G1 X67.744 Y16.215 E1.00979
G1 X70.031 Y17.788 E1.11602
G1 X72.316 Y19.268 E1.2202
G1 X74.671 Y20.699 E1.32566
G1 X77.056 Y22.058 E1.43071
G1 X79.451 Y23.334 E1.53456
G1 X81.964 Y24.583 E1.64196
G1 X84.433 Y25.723 E1.74603
G1 X86.954 Y26.804 E1.851
G1 X89.535 Y27.826 E1.95724
G1 X92.102 Y28.755 E2.06171
G1 X94.663 Y29.603 E2.16495
G1 X97.33 Y30.404 E2.27152
G1 X101.284 Y31.441 E2.42796
G1 X123.471 Y36.776 E3.30125
G1 X126.207 Y37.393 E3.40858
G1 X128.916 Y37.925 E3.51423
G1 X131.585 Y38.368 E3.61777
G1 X134.321 Y38.746 E3.72347
G1 X137.043 Y39.042 E3.82826
G1 X140.147 Y39.288 E3.94742
G1 X140.564 Y39.352 E3.96356
G1 X141.791 Y39.634 E4.01174
G1 X143.165 Y39.962 E4.0658
G1 X143.868 Y40.141 E4.09356
G1 X144.328 Y40.301 E4.1122
G1 X145.289 Y40.728 E4.15245
G1 X145.555 Y40.851 E4.16366
G1 X148.024 Y41.914 E4.26653
G1 X150.631 Y42.953 E4.37394
G1 X153.289 Y43.919 E4.48216
G1 X153.766 Y44.086 E4.50151
G1 X154.203 Y44.282 E4.51983
G1 X154.602 Y44.547 E4.53817
G1 X154.952 Y44.875 E4.55652
G1 X155.242 Y45.257 E4.57488
G1 X155.56 Y45.943 E4.60381
G1 X155.774 Y46.628 E4.63128
G1 X169.914 Y94.42 E6.53863
G1 X170.725 Y97.027 E6.64311
G1 X171.618 Y99.633 E6.74853
G1 X172.588 Y102.224 E6.85441
G1 X173.623 Y104.766 E6.95945
G1 X174.729 Y107.277 E7.06445
G1 X175.9 Y109.743 E7.16892
G1 X177.16 Y112.216 E7.27514
G1 X178.467 Y114.61 E7.37952
G1 X179.86 Y116.996 E7.48525
G1 X181.3 Y119.311 E7.58959
G1 X182.809 Y121.591 E7.69422
G1 X184.401 Y123.854 E7.80011
G1 X186.048 Y126.063 E7.90556
G1 X187.756 Y128.22 E8.01085
G1 X189.522 Y130.327 E8.11606
G1 X191.339 Y132.372 E8.22075
G1 X193.201 Y134.355 E8.32485
G1 X195.141 Y136.306 E8.43015
G1 X197.153 Y138.218 E8.53637
G1 X199.173 Y140.031 E8.64024
G1 X202.126 Y142.508 E8.78774
G1 X202.615 Y142.903 E8.8118
G1 X202.961 Y143.234 E8.83012
G1 X203.255 Y143.629 E8.84897
G1 X203.935 Y144.73 E8.89849
G1 X204.042 Y144.909 E8.90647
G1 X204.746 Y146.034 E8.95726
G1 X204.966 Y146.46 E8.97561
G1 X205.111 Y146.916 E8.99392
G1 X205.179 Y147.391 E9.01228
G1 X205.167 Y147.87 E9.03062
G1 X205.076 Y148.34 E9.04894
G1 X204.908 Y148.789 E9.06729
G1 X204.667 Y149.203 E9.08562
G1 X204.436 Y149.493 E9.09981
G1 X203.756 Y150.24 E9.13847
G1 X203.436 Y150.579 E9.15631
G1 X201.624 Y152.475 E9.25667
G1 X201.179 Y152.93 E9.28103
G1 X200.872 Y153.203 E9.29675
G1 X200.365 Y153.591 E9.32119
G1 X198.155 Y155.331 E9.42883
G1 X196.071 Y157.071 E9.53273
G1 X194.019 Y158.885 E9.63754
G1 X191.997 Y160.776 E9.74349
G1 X190.067 Y162.686 E9.8474
G1 X188.904 Y163.891 E9.91149
G1 X156.378 Y198.142 E11.71912
G1 X155.872 Y198.661 E11.74686
G1 X155.51 Y198.975 E11.7652
G1 X155.101 Y199.225 E11.78355
G1 X154.656 Y199.403 E11.80189
G1 X154.188 Y199.505 E11.82022
G1 X153.709 Y199.527 E11.83857
G1 X153.233 Y199.47 E11.85692
G1 X152.641 Y199.279 E11.88072
G1 X151.956 Y198.973 E11.90943
G1 X149.098 Y197.653 E12.02991
G1 X148.336 Y197.295 E12.06213
G1 X145.248 Y195.818 E12.19313
G1 X144.524 Y195.466 E12.22394
G1 X141.343 Y193.892 E12.35976
G1 X140.723 Y193.58 E12.38632
G1 X137.518 Y191.94 E12.5241
G1 X136.946 Y191.643 E12.54876
G1 X133.811 Y189.986 E12.68447
G1 X133.088 Y189.598 E12.71587
G1 X130.071 Y187.951 E12.84741
G1 X129.347 Y187.55 E12.87908
G1 X126.311 Y185.84 E13.01243
G1 X125.668 Y185.473 E13.04077
G1 X122.547 Y183.66 E13.1789
G1 X122.019 Y183.349 E13.20235
G1 X118.868 Y181.462 E13.3429
G1 X118.33 Y181.134 E13.36702
G1 X115.343 Y179.292 E13.50132
G1 X114.674 Y178.873 E13.53152
G1 X111.562 Y176.895 E13.67264
G1 X111.169 Y176.641 E13.69055
G1 X108.083 Y174.621 E13.8317
G1 X107.525 Y174.25 E13.85734
G1 X104.47 Y172.192 E13.99831
G1 X104.031 Y171.892 E14.01866
G1 X100.961 Y169.764 E14.16161
G1 X100.532 Y169.461 E14.18171
G1 X97.484 Y167.288 E14.32496
G1 X97.032 Y166.96 E14.34634
G1 X94.083 Y164.798 E14.48627
G1 X93.539 Y164.393 E14.51223
G1 X90.69 Y162.242 E14.64884
G1 X90.088 Y161.782 E14.67784
G1 X87.292 Y159.614 E14.81324
G1 X86.796 Y159.224 E14.83738
G1 X83.956 Y156.961 E14.97635
G1 X83.414 Y156.523 E15.00302
G1 X80.627 Y154.239 E15.14092
G1 X80.099 Y153.801 E15.16717
G1 X77.494 Y151.609 E15.29746
G1 X76.765 Y150.987 E15.33414
G1 X74.111 Y148.691 E15.46844
G1 X73.61 Y148.252 E15.49393
G1 X71.043 Y145.972 E15.62532
G1 X70.363 Y145.36 E15.66033
G1 X67.814 Y143.036 E15.79234
G1 X67.245 Y142.508 E15.82205
G1 X64.602 Y140.031 E15.96067
G1 X64.235 Y139.683 E15.98002
G1 X61.515 Y137.065 E16.1245
G1 X61.146 Y136.705 E16.14423
G1 X58.591 Y134.179 E16.28173
G1 X57.986 Y133.571 E16.31455
G1 X55.565 Y131.114 E16.44656
G1 X55.052 Y130.585 E16.47476
G1 X52.551 Y127.978 E16.61301
G1 X52.103 Y127.505 E16.63794
G1 X49.632 Y124.858 E16.77652
G1 X49.187 Y124.375 E16.80166
G1 X46.793 Y121.742 E16.93784
G1 X46.312 Y121.206 E16.9654
G1 X43.954 Y118.54 E17.10161
G1 X43.462 Y117.976 E17.13025
G1 X41.192 Y115.341 E17.26335
G1 X40.676 Y114.735 E17.29381
G1 X38.405 Y112.027 E17.42907
G1 X37.961 Y111.49 E17.45573
G1 X35.661 Y108.674 E17.59488
G1 X35.294 Y108.218 E17.61728
G1 X33.027 Y105.361 E17.75685
G1 X32.606 Y104.825 E17.78294
G1 X30.444 Y102.024 E17.91835
G1 X29.955 Y101.383 E17.9492
G1 X27.919 Y98.672 E18.07895
G1 X27.366 Y97.927 E18.11446
G1 X25.31 Y95.115 E18.24777
G1 X24.954 Y94.621 E18.27107
G1 X22.86 Y91.673 E18.40945
G1 X22.425 Y91.052 E18.43847
G1 X20.429 Y88.161 E18.57291
G1 X19.996 Y87.523 E18.60242
G1 X18.037 Y84.604 E18.73695
G1 X17.639 Y84.002 E18.76457
G1 X15.686 Y81.008 E18.90137
G1 X15.318 Y80.435 E18.92743
G1 X13.371 Y77.36 E19.06672
G1 X13.086 Y76.903 E19.08733
G1 X11.161 Y73.774 E19.22792
G1 X10.767 Y73.122 E19.25708
G1 X9 Y70.156 E19.3892
G1 X8.578 Y69.436 E19.42114
G1 X6.795 Y66.356 E19.55733
G1 X6.517 Y65.869 E19.57879
G1 X4.739 Y62.697 E19.71795
G1 X4.36 Y62.01 E19.74798
G1 X2.702 Y58.959 E19.88087
G1 X2.345 Y58.29 E19.90989
G1 X0.87 Y55.487 E20.0311
G1 X0.545 Y54.846 E20.05861
G1 X0.364 Y54.402 E20.07696
G1 X0.26 Y53.934 E20.0953
G1 X0.235 Y53.456 E20.11362
G1 X0.29 Y52.98 E20.13196
G1 X0.423 Y52.52 E20.15028
G1 X0.631 Y52.088 E20.16863
G1 X0.995 Y51.598 E20.19199
G1 X1.504 Y51.045 E20.22075
G1 X47.376 Y2.739 E22.77012
G0 F1285.7 X47.627 Y2.983
G1 F900 X48.111 Y2.486 E22.79667
G1 X48.452 Y2.194 E22.81385
G1 X48.839 Y1.966 E22.83104
G1 X49.26 Y1.811 E22.84821
G1 X49.702 Y1.732 E22.86539
G1 X50.151 Y1.734 E22.88258
G1 X50.593 Y1.814 E22.89977
G1 X51.013 Y1.972 E22.91694
G1 X51.399 Y2.202 E22.93414
G1 X51.757 Y2.515 E22.95233
G1 X52.449 Y3.25 E22.99097
G1 X52.984 Y3.834 E23.02128
G1 X54.946 Y5.858 E23.12915
G1 X56.89 Y7.75 E23.23297
G1 X58.918 Y9.618 E23.33848
G1 X61.026 Y11.45 E23.44536
G1 X63.157 Y13.202 E23.55094
G1 X65.313 Y14.873 E23.65533
G1 X67.549 Y16.506 E23.76129
G1 X69.812 Y18.063 E23.86641
G1 X72.13 Y19.565 E23.97212
G1 X74.486 Y20.996 E24.07761
G1 X76.903 Y22.373 E24.18406
G1 X79.301 Y23.651 E24.28805
G1 X81.79 Y24.888 E24.39442
G1 X84.274 Y26.035 E24.49913
G1 X86.817 Y27.125 E24.60501
G1 X89.429 Y28.159 E24.71252
G1 X91.983 Y29.084 E24.81647
G1 X94.6 Y29.95 E24.92196
G1 X97.225 Y30.739 E25.02686
G1 X101.164 Y31.772 E25.1827
G1 X123.422 Y37.124 E26.05878
G1 X126.096 Y37.727 E26.16369
G1 X128.86 Y38.27 E26.27148
G1 X131.55 Y38.717 E26.37584
G1 X134.275 Y39.093 E26.48111
G1 X137.012 Y39.391 E26.58648
G1 X140.119 Y39.637 E26.70575
G1 X140.486 Y39.693 E26.71996
G1 X141.71 Y39.975 E26.76803
G1 X143.079 Y40.301 E26.82188
G1 X143.782 Y40.48 E26.84965
G1 X144.186 Y40.62 E26.86601
G1 X145.142 Y41.046 E26.90606
G1 X145.385 Y41.158 E26.9163
G1 X147.899 Y42.241 E27.02106
G1 X150.523 Y43.287 E27.12916
G1 X153.173 Y44.25 E27.23707
G1 X153.65 Y44.417 E27.25641
G1 X154.059 Y44.602 E27.27359
G1 X154.429 Y44.857 E27.29078
G1 X154.747 Y45.174 E27.30797
G1 X155.005 Y45.541 E27.32513
G1 X155.226 Y46.048 E27.3463
G1 X155.438 Y46.728 E27.37356
G1 X169.568 Y94.486 E29.27955
G1 X170.392 Y97.134 E29.38568
G1 X171.295 Y99.77 E29.49232
G1 X172.256 Y102.337 E29.59721
G1 X173.299 Y104.897 E29.703
G1 X174.413 Y107.426 E29.80876
G1 X175.592 Y109.909 E29.91395
G1 X176.847 Y112.372 E30.01974
G1 X178.155 Y114.769 E30.12424
G1 X179.558 Y117.171 E30.23069
G1 X181.018 Y119.519 E30.33651
G1 X182.522 Y121.792 E30.44081
G1 X184.118 Y124.061 E30.54697
G1 X185.773 Y126.28 E30.65291
G1 X187.476 Y128.431 E30.75791
G1 X189.241 Y130.536 E30.86303
G1 X191.088 Y132.615 E30.96946
G1 X192.963 Y134.611 E31.07426
G1 X194.9 Y136.559 E31.17939
G1 X196.926 Y138.485 E31.28637
G1 X198.933 Y140.287 E31.38959
G1 X201.909 Y142.783 E31.53824
G1 X202.395 Y143.175 E31.56213
G1 X202.718 Y143.487 E31.57932
G1 X202.957 Y143.813 E31.59479
G1 X203.634 Y144.909 E31.64409
G1 X203.747 Y145.098 E31.65252
G1 X204.449 Y146.22 E31.70317
G1 X204.653 Y146.62 E31.72035
G1 X204.782 Y147.05 E31.73753
G1 X204.833 Y147.496 E31.75471
G1 X204.804 Y147.944 E31.77189
G1 X204.697 Y148.38 E31.78907
G1 X204.514 Y148.79 E31.80625
G1 X204.177 Y149.258 E31.82832
G1 X203.502 Y149.999 E31.86668
G1 X203.183 Y150.337 E31.88447
G1 X201.374 Y152.23 E31.98467
G1 X200.929 Y152.685 E32.00903
G1 X200.659 Y152.925 E32.02286
G1 X200.121 Y153.337 E32.04879
G1 X197.942 Y155.054 E32.15496
G1 X195.845 Y156.804 E32.25948
G1 X193.776 Y158.632 E32.36514
G1 X191.732 Y160.544 E32.47225
G1 X189.815 Y162.443 E32.57551
G1 X188.652 Y163.648 E32.6396
G1 X156.127 Y197.898 E34.44718
G1 X155.621 Y198.417 E34.47492
G1 X155.28 Y198.709 E34.4921
G1 X154.893 Y198.936 E34.50927
G1 X154.472 Y199.092 E34.52645
G1 X154.03 Y199.17 E34.54363
G1 X153.581 Y199.168 E34.56081
G1 X153.139 Y199.087 E34.57801
G1 X152.784 Y198.96 E34.59244
G1 X152.102 Y198.655 E34.62103
G1 X149.247 Y197.337 E34.74137
G1 X148.487 Y196.979 E34.77352
G1 X145.401 Y195.504 E34.90441
G1 X144.679 Y195.152 E34.93515
G1 X141.5 Y193.579 E35.07089
G1 X140.883 Y193.269 E35.09732
G1 X137.679 Y191.629 E35.23506
G1 X137.109 Y191.333 E35.25964
G1 X133.977 Y189.678 E35.39521
G1 X133.255 Y189.29 E35.42657
G1 X130.241 Y187.645 E35.55798
G1 X129.519 Y187.245 E35.58957
G1 X126.485 Y185.537 E35.72281
G1 X125.844 Y185.17 E35.75108
G1 X122.725 Y183.359 E35.8891
G1 X122.199 Y183.048 E35.91249
G1 X119.05 Y181.163 E36.05294
G1 X118.514 Y180.836 E36.07697
G1 X115.528 Y178.995 E36.21121
G1 X114.862 Y178.578 E36.24129
G1 X111.752 Y176.602 E36.3823
G1 X111.361 Y176.349 E36.40012
G1 X108.277 Y174.33 E36.54118
G1 X107.721 Y173.96 E36.56674
G1 X104.668 Y171.903 E36.70762
G1 X104.23 Y171.604 E36.72792
G1 X101.163 Y169.477 E36.87076
G1 X100.735 Y169.176 E36.89078
G1 X97.69 Y167.005 E37.0339
G1 X97.239 Y166.678 E37.05522
G1 X94.292 Y164.517 E37.19507
G1 X93.75 Y164.113 E37.22094
G1 X90.902 Y161.964 E37.35748
G1 X90.303 Y161.506 E37.38633
G1 X87.508 Y159.339 E37.52168
G1 X87.014 Y158.95 E37.54574
G1 X84.176 Y156.689 E37.6846
G1 X83.636 Y156.252 E37.71119
G1 X80.851 Y153.97 E37.84898
G1 X80.324 Y153.533 E37.87518
G1 X77.721 Y151.342 E38.00539
G1 X76.994 Y150.723 E38.04193
G1 X74.341 Y148.428 E38.17617
G1 X73.842 Y147.99 E38.20158
G1 X71.277 Y145.712 E38.33287
G1 X70.599 Y145.102 E38.36777
G1 X68.052 Y142.779 E38.49969
G1 X67.484 Y142.253 E38.52932
G1 X64.843 Y139.777 E38.66786
G1 X64.478 Y139.43 E38.68714
G1 X61.76 Y136.814 E38.8315
G1 X61.392 Y136.456 E38.85115
G1 X58.839 Y133.931 E38.98857
G1 X58.235 Y133.326 E39.02128
G1 X55.816 Y130.87 E39.15321
G1 X55.305 Y130.343 E39.1813
G1 X52.805 Y127.738 E39.31947
G1 X52.359 Y127.266 E39.34433
G1 X49.889 Y124.62 E39.48285
G1 X49.446 Y124.14 E39.50785
G1 X47.053 Y121.508 E39.64398
G1 X46.574 Y120.974 E39.67143
G1 X44.218 Y118.31 E39.80753
G1 X43.727 Y117.748 E39.83609
G1 X41.458 Y115.114 E39.96914
G1 X40.944 Y114.51 E39.99949
G1 X38.675 Y111.804 E40.13463
G1 X38.232 Y111.269 E40.16122
G1 X35.934 Y108.454 E40.30028
G1 X35.568 Y108 E40.3226
G1 X33.302 Y105.145 E40.46209
G1 X32.883 Y104.611 E40.48807
G1 X30.722 Y101.811 E40.62342
G1 X30.235 Y101.173 E40.65414
G1 X28.2 Y98.464 E40.78381
G1 X27.649 Y97.72 E40.81924
G1 X25.594 Y94.91 E40.95246
G1 X25.239 Y94.418 E40.97568
G1 X23.147 Y91.472 E41.11396
G1 X22.713 Y90.853 E41.14289
G1 X20.719 Y87.964 E41.27723
G1 X20.286 Y87.328 E41.30667
G1 X18.329 Y84.412 E41.44107
G1 X17.932 Y83.811 E41.46863
G1 X15.981 Y80.819 E41.60533
G1 X15.614 Y80.248 E41.6313
G1 X13.668 Y77.175 E41.7705
G1 X13.384 Y76.72 E41.79103
G1 X11.461 Y73.593 E41.93151
G1 X11.068 Y72.943 E41.96058
G1 X9.302 Y69.979 E42.09262
G1 X8.881 Y69.261 E42.12447
G1 X7.099 Y66.182 E42.26062
G1 X6.822 Y65.698 E42.28196
G1 X5.046 Y62.528 E42.42102
G1 X4.667 Y61.843 E42.45097
G1 X3.011 Y58.795 E42.58372
G1 X2.655 Y58.127 E42.61269
G1 X1.182 Y55.329 E42.7337
G1 X0.857 Y54.688 E42.76121
G1 X0.69 Y54.271 E42.7784
G1 X0.6 Y53.831 E42.79558
G1 X0.589 Y53.382 E42.81277
G1 X0.658 Y52.939 E42.82993
G1 X0.805 Y52.514 E42.84714
G1 X1.024 Y52.122 E42.86432
G1 X1.252 Y51.835 E42.87835
G1 X1.758 Y51.286 E42.90692
G1 X47.627 Y2.983 E45.45613
G0 F1285.7 X47.878 Y3.228
G1 F900 X48.362 Y2.731 E45.48268
G1 X48.68 Y2.461 E45.49864
G1 X49.043 Y2.258 E45.51456
G1 X49.439 Y2.127 E45.53052
G1 X49.852 Y2.074 E45.54646
G1 X50.268 Y2.101 E45.56241
G1 X50.671 Y2.207 E45.57836
G1 X51.046 Y2.387 E45.59428
G1 X51.502 Y2.755 E45.6167
G1 X52.191 Y3.486 E45.65514
G1 X52.745 Y4.091 E45.68654
G1 X54.681 Y6.088 E45.79298
G1 X56.656 Y8.01 E45.89844
G1 X58.718 Y9.909 E46.00572
G1 X60.763 Y11.687 E46.10943
G1 X62.931 Y13.468 E46.2168
G1 X65.124 Y15.169 E46.32301
G1 X67.331 Y16.78 E46.42758
G1 X69.634 Y18.365 E46.53457
G1 X71.943 Y19.861 E46.63986
G1 X74.301 Y21.293 E46.74544
G1 X76.709 Y22.665 E46.8515
G1 X79.165 Y23.974 E46.95801
G1 X81.63 Y25.199 E47.06335
G1 X84.161 Y26.368 E47.17004
G1 X86.693 Y27.453 E47.27546
G1 X89.292 Y28.482 E47.38244
G1 X91.854 Y29.41 E47.48672
G1 X94.5 Y30.286 E47.59338
G1 X97.12 Y31.072 E47.69806
G1 X101.089 Y32.114 E47.8551
G1 X123.331 Y37.462 E48.73055
G1 X126.062 Y38.078 E48.83769
G1 X128.765 Y38.609 E48.94311
G1 X131.484 Y39.06 E49.04859
G1 X134.258 Y39.443 E49.15575
G1 X136.978 Y39.739 E49.26046
G1 X140.092 Y39.986 E49.38001
G1 X140.407 Y40.034 E49.3922
G1 X141.629 Y40.315 E49.44019
G1 X142.993 Y40.64 E49.49385
G1 X143.696 Y40.819 E49.52161
G1 X144.044 Y40.94 E49.53571
G1 X144.995 Y41.364 E49.57556
G1 X145.224 Y41.47 E49.58522
G1 X147.803 Y42.581 E49.69268
G1 X150.364 Y43.601 E49.79818
G1 X153.058 Y44.58 E49.90787
G1 X153.535 Y44.747 E49.92721
G1 X153.913 Y44.922 E49.94315
G1 X154.251 Y45.166 E49.95911
G1 X154.536 Y45.469 E49.97503
G1 X154.759 Y45.822 E49.991
G1 X154.892 Y46.152 E50.00462
G1 X155.103 Y46.827 E50.03169
G1 X169.234 Y94.59 E51.93787
G1 X170.072 Y97.283 E52.04581
G1 X170.951 Y99.848 E52.14957
G1 X171.941 Y102.492 E52.25762
G1 X172.973 Y105.028 E52.3624
G1 X174.078 Y107.536 E52.46728
G1 X175.284 Y110.076 E52.57488
G1 X176.534 Y112.529 E52.68024
G1 X177.866 Y114.97 E52.78666
G1 X179.238 Y117.32 E52.8908
G1 X180.71 Y119.686 E52.99744
G1 X182.257 Y122.024 E53.10473
