;FLAVOR:Marlin
;TIME:11934
;Filament used: 14.4446m
;Layer height: 0.3
;MINX:35.94
;MINY:10.906
;MINZ:0.26
;MAXX:195.606
;MAXY:192.594
;MAXZ:7.76
;Generated with Cura_SteamEngine 4.9.1
M82 ;absolute extrusion mode
;Begin Start Gcode for Dagoma DiscoEasy 200
;Sliced: 07-07-2021 20:22:03
;Initial extruder: 0

G90 ;Absolute positioning
M106 S255 ;Fan on full
G28 X Y ;Home stop X Y
G1 X100 ;Centre back during cooldown in case of oozing
M109 R90 ;Cooldown in case too hot
G28 ;Centre
G29 ;Auto-level
M104 S205 ;Pre-heat
M107 ;Fan off
G0 X100 Y5 Z0.5 ;Front centre for degunk
M109 S205 ;Wait for initial temp
M83 ;E Relative
G1 E10 F200 ;Degunk
G1 E-3 F5000 ;Retract
G0 Z3 ;Withdraw
M82 ;E absolute
G92 E0 ;E reset
G1 F6000 ;Set feedrate

;Finish Start Gcode for Dagoma DiscoEasy 200

G92 E0
G92 E0
G1 F3000 E-3.5
;LAYER_COUNT:26
;LAYER:0
M107
G0 F1285.7 X86.357 Y14.129 Z0.26
;TYPE:SKIRT
G1 F3000 E0
G1 F900 X86.699 Y13.558 E0.02547
G1 X87.018 Y13.102 E0.04677
G1 X87.4 Y12.697 E0.06807
G1 X87.835 Y12.351 E0.08935
G1 X88.316 Y12.07 E0.11066
G1 X88.831 Y11.862 E0.13192
G1 X89.372 Y11.729 E0.15324
G1 X90.042 Y11.67 E0.17898
G1 X90.497 Y11.66 E0.1964
G1 X191.038 Y10.906 E4.04416
G1 X191.753 Y10.91 E4.07152
G1 X192.307 Y10.953 E4.09279
G1 X192.85 Y11.075 E4.11409
G1 X193.37 Y11.274 E4.1354
G1 X193.856 Y11.545 E4.15669
G1 X194.298 Y11.882 E4.17796
G1 X194.687 Y12.28 E4.19926
G1 X195.016 Y12.729 E4.22056
G1 X195.276 Y13.221 E4.24186
G1 X195.464 Y13.745 E4.26316
G1 X195.574 Y14.29 E4.28444
G1 X195.606 Y14.846 E4.30575
G1 X195.557 Y15.4 E4.32704
G1 X195.429 Y15.942 E4.34835
G1 X195.123 Y16.658 E4.37815
G1 X194.657 Y17.501 E4.41501
G1 X94.999 Y190.115 E12.04278
G1 X94.647 Y190.705 E12.06907
G1 X94.328 Y191.162 E12.0904
G1 X93.947 Y191.567 E12.11168
G1 X93.513 Y191.914 E12.13295
G1 X93.032 Y192.196 E12.15428
G1 X92.517 Y192.405 E12.17555
G1 X91.977 Y192.539 E12.19685
G1 X91.423 Y192.594 E12.21815
G1 X90.867 Y192.569 E12.23945
G1 X90.321 Y192.464 E12.26073
G1 X89.795 Y192.283 E12.28202
G1 X89.3 Y192.028 E12.30333
G1 X88.847 Y191.704 E12.32464
G1 X88.445 Y191.32 E12.34592
G1 X88.05 Y190.8 E12.37091
G1 X87.825 Y190.444 E12.38702
G1 X36.827 Y105.102 E16.19172
G1 X36.457 Y104.463 E16.21998
G1 X36.213 Y103.962 E16.24131
G1 X36.044 Y103.432 E16.2626
G1 X35.952 Y102.884 E16.28386
G1 X35.94 Y102.327 E16.30518
G1 X36.007 Y101.775 E16.32646
G1 X36.154 Y101.238 E16.34777
G1 X36.391 Y100.698 E16.37034
G1 X36.599 Y100.312 E16.38712
G1 X86.357 Y14.129 E20.19553
G0 F1285.7 X86.657 Y14.309
G1 F900 X86.999 Y13.738 E20.22101
G1 X87.305 Y13.304 E20.24133
G1 X87.673 Y12.922 E20.26163
G1 X88.094 Y12.599 E20.28193
G1 X88.559 Y12.343 E20.30225
G1 X89.057 Y12.159 E20.32257
G1 X89.576 Y12.052 E20.34285
G1 X90.142 Y12.017 E20.36455
G1 X90.5 Y12.01 E20.37825
G1 X191.036 Y11.256 E24.22582
G1 X191.751 Y11.26 E24.25319
G1 X192.28 Y11.303 E24.2735
G1 X192.796 Y11.425 E24.29379
G1 X193.288 Y11.623 E24.31409
G1 X193.746 Y11.892 E24.33441
G1 X194.157 Y12.228 E24.35473
G1 X194.513 Y12.621 E24.37502
G1 X194.807 Y13.063 E24.39534
G1 X195.03 Y13.544 E24.41563
G1 X195.179 Y14.053 E24.43592
G1 X195.25 Y14.579 E24.45624
G1 X195.241 Y15.11 E24.47656
G1 X195.152 Y15.633 E24.49686
G1 X194.986 Y16.137 E24.51717
G1 X194.817 Y16.488 E24.53208
G1 X194.354 Y17.326 E24.56872
G1 X94.698 Y189.936 E32.19632
G1 X94.346 Y190.526 E32.22261
G1 X94.041 Y190.96 E32.24291
G1 X93.674 Y191.343 E32.26321
G1 X93.253 Y191.667 E32.28354
G1 X92.789 Y191.924 E32.30384
G1 X92.291 Y192.108 E32.32416
G1 X91.772 Y192.216 E32.34444
G1 X91.242 Y192.244 E32.36475
G1 X90.714 Y192.193 E32.38505
G1 X90.199 Y192.062 E32.40539
G1 X89.71 Y191.856 E32.4257
G1 X89.258 Y191.579 E32.44599
G1 X88.852 Y191.237 E32.4663
G1 X88.502 Y190.839 E32.48658
G1 X88.177 Y190.348 E32.50912
G1 X88.125 Y190.264 E32.5129
G1 X37.129 Y104.926 E36.31743
G1 X36.759 Y104.287 E36.34569
G1 X36.529 Y103.809 E36.36599
G1 X36.373 Y103.302 E36.38629
G1 X36.294 Y102.777 E36.4066
G1 X36.296 Y102.247 E36.42689
G1 X36.377 Y101.722 E36.44722
G1 X36.535 Y101.216 E36.4675
G1 X36.844 Y100.591 E36.49419
G1 X36.902 Y100.487 E36.49874
G1 X86.657 Y14.309 E40.30694
G0 F1285.7 X86.957 Y14.489
G1 F900 X87.299 Y13.918 E40.33241
G1 X87.591 Y13.507 E40.3517
G1 X87.945 Y13.149 E40.37097
G1 X88.35 Y12.85 E40.39023
G1 X88.798 Y12.62 E40.40951
G1 X89.277 Y12.463 E40.4288
G1 X89.887 Y12.377 E40.45237
G1 X90.466 Y12.361 E40.47454
G1 X191.034 Y11.606 E44.32334
G1 X191.749 Y11.61 E44.3507
G1 X192.251 Y11.653 E44.36998
G1 X192.739 Y11.774 E44.38922
G1 X193.203 Y11.972 E44.40853
G1 X193.629 Y12.24 E44.42779
G1 X194.007 Y12.572 E44.44704
G1 X194.329 Y12.96 E44.46634
G1 X194.585 Y13.393 E44.48559
G1 X194.769 Y13.862 E44.50487
G1 X194.877 Y14.354 E44.52415
G1 X194.905 Y14.857 E44.54343
G1 X194.854 Y15.358 E44.5627
G1 X194.724 Y15.844 E44.58195
G1 X194.511 Y16.319 E44.60187
G1 X194.051 Y17.151 E44.63826
G1 X94.398 Y189.757 E52.26566
G1 X94.046 Y190.347 E52.29196
G1 X93.754 Y190.757 E52.31122
G1 X93.401 Y191.117 E52.33051
G1 X92.996 Y191.416 E52.34978
G1 X92.549 Y191.647 E52.36904
G1 X92.071 Y191.805 E52.3883
G1 X91.573 Y191.885 E52.4076
G1 X91.07 Y191.885 E52.42685
G1 X90.572 Y191.806 E52.44615
G1 X90.094 Y191.649 E52.46541
G1 X89.646 Y191.419 E52.48468
G1 X89.241 Y191.12 E52.50394
G1 X88.887 Y190.761 E52.52324
G1 X88.472 Y190.161 E52.55116
G1 X37.432 Y104.751 E56.35892
G1 X37.062 Y104.112 E56.38717
G1 X36.845 Y103.658 E56.40643
G1 X36.703 Y103.174 E56.42573
G1 X36.639 Y102.675 E56.44499
G1 X36.654 Y102.172 E56.46425
G1 X36.749 Y101.677 E56.48353
G1 X37.008 Y101.027 E56.51031
G1 X37.205 Y100.662 E56.52618
G1 X86.957 Y14.489 E60.33416
G1 F3000 E56.83416
;MESH:support_half_hex_36.stl
G0 F1285.7 X89.152 Y15.757
G0 X90.01 Y16.252
G0 X91.459 Y187.445
;TYPE:WALL-INNER
G1 F3000 E60.33416
G1 F900 X91.311 Y187.702 E60.3455
G1 X91.159 Y187.448 E60.35194
G1 X40.407 Y102.515 E64.13838
G1 X90.321 Y16.062 E67.95873
G1 X190.54 Y15.309 E71.79417
G1 X190.844 Y15.307 E71.80581
G1 X190.692 Y15.571 E71.81241
G1 X91.459 Y187.445 E79.40752
G0 F1285.7 X91.464 Y188.087
;TYPE:WALL-OUTER
G1 F900 X91.316 Y188.344 E79.41887
G1 X91.164 Y188.09 E79.42531
G1 X40.03 Y102.519 E83.24021
G1 X90.133 Y15.738 E87.07504
G1 X191.105 Y14.98 E90.9393
G1 X191.409 Y14.978 E90.95094
G1 X191.257 Y15.242 E90.95754
G1 X91.464 Y188.087 E98.59555
G0 F1285.7 X91.364 Y188.26
G0 X91.313 Y187.947
G0 X91.306 Y187.029
;TYPE:SKIN
G1 F900 X40.802 Y102.512 E102.36345
G1 X90.519 Y16.4 E106.16873
G1 X190.252 Y15.651 E109.98557
G1 X91.306 Y187.029 E117.55876
G0 F1285.7 X91.442 Y186.477
G1 F900 X90.738 Y185.773 E117.59686
G1 X90.676 Y185.711
G0 F1285.7 X91.624 Y186.164
G1 F900 X90.002 Y184.542 E117.68464
G1 X89.94 Y184.48
G0 F1285.7 X89.267 Y183.313
G1 F900 X91.805 Y185.85 E117.82197
G0 F1285.7 X91.986 Y185.536
G1 F900 X88.533 Y182.083 E118.00886
G1 X88.471 Y182.021
G0 F1285.7 X87.797 Y180.853
G1 F900 X92.167 Y185.222 E118.24534
G0 F1285.7 X92.348 Y184.909
G1 F900 X87.063 Y179.623 E118.5314
G1 X87.001 Y179.561
G0 F1285.7 X86.327 Y178.393
G1 F900 X92.529 Y184.595 E118.86706
G0 F1285.7 X92.71 Y184.281
G1 F900 X85.593 Y177.163 E119.25226
G1 X85.531 Y177.101
G0 F1285.7 X84.858 Y175.933
G1 F900 X92.891 Y183.967 E119.68705
G0 F1285.7 X93.072 Y183.653
G1 F900 X84.123 Y174.703 E120.17141
G1 X84.061 Y174.641
G0 F1285.7 X83.388 Y173.473
G1 F900 X93.254 Y183.34 E120.70539
G0 F1285.7 X93.435 Y183.026
G1 F900 X82.653 Y172.243 E121.28896
G1 X82.591 Y172.181
G0 F1285.7 X81.918 Y171.013
G1 F900 X93.616 Y182.712 E121.92209
G0 F1285.7 X93.797 Y182.398
G1 F900 X81.183 Y169.784 E122.60478
G1 X81.121 Y169.722
G0 F1285.7 X80.448 Y168.553
G1 F900 X93.978 Y182.084 E123.33707
G0 F1285.7 X94.16 Y181.77
G1 F900 X79.713 Y167.324 E124.11893
G1 X79.651 Y167.262
G0 F1285.7 X78.978 Y166.094
G1 F900 X94.341 Y181.457 E124.9504
G0 F1285.7 X94.522 Y181.143
G1 F900 X78.243 Y164.864 E125.83144
G1 X78.181 Y164.802
G0 F1285.7 X77.508 Y163.634
G1 F900 X94.703 Y180.829 E126.76205
G0 F1285.7 X94.885 Y180.515
G1 F900 X76.773 Y162.404 E127.74227
G1 X76.711 Y162.342
G0 F1285.7 X76.038 Y161.174
G1 F900 X95.066 Y180.201 E128.77206
G0 F1285.7 X95.247 Y179.887
G1 F900 X75.304 Y159.944 E129.8514
G1 X75.242 Y159.882
G0 F1285.7 X74.568 Y158.714
G1 F900 X95.428 Y179.574 E130.98037
G0 F1285.7 X95.609 Y179.26
G1 F900 X73.833 Y157.484 E132.15892
G1 X73.771 Y157.422
G0 F1285.7 X73.099 Y156.255
G1 F900 X95.791 Y178.946 E133.38701
G0 F1285.7 X95.972 Y178.632
G1 F900 X72.363 Y155.024 E134.66473
G1 X72.301 Y154.962
G0 F1285.7 X71.629 Y153.795
G1 F900 X96.153 Y178.318 E135.99197
G0 F1285.7 X96.334 Y178.004
G1 F900 X70.893 Y152.564 E137.36885
G1 X70.831 Y152.502
G0 F1285.7 X70.159 Y151.334
G1 F900 X96.515 Y177.691 E138.79529
G0 F1285.7 X96.696 Y177.377
G1 F900 X69.424 Y150.105 E140.27129
G1 X69.362 Y150.043
G0 F1285.7 X68.689 Y148.874
G1 F900 X96.877 Y177.063 E141.79689
G0 F1285.7 X97.058 Y176.749
G1 F900 X67.954 Y147.645 E143.37203
G1 X67.892 Y147.583
G0 F1285.7 X67.218 Y146.414
G1 F900 X97.239 Y176.435 E144.99681
G0 F1285.7 X97.421 Y176.122
G1 F900 X66.484 Y145.185 E146.67116
G1 X66.422 Y145.123
G0 F1285.7 X65.749 Y143.955
G1 F900 X97.602 Y175.808 E148.39508
G0 F1285.7 X97.783 Y175.494
G1 F900 X65.014 Y142.725 E150.16858
G1 X64.952 Y142.663
G0 F1285.7 X64.279 Y141.495
G1 F900 X97.964 Y175.18 E151.99166
G0 F1285.7 X98.145 Y174.866
G1 F900 X63.544 Y140.265 E153.86431
G1 X63.482 Y140.203
G0 F1285.7 X62.809 Y139.035
G1 F900 X98.327 Y174.553 E155.78659
G0 F1285.7 X98.508 Y174.239
G1 F900 X62.074 Y137.805 E157.75844
G1 X62.012 Y137.743
G0 F1285.7 X61.339 Y136.575
G1 F900 X98.689 Y173.925 E159.77987
G0 F1285.7 X98.87 Y173.611
G1 F900 X60.604 Y135.345 E161.85088
G1 X60.542 Y135.283
G0 F1285.7 X59.87 Y134.116
G1 F900 X99.052 Y173.298 E163.97146
G0 F1285.7 X99.233 Y172.984
G1 F900 X59.134 Y132.885 E166.14166
G1 X59.072 Y132.823
G0 F1285.7 X58.399 Y131.656
G1 F900 X99.414 Y172.67 E168.36142
G0 F1285.7 X99.595 Y172.356
G1 F900 X57.664 Y130.425 E170.63078
G1 X57.602 Y130.363
G0 F1285.7 X56.929 Y129.196
G1 F900 X99.776 Y172.042 E172.94969
G0 F1285.7 X99.958 Y171.729
G1 F900 X56.195 Y127.966 E175.3182
G1 X56.133 Y127.904
G0 F1285.7 X55.459 Y126.736
G1 F900 X100.139 Y171.415 E177.73631
G0 F1285.7 X100.32 Y171.101
G1 F900 X54.725 Y125.506 E180.20397
G1 X54.663 Y125.444
G0 F1285.7 X53.99 Y124.276
G1 F900 X100.501 Y170.787 E182.7212
G0 F1285.7 X100.682 Y170.474
G1 F900 X53.255 Y123.046 E185.28804
G1 X53.193 Y122.984
G0 F1285.7 X52.52 Y121.816
G1 F900 X100.863 Y170.16 E187.90445
G0 F1285.7 X101.044 Y169.846
G1 F900 X51.784 Y120.586 E190.57047
G1 X51.722 Y120.524
G0 F1285.7 X51.05 Y119.356
G1 F900 X101.225 Y169.532 E193.28603
G0 F1285.7 X101.406 Y169.218
G1 F900 X50.315 Y118.127 E196.05114
G1 X50.253 Y118.065
G0 F1285.7 X49.58 Y116.896
G1 F900 X101.588 Y168.905 E198.8659
G0 F1285.7 X101.769 Y168.591
G1 F900 X48.845 Y115.667 E201.73022
G1 X48.783 Y115.605
G0 F1285.7 X48.11 Y114.437
G1 F900 X101.95 Y168.277 E204.64411
G0 F1285.7 X102.131 Y167.963
G1 F900 X47.375 Y113.207 E207.60757
G1 X47.313 Y113.145
G0 F1285.7 X46.64 Y111.977
G1 F900 X102.313 Y167.65 E210.62067
G0 F1285.7 X102.494 Y167.336
G1 F900 X45.905 Y110.747 E213.68333
G1 X45.843 Y110.685
G0 F1285.7 X45.17 Y109.517
G1 F900 X102.675 Y167.022 E216.79558
G0 F1285.7 X102.856 Y166.708
G1 F900 X44.436 Y108.287 E219.95737
G1 X44.374 Y108.225
G0 F1285.7 X43.7 Y107.057
G1 F900 X103.037 Y166.394 E223.16876
G0 F1285.7 X103.219 Y166.08
G1 F900 X42.965 Y105.827 E226.42976
G1 X42.903 Y105.765
G0 F1285.7 X42.23 Y104.597
G1 F900 X103.4 Y165.767 E229.74036
G0 F1285.7 X103.581 Y165.453
G1 F900 X41.495 Y103.367 E233.10053
G1 X41.433 Y103.305
G0 F1285.7 X41.038 Y102.415
G1 F900 X103.762 Y165.139 E236.49523
G0 F1285.7 X103.943 Y164.825
G1 F900 X41.219 Y102.101 E239.88994
G0 F1285.7 X41.401 Y101.788
G1 F900 X104.125 Y164.511 E243.28461
G0 F1285.7 X104.306 Y164.197
G1 F900 X41.582 Y101.474 E246.67929
G0 F1285.7 X41.763 Y101.16
G1 F900 X104.487 Y163.884 E250.07399
G0 F1285.7 X104.668 Y163.57
G1 F900 X41.944 Y100.846 E253.46869
G0 F1285.7 X42.125 Y100.532
G1 F900 X104.849 Y163.256 E256.8634
G0 F1285.7 X105.03 Y162.942
G1 F900 X42.306 Y100.218 E260.2581
G0 F1285.7 X42.487 Y99.904
G1 F900 X105.211 Y162.628 E263.6528
G0 F1285.7 X105.392 Y162.314
G1 F900 X42.668 Y99.591 E267.04748
G0 F1285.7 X42.849 Y99.277
G1 F900 X105.573 Y162 E270.44215
G0 F1285.7 X105.755 Y161.687
G1 F900 X43.031 Y98.963 E273.83686
G0 F1285.7 X43.212 Y98.649
G1 F900 X105.936 Y161.373 E277.23156
G0 F1285.7 X106.117 Y161.059
G1 F900 X43.393 Y98.335 E280.62626
G0 F1285.7 X43.574 Y98.021
G1 F900 X106.298 Y160.745 E284.02097
G0 F1285.7 X106.48 Y160.432
G1 F900 X43.755 Y97.708 E287.4157
G0 F1285.7 X43.937 Y97.394
G1 F900 X106.661 Y160.118 E290.8104
G0 F1285.7 X106.842 Y159.804
G1 F900 X44.118 Y97.08 E294.2051
G0 F1285.7 X44.299 Y96.766
G1 F900 X107.023 Y159.49 E297.5998
G0 F1285.7 X107.204 Y159.176
G1 F900 X44.48 Y96.452 E300.99451
G0 F1285.7 X44.661 Y96.138
G1 F900 X107.386 Y158.863 E304.38926
G0 F1285.7 X107.567 Y158.549
G1 F900 X44.843 Y95.825 E307.78397
G0 F1285.7 X45.024 Y95.511
G1 F900 X107.748 Y158.235 E311.17867
G0 F1285.7 X107.929 Y157.921
G1 F900 X45.205 Y95.197 E314.57337
G0 F1285.7 X45.386 Y94.883
G1 F900 X108.11 Y157.607 E317.96807
G0 F1285.7 X108.291 Y157.294
G1 F900 X45.568 Y94.57 E321.36275
G0 F1285.7 X45.749 Y94.256
G1 F900 X108.473 Y156.98 E324.75745
G0 F1285.7 X108.654 Y156.666
G1 F900 X45.93 Y93.942 E328.15216
G0 F1285.7 X46.111 Y93.628
G1 F900 X108.835 Y156.352 E331.54686
G0 F1285.7 X109.016 Y156.039
G1 F900 X46.292 Y93.314 E334.94159
G0 F1285.7 X46.473 Y93.001
G1 F900 X109.197 Y155.725 E338.33629
G0 F1285.7 X109.378 Y155.411
G1 F900 X46.654 Y92.687 E341.73099
G0 F1285.7 X46.835 Y92.373
G1 F900 X109.559 Y155.097 E345.1257
G0 F1285.7 X109.74 Y154.783
G1 F900 X47.016 Y92.059 E348.5204
G0 F1285.7 X47.198 Y91.746
G1 F900 X109.922 Y154.47 E351.9151
G0 F1285.7 X110.103 Y154.156
G1 F900 X47.379 Y91.432 E355.30981
G0 F1285.7 X47.56 Y91.118
G1 F900 X110.284 Y153.842 E358.70451
G0 F1285.7 X110.465 Y153.528
G1 F900 X47.741 Y90.804 E362.09921
G0 F1285.7 X47.922 Y90.49
G1 F900 X110.647 Y153.215 E365.49397
G0 F1285.7 X110.828 Y152.901
G1 F900 X48.104 Y90.177 E368.88867
G0 F1285.7 X48.285 Y89.863
G1 F900 X111.009 Y152.587 E372.28337
G0 F1285.7 X111.19 Y152.273
G1 F900 X48.466 Y89.549 E375.67808
G0 F1285.7 X48.647 Y89.235
G1 F900 X111.371 Y151.959 E379.07278
G0 F1285.7 X111.553 Y151.646
G1 F900 X48.829 Y88.922 E382.46748
G0 F1285.7 X49.01 Y88.608
G1 F900 X111.734 Y151.332 E385.86218
G0 F1285.7 X111.915 Y151.018
G1 F900 X49.191 Y88.294 E389.25689
G0 F1285.7 X49.372 Y87.98
G1 F900 X112.096 Y150.704 E392.65159
G0 F1285.7 X112.277 Y150.391
G1 F900 X49.553 Y87.666 E396.04632
G0 F1285.7 X49.735 Y87.353
G1 F900 X112.458 Y150.077 E399.441
G0 F1285.7 X112.639 Y149.763
G1 F900 X49.916 Y87.039 E402.83567
G0 F1285.7 X50.097 Y86.725
G1 F900 X112.821 Y149.449 E406.23037
G0 F1285.7 X113.002 Y149.135
G1 F900 X50.278 Y86.411 E409.62508
G0 F1285.7 X50.459 Y86.097
G1 F900 X113.183 Y148.821 E413.01978
G0 F1285.7 X113.364 Y148.507
G1 F900 X50.64 Y85.784 E416.41446
G0 F1285.7 X50.821 Y85.47
G1 F900 X113.545 Y148.194 E419.80916
G0 F1285.7 X113.726 Y147.88
G1 F900 X51.002 Y85.156 E423.20386
G0 F1285.7 X51.183 Y84.842
G1 F900 X113.907 Y147.566 E426.59856
G0 F1285.7 X114.089 Y147.252
G1 F900 X51.365 Y84.528 E429.99327
G0 F1285.7 X51.546 Y84.215
G1 F900 X114.27 Y146.938 E433.38794
G0 F1285.7 X114.451 Y146.624
G1 F900 X51.727 Y83.901 E436.78262
G0 F1285.7 X51.908 Y83.587
G1 F900 X114.632 Y146.31 E440.17729
G0 F1285.7 X114.814 Y145.997
G1 F900 X52.089 Y83.273 E443.57202
G0 F1285.7 X52.271 Y82.959
G1 F900 X114.995 Y145.683 E446.96673
G0 F1285.7 X115.176 Y145.369
G1 F900 X52.452 Y82.645 E450.36143
G0 F1285.7 X52.633 Y82.331
G1 F900 X115.357 Y145.055 E453.75613
G0 F1285.7 X115.538 Y144.741
G1 F900 X52.814 Y82.018 E457.15081
G0 F1285.7 X52.996 Y81.704
G1 F900 X115.72 Y144.428 E460.54551
G0 F1285.7 X115.901 Y144.114
G1 F900 X53.177 Y81.39 E463.94021
G0 F1285.7 X53.358 Y81.076
G1 F900 X116.082 Y143.8 E467.33492
G0 F1285.7 X116.263 Y143.486
G1 F900 X53.539 Y80.762 E470.72962
G0 F1285.7 X53.72 Y80.448
G1 F900 X116.444 Y143.173 E474.12435
