;FLAVOR:Marlin
;TIME:24013
;Filament used: 22.1288m
;Layer height: 0.2
;MINX:6.361
;MINY:10.207
;MINZ:0.26
;MAXX:166.414
;MAXY:196.856
;MAXZ:7.86
;Generated with Cura_SteamEngine 4.9.1
M82 ;absolute extrusion mode
;Begin Start Gcode for Dagoma DiscoEasy 200
;Sliced: 11-07-2021 01:41:30
;Initial extruder: 0

G90 ;Absolute positioning
M106 S255 ;Fan on full
G28 X Y ;Home stop X Y
G1 X100 ;Centre back during cooldown in case of oozing
M109 R90 ;Cooldown in case too hot
G28 ;Centre
G29 ;Auto-level
M104 S205 ;Pre-heat
M107 ;Fan off
G0 X100 Y5 Z0.5 ;Front centre for degunk
M109 S205 ;Wait for initial temp
M83 ;E Relative
G1 E10 F200 ;Degunk
G1 E-3 F5000 ;Retract
G0 Z3 ;Withdraw
M82 ;E absolute
G92 E0 ;E reset
G1 F6000 ;Set feedrate

;Finish Start Gcode for Dagoma DiscoEasy 200

G92 E0
G92 E0
G1 F3000 E-3.5
;LAYER_COUNT:39
;LAYER:0
M107
G0 F1285.7 X57.258 Y14.145 Z0.26
;TYPE:SKIRT
G1 F3000 E0
G1 F900 X57.689 Y13.478 E0.03039
G1 X58.185 Y12.859 E0.06075
G1 X58.74 Y12.292 E0.09111
G1 X59.35 Y11.784 E0.12149
G1 X60.008 Y11.341 E0.15185
G1 X60.707 Y10.965 E0.18222
G1 X61.44 Y10.662 E0.21258
G1 X62.2 Y10.434 E0.24294
G1 X62.979 Y10.284 E0.2733
G1 X64.078 Y10.207 E0.31546
G1 X64.282 Y10.207 E0.32327
G1 X65.074 Y10.247 E0.35362
G1 X65.859 Y10.366 E0.384
G1 X66.627 Y10.564 E0.41435
G1 X67.372 Y10.839 E0.44474
G1 X68.085 Y11.186 E0.47509
G1 X68.76 Y11.604 E0.50547
G1 X69.389 Y12.087 E0.53582
G1 X69.966 Y12.632 E0.5662
G1 X70.486 Y13.231 E0.59655
G1 X71.102 Y14.145 E0.63874
G1 X165.354 Y177.395 E7.85272
G1 X165.716 Y178.101 E7.88308
G1 X166.004 Y178.84 E7.91343
G1 X166.217 Y179.604 E7.94379
G1 X166.334 Y180.249 E7.96887
G1 X166.344 Y180.321 E7.97166
G1 X166.414 Y181.111 E8.00201
G1 X166.403 Y181.904 E8.03236
G1 X166.313 Y182.693 E8.06275
G1 X166.151 Y183.443 E8.09211
G1 X164.139 Y190.95 E8.38954
G1 X163.895 Y191.705 E8.41991
G1 X163.576 Y192.432 E8.45029
G1 X163.186 Y193.123 E8.48065
G1 X162.729 Y193.771 E8.511
G1 X162.208 Y194.37 E8.54138
G1 X161.63 Y194.913 E8.57173
G1 X161.236 Y195.226 E8.59099
G1 X161.138 Y195.299 E8.59566
G1 X160.479 Y195.741 E8.62603
G1 X159.778 Y196.114 E8.65642
G1 X159.044 Y196.414 E8.68676
G1 X158.283 Y196.639 E8.71713
G1 X157.503 Y196.786 E8.74751
G1 X156.713 Y196.854 E8.77785
G1 X156.202 Y196.856 E8.79741
G1 X61.213 Y194.061 E12.43417
G1 X60.422 Y193.997 E12.46454
G1 X59.642 Y193.855 E12.49488
G1 X58.88 Y193.634 E12.52524
G1 X58.143 Y193.338 E12.55564
G1 X57.342 Y192.911 E12.59037
G1 X57.265 Y192.864 E12.59382
G1 X56.61 Y192.417 E12.62417
G1 X56.002 Y191.906 E12.65457
G1 X55.449 Y191.337 E12.68493
G1 X54.957 Y190.715 E12.71528
G1 X54.548 Y190.08 E12.74419
G1 X7.416 Y108.445 E16.35162
G1 X7.054 Y107.738 E16.38202
G1 X6.766 Y106.999 E16.41237
G1 X6.553 Y106.235 E16.44273
G1 X6.418 Y105.453 E16.4731
G1 X6.361 Y104.507 E16.50937
G1 X6.361 Y104.413 E16.51296
G1 X6.401 Y103.621 E16.54331
G1 X6.52 Y102.836 E16.5737
G1 X6.718 Y102.068 E16.60405
G1 X6.993 Y101.323 E16.63444
G1 X7.416 Y100.476 E16.67067
G1 X57.258 Y14.145 E20.4856
G0 F1285.7 X57.561 Y14.32
G1 F900 X57.983 Y13.669 E20.51529
G1 X58.47 Y13.065 E20.54498
G1 X59.016 Y12.514 E20.57467
G1 X59.616 Y12.023 E20.60434
G1 X60.263 Y11.596 E20.63401
G1 X60.951 Y11.237 E20.6637
G1 X61.673 Y10.952 E20.69341
G1 X62.419 Y10.742 E20.72307
G1 X63.184 Y10.61 E20.75278
G1 X64.078 Y10.557 E20.78705
G1 X64.282 Y10.557 E20.79486
G1 X65.057 Y10.597 E20.82455
G1 X65.823 Y10.716 E20.85422
G1 X66.573 Y10.914 E20.88391
G1 X67.299 Y11.188 E20.9136
G1 X67.992 Y11.535 E20.94326
G1 X68.646 Y11.952 E20.97295
G1 X69.254 Y12.434 E21.00264
G1 X69.809 Y12.976 E21.03233
G1 X70.306 Y13.572 E21.06202
G1 X70.799 Y14.32 E21.09631
G1 X165.051 Y177.57 E28.31029
G1 X165.404 Y178.26 E28.33995
G1 X165.683 Y178.984 E28.36964
G1 X165.887 Y179.732 E28.39932
G1 X165.987 Y180.297 E28.42127
G1 X165.997 Y180.369 E28.42406
G1 X166.064 Y181.142 E28.45375
G1 X166.051 Y181.917 E28.48341
G1 X165.959 Y182.687 E28.51309
G1 X165.812 Y183.352 E28.53915
G1 X163.8 Y190.859 E28.83658
G1 X163.561 Y191.597 E28.86627
G1 X163.248 Y192.306 E28.89593
G1 X162.862 Y192.979 E28.92562
G1 X162.41 Y193.609 E28.95529
G1 X161.895 Y194.19 E28.985
G1 X161.027 Y194.946 E29.02906
G1 X160.929 Y195.019 E29.03373
G1 X160.284 Y195.449 E29.0634
G1 X159.598 Y195.811 E29.09308
G1 X158.879 Y196.101 E29.12275
G1 X158.133 Y196.315 E29.15245
G1 X157.369 Y196.451 E29.18215
G1 X156.213 Y196.506 E29.22644
G1 X61.224 Y193.711 E32.8632
G1 X60.451 Y193.648 E32.89288
G1 X59.688 Y193.506 E32.92258
G1 X58.944 Y193.286 E32.95227
G1 X58.227 Y192.991 E32.98194
G1 X57.524 Y192.612 E33.0125
G1 X57.447 Y192.565 E33.01596
G1 X56.807 Y192.127 E33.04564
G1 X56.215 Y191.626 E33.07531
G1 X55.678 Y191.067 E33.10498
G1 X55.201 Y190.455 E33.13467
G1 X54.851 Y189.905 E33.15962
G1 X7.719 Y108.27 E36.76706
G1 X7.366 Y107.579 E36.79676
G1 X7.087 Y106.855 E36.82645
G1 X6.883 Y106.107 E36.85612
G1 X6.757 Y105.341 E36.88583
G1 X6.711 Y104.507 E36.91779
G1 X6.711 Y104.413 E36.92139
G1 X6.751 Y103.638 E36.95109
G1 X6.87 Y102.872 E36.98075
G1 X7.068 Y102.122 E37.01044
G1 X7.342 Y101.396 E37.04014
G1 X7.719 Y100.651 E37.07209
G1 X57.561 Y14.32 E40.88702
G0 F1285.7 X57.864 Y14.495
G1 F900 X58.277 Y13.86 E40.91601
G1 X58.754 Y13.272 E40.94498
G1 X59.291 Y12.737 E40.97399
G1 X59.881 Y12.262 E41.00298
G1 X60.518 Y11.852 E41.03197
G1 X61.194 Y11.512 E41.06093
G1 X61.903 Y11.245 E41.08992
G1 X62.636 Y11.053 E41.11892
G1 X63.385 Y10.941 E41.1479
G1 X64.078 Y10.907 E41.17446
G1 X64.282 Y10.907 E41.18226
G1 X65.038 Y10.947 E41.21123
G1 X65.786 Y11.066 E41.24022
G1 X66.517 Y11.264 E41.2692
G1 X67.224 Y11.538 E41.29822
G1 X67.897 Y11.884 E41.32718
G1 X68.53 Y12.3 E41.35617
G1 X69.116 Y12.78 E41.38516
G1 X69.648 Y13.319 E41.41414
G1 X70.12 Y13.911 E41.44311
G1 X70.496 Y14.495 E41.4697
G1 X164.748 Y177.745 E48.68368
G1 X165.091 Y178.419 E48.71262
G1 X165.362 Y179.127 E48.74163
G1 X165.556 Y179.859 E48.77061
G1 X165.651 Y180.417 E48.79227
G1 X165.715 Y181.172 E48.82127
G1 X165.7 Y181.929 E48.85025
G1 X165.605 Y182.68 E48.87922
G1 X165.474 Y183.261 E48.90201
G1 X163.462 Y190.768 E49.19944
G1 X163.228 Y191.489 E49.22845
G1 X162.919 Y192.18 E49.25741
G1 X162.539 Y192.835 E49.28639
G1 X162.092 Y193.446 E49.31537
G1 X161.583 Y194.007 E49.34435
G1 X160.818 Y194.665 E49.38297
G1 X160.72 Y194.738 E49.38765
G1 X160.09 Y195.158 E49.41662
G1 X159.419 Y195.509 E49.4456
G1 X158.714 Y195.787 E49.47461
G1 X157.984 Y195.989 E49.50359
G1 X157.237 Y196.114 E49.53258
G1 X156.223 Y196.156 E49.57142
G1 X61.234 Y193.361 E53.20817
G1 X60.479 Y193.299 E53.23716
G1 X59.735 Y193.157 E53.26615
G1 X59.01 Y192.938 E53.29513
G1 X58.312 Y192.644 E53.32412
G1 X57.707 Y192.313 E53.35051
G1 X57.63 Y192.266 E53.35396
G1 X57.005 Y191.838 E53.38295
G1 X56.429 Y191.346 E53.41194
G1 X55.908 Y190.797 E53.44091
G1 X55.448 Y190.195 E53.4699
G1 X55.154 Y189.73 E53.49095
G1 X8.022 Y108.095 E57.09839
G1 X7.679 Y107.42 E57.12737
G1 X7.408 Y106.712 E57.15638
G1 X7.214 Y105.98 E57.18536
G1 X7.098 Y105.232 E57.21433
G1 X7.061 Y104.507 E57.24211
G1 X7.061 Y104.413 E57.24571
G1 X7.101 Y103.657 E57.27468
G1 X7.22 Y102.909 E57.30366
G1 X7.418 Y102.178 E57.33265
G1 X7.692 Y101.471 E57.36166
G1 X8.022 Y100.826 E57.38939
G1 X57.864 Y14.495 E61.20432
G0 F1285.7 X58.167 Y14.67
G1 F900 X58.571 Y14.051 E61.23261
G1 X59.039 Y13.479 E61.26089
G1 X59.566 Y12.962 E61.28914
G1 X60.145 Y12.504 E61.3174
G1 X60.771 Y12.112 E61.34566
G1 X61.436 Y11.789 E61.37396
G1 X62.131 Y11.541 E61.4022
G1 X62.85 Y11.368 E61.4305
G1 X63.582 Y11.275 E61.45873
G1 X64.282 Y11.257 E61.48553
G1 X65.02 Y11.297 E61.51382
G1 X65.748 Y11.416 E61.54205
G1 X66.46 Y11.614 E61.57033
G1 X67.146 Y11.887 E61.59858
G1 X67.799 Y12.233 E61.62687
G1 X68.411 Y12.647 E61.65514
G1 X68.974 Y13.125 E61.68341
G1 X69.482 Y13.661 E61.71167
G1 X69.929 Y14.249 E61.73993
G1 X70.193 Y14.67 E61.75895
G1 X164.445 Y177.92 E68.97293
G1 X164.779 Y178.578 E69.00117
G1 X165.04 Y179.269 E69.02944
G1 X165.225 Y179.984 E69.0577
G1 X165.304 Y180.465 E69.07636
G1 X165.366 Y181.201 E69.10462
G1 X165.348 Y181.94 E69.13291
G1 X165.25 Y182.672 E69.16118
G1 X165.136 Y183.171 E69.18077
G1 X163.124 Y190.678 E69.47819
G1 X162.895 Y191.38 E69.50645
G1 X162.591 Y192.053 E69.53471
G1 X162.216 Y192.689 E69.56297
G1 X161.774 Y193.282 E69.59127
G1 X161.271 Y193.822 E69.61952
G1 X160.609 Y194.384 E69.65275
G1 X160.511 Y194.457 E69.65742
G1 X159.896 Y194.866 E69.68569
G1 X159.24 Y195.206 E69.71397
G1 X158.551 Y195.472 E69.74223
G1 X157.837 Y195.663 E69.77052
G1 X157.107 Y195.776 E69.79879
G1 X156.233 Y195.806 E69.83225
G1 X61.244 Y193.011 E73.46901
G1 X60.508 Y192.949 E73.49728
G1 X59.783 Y192.809 E73.52553
G1 X59.077 Y192.59 E73.55382
G1 X58.4 Y192.297 E73.58205
G1 X57.889 Y192.015 E73.60439
G1 X57.812 Y191.968 E73.60784
G1 X57.203 Y191.549 E73.63613
G1 X56.643 Y191.067 E73.66441
G1 X56.139 Y190.528 E73.69265
G1 X55.696 Y189.937 E73.72091
G1 X55.457 Y189.555 E73.73816
G1 X8.325 Y107.92 E77.34559
G1 X7.991 Y107.261 E77.37387
G1 X7.73 Y106.57 E77.40214
G1 X7.545 Y105.855 E77.4304
G1 X7.439 Y105.124 E77.45867
G1 X7.411 Y104.507 E77.4823
G1 X7.411 Y104.413 E77.4859
G1 X7.451 Y103.675 E77.51419
G1 X7.57 Y102.947 E77.54242
G1 X7.768 Y102.235 E77.5707
G1 X8.041 Y101.549 E77.59895
G1 X8.325 Y101.001 E77.62257
G1 X58.167 Y14.67 E81.4375
G0 F1285.7 X58.47 Y14.845
G1 F900 X58.864 Y14.242 E81.46507
G1 X59.322 Y13.688 E81.49258
G1 X59.839 Y13.187 E81.52013
G1 X60.408 Y12.747 E81.54765
G1 X61.023 Y12.373 E81.5752
G1 X61.675 Y12.069 E81.60273
G1 X62.357 Y11.84 E81.63026
G1 X63.06 Y11.688 E81.65779
G1 X64.078 Y11.607 E81.69687
G1 X64.282 Y11.607 E81.70468
G1 X65 Y11.647 E81.7322
G1 X65.71 Y11.766 E81.75975
G1 X66.402 Y11.964 E81.78729
G1 X67.067 Y12.237 E81.8148
G1 X67.699 Y12.582 E81.84236
G1 X68.288 Y12.995 E81.86989
G1 X68.827 Y13.471 E81.89741
G1 X69.311 Y14.003 E81.92493
G1 X69.89 Y14.845 E81.96404
G1 X164.142 Y178.095 E89.17802
G1 X164.466 Y178.737 E89.20554
G1 X164.717 Y179.411 E89.23307
G1 X164.947 Y180.441 E89.27345
G1 X164.957 Y180.513 E89.27624
G1 X165.017 Y181.23 E89.30377
G1 X164.996 Y181.949 E89.3313
G1 X164.896 Y182.662 E89.35885
G1 X164.798 Y183.08 E89.37528
G1 X162.786 Y190.587 E89.67271
G1 X162.562 Y191.271 E89.70025
G1 X162.263 Y191.925 E89.72777
G1 X161.893 Y192.542 E89.75531
G1 X161.457 Y193.115 E89.78286
G1 X160.96 Y193.635 E89.81039
G1 X160.4 Y194.104 E89.83834
G1 X160.302 Y194.177 E89.84302
G1 X159.702 Y194.574 E89.87055
G1 X159.062 Y194.902 E89.89808
G1 X158.389 Y195.157 E89.92562
G1 X157.692 Y195.336 E89.95316
G1 X156.98 Y195.436 E89.98067
G1 X156.244 Y195.456 E90.00885
G1 X61.255 Y192.661 E93.64561
G1 X60.538 Y192.6 E93.67314
G1 X59.832 Y192.46 E93.70069
G1 X59.146 Y192.242 E93.72823
G1 X58.489 Y191.95 E93.75575
G1 X57.995 Y191.669 E93.7775
G1 X57.402 Y191.26 E93.80507
G1 X56.859 Y190.789 E93.83258
G1 X56.371 Y190.26 E93.86012
G1 X55.76 Y189.38 E93.90112
G1 X8.628 Y107.745 E97.50855
G1 X8.304 Y107.102 E97.53611
G1 X8.053 Y106.428 E97.56363
G1 X7.878 Y105.73 E97.59117
G1 X7.781 Y105.018 E97.61867
G1 X7.761 Y104.507 E97.63824
G1 X7.761 Y104.413 E97.64184
G1 X7.801 Y103.695 E97.66936
G1 X7.92 Y102.985 E97.69691
G1 X8.118 Y102.293 E97.72446
G1 X8.391 Y101.628 E97.75197
G1 X8.628 Y101.176 E97.7715
G1 X58.47 Y14.845 E101.58643
G0 F1285.7 X58.774 Y15.02
G1 F900 X59.157 Y14.435 E101.61319
G1 X59.606 Y13.897 E101.64
G1 X60.112 Y13.414 E101.66677
G1 X60.67 Y12.992 E101.69355
G1 X61.273 Y12.637 E101.72033
G1 X61.912 Y12.353 E101.74709
G1 X62.58 Y12.143 E101.77388
G1 X63.267 Y12.011 E101.80066
G1 X64.078 Y11.957 E101.83176
G1 X64.282 Y11.957 E101.83957
G1 X64.981 Y11.997 E101.86636
G1 X65.67 Y12.116 E101.89312
G1 X66.341 Y12.314 E101.91989
G1 X66.986 Y12.586 E101.94668
G1 X67.595 Y12.93 E101.97345
G1 X68.161 Y13.342 E102.00024
G1 X68.676 Y13.815 E102.027
G1 X69.134 Y14.344 E102.05378
G1 X69.586 Y15.02 E102.0849
G1 X163.838 Y178.27 E109.29888
G1 X164.153 Y178.894 E109.32563
G1 X164.394 Y179.551 E109.35241
G1 X164.601 Y180.489 E109.38917
G1 X164.611 Y180.561 E109.39196
G1 X164.667 Y181.259 E109.41875
G1 X164.644 Y181.958 E109.44552
G1 X164.46 Y182.99 E109.48564
G1 X162.448 Y190.497 E109.78306
G1 X162.229 Y191.161 E109.80982
G1 X161.935 Y191.796 E109.8366
G1 X161.571 Y192.393 E109.86336
G1 X161.141 Y192.945 E109.89014
G1 X160.65 Y193.445 E109.91696
G1 X160.191 Y193.823 E109.93971
G1 X160.093 Y193.896 E109.94439
G1 X159.509 Y194.281 E109.97116
G1 X158.885 Y194.597 E109.99793
G1 X158.228 Y194.84 E110.02473
G1 X157.549 Y195.007 E110.05149
G1 X156.855 Y195.095 E110.07826
G1 X156.254 Y195.106 E110.10127
G1 X61.265 Y192.311 E113.73802
G1 X60.568 Y192.251 E113.7648
G1 X59.882 Y192.111 E113.79159
G1 X59.217 Y191.894 E113.81836
G1 X58.581 Y191.603 E113.84513
G1 X58.177 Y191.37 E113.86298
G1 X57.601 Y190.972 E113.88977
G1 X57.075 Y190.511 E113.91654
G1 X56.605 Y189.993 E113.9433
G1 X56.064 Y189.205 E113.97988
G1 X8.932 Y107.57 E117.58732
G1 X8.617 Y106.945 E117.6141
G1 X8.376 Y106.288 E117.64089
G1 X8.211 Y105.608 E117.66766
G1 X8.124 Y104.913 E117.69447
G1 X8.111 Y104.413 E117.71361
G1 X8.151 Y103.714 E117.7404
G1 X8.27 Y103.025 E117.76716
G1 X8.468 Y102.354 E117.79394
G1 X8.74 Y101.709 E117.82072
G1 X8.932 Y101.351 E117.83627
G1 X58.774 Y15.02 E121.6512
G0 F1285.7 X59.077 Y15.195
G1 F900 X59.45 Y14.627 E121.67721
G1 X59.888 Y14.108 E121.7032
G1 X60.384 Y13.643 E121.72921
G1 X60.931 Y13.24 E121.75522
G1 X61.521 Y12.904 E121.7812
G1 X62.147 Y12.639 E121.80721
G1 X62.8 Y12.45 E121.83323
G1 X63.47 Y12.339 E121.85922
G1 X64.078 Y12.307 E121.88252
G1 X64.282 Y12.307 E121.89033
G1 X64.96 Y12.347 E121.91632
G1 X65.629 Y12.466 E121.94232
G1 X66.279 Y12.663 E121.96832
G1 X66.902 Y12.935 E121.99433
G1 X67.488 Y13.279 E122.02033
G1 X68.03 Y13.689 E122.04634
G1 X68.52 Y14.159 E122.07233
G1 X68.951 Y14.684 E122.09832
G1 X69.283 Y15.195 E122.12164
G1 X163.535 Y178.445 E129.33562
G1 X163.84 Y179.052 E129.36162
G1 X164.071 Y179.691 E129.38762
G1 X164.254 Y180.538 E129.42079
G1 X164.264 Y180.61 E129.42357
G1 X164.318 Y181.287 E129.44956
G1 X164.292 Y181.966 E129.47556
G1 X164.122 Y182.899 E129.51186
G1 X162.11 Y190.406 E129.80929
G1 X161.896 Y191.051 E129.83529
G1 X161.608 Y191.666 E129.86128
G1 X161.249 Y192.243 E129.88729
G1 X160.825 Y192.774 E129.91329
G1 X160.342 Y193.251 E129.93927
G1 X159.884 Y193.615 E129.96166
G1 X159.316 Y193.988 E129.98767
G1 X158.708 Y194.292 E130.01368
G1 X158.069 Y194.523 E130.03968
G1 X157.407 Y194.676 E130.06568
G1 X156.732 Y194.751 E130.09168
G1 X156.264 Y194.757 E130.10959
G1 X61.275 Y191.962 E133.74634
G1 X60.598 Y191.902 E133.77235
G1 X59.933 Y191.763 E133.79835
G1 X59.289 Y191.547 E133.82435
G1 X58.436 Y191.118 E133.86089
G1 X58.359 Y191.071 E133.86434
G1 X57.801 Y190.684 E133.89033
G1 X57.292 Y190.233 E133.91635
G1 X56.84 Y189.727 E133.94232
G1 X56.367 Y189.03 E133.97455
G1 X9.235 Y107.395 E137.58199
G1 X8.93 Y106.787 E137.60802
G1 X8.699 Y106.148 E137.63403
G1 X8.545 Y105.487 E137.66
G1 X8.461 Y104.507 E137.69764
G1 X8.461 Y104.413 E137.70124
G1 X8.501 Y103.735 E137.72723
G1 X8.62 Y103.066 E137.75324
G1 X8.817 Y102.416 E137.77923
G1 X9.235 Y101.526 E137.81686
G1 X59.077 Y15.195 E141.63179
G0 F1285.7 X59.38 Y15.37
G1 F900 X59.743 Y14.82 E141.65701
G1 X60.17 Y14.319 E141.6822
G1 X60.655 Y13.873 E141.70741
G1 X61.19 Y13.49 E141.73259
G1 X61.768 Y13.174 E141.7578
G1 X62.379 Y12.93 E141.78298
G1 X63.016 Y12.762 E141.80819
G1 X63.668 Y12.672 E141.83338
G1 X64.282 Y12.657 E141.85689
G1 X64.939 Y12.697 E141.88207
G1 X65.587 Y12.816 E141.90729
G1 X66.215 Y13.013 E141.93248
G1 X66.815 Y13.285 E141.95769
G1 X67.378 Y13.627 E141.9829
G1 X67.895 Y14.035 E142.0081
G1 X68.358 Y14.502 E142.03327
G1 X68.762 Y15.023 E142.0585
G1 X68.98 Y15.37 E142.07418
G1 X163.232 Y178.62 E149.28816
G1 X163.526 Y179.209 E149.31336
G1 X163.747 Y179.829 E149.33855
G1 X163.907 Y180.586 E149.36816
G1 X163.917 Y180.658 E149.37094
G1 X163.968 Y181.314 E149.39612
G1 X163.939 Y181.972 E149.42132
G1 X163.784 Y182.808 E149.45386
G1 X161.772 Y190.315 E149.75129
G1 X161.563 Y190.94 E149.77651
G1 X161.28 Y191.535 E149.80173
G1 X160.928 Y192.091 E149.82691
G1 X160.51 Y192.6 E149.85212
G1 X160.034 Y193.054 E149.87729
