;FLAVOR:Marlin
;TIME:10241
;Filament used: 13.9043m
;Layer height: 0.3
;MINX:-76.241
;MINY:-62.746
;MINZ:0.26
;MAXX:74.024
;MAXY:51.585
;MAXZ:30.26
;Generated with Cura_SteamEngine 4.9.1
M82 ;absolute extrusion mode
;Gcode by Cura
G90
G28
M107
M109 R100
G30
M109 S215 U-55 X55 V-85 Y-85 W0.26 Z0.26
M82
G92 E0
G1 F200 E6
G92 E0
G1 F200 E-3.5
G0 Z0.15
G0 X10
G0 Z3
G1 F6000
G92 E0
G92 E0
G1 F3600 E-3.8
;LAYER_COUNT:101
;LAYER:0
M107
G0 F2040 X-.718 Y40.305 Z0.26
;TYPE:SKIRT
G1 F3600 E0
G1 F1020 X-3.428 Y40.332 E0.10372
G1 X-6.138 Y40.436 E0.2075
G1 X-8.839 Y40.616 E0.3111
G1 X-11.503 Y40.869 E0.41351
G1 X-14.172 Y41.2 E0.51643
G1 X-16.87 Y41.611 E0.62087
G1 X-19.493 Y42.088 E0.7229
G1 X-22.132 Y42.644 E0.82611
G1 X-24.776 Y43.281 E0.93019
G1 X-27.387 Y43.988 E1.03371
G1 X-29.97 Y44.767 E1.13696
G1 X-32.53 Y45.618 E1.2402
G1 X-35.03 Y46.529 E1.34203
G1 X-37.583 Y47.542 E1.44714
G1 X-40.058 Y48.606 E1.55024
G1 X-42.486 Y49.732 E1.65266
G1 X-43.202 Y50.091 E1.68331
G1 X-44.478 Y50.712 E1.73762
G1 X-45.038 Y50.94 E1.76076
G1 X-45.526 Y51.073 E1.78012
G1 X-45.587 Y51.086 E1.7825
G1 X-46.389 Y51.183 E1.81342
G1 X-46.782 Y51.194 E1.82847
G1 X-70.204 Y51.194 E2.72482
G1 X-70.862 Y51.184 E2.75
G1 X-71.464 Y51.135 E2.77311
G1 X-72.055 Y51.007 E2.79626
G1 X-72.624 Y50.802 E2.8194
G1 X-73.161 Y50.524 E2.84254
G1 X-73.685 Y50.154 E2.86709
G1 X-73.734 Y50.114 E2.86951
G1 X-74.176 Y49.702 E2.89264
G1 X-74.56 Y49.234 E2.9158
G1 X-74.879 Y48.721 E2.93892
G1 X-75.127 Y48.169 E2.96208
G1 X-75.298 Y47.623 E2.98398
G1 X-75.426 Y47.032 E3.00712
G1 X-75.475 Y46.43 E3.03023
G1 X-75.445 Y45.826 E3.05338
G1 X-75.334 Y45.231 E3.07654
G1 X-75.147 Y44.657 E3.09964
G1 X-74.881 Y44.104 E3.12313
G1 X-74.577 Y43.568 E3.14671
G1 X-73.772 Y42.188 E3.20785
G1 X-72.466 Y39.796 E3.31214
G1 X-71.256 Y37.421 E3.41415
G1 X-70.095 Y34.975 E3.51777
G1 X-69.005 Y32.497 E3.62137
G1 X-67.979 Y29.98 E3.72539
G1 X-67.044 Y27.483 E3.82743
G1 X-66.176 Y24.947 E3.93001
G1 X-65.362 Y22.33 E4.03489
G1 X-64.635 Y19.737 E4.13795
G1 X-63.972 Y17.092 E4.2423
G1 X-63.403 Y14.503 E4.34375
G1 X-62.893 Y11.827 E4.448
G1 X-62.466 Y9.185 E4.55042
G1 X-62.111 Y6.516 E4.65346
G1 X-61.829 Y3.802 E4.75788
G1 X-61.627 Y1.128 E4.86051
G1 X-61.499 Y-1.585 E4.96445
G1 X-61.448 Y-4.257 E5.06672
G1 X-61.474 Y-6.967 E5.17044
G1 X-61.577 Y-9.681 E5.27438
G1 X-61.753 Y-12.348 E5.37666
G1 X-62.007 Y-15.043 E5.48026
G1 X-62.34 Y-17.744 E5.58441
G1 X-62.741 Y-20.378 E5.68637
G1 X-63.228 Y-23.068 E5.79099
G1 X-63.77 Y-25.647 E5.89184
G1 X-64.412 Y-28.319 E5.99701
G1 X-65.118 Y-30.931 E6.10055
G1 X-65.887 Y-33.486 E6.20267
G1 X-66.753 Y-36.094 E6.30783
G1 X-67.66 Y-38.585 E6.40928
G1 X-68.661 Y-41.115 E6.51341
G1 X-69.722 Y-43.586 E6.61632
G1 X-70.863 Y-46.05 E6.72024
G1 X-72.057 Y-48.447 E6.82272
G1 X-73.335 Y-50.842 E6.92661
G1 X-74.685 Y-53.207 E7.03082
G1 X-75.585 Y-54.702 E7.0976
G1 X-75.862 Y-55.239 E7.12073
G1 X-76.066 Y-55.809 E7.14389
G1 X-76.193 Y-56.4 E7.16703
G1 X-76.241 Y-57.003 E7.19018
G1 X-76.208 Y-57.606 E7.21329
G1 X-76.111 Y-58.147 E7.23432
G1 X-76.049 Y-58.401 E7.24433
G1 X-75.867 Y-58.978 E7.26748
G1 X-75.61 Y-59.525 E7.29061
G1 X-75.284 Y-60.034 E7.31374
G1 X-74.893 Y-60.496 E7.33691
G1 X-74.445 Y-60.902 E7.36004
G1 X-73.948 Y-61.245 E7.38315
G1 X-73.409 Y-61.52 E7.40631
G1 X-72.839 Y-61.721 E7.42944
G1 X-72.247 Y-61.846 E7.4526
G1 X-71.682 Y-61.89 E7.47428
G1 X-70.788 Y-61.905 E7.5085
G1 X-47.936 Y-61.905 E8.38304
G1 X-47.235 Y-61.895 E8.40987
G1 X-46.632 Y-61.846 E8.43302
G1 X-46.127 Y-61.742 E8.45275
G1 X-46.078 Y-61.729 E8.45469
G1 X-45.233 Y-61.413 E8.48921
G1 X-43.98 Y-60.797 E8.54265
G1 X-41.519 Y-59.632 E8.64685
G1 X-39.027 Y-58.539 E8.75099
G1 X-36.544 Y-57.531 E8.85354
G1 X-34.023 Y-56.589 E8.95653
G1 X-31.444 Y-55.709 E9.06082
G1 X-28.87 Y-54.912 E9.16394
G1 X-26.292 Y-54.192 E9.26637
G1 X-23.64 Y-53.529 E9.37099
G1 X-21.015 Y-52.956 E9.47381
G1 X-18.368 Y-52.454 E9.57691
G1 X-15.711 Y-52.027 E9.6799
G1 X-13.029 Y-51.674 E9.78343
G1 X-10.33 Y-51.396 E9.88726
G1 X-7.659 Y-51.197 E9.98976
G1 X-4.955 Y-51.073 E10.09335
G1 X-2.277 Y-51.025 E10.19585
G1 X0.432 Y-51.053 E10.29953
G1 X3.141 Y-51.159 E10.40328
G1 X5.849 Y-51.341 E10.50715
G1 X8.51 Y-51.595 E10.60945
G1 X11.198 Y-51.929 E10.71311
G1 X13.85 Y-52.336 E10.81579
G1 X16.533 Y-52.824 E10.92015
G1 X19.128 Y-53.372 E11.02165
G1 X21.763 Y-54.009 E11.12539
G1 X24.392 Y-54.722 E11.22964
G1 X26.98 Y-55.503 E11.33309
G1 X29.522 Y-56.35 E11.43563
G1 X32.063 Y-57.278 E11.53916
G1 X34.571 Y-58.274 E11.64243
G1 X37.071 Y-59.351 E11.7466
G1 X39.472 Y-60.466 E11.84791
G1 X42.278 Y-61.873 E11.96804
G1 X42.914 Y-62.205 E11.9955
G1 X43.467 Y-62.448 E12.01861
G1 X44.062 Y-62.62 E12.04231
G1 X44.122 Y-62.633 E12.04466
G1 X44.939 Y-62.734 E12.07617
G1 X45.332 Y-62.745 E12.09121
G1 X68.75 Y-62.746 E12.98741
G1 X69.448 Y-62.736 E13.01412
G1 X70.05 Y-62.687 E13.03724
G1 X70.641 Y-62.559 E13.06038
G1 X71.21 Y-62.355 E13.08351
G1 X71.747 Y-62.077 E13.10665
G1 X72.243 Y-61.731 E13.1298
G1 X72.689 Y-61.322 E13.15296
G1 X73.077 Y-60.859 E13.17607
G1 X73.4 Y-60.348 E13.19921
G1 X73.654 Y-59.799 E13.22236
G1 X73.848 Y-59.175 E13.24737
G1 X73.976 Y-58.584 E13.27051
G1 X74.024 Y-57.981 E13.29366
G1 X73.994 Y-57.377 E13.3168
G1 X73.883 Y-56.783 E13.33993
G1 X73.695 Y-56.208 E13.36308
G1 X73.368 Y-55.55 E13.3912
G1 X72.909 Y-54.789 E13.42521
G1 X71.553 Y-52.465 E13.52818
G1 X70.26 Y-50.1 E13.63133
G1 X69.034 Y-47.697 E13.73457
G1 X67.858 Y-45.22 E13.8395
G1 X66.792 Y-42.802 E13.94063
G1 X65.744 Y-40.234 E14.04678
G1 X64.826 Y-37.778 E14.14712
G1 X63.938 Y-35.19 E14.25183
G1 X63.141 Y-32.632 E14.35436
G1 X62.407 Y-30.017 E14.45831
G1 X61.75 Y-27.397 E14.56168
G1 X61.163 Y-24.742 E14.66574
G1 X60.664 Y-22.121 E14.76784
G1 X60.233 Y-19.46 E14.871
G1 X59.876 Y-16.774 E14.9747
G1 X59.597 Y-14.108 E15.07728
G1 X59.392 Y-11.407 E15.18095
G1 X59.264 Y-8.697 E15.28477
G1 X59.211 Y-6.022 E15.38716
G1 X59.236 Y-3.312 E15.49088
G1 X59.338 Y-.6 E15.59474
G1 X59.513 Y2.068 E15.69706
G1 X59.767 Y4.762 E15.80062
G1 X60.099 Y7.463 E15.90476
G1 X60.498 Y10.099 E16.00679
G1 X60.982 Y12.774 E16.11082
G1 X61.531 Y15.389 E16.21308
G1 X62.16 Y18.017 E16.31649
G1 X62.874 Y20.661 E16.4213
G1 X63.642 Y23.218 E16.52347
G1 X64.488 Y25.765 E16.62618
G1 X65.42 Y28.335 E16.7308
G1 X66.41 Y30.835 E16.8337
G1 X67.477 Y33.321 E16.93724
G1 X68.603 Y35.758 E17.03997
G1 X69.805 Y38.172 E17.14317
G1 X71.088 Y40.579 E17.24756
G1 X72.411 Y42.9 E17.3498
G1 X73.303 Y44.381 E17.41596
G1 X73.58 Y44.918 E17.43908
G1 X73.783 Y45.488 E17.46224
G1 X73.91 Y46.079 E17.48537
G1 X73.958 Y46.682 E17.50852
G1 X73.925 Y47.286 E17.53167
G1 X73.825 Y47.833 E17.55295
G1 X73.762 Y48.089 E17.56304
G1 X73.579 Y48.666 E17.58621
G1 X73.322 Y49.213 E17.60934
G1 X72.995 Y49.721 E17.63246
G1 X72.603 Y50.182 E17.65562
G1 X72.155 Y50.587 E17.67873
G1 X71.656 Y50.93 E17.7019
G1 X71.117 Y51.203 E17.72502
G1 X70.547 Y51.404 E17.74815
G1 X69.955 Y51.527 E17.77129
G1 X69.399 Y51.57 E17.79263
G1 X68.505 Y51.585 E17.82685
G1 X45.653 Y51.585 E18.70139
G1 X44.954 Y51.575 E18.72814
G1 X44.351 Y51.526 E18.75129
G1 X43.785 Y51.406 E18.77343
G1 X43.735 Y51.392 E18.77542
G1 X42.963 Y51.098 E18.80703
G1 X42.438 Y50.841 E18.8294
G1 X40.938 Y50.078 E18.89381
G1 X38.517 Y48.931 E18.99633
G1 X36.046 Y47.844 E19.09964
G1 X33.547 Y46.828 E19.20288
G1 X31.024 Y45.885 E19.30596
G1 X28.456 Y45.007 E19.40982
G1 X25.887 Y44.208 E19.51278
G1 X23.272 Y43.477 E19.61669
G1 X20.65 Y42.822 E19.72011
G1 X18.046 Y42.251 E19.82214
G1 X15.374 Y41.743 E19.92622
G1 X12.686 Y41.31 E20.03042
G1 X10.065 Y40.963 E20.1316
G1 X7.337 Y40.681 E20.23655
G1 X4.662 Y40.48 E20.33921
G1 X1.961 Y40.355 E20.44269
G1 X-.718 Y40.305 E20.54523
G0 F2040 X-.716 Y39.955
G1 F1020 X-3.445 Y39.982 E20.64967
G1 X-6.138 Y40.085 E20.75281
G1 X-8.863 Y40.267 E20.85733
G1 X-11.541 Y40.522 E20.96028
G1 X-14.229 Y40.855 E21.06393
G1 X-16.915 Y41.265 E21.16791
G1 X-19.594 Y41.751 E21.27211
G1 X-22.185 Y42.297 E21.37344
G1 X-24.882 Y42.947 E21.47961
G1 X-27.47 Y43.648 E21.58222
G1 X-30.076 Y44.434 E21.68639
G1 X-32.617 Y45.279 E21.78887
G1 X-35.21 Y46.223 E21.89447
G1 X-37.708 Y47.214 E21.99732
G1 X-40.171 Y48.274 E22.09994
G1 X-42.646 Y49.422 E22.20435
G1 X-43.355 Y49.776 E22.23467
G1 X-44.631 Y50.397 E22.28898
G1 X-45.17 Y50.615 E22.31123
G1 X-45.66 Y50.743 E22.33061
G1 X-46.401 Y50.834 E22.35918
G1 X-46.782 Y50.844 E22.37377
G1 X-70.198 Y50.845 E23.26989
G1 X-70.856 Y50.835 E23.29507
G1 X-71.435 Y50.786 E23.31731
G1 X-72.002 Y50.658 E23.33955
G1 X-72.546 Y50.454 E23.36179
G1 X-73.057 Y50.177 E23.38403
G1 X-73.464 Y49.883 E23.40325
G1 X-73.513 Y49.843 E23.40567
G1 X-73.937 Y49.445 E23.42792
G1 X-74.302 Y48.994 E23.45013
G1 X-74.602 Y48.496 E23.47238
G1 X-74.902 Y47.736 E23.50364
G1 X-74.962 Y47.527 E23.51197
G1 X-75.084 Y46.959 E23.5342
G1 X-75.126 Y46.379 E23.55645
G1 X-75.089 Y45.799 E23.57869
G1 X-74.972 Y45.23 E23.60093
G1 X-74.778 Y44.682 E23.62317
G1 X-74.576 Y44.277 E23.64049
G1 X-74.247 Y43.696 E23.66604
G1 X-73.453 Y42.335 E23.72634
G1 X-72.174 Y39.992 E23.8285
G1 X-70.935 Y37.559 E23.93299
G1 X-69.765 Y35.096 E24.03734
G1 X-68.693 Y32.658 E24.13926
G1 X-67.664 Y30.135 E24.24354
G1 X-66.702 Y27.565 E24.34855
G1 X-65.835 Y25.032 E24.45101
G1 X-65.033 Y22.451 E24.55445
G1 X-64.303 Y19.849 E24.65787
G1 X-63.627 Y17.15 E24.76435
G1 X-63.061 Y14.575 E24.86524
G1 X-62.552 Y11.907 E24.96919
G1 X-62.117 Y9.217 E25.07347
G1 X-61.76 Y6.529 E25.17724
G1 X-61.483 Y3.862 E25.27986
G1 X-61.277 Y1.136 E25.38448
G1 X-61.149 Y-1.562 E25.48784
G1 X-61.098 Y-4.253 E25.59085
G1 X-61.124 Y-6.984 E25.69536
G1 X-61.227 Y-9.682 E25.79869
G1 X-61.406 Y-12.405 E25.90312
G1 X-61.659 Y-15.084 E26.0061
G1 X-61.99 Y-17.765 E26.10948
G1 X-62.4 Y-20.464 E26.21396
G1 X-62.876 Y-23.093 E26.3162
G1 X-63.438 Y-25.766 E26.42073
G1 X-64.066 Y-28.382 E26.52369
G1 X-64.777 Y-31.013 E26.62799
G1 X-65.567 Y-33.639 E26.73294
G1 X-66.413 Y-36.182 E26.8355
G1 X-67.337 Y-38.723 E26.93897
G1 X-68.333 Y-41.24 E27.04256
G1 X-69.402 Y-43.729 E27.14623
G1 X-70.538 Y-46.182 E27.24968
G1 X-71.755 Y-48.626 E27.35417
G1 X-73.02 Y-50.995 E27.45694
G1 X-74.385 Y-53.387 E27.56234
G1 X-75.285 Y-54.882 E27.62912
G1 X-75.55 Y-55.4 E27.65139
G1 X-75.742 Y-55.948 E27.67361
G1 X-75.856 Y-56.518 E27.69586
G1 X-75.891 Y-57.098 E27.71809
G1 X-75.846 Y-57.677 E27.74032
G1 X-75.708 Y-58.318 E27.76541
G1 X-75.532 Y-58.872 E27.78766
G1 X-75.282 Y-59.396 E27.80987
G1 X-74.962 Y-59.881 E27.83211
G1 X-74.578 Y-60.317 E27.85435
G1 X-74.138 Y-60.697 E27.87659
G1 X-73.65 Y-61.012 E27.89882
G1 X-73.124 Y-61.258 E27.92105
G1 X-72.569 Y-61.429 E27.94327
G1 X-71.995 Y-61.523 E27.96553
G1 X-71.676 Y-61.54 E27.97775
G1 X-70.788 Y-61.555 E28.01174
G1 X-47.941 Y-61.555 E28.88609
G1 X-47.24 Y-61.545 E28.91292
G1 X-46.661 Y-61.496 E28.93515
G1 X-46.168 Y-61.391 E28.95444
G1 X-45.388 Y-61.099 E28.98632
G1 X-44.157 Y-60.494 E29.03881
G1 X-41.639 Y-59.302 E29.14542
G1 X-39.188 Y-58.227 E29.24785
G1 X-36.656 Y-57.199 E29.35243
G1 X-34.127 Y-56.255 E29.45573
G1 X-31.582 Y-55.386 E29.55865
G1 X-28.967 Y-54.576 E29.66342
G1 X-26.361 Y-53.847 E29.76698
G1 X-23.731 Y-53.191 E29.87071
G1 X-21.086 Y-52.614 E29.97431
G1 X-18.42 Y-52.108 E30.07816
G1 X-15.773 Y-51.682 E30.18076
G1 X-13.076 Y-51.327 E30.28487
G1 X-10.357 Y-51.047 E30.38947
G1 X-7.701 Y-50.849 E30.4914
G1 X-4.942 Y-50.722 E30.59709
G1 X-2.279 Y-50.675 E30.69902
G1 X0.449 Y-50.703 E30.80343
G1 X3.176 Y-50.81 E30.90787
G1 X5.835 Y-50.989 E31.00986
G1 X8.552 Y-51.248 E31.11431
G1 X11.259 Y-51.585 E31.2187
G1 X13.897 Y-51.989 E31.32083
G1 X16.593 Y-52.48 E31.42571
G1 X19.214 Y-53.033 E31.52822
G1 X21.86 Y-53.672 E31.63239
G1 X24.484 Y-54.384 E31.73644
G1 X27.092 Y-55.171 E31.84069
G1 X29.642 Y-56.021 E31.94356
G1 X32.17 Y-56.944 E32.04655
G1 X34.739 Y-57.964 E32.15233
G1 X37.172 Y-59.012 E32.25371
G1 X39.646 Y-60.162 E32.35812
G1 X42.457 Y-61.571 E32.47845
G1 X43.076 Y-61.894 E32.50517
G1 X43.608 Y-62.127 E32.5274
G1 X44.136 Y-62.278 E32.54841
G1 X44.196 Y-62.291 E32.55076
G1 X44.951 Y-62.385 E32.57988
G1 X45.332 Y-62.395 E32.59447
G1 X68.745 Y-62.396 E33.49047
G1 X69.443 Y-62.386 E33.51719
G1 X70.022 Y-62.337 E33.53942
G1 X70.588 Y-62.21 E33.56162
G1 X71.133 Y-62.006 E33.58389
G1 X71.644 Y-61.73 E33.60612
G1 X72.112 Y-61.386 E33.62835
G1 X72.528 Y-60.981 E33.65056
G1 X72.886 Y-60.522 E33.67284
G1 X73.176 Y-60.019 E33.69506
G1 X73.395 Y-59.481 E33.71729
G1 X73.511 Y-59.078 E33.73334
G1 X73.633 Y-58.51 E33.75557
G1 X73.675 Y-57.931 E33.77779
G1 X73.637 Y-57.351 E33.80003
G1 X73.521 Y-56.782 E33.82226
G1 X73.327 Y-56.234 E33.8445
G1 X73.068 Y-55.731 E33.86615
G1 X72.609 Y-54.97 E33.90016
G1 X71.258 Y-52.654 E34.00277
G1 X69.932 Y-50.227 E34.10861
G1 X68.718 Y-47.85 E34.21076
G1 X67.554 Y-45.398 E34.31463
G1 X66.468 Y-42.932 E34.41775
G1 X65.417 Y-40.359 E34.52411
G1 X64.494 Y-37.892 E34.62492
G1 X63.609 Y-35.308 E34.72944
G1 X62.802 Y-32.72 E34.83319
G1 X62.063 Y-30.087 E34.93785
G1 X61.412 Y-27.49 E35.04031
G1 X60.822 Y-24.821 E35.14492
G1 X60.323 Y-22.201 E35.24698
G1 X59.884 Y-19.493 E35.35197
G1 X59.529 Y-16.821 E35.45513
G1 X59.248 Y-14.136 E35.55844
G1 X59.041 Y-11.413 E35.66295
G1 X58.914 Y-8.721 E35.76608
G1 X58.861 Y-6.026 E35.86924
G1 X58.887 Y-3.296 E35.97372
G1 X58.988 Y-.599 E36.07701
G1 X59.166 Y2.121 E36.18132
G1 X59.418 Y4.802 E36.28438
G1 X59.749 Y7.488 E36.38794
G1 X60.152 Y10.15 E36.49098
G1 X60.637 Y12.834 E36.59536
G1 X61.198 Y15.501 E36.69966
G1 X61.816 Y18.088 E36.80145
G1 X62.536 Y20.752 E36.90705
G1 X63.307 Y23.319 E37.00963
G1 X64.162 Y25.895 E37.1135
G1 X65.098 Y28.472 E37.21842
G1 X66.088 Y30.973 E37.32136
G1 X67.145 Y33.437 E37.42397
G1 X68.287 Y35.907 E37.52811
G1 X69.503 Y38.35 E37.63254
G1 X70.773 Y40.732 E37.73584
G1 X72.111 Y43.079 E37.83923
G1 X73.003 Y44.561 E37.90543
G1 X73.268 Y45.079 E37.9277
G1 X73.459 Y45.627 E37.94991
G1 X73.573 Y46.197 E37.97215
G1 X73.608 Y46.777 E37.99439
G1 X73.563 Y47.356 E38.01661
G1 X73.423 Y48.006 E38.04206
G1 X73.245 Y48.559 E38.06429
G1 X72.994 Y49.083 E38.08653
G1 X72.673 Y49.567 E38.10875
G1 X72.288 Y50.003 E38.13101
G1 X71.848 Y50.381 E38.15321
G1 X71.359 Y50.696 E38.17547
G1 X70.832 Y50.941 E38.19771
G1 X70.277 Y51.111 E38.21993
G1 X69.703 Y51.204 E38.24218
G1 X69.393 Y51.22 E38.25406
G1 X68.505 Y51.235 E38.28805
G1 X45.658 Y51.235 E39.16239
G1 X44.959 Y51.225 E39.18914
G1 X44.38 Y51.176 E39.21138
G1 X43.88 Y51.069 E39.23095
G1 X43.83 Y51.055 E39.23294
G1 X43.116 Y50.783 E39.26218
G1 X42.597 Y50.529 E39.28429
G1 X41.105 Y49.769 E39.34837
G1 X38.666 Y48.614 E39.45164
G1 X36.176 Y47.52 E39.55573
G1 X33.671 Y46.501 E39.65922
G1 X31.149 Y45.557 E39.76228
G1 X28.563 Y44.673 E39.86686
G1 X25.984 Y43.872 E39.97021
G1 X23.375 Y43.142 E40.07389
G1 X20.709 Y42.476 E40.17905
G1 X18.118 Y41.908 E40.28056
G1 X15.42 Y41.396 E40.38566
G1 X12.753 Y40.966 E40.48904
G1 X10.112 Y40.616 E40.59099
G1 X7.364 Y40.332 E40.69672
G1 X4.669 Y40.13 E40.80014
G1 X1.983 Y40.005 E40.90305
G1 X-.716 Y39.955 E41.00635
G0 F2040 X-.712 Y39.605
G1 F1020 X-3.462 Y39.633 E41.1116
G1 X-6.174 Y39.736 E41.21546
G1 X-8.85 Y39.914 E41.3181
G1 X-11.582 Y40.175 E41.42313
G1 X-14.29 Y40.51 E41.52755
G1 X-16.962 Y40.918 E41.63099
G1 X-19.653 Y41.407 E41.73566
G1 X-22.295 Y41.963 E41.83898
G1 X-24.953 Y42.603 E41.94361
G1 X-27.555 Y43.308 E42.04678
G1 X-30.177 Y44.099 E42.15159
G1 X-32.748 Y44.953 E42.25527
G1 X-35.317 Y45.889 E42.3599
G1 X-37.829 Y46.886 E42.46333
G1 X-40.344 Y47.967 E42.56809
G1 X-42.794 Y49.104 E42.67146
G1 X-43.508 Y49.461 E42.70201
G1 X-44.784 Y50.082 E42.75631
G1 X-45.301 Y50.289 E42.77763
G1 X-45.733 Y50.401 E42.79471
G1 X-46.412 Y50.484 E42.82088
G1 X-46.782 Y50.494 E42.83505
G1 X-70.193 Y50.495 E43.73098
G1 X-70.851 Y50.485 E43.75616
G1 X-71.405 Y50.436 E43.77745
G1 X-71.947 Y50.309 E43.79875
G1 X-72.465 Y50.105 E43.82005
G1 X-72.948 Y49.83 E43.84133
G1 X-73.291 Y49.572 E43.85775
G1 X-73.696 Y49.19 E43.87906
G1 X-74.042 Y48.754 E43.90036
G1 X-74.322 Y48.273 E43.92166
G1 X-74.566 Y47.639 E43.94765
G1 X-74.626 Y47.43 E43.95598
G1 X-74.74 Y46.886 E43.97725
G1 X-74.776 Y46.331 E43.99853
G1 X-74.732 Y45.776 E44.01984
