;FLAVOR:Marlin
;TIME:7202
;Filament used: 10.0013m
;Layer height: 0.3
;MINX:-48.655
;MINY:-85.618
;MINZ:0.26
;MAXX:47.956
;MAXY:83.466
;MAXZ:2.96
;Generated with Cura_SteamEngine 4.9.1
M82 ;absolute extrusion mode
;Gcode by Cura
G90
G28
M107
M109 R100
G30
M109 S215 U-55 X55 V-85 Y-85 W0.26 Z0.26
M82
G92 E0
G1 F200 E6
G92 E0
G1 F200 E-3.5
G0 Z0.15
G0 X10
G0 Z3
G1 F6000
G92 E0
G92 E0
G1 F3600 E-3.8
;LAYER_COUNT:10
;LAYER:0
M107
G0 F2040 X-39.201 Y0.042 Z0.26
;TYPE:SKIRT
G1 F3600 E0
G1 F1020 X-39.121 Y-2.664 E0.1036
G1 X-39.116 Y-5.378 E0.20747
G1 X-39.187 Y-8.052 E0.30983
G1 X-39.336 Y-10.758 E0.41355
G1 X-39.558 Y-13.43 E0.51616
G1 X-39.863 Y-16.154 E0.62106
G1 X-40.233 Y-18.787 E0.72281
G1 X-40.629 Y-21.148 E0.81443
G1 X-40.692 Y-21.499 E0.82807
G1 X-40.784 Y-22.045 E0.84926
G1 X-41.304 Y-24.692 E0.9525
G1 X-41.901 Y-27.33 E1.05601
G1 X-42.566 Y-29.92 E1.15834
G1 X-43.312 Y-32.524 E1.262
G1 X-44.134 Y-35.115 E1.36603
G1 X-44.978 Y-37.537 E1.46418
G1 X-45.146 Y-38.004 E1.48318
G1 X-45.313 Y-38.586 E1.50635
G1 X-45.401 Y-39.184 E1.52948
G1 X-45.415 Y-39.629 E1.54652
G1 X-45.403 Y-40.361 E1.57454
G1 X-44.61 Y-65.585 E2.54032
G1 X-44.578 Y-66.268 E2.56649
G1 X-44.472 Y-67.055 E2.59688
G1 X-44.302 Y-67.636 E2.62005
G1 X-44.145 Y-68.013 E2.63567
G1 X-43.526 Y-69.325 E2.69119
G1 X-43.332 Y-69.725 E2.70821
G1 X-42.201 Y-72.231 E2.81342
G1 X-41.174 Y-74.691 E2.91544
G1 X-40.188 Y-77.248 E3.02032
G1 X-39.299 Y-79.777 E3.12291
G1 X-38.583 Y-81.994 E3.21207
G1 X-38.455 Y-82.405 E3.22854
G1 X-38.238 Y-82.97 E3.2517
G1 X-37.947 Y-83.5 E3.27484
G1 X-37.59 Y-83.988 E3.29798
G1 X-37.171 Y-84.424 E3.32112
G1 X-36.699 Y-84.801 E3.34424
G1 X-36.181 Y-85.113 E3.36738
G1 X-35.626 Y-85.353 E3.39052
G1 X-35.044 Y-85.519 E3.41368
G1 X-34.446 Y-85.606 E3.43681
G1 X-33.946 Y-85.618 E3.45595
G1 X-33.126 Y-85.592 E3.48735
G1 X-32.107 Y-85.543 E3.52639
G1 X-30.407 Y-85.435 E3.59158
G1 X-29.439 Y-85.359 E3.62874
G1 X-27.772 Y-85.2 E3.69282
G1 X-26.808 Y-85.093 E3.72994
G1 X-25.137 Y-84.882 E3.7944
G1 X-24.125 Y-84.737 E3.83352
G1 X-22.581 Y-84.491 E3.89335
G1 X-21.525 Y-84.307 E3.93438
G1 X-19.907 Y-83.998 E3.99742
G1 X-18.95 Y-83.799 E4.03482
G1 X-17.32 Y-83.434 E4.09875
G1 X-16.311 Y-83.191 E4.13846
G1 X-14.754 Y-82.791 E4.19999
G1 X-13.773 Y-82.521 E4.23892
G1 X-12.201 Y-82.064 E4.30157
G1 X-11.231 Y-81.765 E4.34042
G1 X-9.63 Y-81.245 E4.40484
G1 X-8.719 Y-80.932 E4.4417
G1 X-7.152 Y-80.367 E4.50545
G1 X-6.229 Y-80.019 E4.5432
G1 X-4.655 Y-79.395 E4.608
G1 X-3.722 Y-79.007 E4.64667
G1 X-2.27 Y-78.378 E4.70722
G1 X-1.305 Y-77.943 E4.74773
G1 X0.17 Y-77.248 E4.81013
G1 X1.097 Y-76.793 E4.84965
G1 X2.539 Y-76.057 E4.91161
G1 X3.449 Y-75.575 E4.95102
G1 X4.873 Y-74.792 E5.01321
G1 X5.753 Y-74.29 E5.05198
G1 X7.197 Y-73.434 E5.11622
G1 X8.055 Y-72.908 E5.15474
G1 X9.397 Y-72.056 E5.21557
G1 X10.322 Y-71.447 E5.25795
G1 X11.593 Y-70.583 E5.31677
G1 X12.491 Y-69.951 E5.35879
G1 X13.782 Y-69.012 E5.41988
G1 X14.597 Y-68.399 E5.45891
G1 X15.892 Y-67.394 E5.52164
G1 X16.719 Y-66.73 E5.56223
G1 X17.928 Y-65.729 E5.6223
G1 X18.736 Y-65.039 E5.66296
G1 X19.954 Y-63.964 E5.72513
G1 X20.723 Y-63.264 E5.76493
G1 X21.879 Y-62.177 E5.82565
G1 X22.618 Y-61.462 E5.86501
G1 X23.812 Y-60.267 E5.92965
G1 X24.518 Y-59.536 E5.96854
G1 X25.611 Y-58.372 E6.02965
G1 X26.308 Y-57.605 E6.06931
G1 X27.383 Y-56.384 E6.13157
G1 X28.071 Y-55.577 E6.17215
G1 X29.073 Y-54.366 E6.2323
G1 X29.735 Y-53.539 E6.27284
G1 X30.74 Y-52.243 E6.33561
G1 X31.35 Y-51.429 E6.37454
G1 X32.291 Y-50.134 E6.4358
G1 X32.921 Y-49.237 E6.47774
G1 X33.783 Y-47.967 E6.53649
G1 X34.394 Y-47.037 E6.57907
G1 X35.242 Y-45.698 E6.63972
G1 X35.767 Y-44.84 E6.67822
G1 X36.624 Y-43.39 E6.74268
G1 X37.122 Y-42.516 E6.78117
G1 X37.906 Y-41.089 E6.84348
G1 X38.387 Y-40.18 E6.88284
G1 X39.117 Y-38.744 E6.94449
G1 X39.596 Y-37.767 E6.98613
G1 X40.254 Y-36.365 E7.0454
G1 X40.685 Y-35.411 E7.08546
G1 X41.349 Y-33.874 E7.14954
G1 X41.719 Y-32.979 E7.1866
G1 X42.341 Y-31.406 E7.25133
G1 X42.692 Y-30.477 E7.28934
G1 X43.247 Y-28.933 E7.35213
G1 X43.565 Y-28.002 E7.38978
G1 X44.083 Y-26.405 E7.45403
G1 X44.382 Y-25.432 E7.49298
G1 X44.838 Y-23.863 E7.55551
G1 X45.107 Y-22.876 E7.59466
G1 X45.506 Y-21.32 E7.65614
G1 X45.747 Y-20.314 E7.69572
G1 X46.111 Y-18.684 E7.75964
G1 X46.309 Y-17.725 E7.79711
G1 X46.617 Y-16.105 E7.86022
G1 X46.797 Y-15.071 E7.90039
G1 X47.044 Y-13.504 E7.9611
G1 X47.191 Y-12.468 E8.00114
G1 X47.395 Y-10.843 E8.06382
G1 X47.506 Y-9.841 E8.1024
G1 X47.661 Y-8.197 E8.16559
G1 X47.742 Y-7.16 E8.2054
G1 X47.84 Y-5.596 E8.26537
G1 X47.889 Y-4.563 E8.30495
G1 X47.941 Y-2.865 E8.36996
G1 X47.956 Y-1.869 E8.40808
G1 X47.955 Y-.254 E8.46988
G1 X47.94 Y0.753 E8.50842
G1 X47.886 Y2.436 E8.57287
G1 X47.837 Y3.46 E8.6121
G1 X47.736 Y5.054 E8.67322
G1 X47.655 Y6.076 E8.71246
G1 X47.498 Y7.718 E8.77558
G1 X47.387 Y8.719 E8.81412
G1 X47.181 Y10.347 E8.87692
G1 X47.033 Y11.384 E8.91701
G1 X46.785 Y12.944 E8.97746
G1 X46.604 Y13.985 E9.0179
G1 X46.295 Y15.603 E9.08094
G1 X46.096 Y16.56 E9.11834
G1 X45.731 Y18.19 E9.18227
G1 X45.488 Y19.199 E9.22199
G1 X45.088 Y20.754 E9.28343
G1 X44.819 Y21.736 E9.3224
G1 X44.362 Y23.308 E9.38505
G1 X44.05 Y24.319 E9.42554
G1 X43.564 Y25.816 E9.48577
G1 X43.209 Y26.849 E9.52757
G1 X42.673 Y28.335 E9.58803
G1 X42.312 Y29.288 E9.62703
G1 X41.693 Y30.851 E9.69136
G1 X41.312 Y31.769 E9.7294
G1 X40.667 Y33.26 E9.79157
G1 X40.228 Y34.229 E9.83228
G1 X39.563 Y35.641 E9.89201
G1 X39.085 Y36.615 E9.93353
G1 X38.354 Y38.049 E9.99513
G1 X37.872 Y38.959 E10.03454
G1 X37.122 Y40.323 E10.09411
G1 X36.587 Y41.263 E10.1355
G1 X35.731 Y42.707 E10.19974
G1 X35.205 Y43.565 E10.23826
G1 X34.353 Y44.907 E10.29909
G1 X33.744 Y45.832 E10.34147
G1 X32.88 Y47.103 E10.40029
G1 X32.248 Y48.001 E10.44231
G1 X31.31 Y49.29 E10.50332
G1 X30.697 Y50.106 E10.54238
G1 X29.689 Y51.404 E10.60527
G1 X29.05 Y52.202 E10.64439
G1 X28.006 Y53.463 E10.70705
G1 X27.344 Y54.237 E10.74602
G1 X26.254 Y55.473 E10.80909
G1 X25.589 Y56.203 E10.84688
G1 X24.442 Y57.423 E10.91096
G1 X23.759 Y58.128 E10.94853
G1 X22.566 Y59.32 E11.01307
G1 X21.868 Y59.995 E11.05023
G1 X20.636 Y61.15 E11.11485
G1 X19.899 Y61.822 E11.15302
G1 X18.687 Y62.889 E11.21482
G1 X17.909 Y63.553 E11.25396
G1 X16.621 Y64.617 E11.3179
G1 X15.86 Y65.226 E11.3552
G1 X14.518 Y66.267 E11.4202
G1 X13.726 Y66.86 E11.45806
G1 X12.429 Y67.802 E11.5194
G1 X11.564 Y68.409 E11.55985
G1 X10.236 Y69.311 E11.62128
G1 X9.34 Y69.899 E11.6623
G1 X7.988 Y70.757 E11.72358
G1 X7.126 Y71.285 E11.76226
G1 X5.697 Y72.128 E11.82575
G1 X4.813 Y72.632 E11.8647
G1 X3.386 Y73.416 E11.92701
G1 X2.476 Y73.897 E11.9664
G1 X1.036 Y74.63 E12.02823
G1 X0.102 Y75.088 E12.06804
G1 X-1.372 Y75.78 E12.13036
G1 X-2.335 Y76.214 E12.17078
G1 X-3.785 Y76.841 E12.23124
G1 X-4.724 Y77.23 E12.27014
G1 X-6.3 Y77.853 E12.33499
G1 X-7.215 Y78.197 E12.3724
G1 X-8.785 Y78.762 E12.43626
G1 X-9.701 Y79.075 E12.4733
G1 X-11.298 Y79.594 E12.53756
G1 X-12.281 Y79.896 E12.57692
G1 X-13.82 Y80.342 E12.63824
G1 X-14.834 Y80.619 E12.67846
G1 X-16.383 Y81.016 E12.73966
G1 X-17.411 Y81.262 E12.78011
G1 X-18.975 Y81.612 E12.84145
G1 X-20.041 Y81.832 E12.8831
G1 X-21.56 Y82.121 E12.94228
G1 X-22.632 Y82.307 E12.98391
G1 X-24.199 Y82.555 E13.04463
G1 X-25.235 Y82.702 E13.08467
G1 X-26.86 Y82.906 E13.14735
G1 X-27.863 Y83.017 E13.18597
G1 X-29.504 Y83.172 E13.24905
G1 X-30.477 Y83.248 E13.2864
G1 X-32.178 Y83.354 E13.35162
G1 X-33.193 Y83.401 E13.3905
G1 X-34.797 Y83.45 E13.45192
G1 X-35.79 Y83.466 E13.48992
G1 X-37.496 Y83.465 E13.55521
G1 X-38.515 Y83.449 E13.59421
G1 X-39.25 Y83.427 E13.62235
G1 X-39.852 Y83.369 E13.6455
G1 X-40.441 Y83.232 E13.66864
G1 X-41.006 Y83.019 E13.69175
G1 X-41.539 Y82.733 E13.7149
G1 X-42.029 Y82.379 E13.73803
G1 X-42.469 Y81.963 E13.7612
G1 X-42.85 Y81.494 E13.78433
G1 X-43.165 Y80.978 E13.80746
G1 X-43.41 Y80.425 E13.83061
G1 X-43.559 Y79.934 E13.85025
G1 X-43.716 Y79.288 E13.87569
G1 X-44.395 Y76.672 E13.97912
G1 X-45.14 Y74.101 E14.08156
G1 X-45.965 Y71.529 E14.18493
G1 X-46.869 Y68.96 E14.28915
G1 X-47.835 Y66.447 E14.39218
G1 X-48.026 Y65.986 E14.41128
G1 X-48.332 Y65.214 E14.44306
G1 X-48.517 Y64.638 E14.46621
G1 X-48.645 Y63.823 E14.49778
G1 X-48.655 Y63.411 E14.51356
G1 X-48.642 Y62.718 E14.54008
G1 X-47.849 Y37.479 E15.50644
G1 X-47.815 Y36.784 E15.53307
G1 X-47.745 Y36.184 E15.55619
G1 X-47.597 Y35.598 E15.57932
G1 X-47.316 Y34.901 E15.60808
G1 X-46.275 Y32.434 E15.71055
G1 X-45.282 Y29.889 E15.8151
G1 X-44.39 Y27.378 E15.91708
G1 X-43.548 Y24.788 E16.0213
G1 X-42.792 Y22.217 E16.12386
G1 X-42.1 Y19.593 E16.22771
G1 X-41.478 Y16.927 E16.33248
G1 X-41.427 Y16.697 E16.34149
G1 X-41.286 Y16.091 E16.3653
G1 X-40.736 Y13.38 E16.47117
G1 X-40.286 Y10.773 E16.57241
G1 X-39.903 Y8.113 E16.67526
G1 X-39.593 Y5.419 E16.77903
G1 X-39.357 Y2.714 E16.88295
G1 X-39.201 Y0.042 E16.98538
G0 F2040 X-38.851 Y0.037
G1 F1020 X-38.771 Y-2.652 E17.08833
G1 X-38.766 Y-5.351 E17.19162
G1 X-38.839 Y-8.08 E17.29609
G1 X-38.988 Y-10.807 E17.40061
G1 X-39.21 Y-13.463 E17.50261
G1 X-39.512 Y-16.172 E17.60692
G1 X-39.89 Y-18.855 E17.71061
G1 X-40.284 Y-21.206 E17.80184
G1 X-40.347 Y-21.557 E17.81549
G1 X-40.438 Y-22.101 E17.8366
G1 X-40.963 Y-24.769 E17.94066
G1 X-41.562 Y-27.418 E18.04459
G1 X-42.232 Y-30.026 E18.14764
G1 X-42.977 Y-32.626 E18.25114
G1 X-43.791 Y-35.193 E18.3542
G1 X-44.651 Y-37.662 E18.45426
G1 X-44.817 Y-38.123 E18.47301
G1 X-44.975 Y-38.682 E18.49524
G1 X-45.056 Y-39.257 E18.51746
G1 X-45.065 Y-39.623 E18.53147
G1 X-45.053 Y-40.35 E18.5593
G1 X-44.26 Y-65.569 E19.5249
G1 X-44.228 Y-66.252 E19.55106
G1 X-44.13 Y-66.98 E19.57917
G1 X-43.966 Y-67.537 E19.60139
G1 X-43.828 Y-67.863 E19.61494
G1 X-43.211 Y-69.172 E19.67032
G1 X-43.004 Y-69.598 E19.68845
G1 X-41.892 Y-72.064 E19.79197
G1 X-40.849 Y-74.561 E19.89553
G1 X-39.864 Y-77.116 E20.00033
G1 X-38.968 Y-79.664 E20.10369
G1 X-38.249 Y-81.89 E20.19321
G1 X-38.121 Y-82.301 E20.20969
G1 X-37.91 Y-82.843 E20.23194
G1 X-37.628 Y-83.35 E20.25415
G1 X-37.278 Y-83.814 E20.27639
G1 X-36.868 Y-84.226 E20.29863
G1 X-36.405 Y-84.577 E20.32087
G1 X-35.898 Y-84.862 E20.34312
G1 X-35.358 Y-85.074 E20.36533
G1 X-34.793 Y-85.211 E20.38757
G1 X-33.956 Y-85.268 E20.41968
G1 X-33.143 Y-85.242 E20.45081
G1 X-32.129 Y-85.194 E20.48966
G1 X-30.434 Y-85.086 E20.55466
G1 X-29.472 Y-85.01 E20.59159
G1 X-27.81 Y-84.852 E20.65548
G1 X-26.852 Y-84.746 E20.69236
G1 X-25.187 Y-84.535 E20.75659
G1 X-24.179 Y-84.391 E20.79556
G1 X-22.641 Y-84.146 E20.85516
G1 X-21.591 Y-83.963 E20.89595
G1 X-19.978 Y-83.655 E20.95879
G1 X-19.026 Y-83.457 E20.996
G1 X-17.401 Y-83.094 E21.05973
G1 X-16.398 Y-82.852 E21.09921
G1 X-14.847 Y-82.453 E21.1605
G1 X-13.87 Y-82.185 E21.19927
G1 X-12.304 Y-81.73 E21.26168
G1 X-11.339 Y-81.432 E21.30033
G1 X-9.744 Y-80.914 E21.36451
G1 X-8.837 Y-80.602 E21.40121
G1 X-7.275 Y-80.04 E21.46474
G1 X-6.357 Y-79.693 E21.5023
G1 X-4.789 Y-79.071 E21.56686
G1 X-3.861 Y-78.686 E21.60531
G1 X-2.414 Y-78.059 E21.66566
G1 X-1.454 Y-77.626 E21.70596
G1 X0.015 Y-76.934 E21.7681
G1 X0.938 Y-76.481 E21.80745
G1 X2.376 Y-75.748 E21.86922
G1 X3.281 Y-75.268 E21.90842
G1 X4.7 Y-74.487 E21.97041
G1 X5.574 Y-73.989 E22.0089
G1 X7.015 Y-73.135 E22.07301
G1 X7.868 Y-72.612 E22.1113
G1 X9.205 Y-71.763 E22.17191
G1 X10.125 Y-71.158 E22.21405
G1 X11.391 Y-70.297 E22.27264
G1 X12.285 Y-69.668 E22.31447
G1 X13.571 Y-68.732 E22.37534
G1 X14.382 Y-68.123 E22.41416
G1 X15.673 Y-67.121 E22.4767
G1 X16.496 Y-66.461 E22.51707
G1 X17.701 Y-65.463 E22.57695
G1 X18.504 Y-64.776 E22.61739
G1 X19.719 Y-63.705 E22.67937
G1 X20.483 Y-63.009 E22.71892
G1 X21.636 Y-61.925 E22.77949
G1 X22.371 Y-61.214 E22.81862
G1 X23.56 Y-60.023 E22.88303
G1 X24.263 Y-59.296 E22.92173
G1 X25.352 Y-58.137 E22.98259
G1 X26.045 Y-57.374 E23.02204
G1 X27.117 Y-56.157 E23.0841
G1 X27.802 Y-55.354 E23.1245
G1 X28.8 Y-54.147 E23.18443
G1 X29.458 Y-53.324 E23.22476
G1 X30.46 Y-52.032 E23.28733
G1 X31.067 Y-51.223 E23.32603
G1 X32.005 Y-49.933 E23.38707
G1 X32.631 Y-49.04 E23.42881
G1 X33.49 Y-47.775 E23.48732
G1 X34.098 Y-46.85 E23.52969
G1 X34.943 Y-45.516 E23.59012
G1 X35.466 Y-44.661 E23.62847
G1 X36.32 Y-43.217 E23.69268
G1 X36.815 Y-42.348 E23.73095
G1 X37.597 Y-40.925 E23.79309
G1 X38.075 Y-40.021 E23.83222
G1 X38.803 Y-38.59 E23.89367
G1 X39.279 Y-37.618 E23.93508
G1 X39.935 Y-36.22 E23.99418
G1 X40.364 Y-35.272 E24.034
G1 X41.025 Y-33.74 E24.09786
G1 X41.394 Y-32.85 E24.13473
G1 X42.014 Y-31.282 E24.19926
G1 X42.362 Y-30.359 E24.23701
G1 X42.916 Y-28.819 E24.29964
G1 X43.232 Y-27.894 E24.33705
G1 X43.749 Y-26.302 E24.4011
G1 X44.046 Y-25.335 E24.43982
G1 X44.5 Y-23.77 E24.50218
G1 X44.768 Y-22.789 E24.5411
G1 X45.166 Y-21.239 E24.60234
G1 X45.405 Y-20.238 E24.64172
G1 X45.768 Y-18.613 E24.70544
G1 X45.965 Y-17.659 E24.74272
G1 X46.273 Y-16.045 E24.8056
G1 X46.451 Y-15.017 E24.84553
G1 X46.698 Y-13.454 E24.90609
G1 X46.844 Y-12.424 E24.9459
G1 X47.047 Y-10.805 E25.00834
G1 X47.157 Y-9.808 E25.04673
G1 X47.312 Y-8.17 E25.1097
G1 X47.393 Y-7.138 E25.14931
G1 X47.49 Y-5.579 E25.20909
G1 X47.539 Y-4.552 E25.24844
G1 X47.592 Y-2.86 E25.31322
G1 X47.606 Y-1.933 E25.3487
G1 X47.606 Y-.259 E25.41276
G1 X47.59 Y0.742 E25.45108
G1 X47.536 Y2.419 E25.51529
G1 X47.488 Y3.438 E25.55433
G1 X47.387 Y5.027 E25.61526
G1 X47.306 Y6.043 E25.65426
G1 X47.15 Y7.679 E25.71716
G1 X47.04 Y8.675 E25.75551
G1 X46.835 Y10.297 E25.81807
G1 X46.688 Y11.329 E25.85797
G1 X46.441 Y12.884 E25.91822
G1 X46.26 Y13.919 E25.95843
G1 X45.952 Y15.532 E26.02127
G1 X45.754 Y16.484 E26.05849
G1 X45.391 Y18.109 E26.12221
G1 X45.149 Y19.112 E26.16169
G1 X44.751 Y20.662 E26.22294
G1 X44.483 Y21.639 E26.26171
G1 X44.027 Y23.205 E26.32413
G1 X43.717 Y24.211 E26.36441
G1 X43.232 Y25.703 E26.42445
G1 X42.879 Y26.731 E26.46605
G1 X42.346 Y28.211 E26.52625
G1 X41.987 Y29.159 E26.56504
G1 X41.369 Y30.717 E26.62918
G1 X40.991 Y31.63 E26.667
G1 X40.348 Y33.116 E26.72896
G1 X39.911 Y34.08 E26.76947
G1 X39.249 Y35.487 E26.82898
G1 X38.774 Y36.456 E26.87027
G1 X38.045 Y37.886 E26.9317
G1 X37.565 Y38.791 E26.9709
G1 X36.785 Y40.208 E27.03281
G1 X36.286 Y41.084 E27.07139
G1 X35.432 Y42.525 E27.13549
G1 X34.909 Y43.378 E27.17378
G1 X34.06 Y44.715 E27.23439
G1 X33.455 Y45.635 E27.27653
G1 X32.594 Y46.901 E27.33512
G1 X31.965 Y47.795 E27.37696
G1 X31.03 Y49.08 E27.43777
G1 X30.421 Y49.891 E27.47659
G1 X29.416 Y51.186 E27.53932
G1 X28.78 Y51.979 E27.57822
G1 X27.74 Y53.235 E27.64063
G1 X27.081 Y54.006 E27.67944
G1 X25.995 Y55.237 E27.74226
G1 X25.333 Y55.964 E27.77989
G1 X24.19 Y57.18 E27.84376
G1 X23.511 Y57.881 E27.88111
G1 X22.322 Y59.068 E27.9454
G1 X21.628 Y59.74 E27.98237
G1 X20.4 Y60.891 E28.04678
G1 X19.668 Y61.559 E28.08471
G1 X18.459 Y62.623 E28.14634
G1 X17.686 Y63.284 E28.18526
G1 X16.402 Y64.344 E28.24898
G1 X15.645 Y64.95 E28.28609
G1 X14.308 Y65.987 E28.35085
G1 X13.52 Y66.577 E28.38852
G1 X12.228 Y67.516 E28.44964
G1 X11.367 Y68.12 E28.48989
G1 X10.044 Y69.019 E28.5511
G1 X9.152 Y69.604 E28.59193
G1 X7.805 Y70.458 E28.65296
G1 X6.947 Y70.983 E28.69146
G1 X5.523 Y71.824 E28.75475
G1 X4.645 Y72.325 E28.79343
G1 X3.222 Y73.107 E28.85557
G1 X2.318 Y73.585 E28.89471
G1 X0.881 Y74.316 E28.95641
G1 X-0.047 Y74.771 E28.99596
G1 X-1.516 Y75.461 E29.05807
G1 X-2.474 Y75.893 E29.09829
G1 X-3.919 Y76.517 E29.15852
G1 X-4.852 Y76.904 E29.19718
G1 X-6.423 Y77.526 E29.26184
G1 X-7.333 Y77.868 E29.29904
G1 X-8.898 Y78.431 E29.36269
G1 X-9.809 Y78.742 E29.39953
G1 X-11.401 Y79.259 E29.46359
G1 X-12.379 Y79.559 E29.50274
G1 X-13.913 Y80.004 E29.56386
G1 X-14.921 Y80.28 E29.60386
G1 X-16.464 Y80.676 E29.66482
G1 X-17.488 Y80.92 E29.70511
G1 X-19.046 Y81.27 E29.76622
G1 X-20.107 Y81.488 E29.80767
G1 X-21.62 Y81.776 E29.86661
G1 X-22.687 Y81.962 E29.90806
G1 X-24.249 Y82.209 E29.96858
G1 X-25.279 Y82.355 E30.00839
G1 X-26.899 Y82.558 E30.07087
G1 X-27.896 Y82.668 E30.10926
G1 X-29.532 Y82.823 E30.17215
G1 X-30.499 Y82.899 E30.20927
G1 X-32.194 Y83.004 E30.27426
G1 X-33.204 Y83.051 E30.31296
G1 X-34.803 Y83.1 E30.37418
G1 X-35.79 Y83.116 E30.41195
G1 X-37.49 Y83.115 E30.47701
G1 X-38.504 Y83.099 E30.51582
G1 X-39.239 Y83.077 E30.54396
