;FLAVOR:Marlin
;TIME:10186
;Filament used: 10.3573m
;Layer height: 0.2
;MINX:-46.348
;MINY:-81.747
;MINZ:0.26
;MAXX:47.471
;MAXY:87.286
;MAXZ:3.46
;Generated with Cura_SteamEngine 4.8.0
M82 ;absolute extrusion mode
;Gcode by Cura
G90
G28
M107
M109 R100
G30
M109 S215 U-55 X55 V-85 Y-85 W0.26 Z0.26
M82
G92 E0
G1 F200 E6
G92 E0
G1 F200 E-3.5
G0 Z0.15
G0 X10
G0 Z3
G1 F6000
G92 E0
G92 E0
G1 F3600 E-3.8
;LAYER_COUNT:17
;LAYER:0
M107
G0 F2040 X-45.34 Y-36.919 Z0.26
;TYPE:SKIRT
G1 F3600 E0
G1 F1020 X-45.36 Y-37.642 E0.02768
G1 X-45.354 Y-38.032 E0.04261
G1 X-45.299 Y-38.992 E0.07941
G1 X-45.179 Y-41.779 E0.18616
G1 X-45.139 Y-44.42 E0.28724
G1 X-45.176 Y-47.166 E0.39234
G1 X-45.288 Y-49.84 E0.49476
G1 X-45.478 Y-52.543 E0.59846
G1 X-45.743 Y-55.226 E0.70164
G1 X-46.068 Y-57.799 E0.80089
G1 X-46.226 Y-58.925 E0.8444
G1 X-46.269 Y-59.462 E0.86502
G1 X-46.291 Y-60.529 E0.90586
G1 X-46.348 Y-76.474 E1.51607
G1 X-46.341 Y-77.165 E1.54252
G1 X-46.295 Y-77.768 E1.56566
G1 X-46.17 Y-78.36 E1.58882
G1 X-45.967 Y-78.93 E1.61197
G1 X-45.692 Y-79.468 E1.63509
G1 X-45.348 Y-79.965 E1.65823
G1 X-44.941 Y-80.413 E1.68139
G1 X-44.479 Y-80.803 E1.70453
G1 X-43.97 Y-81.128 E1.72764
G1 X-43.422 Y-81.384 E1.75079
G1 X-42.845 Y-81.565 E1.77393
G1 X-42.059 Y-81.685 E1.80436
G1 X-41.412 Y-81.717 E1.82915
G1 X-40.787 Y-81.732 E1.85307
G1 X-40.046 Y-81.742 E1.88143
G1 X-39.344 Y-81.747 E1.9083
G1 X-38.709 Y-81.747 E1.9326
G1 X-37.912 Y-81.741 E1.9631
G1 X-37.258 Y-81.729 E1.98813
G1 X-36.13 Y-81.697 E2.03132
G1 X-35.196 Y-81.66 E2.06709
G1 X-34.072 Y-81.6 E2.11017
G1 X-33.334 Y-81.552 E2.13847
G1 X-32.55 Y-81.495 E2.16855
G1 X-31.632 Y-81.419 E2.2038
G1 X-30.834 Y-81.344 E2.23448
G1 X-29.787 Y-81.235 E2.27476
G1 X-28.782 Y-81.118 E2.31348
G1 X-27.728 Y-80.982 E2.35415
G1 X-26.816 Y-80.853 E2.3894
G1 X-26.005 Y-80.73 E2.42079
G1 X-25.198 Y-80.599 E2.45208
G1 X-24.441 Y-80.47 E2.48147
G1 X-23.503 Y-80.299 E2.51796
G1 X-22.656 Y-80.136 E2.55097
G1 X-21.993 Y-80.002 E2.57685
G1 X-21.307 Y-79.857 E2.60369
G1 X-20.69 Y-79.722 E2.62786
G1 X-19.701 Y-79.494 E2.6667
G1 X-19.057 Y-79.341 E2.69203
G1 X-18.338 Y-79.162 E2.72038
G1 X-17.645 Y-78.983 E2.74778
G1 X-17.03 Y-78.819 E2.77213
G1 X-16.059 Y-78.55 E2.81069
G1 X-15.015 Y-78.249 E2.85227
G1 X-13.97 Y-77.931 E2.89408
G1 X-13.108 Y-77.657 E2.92869
G1 X-12.277 Y-77.384 E2.96217
G1 X-11.428 Y-77.095 E2.99649
G1 X-10.484 Y-76.763 E3.03478
G1 X-9.546 Y-76.419 E3.07302
G1 X-8.905 Y-76.176 E3.09925
G1 X-8.191 Y-75.9 E3.12855
G1 X-7.626 Y-75.675 E3.15182
G1 X-6.935 Y-75.395 E3.18035
G1 X-6.167 Y-75.075 E3.21219
G1 X-5.544 Y-74.809 E3.23812
G1 X-4.972 Y-74.559 E3.26201
G1 X-4.39 Y-74.299 E3.2864
G1 X-3.716 Y-73.993 E3.31473
G1 X-3.095 Y-73.704 E3.34094
G1 X-2.312 Y-73.33 E3.37415
G1 X-1.632 Y-72.999 E3.40309
G1 X-.719 Y-72.541 E3.44218
G1 X0.029 Y-72.155 E3.47439
G1 X0.545 Y-71.883 E3.49672
G1 X1.381 Y-71.433 E3.53305
G1 X2.168 Y-71 E3.56743
G1 X3.036 Y-70.507 E3.60563
G1 X3.945 Y-69.977 E3.6459
G1 X4.494 Y-69.65 E3.67035
G1 X5.033 Y-69.323 E3.69448
G1 X5.689 Y-68.918 E3.72398
G1 X6.297 Y-68.535 E3.75148
G1 X6.852 Y-68.179 E3.77671
G1 X7.374 Y-67.839 E3.80055
G1 X9.653 Y-66.402 E3.90366
G1 X12.013 Y-65.006 E4.0086
G1 X14.362 Y-63.703 E4.11139
G1 X16.764 Y-62.459 E4.21491
G1 X19.167 Y-61.301 E4.317
G1 X21.657 Y-60.185 E4.42142
G1 X24.133 Y-59.159 E4.52399
G1 X26.697 Y-58.18 E4.62902
G1 X29.197 Y-57.307 E4.73036
G1 X31.77 Y-56.489 E4.83369
G1 X34.378 Y-55.739 E4.93754
G1 X36.995 Y-55.068 E5.04093
G1 X38.379 Y-54.759 E5.0952
G1 X38.453 Y-54.737 E5.09815
G1 X39.78 Y-54.431 E5.15027
G1 X40.359 Y-54.256 E5.17342
G1 X40.91 Y-54.007 E5.19656
G1 X41.423 Y-53.687 E5.21969
G1 X41.889 Y-53.302 E5.24283
G1 X42.301 Y-52.859 E5.26598
G1 X42.65 Y-52.366 E5.2891
G1 X42.932 Y-51.831 E5.31224
G1 X43.14 Y-51.263 E5.33539
G1 X43.272 Y-50.673 E5.35853
G1 X43.34 Y-49.936 E5.38685
G1 X43.347 Y-49.808 E5.39176
G1 X47.45 Y48.076 E9.14102
G1 X47.471 Y48.788 E9.16828
G1 X47.449 Y49.392 E9.19141
G1 X47.347 Y49.988 E9.21455
G1 X47.168 Y50.566 E9.23771
G1 X46.914 Y51.115 E9.26085
G1 X46.59 Y51.625 E9.28398
G1 X46.201 Y52.088 E9.30712
G1 X45.755 Y52.496 E9.33025
G1 X45.259 Y52.842 E9.3534
G1 X44.721 Y53.119 E9.37655
G1 X44.249 Y53.294 E9.39582
G1 X43.715 Y53.459 E9.41721
G1 X41.145 Y54.288 E9.52055
G1 X38.597 Y55.189 E9.62398
G1 X36.084 Y56.159 E9.72707
G1 X33.583 Y57.207 E9.83084
G1 X31.124 Y58.319 E9.93412
G1 X28.702 Y59.499 E10.03723
G1 X26.299 Y60.755 E10.14099
G1 X23.939 Y62.075 E10.24447
G1 X21.634 Y63.449 E10.34717
G1 X19.354 Y64.9 E10.45059
G1 X17.119 Y66.411 E10.55384
G1 X14.959 Y67.963 E10.65563
G1 X13.03 Y69.428 E10.74832
G1 X12.244 Y70.036 E10.78635
G1 X11.564 Y70.549 E10.81895
G1 X11.002 Y70.966 E10.84573
G1 X10.271 Y71.497 E10.88031
G1 X9.532 Y72.023 E10.91502
G1 X9.055 Y72.355 E10.93726
G1 X8.28 Y72.886 E10.97322
G1 X7.554 Y73.372 E11.00665
G1 X6.752 Y73.895 E11.04329
G1 X6.103 Y74.309 E11.07275
G1 X5.712 Y74.556 E11.09045
G1 X4.952 Y75.023 E11.12459
G1 X4.328 Y75.402 E11.15253
G1 X3.786 Y75.723 E11.17664
G1 X3.058 Y76.147 E11.20888
G1 X2.481 Y76.475 E11.23428
G1 X1.63 Y76.95 E11.27157
G1 X0.851 Y77.373 E11.3055
G1 X0.015 Y77.814 E11.34167
G1 X-.679 Y78.171 E11.37154
G1 X-1.375 Y78.523 E11.40138
G1 X-1.979 Y78.821 E11.42716
G1 X-2.541 Y79.093 E11.45105
G1 X-3.237 Y79.422 E11.48051
G1 X-3.782 Y79.674 E11.50349
G1 X-4.468 Y79.986 E11.53233
G1 X-5.14 Y80.285 E11.56048
G1 X-6.018 Y80.664 E11.59708
G1 X-6.855 Y81.014 E11.6318
G1 X-7.662 Y81.341 E11.66512
G1 X-8.478 Y81.663 E11.69869
G1 X-9.141 Y81.918 E11.72588
G1 X-9.63 Y82.101 E11.74586
G1 X-10.5 Y82.42 E11.78132
G1 X-11.151 Y82.651 E11.80776
G1 X-11.666 Y82.829 E11.82861
G1 X-12.351 Y83.059 E11.85626
G1 X-13.247 Y83.353 E11.89235
G1 X-14.071 Y83.613 E11.92542
G1 X-14.769 Y83.827 E11.95336
G1 X-15.735 Y84.11 E11.99188
G1 X-16.471 Y84.317 E12.02114
G1 X-17.069 Y84.481 E12.04487
G1 X-17.927 Y84.708 E12.07883
G1 X-18.503 Y84.855 E12.10158
G1 X-19.649 Y85.135 E12.14673
G1 X-20.722 Y85.381 E12.18886
G1 X-21.308 Y85.508 E12.2118
G1 X-21.998 Y85.653 E12.23879
G1 X-22.834 Y85.821 E12.27142
G1 X-23.453 Y85.941 E12.29555
G1 X-24.354 Y86.106 E12.3306
G1 X-24.879 Y86.197 E12.351
G1 X-25.357 Y86.277 E12.36954
G1 X-26.139 Y86.402 E12.39985
G1 X-26.924 Y86.52 E12.43023
G1 X-27.6 Y86.615 E12.45635
G1 X-28.186 Y86.694 E12.47898
G1 X-28.873 Y86.779 E12.50547
G1 X-29.595 Y86.865 E12.5333
G1 X-30.352 Y86.948 E12.56244
G1 X-31.15 Y87.027 E12.59313
G1 X-31.759 Y87.081 E12.61653
G1 X-32.509 Y87.143 E12.64533
G1 X-33.157 Y87.191 E12.6702
G1 X-34.22 Y87.259 E12.71096
G1 X-34.88 Y87.286 E12.73624
G1 X-35.484 Y87.271 E12.75936
G1 X-36.082 Y87.176 E12.78253
G1 X-36.661 Y87.003 E12.80566
G1 X-37.213 Y86.756 E12.8288
G1 X-37.727 Y86.437 E12.85195
G1 X-38.194 Y86.054 E12.87507
G1 X-38.607 Y85.613 E12.89819
G1 X-38.959 Y85.12 E12.92137
G1 X-39.242 Y84.586 E12.9445
G1 X-39.452 Y84.019 E12.96764
G1 X-39.613 Y83.233 E12.99834
G1 X-39.676 Y82.601 E13.02265
G1 X-40.988 Y66.254 E13.65025
G1 X-41.033 Y65.575 E13.67629
G1 X-41.038 Y65.054 E13.69623
G1 X-40.996 Y64.176 E13.72987
G1 X-40.92 Y62.926 E13.7778
G1 X-40.833 Y60.22 E13.88141
G1 X-40.821 Y57.544 E13.98382
G1 X-40.888 Y54.831 E14.08768
G1 X-41.029 Y52.126 E14.19134
G1 X-41.245 Y49.459 E14.29373
G1 X-41.542 Y46.744 E14.39826
G1 X-41.904 Y44.113 E14.49989
G1 X-41.939 Y43.767 E14.5132
G1 X-42.004 Y42.675 E14.55506
G1 X-45.34 Y-36.919 E17.60376
G0 F2040 X-44.99 Y-36.929
G1 F1020 X-45.01 Y-37.652 E17.63144
G1 X-45.005 Y-38.012 E17.64522
G1 X-44.946 Y-39.038 E17.68455
G1 X-44.83 Y-41.723 E17.7874
G1 X-44.79 Y-44.455 E17.89196
G1 X-44.827 Y-47.186 E17.99649
G1 X-44.937 Y-49.842 E18.09822
G1 X-45.129 Y-52.567 E18.20276
G1 X-45.396 Y-55.269 E18.30667
G1 X-45.721 Y-57.843 E18.40596
G1 X-45.879 Y-58.973 E18.44962
G1 X-45.919 Y-59.469 E18.46866
G1 X-45.941 Y-60.53 E18.50928
G1 X-45.998 Y-76.471 E19.11934
G1 X-45.991 Y-77.162 E19.14578
G1 X-45.945 Y-77.741 E19.16801
G1 X-45.82 Y-78.308 E19.19023
G1 X-45.619 Y-78.853 E19.21246
G1 X-45.344 Y-79.366 E19.23473
G1 X-45.002 Y-79.835 E19.25695
G1 X-44.599 Y-80.254 E19.2792
G1 X-44.142 Y-80.613 E19.30144
G1 X-43.64 Y-80.906 E19.32368
G1 X-43.103 Y-81.127 E19.3459
G1 X-42.54 Y-81.272 E19.36815
G1 X-42.036 Y-81.335 E19.38759
G1 X-41.4 Y-81.367 E19.41196
G1 X-40.783 Y-81.382 E19.43558
G1 X-40.043 Y-81.392 E19.4639
G1 X-39.341 Y-81.397 E19.49077
G1 X-38.712 Y-81.397 E19.51484
G1 X-37.918 Y-81.391 E19.54523
G1 X-37.268 Y-81.379 E19.57011
G1 X-36.144 Y-81.347 E19.61314
G1 X-35.215 Y-81.31 E19.64872
G1 X-34.095 Y-81.25 E19.69164
G1 X-33.36 Y-81.203 E19.71983
G1 X-32.579 Y-81.146 E19.7498
G1 X-31.664 Y-81.07 E19.78493
G1 X-30.87 Y-80.996 E19.81545
G1 X-29.828 Y-80.888 E19.85554
G1 X-28.826 Y-80.771 E19.89415
G1 X-27.777 Y-80.635 E19.93463
G1 X-26.868 Y-80.506 E19.96976
G1 X-26.061 Y-80.384 E20.001
G1 X-25.257 Y-80.254 E20.03217
G1 X-24.503 Y-80.125 E20.06144
G1 X-23.569 Y-79.956 E20.09777
G1 X-22.725 Y-79.793 E20.13066
G1 X-22.065 Y-79.659 E20.15643
G1 X-21.381 Y-79.515 E20.18318
G1 X-20.768 Y-79.381 E20.2072
G1 X-19.782 Y-79.154 E20.24592
G1 X-19.142 Y-79.002 E20.27109
G1 X-18.425 Y-78.823 E20.29937
G1 X-17.735 Y-78.644 E20.32665
G1 X-17.123 Y-78.481 E20.35089
G1 X-16.156 Y-78.214 E20.38928
G1 X-15.117 Y-77.914 E20.43067
G1 X-14.076 Y-77.597 E20.47231
G1 X-13.217 Y-77.324 E20.50681
G1 X-12.389 Y-77.052 E20.54016
G1 X-11.544 Y-76.765 E20.57431
G1 X-10.604 Y-76.434 E20.61245
G1 X-9.67 Y-76.091 E20.65053
G1 X-9.031 Y-75.85 E20.67666
G1 X-8.32 Y-75.574 E20.70585
G1 X-7.757 Y-75.351 E20.72903
G1 X-7.07 Y-75.072 E20.7574
G1 X-6.304 Y-74.753 E20.78916
G1 X-5.685 Y-74.489 E20.81491
G1 X-5.114 Y-74.239 E20.83877
G1 X-4.535 Y-73.981 E20.86302
G1 X-3.864 Y-73.676 E20.89123
G1 X-3.246 Y-73.388 E20.91732
G1 X-2.465 Y-73.015 E20.95045
G1 X-1.789 Y-72.686 E20.97922
G1 X-.879 Y-72.23 E21.01817
G1 X-.134 Y-71.845 E21.05026
G1 X0.379 Y-71.575 E21.07245
G1 X1.212 Y-71.127 E21.10865
G1 X1.996 Y-70.695 E21.1429
G1 X2.86 Y-70.205 E21.18091
G1 X3.766 Y-69.676 E21.22106
G1 X4.313 Y-69.351 E21.24541
G1 X4.849 Y-69.026 E21.2694
G1 X5.502 Y-68.621 E21.29881
G1 X6.108 Y-68.24 E21.3262
G1 X6.661 Y-67.886 E21.35133
G1 X7.175 Y-67.551 E21.37481
G1 X9.515 Y-66.076 E21.48067
G1 X11.792 Y-64.729 E21.58191
G1 X14.216 Y-63.384 E21.688
G1 X16.593 Y-62.153 E21.79044
G1 X19.014 Y-60.987 E21.89328
G1 X21.522 Y-59.863 E21.99846
G1 X24.017 Y-58.828 E22.10183
G1 X26.557 Y-57.859 E22.20587
G1 X29.119 Y-56.964 E22.30972
G1 X31.677 Y-56.151 E22.41244
G1 X34.263 Y-55.407 E22.51542
G1 X36.901 Y-54.73 E22.61965
G1 X38.302 Y-54.418 E22.67458
G1 X38.38 Y-54.395 E22.67769
G1 X39.701 Y-54.09 E22.72957
G1 X40.257 Y-53.92 E22.75182
G1 X40.784 Y-53.676 E22.77405
G1 X41.273 Y-53.362 E22.79629
G1 X41.714 Y-52.984 E22.81852
G1 X42.1 Y-52.549 E22.84077
G1 X42.421 Y-52.066 E22.86297
G1 X42.674 Y-51.542 E22.88523
G1 X42.852 Y-50.989 E22.90747
G1 X42.966 Y-50.268 E22.9354
G1 X42.997 Y-49.793 E22.95362
G1 X47.1 Y48.086 E26.70269
G1 X47.121 Y48.798 E26.72995
G1 X47.098 Y49.379 E26.7522
G1 X46.996 Y49.951 E26.77444
G1 X46.816 Y50.504 E26.79669
G1 X46.562 Y51.026 E26.81891
G1 X46.239 Y51.509 E26.84115
G1 X45.853 Y51.943 E26.86337
G1 X45.411 Y52.32 E26.88561
G1 X44.921 Y52.632 E26.90784
G1 X44.145 Y52.96 E26.94008
G1 X43.611 Y53.125 E26.96147
G1 X41.021 Y53.96 E27.06561
G1 X38.465 Y54.864 E27.16936
G1 X35.965 Y55.83 E27.27193
G1 X33.446 Y56.885 E27.37645
G1 X30.969 Y58.005 E27.48048
G1 X28.558 Y59.18 E27.58312
G1 X26.109 Y60.46 E27.68887
G1 X23.801 Y61.75 E27.79006
G1 X21.437 Y63.16 E27.8954
G1 X19.156 Y64.611 E27.99886
G1 X16.929 Y66.117 E28.10174
G1 X14.729 Y67.698 E28.20542
G1 X12.818 Y69.149 E28.29724
G1 X12.033 Y69.756 E28.33522
G1 X11.355 Y70.268 E28.36773
G1 X10.796 Y70.683 E28.39438
G1 X10.068 Y71.212 E28.42882
G1 X9.332 Y71.736 E28.46339
G1 X8.857 Y72.066 E28.48553
G1 X8.085 Y72.595 E28.52134
G1 X7.363 Y73.079 E28.5546
G1 X6.563 Y73.6 E28.59114
G1 X5.917 Y74.013 E28.62048
G1 X5.528 Y74.258 E28.63808
G1 X4.771 Y74.724 E28.6721
G1 X4.149 Y75.101 E28.69993
G1 X3.61 Y75.421 E28.72392
G1 X2.885 Y75.842 E28.756
G1 X2.311 Y76.169 E28.78128
G1 X1.463 Y76.642 E28.81844
G1 X0.687 Y77.063 E28.85223
G1 X-.145 Y77.503 E28.88825
G1 X-.837 Y77.859 E28.91803
G1 X-1.53 Y78.209 E28.94774
G1 X-2.101 Y78.491 E28.97211
G1 X-2.691 Y78.777 E28.9972
G1 X-3.384 Y79.105 E29.02655
G1 X-3.927 Y79.356 E29.04944
G1 X-4.61 Y79.667 E29.07816
G1 X-5.278 Y79.964 E29.10614
G1 X-6.153 Y80.341 E29.1426
G1 X-6.987 Y80.69 E29.1772
G1 X-7.79 Y81.016 E29.21036
G1 X-8.604 Y81.337 E29.24385
G1 X-9.265 Y81.59 E29.27093
G1 X-9.75 Y81.773 E29.29077
G1 X-10.617 Y82.09 E29.3261
G1 X-11.266 Y82.32 E29.35245
G1 X-11.778 Y82.497 E29.37318
G1 X-12.46 Y82.727 E29.40073
G1 X-13.352 Y83.02 E29.43666
G1 X-14.174 Y83.279 E29.46964
G1 X-14.868 Y83.491 E29.49741
G1 X-15.83 Y83.773 E29.53578
G1 X-16.564 Y83.98 E29.56496
G1 X-17.159 Y84.143 E29.58857
G1 X-18.014 Y84.369 E29.62241
G1 X-18.586 Y84.516 E29.64502
G1 X-19.728 Y84.794 E29.69
G1 X-20.797 Y85.039 E29.73197
G1 X-21.38 Y85.165 E29.75479
G1 X-22.067 Y85.31 E29.78166
G1 X-22.9 Y85.477 E29.81418
G1 X-23.517 Y85.596 E29.83822
G1 X-24.414 Y85.761 E29.87313
G1 X-24.937 Y85.852 E29.89344
G1 X-25.412 Y85.932 E29.91188
G1 X-26.191 Y86.056 E29.94206
G1 X-26.973 Y86.173 E29.97232
G1 X-27.646 Y86.268 E29.99833
G1 X-28.23 Y86.347 E30.02089
G1 X-28.914 Y86.432 E30.04727
G1 X-29.634 Y86.517 E30.07501
G1 X-30.387 Y86.599 E30.104
G1 X-31.181 Y86.678 E30.13453
G1 X-31.788 Y86.732 E30.15786
G1 X-32.535 Y86.794 E30.18654
G1 X-33.18 Y86.842 E30.21129
G1 X-34.133 Y86.904 E30.24784
G1 X-34.894 Y86.936 E30.27699
G1 X-35.475 Y86.92 E30.29923
G1 X-36.048 Y86.824 E30.32147
G1 X-36.603 Y86.651 E30.34371
G1 X-37.128 Y86.403 E30.36593
G1 X-37.615 Y86.085 E30.38819
G1 X-38.053 Y85.704 E30.41041
G1 X-38.435 Y85.266 E30.43265
G1 X-38.753 Y84.78 E30.45488
G1 X-39.001 Y84.255 E30.4771
G1 X-39.176 Y83.7 E30.49937
G1 X-39.265 Y83.194 E30.51903
G1 X-39.327 Y82.57 E30.54303
G1 X-40.639 Y66.23 E31.17036
G1 X-40.684 Y65.551 E31.19641
G1 X-40.688 Y65.071 E31.21478
G1 X-40.646 Y64.197 E31.24826
G1 X-40.57 Y62.958 E31.29577
G1 X-40.483 Y60.233 E31.40011
G1 X-40.471 Y57.536 E31.50332
G1 X-40.538 Y54.805 E31.60786
G1 X-40.679 Y52.115 E31.71095
G1 X-40.896 Y49.428 E31.81412
G1 X-41.192 Y46.729 E31.91802
G1 X-41.558 Y44.065 E32.02093
G1 X-41.589 Y43.745 E32.03324
G1 X-41.654 Y42.66 E32.07483
G1 X-44.99 Y-36.929 E35.12334
G0 F2040 X-44.641 Y-36.939
G1 F1020 X-44.661 Y-37.662 E35.15102
G1 X-44.656 Y-37.991 E35.16361
G1 X-44.597 Y-39.017 E35.20294
G1 X-44.481 Y-41.703 E35.30583
G1 X-44.44 Y-44.455 E35.41116
G1 X-44.476 Y-47.169 E35.51503
G1 X-44.591 Y-49.918 E35.62033
G1 X-44.778 Y-52.588 E35.72276
G1 X-45.047 Y-55.313 E35.82755
G1 X-45.367 Y-57.836 E35.92487
G1 X-45.533 Y-59.022 E35.9707
G1 X-45.569 Y-59.476 E35.98813
G1 X-45.591 Y-60.531 E36.02852
G1 X-45.648 Y-76.467 E36.63838
G1 X-45.641 Y-77.158 E36.66483
G1 X-45.595 Y-77.713 E36.68614
G1 X-45.471 Y-78.255 E36.70742
G1 X-45.27 Y-78.774 E36.72872
G1 X-44.997 Y-79.259 E36.75002
G1 X-44.657 Y-79.699 E36.7713
G1 X-44.258 Y-80.087 E36.7926
G1 X-43.807 Y-80.413 E36.81389
G1 X-43.314 Y-80.671 E36.83519
G1 X-42.789 Y-80.856 E36.85649
G1 X-42.014 Y-80.986 E36.88656
G1 X-41.387 Y-81.018 E36.91059
G1 X-40.778 Y-81.032 E36.9339
G1 X-40.041 Y-81.042 E36.96211
G1 X-39.339 Y-81.047 E36.98898
G1 X-38.714 Y-81.047 E37.01289
G1 X-37.925 Y-81.041 E37.04309
G1 X-37.278 Y-81.029 E37.06785
G1 X-36.158 Y-80.997 E37.11073
G1 X-35.233 Y-80.961 E37.14616
G1 X-34.117 Y-80.901 E37.18893
G1 X-33.385 Y-80.854 E37.217
G1 X-32.607 Y-80.797 E37.24685
G1 X-31.696 Y-80.722 E37.28184
G1 X-30.906 Y-80.648 E37.3122
G1 X-29.868 Y-80.54 E37.35214
G1 X-28.871 Y-80.423 E37.39056
G1 X-27.826 Y-80.289 E37.43087
G1 X-26.921 Y-80.16 E37.46586
G1 X-26.116 Y-80.039 E37.49701
G1 X-25.316 Y-79.909 E37.52803
G1 X-24.566 Y-79.781 E37.55715
G1 X-23.635 Y-79.612 E37.59336
G1 X-22.794 Y-79.45 E37.62613
G1 X-22.137 Y-79.317 E37.65179
G1 X-21.456 Y-79.174 E37.67842
G1 X-20.847 Y-79.04 E37.70228
G1 X-19.863 Y-78.813 E37.74093
G1 X-19.227 Y-78.662 E37.76594
G1 X-18.513 Y-78.484 E37.7941
G1 X-17.825 Y-78.306 E37.8213
