;FLAVOR:Marlin
;TIME:9635
;Filament used: 9.7774m
;Layer height: 0.2
;MINX:-32.754
;MINY:-83.101
;MINZ:0.26
;MAXX:60.669
;MAXY:85.991
;MAXZ:3.46
;Generated with Cura_SteamEngine 4.8.0
M82 ;absolute extrusion mode
;Gcode by Cura
G90
G28
M107
M109 R100
G30
M109 S215 U-55 X55 V-85 Y-85 W0.26 Z0.26
M82
G92 E0
G1 F200 E6
G92 E0
G1 F200 E-3.5
G0 Z0.15
G0 X10
G0 Z3
G1 F6000
G92 E0
G92 E0
G1 F3600 E-3.8
;LAYER_COUNT:17
;LAYER:0
M107
G0 F2040 X-28.118 Y0.088 Z0.26
;TYPE:SKIRT
G1 F3600 E0
G1 F1020 X-28.29 Y-2.626 E0.10407
G1 X-28.537 Y-5.316 E0.20745
G1 X-28.858 Y-7.984 E0.31029
G1 X-29.255 Y-10.647 E0.41333
G1 X-29.73 Y-13.311 E0.51689
G1 X-30.283 Y-15.976 E0.62105
G1 X-30.473 Y-16.784 E0.65281
G1 X-30.639 Y-17.54 E0.68243
G1 X-30.74 Y-18.309 E0.71211
G1 X-30.774 Y-19.059 E0.74085
G1 X-31.421 Y-38.356 E1.47975
G1 X-31.434 Y-39.031 E1.50558
G1 X-31.425 Y-39.418 E1.5204
G1 X-31.359 Y-40.421 E1.55887
G1 X-31.219 Y-43.162 E1.6639
G1 X-31.156 Y-45.87 E1.76756
G1 X-31.171 Y-48.582 E1.87135
G1 X-31.261 Y-51.26 E1.97389
G1 X-31.427 Y-53.96 E2.07742
G1 X-31.667 Y-56.613 E2.17936
G1 X-31.972 Y-59.198 E2.27897
G1 X-32.127 Y-60.382 E2.32467
G1 X-32.166 Y-60.831 E2.34192
G1 X-32.198 Y-61.532 E2.36877
G1 X-32.74 Y-77.713 E2.98836
G1 X-32.754 Y-78.376 E3.01374
G1 X-32.727 Y-78.98 E3.03688
G1 X-32.62 Y-79.576 E3.06005
G1 X-32.436 Y-80.152 E3.08319
G1 X-32.177 Y-80.698 E3.10632
G1 X-31.849 Y-81.206 E3.12946
G1 X-31.457 Y-81.666 E3.15259
G1 X-31.007 Y-82.07 E3.17573
G1 X-30.508 Y-82.411 E3.19886
G1 X-29.968 Y-82.684 E3.22202
G1 X-29.397 Y-82.883 E3.24516
G1 X-28.805 Y-83.005 E3.26829
G1 X-28.277 Y-83.052 E3.28857
G1 X-27.814 Y-83.071 E3.30631
G1 X-27.09 Y-83.087 E3.33402
G1 X-26.553 Y-83.096 E3.35458
G1 X-25.747 Y-83.101 E3.38542
G1 X-24.518 Y-83.096 E3.43246
G1 X-23.637 Y-83.081 E3.46618
G1 X-23.164 Y-83.07 E3.48428
G1 X-22.502 Y-83.048 E3.50963
G1 X-21.872 Y-83.023 E3.53376
G1 X-20.68 Y-82.964 E3.57943
G1 X-20.06 Y-82.926 E3.6032
G1 X-19.137 Y-82.862 E3.63861
G1 X-18.154 Y-82.781 E3.67636
G1 X-17.468 Y-82.719 E3.70272
G1 X-16.77 Y-82.649 E3.72956
G1 X-15.92 Y-82.556 E3.76229
G1 X-15.172 Y-82.468 E3.79111
G1 X-14.364 Y-82.364 E3.82229
G1 X-13.708 Y-82.274 E3.84763
G1 X-13.019 Y-82.175 E3.87427
G1 X-12.471 Y-82.091 E3.89548
G1 X-11.721 Y-81.97 E3.92456
G1 X-10.912 Y-81.833 E3.95596
G1 X-10.345 Y-81.732 E3.978
G1 X-9.509 Y-81.575 E4.01055
G1 X-8.754 Y-81.426 E4.04
G1 X-8.249 Y-81.322 E4.05973
G1 X-7.49 Y-81.159 E4.08944
G1 X-6.732 Y-80.992 E4.11914
G1 X-6.152 Y-80.857 E4.14193
G1 X-5.281 Y-80.648 E4.17621
G1 X-4.223 Y-80.38 E4.21798
G1 X-3.539 Y-80.199 E4.24506
G1 X-2.679 Y-79.962 E4.2792
G1 X-2.003 Y-79.769 E4.3061
G1 X-.851 Y-79.428 E4.35208
G1 X0.197 Y-79.101 E4.39409
G1 X0.869 Y-78.884 E4.42112
G1 X1.658 Y-78.62 E4.45296
G1 X2.517 Y-78.324 E4.48773
G1 X3.116 Y-78.111 E4.51206
G1 X4.426 Y-77.628 E4.56549
G1 X5.278 Y-77.3 E4.60043
G1 X6.127 Y-76.962 E4.6354
G1 X6.74 Y-76.712 E4.66073
G1 X7.313 Y-76.473 E4.68449
G1 X8.066 Y-76.152 E4.71582
G1 X8.703 Y-75.873 E4.74243
G1 X9.283 Y-75.614 E4.76674
G1 X10.273 Y-75.16 E4.80842
G1 X10.834 Y-74.896 E4.83215
G1 X11.305 Y-74.67 E4.85214
G1 X12.24 Y-74.21 E4.89202
G1 X12.968 Y-73.843 E4.92322
G1 X13.805 Y-73.409 E4.9593
G1 X14.638 Y-72.966 E4.99541
G1 X15.594 Y-72.443 E5.03711
G1 X16.271 Y-72.062 E5.06684
G1 X16.904 Y-71.698 E5.09478
G1 X17.557 Y-71.316 E5.12374
G1 X18.176 Y-70.946 E5.15133
G1 X18.779 Y-70.579 E5.17835
G1 X19.249 Y-70.288 E5.1995
G1 X19.909 Y-69.873 E5.22934
G1 X20.482 Y-69.505 E5.2554
G1 X21.448 Y-68.869 E5.29966
G1 X23.713 Y-67.409 E5.40279
G1 X26.031 Y-66.007 E5.50646
G1 X28.35 Y-64.691 E5.6085
G1 X30.788 Y-63.398 E5.71412
G1 X33.177 Y-62.217 E5.8161
G1 X35.625 Y-61.091 E5.91922
G1 X38.107 Y-60.034 E6.02246
G1 X40.616 Y-59.048 E6.12563
G1 X43.181 Y-58.122 E6.22999
G1 X45.727 Y-57.285 E6.33255
G1 X48.319 Y-56.513 E6.43606
G1 X50.919 Y-55.817 E6.53906
G1 X52.444 Y-55.464 E6.59896
G1 X52.575 Y-55.424 E6.60421
G1 X53.841 Y-55.122 E6.65401
G1 X54.418 Y-54.943 E6.67713
G1 X54.967 Y-54.689 E6.70028
G1 X55.478 Y-54.365 E6.72344
G1 X55.941 Y-53.977 E6.74656
G1 X56.35 Y-53.531 E6.76971
G1 X56.695 Y-53.035 E6.79284
G1 X56.973 Y-52.498 E6.81598
G1 X57.177 Y-51.929 E6.83911
G1 X57.304 Y-51.338 E6.86224
G1 X57.365 Y-50.631 E6.8894
G1 X60.654 Y47.426 E10.64411
G1 X60.669 Y48.169 E10.67255
G1 X60.641 Y48.773 E10.69569
G1 X60.533 Y49.368 E10.71883
G1 X60.348 Y49.944 E10.74198
G1 X60.088 Y50.49 E10.76512
G1 X59.759 Y50.997 E10.78825
G1 X59.365 Y51.456 E10.8114
G1 X58.915 Y51.86 E10.83455
G1 X58.415 Y52.2 E10.85769
G1 X57.875 Y52.472 E10.88083
G1 X57.394 Y52.644 E10.90037
G1 X56.891 Y52.793 E10.92045
G1 X54.332 Y53.593 E11.02306
G1 X51.778 Y54.472 E11.12642
G1 X49.232 Y55.429 E11.23051
G1 X46.743 Y56.446 E11.33341
G1 X44.281 Y57.534 E11.43642
G1 X41.832 Y58.701 E11.54024
G1 X39.444 Y59.923 E11.6429
G1 X37.071 Y61.221 E11.74641
G1 X34.737 Y62.588 E11.84992
G1 X32.452 Y64.014 E11.953
G1 X30.181 Y65.521 E12.0573
G1 X28.011 Y67.051 E12.15892
G1 X25.992 Y68.558 E12.25533
G1 X25.499 Y68.934 E12.27906
G1 X25.008 Y69.302 E12.30254
G1 X24.402 Y69.75 E12.33138
G1 X23.789 Y70.194 E12.36035
G1 X23.2 Y70.612 E12.38799
G1 X22.71 Y70.955 E12.41088
G1 X22.128 Y71.354 E12.43788
G1 X21.639 Y71.685 E12.46048
G1 X20.991 Y72.117 E12.49029
G1 X20.35 Y72.535 E12.51957
G1 X19.712 Y72.942 E12.54853
G1 X19.323 Y73.187 E12.56613
G1 X18.602 Y73.632 E12.59855
G1 X17.859 Y74.081 E12.63177
G1 X16.981 Y74.599 E12.67079
G1 X16.385 Y74.942 E12.6971
G1 X15.515 Y75.431 E12.7353
G1 X14.614 Y75.923 E12.77458
G1 X13.75 Y76.382 E12.81202
G1 X12.987 Y76.777 E12.8449
G1 X12.3 Y77.124 E12.87436
G1 X11.316 Y77.609 E12.91634
G1 X10.504 Y77.995 E12.95075
G1 X9.735 Y78.353 E12.98321
G1 X9.094 Y78.643 E13.01013
G1 X8.41 Y78.947 E13.03878
G1 X7.863 Y79.184 E13.06159
G1 X7.312 Y79.418 E13.0845
G1 X6.379 Y79.805 E13.12316
G1 X6.008 Y79.954 E13.13846
G1 X5.133 Y80.3 E13.17447
G1 X4.47 Y80.555 E13.20165
G1 X3.986 Y80.737 E13.22144
G1 X3.09 Y81.065 E13.25796
G1 X2.512 Y81.27 E13.28143
G1 X1.644 Y81.569 E13.31656
G1 X0.976 Y81.793 E13.34352
G1 X0.539 Y81.935 E13.36111
G1 X-.127 Y82.148 E13.38787
G1 X-.862 Y82.376 E13.41732
G1 X-1.872 Y82.676 E13.45764
G1 X-2.83 Y82.949 E13.49576
G1 X-3.473 Y83.125 E13.52127
G1 X-4.12 Y83.297 E13.54689
G1 X-4.818 Y83.476 E13.57447
G1 X-5.581 Y83.665 E13.60455
G1 X-6.2 Y83.813 E13.62891
G1 X-6.966 Y83.989 E13.65899
G1 X-7.66 Y84.142 E13.68618
G1 X-8.416 Y84.302 E13.71575
G1 X-9.104 Y84.44 E13.74261
G1 X-9.772 Y84.57 E13.76865
G1 X-10.576 Y84.718 E13.79994
G1 X-11.12 Y84.813 E13.82107
G1 X-11.772 Y84.922 E13.84637
G1 X-12.472 Y85.034 E13.8735
G1 X-13.099 Y85.13 E13.89777
G1 X-14.021 Y85.263 E13.93342
G1 X-14.558 Y85.334 E13.95415
G1 X-15.261 Y85.422 E13.98127
G1 X-16.015 Y85.511 E14.01032
G1 X-17.18 Y85.636 E14.05516
G1 X-17.797 Y85.694 E14.07888
G1 X-18.659 Y85.768 E14.11199
G1 X-19.627 Y85.841 E14.14914
G1 X-20.307 Y85.886 E14.17522
G1 X-20.984 Y85.925 E14.20117
G1 X-21.566 Y85.954 E14.22347
G1 X-22.014 Y85.972 E14.24063
G1 X-22.691 Y85.991 E14.26655
G1 X-23.295 Y85.968 E14.28968
G1 X-23.891 Y85.866 E14.31282
G1 X-24.468 Y85.686 E14.33595
G1 X-25.016 Y85.431 E14.35908
G1 X-25.526 Y85.106 E14.38222
G1 X-25.989 Y84.717 E14.40537
G1 X-26.396 Y84.27 E14.4285
G1 X-26.741 Y83.773 E14.45166
G1 X-27.018 Y83.235 E14.47481
G1 X-27.221 Y82.666 E14.49793
G1 X-27.347 Y82.074 E14.5211
G1 X-27.399 Y81.474 E14.54414
G1 X-27.418 Y81.041 E14.56073
G1 X-27.966 Y64.704 E15.18629
G1 X-27.979 Y64.026 E15.21224
G1 X-27.97 Y63.638 E15.2271
G1 X-27.903 Y62.619 E15.26618
G1 X-27.764 Y59.897 E15.37048
G1 X-27.701 Y57.19 E15.47411
G1 X-27.716 Y54.478 E15.57789
G1 X-27.806 Y51.803 E15.68032
G1 X-27.971 Y49.13 E15.78281
G1 X-28.22 Y46.377 E15.8886
G1 X-28.508 Y43.936 E15.98266
G1 X-28.673 Y42.682 E16.03107
G1 X-28.714 Y42.201 E16.04954
G1 X-28.741 Y41.601 E16.07252
G1 X-29.39 Y22.235 E16.81407
G1 X-29.403 Y21.556 E16.84006
G1 X-29.353 Y20.786 E16.86959
G1 X-29.164 Y19.535 E16.91801
G1 X-29.062 Y18.921 E16.94183
G1 X-28.696 Y16.219 E17.04617
G1 X-28.411 Y13.554 E17.14874
G1 X-28.199 Y10.851 E17.2525
G1 X-28.066 Y8.181 E17.35481
G1 X-28.007 Y5.471 E17.45855
G1 X-28.026 Y2.758 E17.56237
G1 X-28.118 Y0.088 E17.66461
G0 F2040 X-27.768 Y0.088
G1 F1020 X-27.943 Y-2.678 E17.77068
G1 X-28.185 Y-5.32 E17.87221
G1 X-28.512 Y-8.038 E17.97698
G1 X-28.914 Y-10.731 E18.08118
G1 X-29.384 Y-13.368 E18.18369
G1 X-29.941 Y-16.051 E18.28855
G1 X-30.131 Y-16.859 E18.32032
G1 X-30.297 Y-17.615 E18.34994
G1 X-30.39 Y-18.326 E18.37738
G1 X-30.425 Y-19.07 E18.40588
G1 X-31.071 Y-38.363 E19.14463
G1 X-31.084 Y-39.038 E19.17047
G1 X-31.076 Y-39.395 E19.18413
G1 X-31.007 Y-40.449 E19.22456
G1 X-30.869 Y-43.136 E19.32752
G1 X-30.806 Y-45.864 E19.43195
G1 X-30.821 Y-48.56 E19.53512
G1 X-30.912 Y-51.294 E19.63981
G1 X-31.078 Y-53.975 E19.74261
G1 X-31.323 Y-56.688 E19.84686
G1 X-31.624 Y-59.239 E19.94516
G1 X-31.78 Y-60.428 E19.99105
G1 X-31.816 Y-60.848 E20.00718
G1 X-31.849 Y-61.544 E20.03385
G1 X-32.39 Y-77.721 E20.65328
G1 X-32.404 Y-78.384 E20.67866
G1 X-32.376 Y-78.964 E20.70088
G1 X-32.269 Y-79.535 E20.72311
G1 X-32.085 Y-80.086 E20.74535
G1 X-31.827 Y-80.607 E20.76759
G1 X-31.499 Y-81.087 E20.78984
G1 X-31.109 Y-81.518 E20.81209
G1 X-30.664 Y-81.891 E20.83431
G1 X-30.172 Y-82.199 E20.85652
G1 X-29.642 Y-82.437 E20.87876
G1 X-29.084 Y-82.6 E20.901
G1 X-28.462 Y-82.689 E20.92505
G1 X-27.869 Y-82.719 E20.94777
G1 X-27.085 Y-82.737 E20.97778
G1 X-26.551 Y-82.746 E20.99822
G1 X-25.748 Y-82.751 E21.02895
G1 X-24.524 Y-82.746 E21.0758
G1 X-23.645 Y-82.731 E21.10944
G1 X-23.176 Y-82.72 E21.12739
G1 X-22.516 Y-82.699 E21.15266
G1 X-21.889 Y-82.674 E21.17668
G1 X-20.701 Y-82.615 E21.2222
G1 X-20.084 Y-82.577 E21.24585
G1 X-19.165 Y-82.513 E21.28111
G1 X-18.186 Y-82.433 E21.3187
G1 X-17.503 Y-82.371 E21.34495
G1 X-16.808 Y-82.301 E21.37168
G1 X-15.961 Y-82.209 E21.40428
G1 X-15.216 Y-82.121 E21.43299
G1 X-14.412 Y-82.018 E21.46401
G1 X-13.758 Y-81.927 E21.48928
G1 X-13.072 Y-81.829 E21.5158
G1 X-12.526 Y-81.745 E21.53694
G1 X-11.78 Y-81.625 E21.56586
G1 X-10.973 Y-81.488 E21.59718
G1 X-10.41 Y-81.388 E21.61907
G1 X-9.577 Y-81.231 E21.65151
G1 X-8.825 Y-81.083 E21.68084
G1 X-8.322 Y-80.979 E21.70049
G1 X-7.565 Y-80.817 E21.73012
G1 X-6.811 Y-80.651 E21.75967
G1 X-6.234 Y-80.517 E21.78233
G1 X-5.367 Y-80.309 E21.81646
G1 X-4.312 Y-80.041 E21.85811
G1 X-3.631 Y-79.862 E21.88506
G1 X-2.775 Y-79.626 E21.91904
G1 X-2.102 Y-79.434 E21.94582
G1 X-.955 Y-79.094 E21.99161
G1 X0.09 Y-78.768 E22.0335
G1 X0.759 Y-78.552 E22.0604
G1 X1.544 Y-78.289 E22.09209
G1 X2.4 Y-77.994 E22.12673
G1 X2.995 Y-77.783 E22.15089
G1 X4.304 Y-77.3 E22.20429
G1 X5.149 Y-76.975 E22.23894
G1 X5.995 Y-76.638 E22.27379
G1 X6.606 Y-76.39 E22.29902
G1 X7.176 Y-76.151 E22.32268
G1 X7.926 Y-75.831 E22.35388
G1 X8.56 Y-75.553 E22.38038
G1 X9.137 Y-75.296 E22.40455
G1 X10.124 Y-74.843 E22.44611
G1 X10.682 Y-74.58 E22.46972
G1 X11.151 Y-74.356 E22.48961
G1 X12.083 Y-73.897 E22.52936
G1 X12.807 Y-73.532 E22.56039
G1 X13.641 Y-73.1 E22.59634
G1 X14.47 Y-72.659 E22.63227
G1 X15.423 Y-72.138 E22.67384
G1 X16.096 Y-71.758 E22.70342
G1 X16.727 Y-71.396 E22.73126
G1 X17.378 Y-71.015 E22.76012
G1 X17.994 Y-70.647 E22.78758
G1 X18.595 Y-70.282 E22.81449
G1 X19.063 Y-69.992 E22.83556
G1 X19.72 Y-69.579 E22.86526
G1 X20.29 Y-69.212 E22.8912
G1 X21.236 Y-68.59 E22.93453
G1 X23.528 Y-67.112 E23.0389
G1 X25.847 Y-65.709 E23.14263
G1 X28.226 Y-64.36 E23.24729
G1 X30.584 Y-63.109 E23.34944
G1 X33.06 Y-61.885 E23.45514
G1 X35.47 Y-60.777 E23.55665
G1 X37.984 Y-59.706 E23.66123
G1 X40.512 Y-58.712 E23.76518
G1 X43.063 Y-57.792 E23.86896
G1 X45.617 Y-56.952 E23.97185
G1 X48.196 Y-56.184 E24.07483
G1 X50.842 Y-55.476 E24.17966
G1 X52.365 Y-55.123 E24.23949
G1 X52.496 Y-55.083 E24.24473
G1 X53.76 Y-54.781 E24.29446
G1 X54.314 Y-54.608 E24.31667
G1 X54.84 Y-54.36 E24.33893
G1 X55.326 Y-54.042 E24.36116
G1 X55.764 Y-53.661 E24.38337
G1 X56.146 Y-53.223 E24.40561
G1 X56.464 Y-52.737 E24.42784
G1 X56.713 Y-52.211 E24.45011
G1 X56.887 Y-51.657 E24.47233
G1 X56.995 Y-50.94 E24.50008
G1 X57.022 Y-50.483 E24.5176
G1 X60.306 Y47.498 E28.26939
G1 X60.319 Y48.176 E28.29535
G1 X60.29 Y48.756 E28.31757
G1 X60.182 Y49.327 E28.33981
G1 X59.997 Y49.878 E28.36205
G1 X59.737 Y50.398 E28.3843
G1 X59.409 Y50.877 E28.40652
G1 X59.018 Y51.307 E28.42876
G1 X58.572 Y51.679 E28.45099
G1 X58.079 Y51.987 E28.47323
G1 X57.295 Y52.308 E28.50565
G1 X56.792 Y52.457 E28.52573
G1 X54.225 Y53.26 E28.62866
G1 X51.66 Y54.142 E28.73246
G1 X49.1 Y55.105 E28.83714
G1 X46.598 Y56.127 E28.94057
G1 X44.13 Y57.218 E29.04383
G1 X41.678 Y58.386 E29.14777
G1 X39.287 Y59.61 E29.25057
G1 X36.896 Y60.918 E29.35487
G1 X34.56 Y62.286 E29.45847
G1 X32.243 Y63.732 E29.56299
G1 X29.996 Y65.223 E29.66619
G1 X27.804 Y66.769 E29.76884
G1 X25.783 Y68.277 E29.86534
G1 X25.289 Y68.654 E29.88912
G1 X24.8 Y69.021 E29.91252
G1 X24.196 Y69.466 E29.94123
G1 X23.586 Y69.908 E29.97006
G1 X22.999 Y70.325 E29.99761
G1 X22.512 Y70.666 E30.02037
G1 X21.932 Y71.064 E30.04729
G1 X21.445 Y71.394 E30.0698
G1 X20.8 Y71.824 E30.09947
G1 X20.162 Y72.24 E30.12861
G1 X19.526 Y72.646 E30.15749
G1 X19.139 Y72.889 E30.17498
G1 X18.421 Y73.332 E30.20726
G1 X17.682 Y73.78 E30.24034
G1 X16.806 Y74.296 E30.27924
G1 X16.214 Y74.637 E30.30539
G1 X15.347 Y75.124 E30.34344
G1 X14.45 Y75.614 E30.38256
G1 X13.589 Y76.072 E30.41988
G1 X12.83 Y76.465 E30.45259
G1 X12.145 Y76.811 E30.48196
G1 X11.531 Y77.114 E30.50816
G1 X11.126 Y77.312 E30.52542
G1 X10.357 Y77.678 E30.55801
G1 X9.591 Y78.034 E30.59033
G1 X8.951 Y78.324 E30.61722
G1 X8.271 Y78.626 E30.6457
G1 X7.726 Y78.862 E30.66843
G1 X7.178 Y79.095 E30.69121
G1 X6.248 Y79.48 E30.72973
G1 X5.88 Y79.629 E30.74493
G1 X5.007 Y79.974 E30.78085
G1 X4.346 Y80.227 E30.80794
G1 X3.865 Y80.408 E30.82761
G1 X2.973 Y80.736 E30.86398
G1 X2.398 Y80.939 E30.88731
G1 X1.533 Y81.237 E30.92232
G1 X0.868 Y81.46 E30.94917
G1 X0.458 Y81.594 E30.96567
G1 X-.23 Y81.814 E30.99332
G1 X-.962 Y82.04 E31.02263
G1 X-1.968 Y82.34 E31.06281
G1 X-2.923 Y82.612 E31.10081
G1 X-3.562 Y82.787 E31.12617
G1 X-4.207 Y82.958 E31.1517
G1 X-4.902 Y83.136 E31.17916
G1 X-5.663 Y83.324 E31.20916
G1 X-6.279 Y83.472 E31.2334
G1 X-7.041 Y83.648 E31.26333
G1 X-7.733 Y83.799 E31.29044
G1 X-8.485 Y83.958 E31.31985
G1 X-9.171 Y84.097 E31.34664
G1 X-9.836 Y84.226 E31.37256
G1 X-10.636 Y84.373 E31.40369
G1 X-11.178 Y84.468 E31.42475
G1 X-11.828 Y84.577 E31.44997
G1 X-12.525 Y84.688 E31.47698
G1 X-13.149 Y84.784 E31.50114
G1 X-14.067 Y84.916 E31.53663
G1 X-14.602 Y84.987 E31.55729
G1 X-15.302 Y85.075 E31.58429
G1 X-16.053 Y85.163 E31.61322
G1 X-17.174 Y85.284 E31.65637
G1 X-17.827 Y85.345 E31.68147
G1 X-18.685 Y85.419 E31.71443
G1 X-19.651 Y85.491 E31.7515
G1 X-20.328 Y85.537 E31.77747
G1 X-21.002 Y85.576 E31.80331
G1 X-21.58 Y85.604 E31.82545
G1 X-22.023 Y85.622 E31.84242
G1 X-22.7 Y85.641 E31.86834
G1 X-23.281 Y85.618 E31.89059
G1 X-23.853 Y85.515 E31.91283
G1 X-24.405 Y85.334 E31.93506
G1 X-24.927 Y85.079 E31.9573
G1 X-25.41 Y84.755 E31.97955
G1 X-25.843 Y84.368 E32.00178
G1 X-26.219 Y83.926 E32.02399
G1 X-26.531 Y83.435 E32.04625
G1 X-26.773 Y82.907 E32.06848
G1 X-26.94 Y82.35 E32.09073
G1 X-27.034 Y81.705 E32.11567
G1 X-27.067 Y81.075 E32.13982
G1 X-27.615 Y64.758 E32.76461
G1 X-27.629 Y64.019 E32.7929
G1 X-27.621 Y63.661 E32.8066
G1 X-27.552 Y62.61 E32.84691
G1 X-27.414 Y59.924 E32.94984
G1 X-27.351 Y57.193 E33.05438
G1 X-27.366 Y54.5 E33.15744
G1 X-27.457 Y51.772 E33.2619
G1 X-27.625 Y49.074 E33.36535
G1 X-27.868 Y46.379 E33.4689
G1 X-28.168 Y43.834 E33.56697
G1 X-28.326 Y42.636 E33.61322
G1 X-28.365 Y42.185 E33.63054
G1 X-28.392 Y41.59 E33.65334
G1 X-29.04 Y22.228 E34.39473
G1 X-29.053 Y21.549 E34.42072
G1 X-29.007 Y20.838 E34.44798
G1 X-28.818 Y19.592 E34.49621
G1 X-28.718 Y18.99 E34.51957
G1 X-28.35 Y16.268 E34.62468
G1 X-28.062 Y13.581 E34.7281
G1 X-27.852 Y10.898 E34.83109
G1 X-27.715 Y8.17 E34.93562
G1 X-27.657 Y5.477 E35.03871
G1 X-27.676 Y2.743 E35.14334
G1 X-27.768 Y0.088 E35.24501
G0 F2040 X-27.421 Y0.019
G1 F1020 X-27.591 Y-2.659 E35.3477
G1 X-27.841 Y-5.397 E35.45292
G1 X-28.162 Y-8.062 E35.55564
