;FLAVOR:Marlin
;TIME:7212
;Filament used: 10.0075m
;Layer height: 0.3
;MINX:-67.88
;MINY:-70.399
;MINZ:0.26
;MAXX:61.641
;MAXY:93.597
;MAXZ:2.96
;Generated with Cura_SteamEngine 4.9.1
M82 ;absolute extrusion mode
;Gcode by Cura
G90
G28
M107
M109 R100
G30
M109 S215 U-55 X55 V-85 Y-85 W0.26 Z0.26
M82
G92 E0
G1 F200 E6
G92 E0
G1 F200 E-3.5
G0 Z0.15
G0 X10
G0 Z3
G1 F6000
G92 E0
G92 E0
G1 F3600 E-3.8
;LAYER_COUNT:10
;LAYER:0
M107
G0 F2040 X-37.949 Y13.929 Z0.26
;TYPE:SKIRT
G1 F3600 E0
G1 F1020 X-38.98 Y11.401 E0.10448
G1 X-40.066 Y8.941 E0.20739
G1 X-41.211 Y6.534 E0.3094
G1 X-42.452 Y4.104 E0.41382
G1 X-43.744 Y1.739 E0.51695
G1 X-45.103 Y-.586 E0.62001
G1 X-45.655 Y-1.474 E0.66002
G1 X-46.08 Y-2.178 E0.6915
G1 X-46.417 Y-2.858 E0.72054
G1 X-46.682 Y-3.531 E0.74822
G1 X-53.51 Y-21.662 E1.48966
G1 X-53.737 Y-22.293 E1.51532
G1 X-53.851 Y-22.656 E1.52988
G1 X-54.126 Y-23.681 E1.57049
G1 X-54.855 Y-26.26 E1.67306
G1 X-55.675 Y-28.877 E1.77801
G1 X-56.553 Y-31.42 E1.88097
G1 X-57.494 Y-33.917 E1.98309
G1 X-58.522 Y-36.427 E2.08689
G1 X-59.632 Y-38.933 E2.19178
G1 X-60.681 Y-41.141 E2.28533
G1 X-61.258 Y-42.315 E2.33539
G1 X-61.41 Y-42.659 E2.34978
G1 X-61.661 Y-43.3 E2.37613
G1 X-67.387 Y-58.501 E2.99776
G1 X-67.615 Y-59.133 E3.02348
G1 X-67.782 Y-59.715 E3.04665
G1 X-67.871 Y-60.313 E3.06978
G1 X-67.88 Y-60.917 E3.0929
G1 X-67.81 Y-61.518 E3.11606
G1 X-67.661 Y-62.104 E3.1392
G1 X-67.436 Y-62.665 E3.16233
G1 X-67.139 Y-63.192 E3.18548
G1 X-66.775 Y-63.675 E3.20862
G1 X-66.351 Y-64.105 E3.23174
G1 X-65.873 Y-64.476 E3.25489
G1 X-65.351 Y-64.781 E3.27803
G1 X-64.77 Y-65.031 E3.30223
G1 X-64.378 Y-65.18 E3.31828
G1 X-63.724 Y-65.418 E3.34492
G1 X-63.196 Y-65.604 E3.36634
G1 X-62.49 Y-65.849 E3.39494
G1 X-61.932 Y-66.038 E3.41748
G1 X-61.324 Y-66.24 E3.442
G1 X-60.543 Y-66.489 E3.47337
G1 X-59.791 Y-66.722 E3.5035
G1 X-59.15 Y-66.914 E3.52911
G1 X-58.635 Y-67.065 E3.54965
G1 X-57.768 Y-67.312 E3.58415
G1 X-57.167 Y-67.476 E3.60799
G1 X-56.51 Y-67.651 E3.63401
G1 X-55.767 Y-67.841 E3.66336
G1 X-55.002 Y-68.03 E3.69351
G1 X-54.317 Y-68.193 E3.72046
G1 X-53.342 Y-68.414 E3.75872
G1 X-52.304 Y-68.636 E3.79934
G1 X-51.579 Y-68.783 E3.82765
G1 X-50.754 Y-68.943 E3.85981
G1 X-50.322 Y-69.022 E3.87662
G1 X-49.419 Y-69.183 E3.91172
G1 X-48.368 Y-69.356 E3.95248
G1 X-47.455 Y-69.496 E3.98783
G1 X-46.795 Y-69.59 E4.01335
G1 X-46.062 Y-69.69 E4.04166
G1 X-45.373 Y-69.776 E4.06823
G1 X-44.666 Y-69.859 E4.09547
G1 X-43.931 Y-69.939 E4.12377
G1 X-43.027 Y-70.029 E4.15853
G1 X-42.469 Y-70.08 E4.17998
G1 X-41.701 Y-70.142 E4.20946
G1 X-40.995 Y-70.195 E4.23656
G1 X-40.378 Y-70.236 E4.26022
G1 X-39.742 Y-70.274 E4.2846
G1 X-38.761 Y-70.321 E4.32219
G1 X-38.243 Y-70.342 E4.34203
G1 X-37.255 Y-70.372 E4.37986
G1 X-36.327 Y-70.391 E4.41538
G1 X-35.606 Y-70.398 E4.44297
G1 X-34.703 Y-70.399 E4.47753
G1 X-33.953 Y-70.392 E4.50623
G1 X-33.283 Y-70.38 E4.53188
G1 X-32.586 Y-70.362 E4.55856
G1 X-31.577 Y-70.326 E4.5972
G1 X-30.145 Y-70.254 E4.65207
G1 X-29.135 Y-70.188 E4.69081
G1 X-27.923 Y-70.094 E4.73733
G1 X-27.284 Y-70.036 E4.76188
G1 X-26.333 Y-69.943 E4.79845
G1 X-25.556 Y-69.858 E4.82836
G1 X-24.896 Y-69.78 E4.8538
G1 X-24.027 Y-69.669 E4.88732
G1 X-23.031 Y-69.532 E4.9258
G1 X-22.224 Y-69.411 E4.95703
G1 X-21.322 Y-69.266 E4.99199
G1 X-20.607 Y-69.145 E5.01974
G1 X-19.986 Y-69.035 E5.04388
G1 X-19.064 Y-68.862 E5.07978
G1 X-18.075 Y-68.665 E5.11837
G1 X-17.554 Y-68.555 E5.13875
G1 X-16.797 Y-68.392 E5.16838
G1 X-15.933 Y-68.195 E5.20229
G1 X-15.208 Y-68.022 E5.23082
G1 X-14.365 Y-67.812 E5.26407
G1 X-13.656 Y-67.631 E5.29207
G1 X-12.966 Y-67.446 E5.31941
G1 X-10.303 Y-66.763 E5.42462
G1 X-7.649 Y-66.162 E5.52876
G1 X-4.999 Y-65.642 E5.6321
G1 X-2.379 Y-65.204 E5.73376
G1 X0.317 Y-64.83 E5.83793
G1 X3.002 Y-64.537 E5.94129
G1 X5.677 Y-64.319 E6.044
G1 X8.382 Y-64.176 E6.14766
G1 X11.093 Y-64.109 E6.25144
G1 X13.766 Y-64.12 E6.35374
G1 X16.48 Y-64.207 E6.45766
G1 X19.202 Y-64.371 E6.56201
G1 X20.783 Y-64.503 E6.62273
G1 X21.975 Y-64.612 E6.66854
G1 X22.58 Y-64.627 E6.6917
G1 X23.181 Y-64.562 E6.71483
G1 X23.768 Y-64.419 E6.73795
G1 X24.332 Y-64.199 E6.76112
G1 X24.861 Y-63.907 E6.78424
G1 X25.348 Y-63.548 E6.8074
G1 X25.782 Y-63.128 E6.83051
G1 X26.158 Y-62.654 E6.85366
G1 X26.468 Y-62.135 E6.8768
G1 X26.72 Y-61.565 E6.90065
G1 X26.782 Y-61.409 E6.90707
G1 X61.149 Y29.833 E10.63834
G1 X61.375 Y30.459 E10.66381
G1 X61.542 Y31.041 E10.68698
G1 X61.632 Y31.639 E10.71013
G1 X61.641 Y32.243 E10.73324
G1 X61.571 Y32.844 E10.7564
G1 X61.422 Y33.43 E10.77954
G1 X61.197 Y33.991 E10.80267
G1 X60.9 Y34.518 E10.82582
G1 X60.537 Y35.001 E10.84894
G1 X60.112 Y35.432 E10.87211
G1 X59.705 Y35.757 E10.89204
G1 X57.629 Y37.272 E10.99039
G1 X55.511 Y38.911 E11.09288
G1 X53.42 Y40.624 E11.19633
G1 X51.357 Y42.416 E11.3009
G1 X49.386 Y44.228 E11.40336
G1 X47.456 Y46.105 E11.50639
G1 X45.569 Y48.047 E11.61002
G1 X43.742 Y50.038 E11.71343
G1 X42.004 Y52.043 E11.81498
G1 X40.247 Y54.188 E11.92109
G1 X38.623 Y56.289 E12.02271
G1 X37.034 Y58.472 E12.12604
G1 X35.498 Y60.711 E12.22995
G1 X34.931 Y61.558 E12.26896
G1 X34.535 Y62.138 E12.29584
G1 X34.01 Y62.891 E12.33097
G1 X33.409 Y63.733 E12.37056
G1 X32.841 Y64.51 E12.40739
G1 X32.387 Y65.117 E12.4364
G1 X31.911 Y65.741 E12.46643
G1 X31.446 Y66.34 E12.49545
G1 X31.107 Y66.769 E12.51638
G1 X30.389 Y67.661 E12.5602
G1 X29.849 Y68.316 E12.59269
G1 X29.278 Y68.994 E12.62661
G1 X28.735 Y69.626 E12.6585
G1 X28.041 Y70.416 E12.69874
G1 X27.457 Y71.064 E12.73212
G1 X26.835 Y71.741 E12.76731
G1 X26.465 Y72.137 E12.78805
G1 X25.901 Y72.732 E12.81942
G1 X25.526 Y73.119 E12.84004
G1 X24.883 Y73.774 E12.87517
G1 X24.161 Y74.49 E12.91408
G1 X23.588 Y75.049 E12.94472
G1 X23.144 Y75.475 E12.96827
G1 X22.558 Y76.027 E12.99907
G1 X21.931 Y76.604 E13.03168
G1 X21.436 Y77.054 E13.05728
G1 X20.932 Y77.504 E13.08314
G1 X20.408 Y77.963 E13.1098
G1 X19.753 Y78.527 E13.14288
G1 X19.23 Y78.971 E13.16913
G1 X18.693 Y79.418 E13.19587
G1 X18.177 Y79.839 E13.22136
G1 X17.67 Y80.247 E13.24626
G1 X16.836 Y80.906 E13.28694
G1 X16.216 Y81.385 E13.31692
G1 X15.534 Y81.899 E13.34961
G1 X14.961 Y82.324 E13.37691
G1 X14.431 Y82.711 E13.40202
G1 X13.506 Y83.37 E13.44549
G1 X13.036 Y83.697 E13.4674
G1 X12.487 Y84.075 E13.49291
G1 X11.72 Y84.591 E13.52828
G1 X10.897 Y85.132 E13.56598
G1 X10.102 Y85.642 E13.60212
G1 X9.422 Y86.067 E13.63281
G1 X8.819 Y86.437 E13.65988
G1 X8.218 Y86.799 E13.68673
G1 X7.758 Y87.071 E13.70719
G1 X7.022 Y87.499 E13.73977
G1 X5.939 Y88.112 E13.78739
G1 X5.373 Y88.423 E13.81211
G1 X4.602 Y88.838 E13.84562
G1 X4.143 Y89.082 E13.86551
G1 X3.349 Y89.491 E13.89969
G1 X2.661 Y89.839 E13.9292
G1 X1.987 Y90.172 E13.95797
G1 X1.289 Y90.509 E13.98763
G1 X0.979 Y90.656 E14.00076
G1 X0.098 Y91.065 E14.03793
G1 X-.517 Y91.344 E14.06378
G1 X-1.182 Y91.639 E14.09162
G1 X-1.716 Y91.87 E14.11388
G1 X-2.463 Y92.188 E14.14495
G1 X-3.262 Y92.517 E14.17802
G1 X-3.682 Y92.687 E14.19536
G1 X-4.646 Y93.066 E14.235
G1 X-5.344 Y93.323 E14.26347
G1 X-5.925 Y93.493 E14.28663
G1 X-6.522 Y93.585 E14.30975
G1 X-7.127 Y93.597 E14.33291
G1 X-7.728 Y93.53 E14.35605
G1 X-8.314 Y93.384 E14.37916
G1 X-8.877 Y93.161 E14.40234
G1 X-9.405 Y92.867 E14.42546
G1 X-9.89 Y92.506 E14.4486
G1 X-10.322 Y92.083 E14.47174
G1 X-10.696 Y91.608 E14.49488
G1 X-11.003 Y91.087 E14.51802
G1 X-11.237 Y90.556 E14.54022
G1 X-11.387 Y90.17 E14.55607
G1 X-17.138 Y74.901 E15.18048
G1 X-17.388 Y74.21 E15.20861
G1 X-17.506 Y73.833 E15.22372
G1 X-17.763 Y72.869 E15.2619
G1 X-18.512 Y70.222 E15.36718
G1 X-19.336 Y67.595 E15.47254
G1 X-20.191 Y65.117 E15.57286
G1 X-21.159 Y62.552 E15.67778
G1 X-22.184 Y60.049 E15.78129
G1 X-23.267 Y57.608 E15.88349
G1 X-24.349 Y55.329 E15.98003
G1 X-24.901 Y54.206 E16.02792
G1 X-25.051 Y53.867 E16.04211
G1 X-25.312 Y53.203 E16.06941
G1 X-32.14 Y35.074 E16.81078
G1 X-32.37 Y34.436 E16.83673
G1 X-32.571 Y33.681 E16.86663
G1 X-32.757 Y32.63 E16.90748
G1 X-32.852 Y32.049 E16.93001
G1 X-33.351 Y29.441 E17.03162
G1 X-33.941 Y26.774 E17.13616
G1 X-34.589 Y24.191 E17.23807
G1 X-35.32 Y21.591 E17.34143
G1 X-36.132 Y18.987 E17.44582
G1 X-37.004 Y16.45 E17.54848
G1 X-37.949 Y13.929 E17.65151
G0 F2040 X-37.629 Y13.786
G1 F1020 X-38.648 Y11.286 E17.75483
G1 X-39.743 Y8.805 E17.85861
G1 X-40.903 Y6.367 E17.96194
G1 X-42.138 Y3.947 E18.06591
G1 X-43.433 Y1.58 E18.16917
G1 X-44.811 Y-.778 E18.27368
G1 X-45.355 Y-1.654 E18.31315
G1 X-45.78 Y-2.358 E18.34462
G1 X-46.091 Y-2.986 E18.37144
G1 X-46.355 Y-3.654 E18.39892
G1 X-53.181 Y-21.781 E19.14019
G1 X-53.408 Y-22.412 E19.16585
G1 X-53.513 Y-22.747 E19.17929
G1 X-53.788 Y-23.772 E19.2199
G1 X-54.517 Y-26.35 E19.32243
G1 X-55.346 Y-28.995 E19.42851
G1 X-56.215 Y-31.515 E19.53052
G1 X-57.179 Y-34.074 E19.63517
G1 X-58.197 Y-36.56 E19.73798
G1 X-59.309 Y-39.069 E19.843
G1 X-60.367 Y-41.295 E19.93732
G1 X-60.944 Y-42.469 E19.98738
G1 X-61.084 Y-42.787 E20.00068
G1 X-61.334 Y-43.424 E20.02687
G1 X-67.057 Y-58.62 E20.64829
G1 X-67.285 Y-59.252 E20.674
G1 X-67.444 Y-59.811 E20.69624
G1 X-67.525 Y-60.386 E20.71846
G1 X-67.527 Y-60.967 E20.7407
G1 X-67.448 Y-61.543 E20.76295
G1 X-67.291 Y-62.103 E20.7852
G1 X-67.059 Y-62.635 E20.80742
G1 X-66.757 Y-63.131 E20.82964
G1 X-66.388 Y-63.581 E20.85191
G1 X-65.962 Y-63.976 E20.87414
G1 X-65.486 Y-64.308 E20.89635
G1 X-64.934 Y-64.587 E20.92002
G1 X-64.308 Y-64.832 E20.94575
G1 X-63.607 Y-65.088 E20.97431
G1 X-63.082 Y-65.274 E20.99562
G1 X-62.377 Y-65.517 E21.02416
G1 X-61.822 Y-65.706 E21.0466
G1 X-61.217 Y-65.906 E21.07098
G1 X-60.44 Y-66.155 E21.10221
G1 X-59.691 Y-66.387 E21.13222
G1 X-59.052 Y-66.578 E21.15774
G1 X-58.539 Y-66.729 E21.1782
G1 X-57.675 Y-66.974 E21.21257
G1 X-57.077 Y-67.138 E21.2363
G1 X-56.423 Y-67.312 E21.2622
G1 X-55.683 Y-67.501 E21.29143
G1 X-54.921 Y-67.69 E21.32148
G1 X-54.24 Y-67.851 E21.34826
G1 X-53.269 Y-68.071 E21.38636
G1 X-52.234 Y-68.293 E21.42687
G1 X-51.512 Y-68.439 E21.45506
G1 X-50.691 Y-68.599 E21.48707
G1 X-50.261 Y-68.678 E21.5038
G1 X-49.362 Y-68.837 E21.53874
G1 X-48.315 Y-69.01 E21.57935
G1 X-47.405 Y-69.149 E21.61458
G1 X-46.748 Y-69.243 E21.63998
G1 X-46.018 Y-69.342 E21.66817
G1 X-45.332 Y-69.428 E21.69463
G1 X-44.628 Y-69.511 E21.72176
G1 X-43.896 Y-69.591 E21.74994
G1 X-42.996 Y-69.681 E21.78455
G1 X-42.44 Y-69.731 E21.80591
G1 X-41.676 Y-69.793 E21.83525
G1 X-40.971 Y-69.846 E21.8623
G1 X-40.358 Y-69.887 E21.88582
G1 X-39.725 Y-69.924 E21.91008
G1 X-38.747 Y-69.972 E21.94755
G1 X-38.232 Y-69.992 E21.96728
G1 X-37.248 Y-70.022 E22.00495
G1 X-36.324 Y-70.041 E22.04032
G1 X-35.606 Y-70.048 E22.0678
G1 X-34.706 Y-70.049 E22.10224
G1 X-33.959 Y-70.042 E22.13083
G1 X-33.292 Y-70.03 E22.15636
G1 X-32.598 Y-70.012 E22.18293
G1 X-31.595 Y-69.977 E22.22134
G1 X-30.164 Y-69.905 E22.27617
G1 X-29.161 Y-69.839 E22.31464
G1 X-27.912 Y-69.742 E22.36258
G1 X-27.318 Y-69.688 E22.38541
G1 X-26.371 Y-69.595 E22.42182
G1 X-25.597 Y-69.51 E22.45162
G1 X-24.94 Y-69.433 E22.47693
G1 X-24.074 Y-69.323 E22.51034
G1 X-23.083 Y-69.186 E22.54863
G1 X-22.279 Y-69.066 E22.57974
G1 X-21.381 Y-68.921 E22.61455
G1 X-20.668 Y-68.8 E22.64223
G1 X-20.05 Y-68.691 E22.66624
G1 X-19.133 Y-68.519 E22.70195
G1 X-18.147 Y-68.322 E22.74043
G1 X-17.628 Y-68.213 E22.76072
G1 X-16.875 Y-68.05 E22.7902
G1 X-16.014 Y-67.854 E22.824
G1 X-15.292 Y-67.682 E22.8524
G1 X-14.451 Y-67.473 E22.88557
G1 X-13.746 Y-67.293 E22.91341
G1 X-13.037 Y-67.103 E22.9415
G1 X-10.357 Y-66.416 E23.04738
G1 X-7.726 Y-65.819 E23.15063
G1 X-5.09 Y-65.303 E23.25342
G1 X-2.415 Y-64.855 E23.35722
G1 X0.266 Y-64.484 E23.46079
G1 X2.973 Y-64.187 E23.56501
G1 X5.663 Y-63.969 E23.66829
G1 X8.355 Y-63.827 E23.77146
G1 X11.087 Y-63.759 E23.87604
G1 X13.778 Y-63.77 E23.97903
G1 X16.513 Y-63.858 E24.08375
G1 X19.209 Y-64.02 E24.18711
G1 X20.835 Y-64.156 E24.24955
G1 X22.007 Y-64.263 E24.29459
G1 X22.588 Y-64.276 E24.31683
G1 X23.165 Y-64.21 E24.33906
G1 X23.728 Y-64.064 E24.36132
G1 X24.265 Y-63.843 E24.38354
G1 X24.767 Y-63.55 E24.40578
G1 X25.224 Y-63.191 E24.42802
G1 X25.627 Y-62.773 E24.45024
G1 X25.97 Y-62.304 E24.47248
G1 X26.288 Y-61.69 E24.49894
G1 X26.455 Y-61.285 E24.51571
G1 X60.82 Y29.952 E28.24677
G1 X61.046 Y30.578 E28.27224
G1 X61.205 Y31.137 E28.29448
G1 X61.286 Y31.712 E28.3167
G1 X61.288 Y32.293 E28.33894
G1 X61.209 Y32.869 E28.36119
G1 X61.053 Y33.429 E28.38343
G1 X60.821 Y33.961 E28.40564
G1 X60.518 Y34.457 E28.42789
G1 X60.15 Y34.907 E28.45013
G1 X59.602 Y35.397 E28.47827
G1 X59.456 Y35.506 E28.48524
G1 X57.419 Y36.993 E28.58176
G1 X55.285 Y38.643 E28.68499
G1 X53.179 Y40.369 E28.78919
G1 X51.157 Y42.125 E28.89168
G1 X49.135 Y43.983 E28.99677
G1 X47.209 Y45.858 E29.09964
G1 X45.308 Y47.814 E29.20402
G1 X43.501 Y49.783 E29.30629
G1 X41.717 Y51.841 E29.41053
G1 X39.998 Y53.94 E29.51435
G1 X38.326 Y56.102 E29.61895
G1 X36.759 Y58.254 E29.72082
G1 X35.182 Y60.554 E29.82755
G1 X34.642 Y61.36 E29.86467
G1 X34.247 Y61.938 E29.89147
G1 X33.725 Y62.688 E29.92644
G1 X33.127 Y63.527 E29.96587
G1 X32.561 Y64.3 E30.00253
G1 X32.109 Y64.905 E30.03143
G1 X31.634 Y65.527 E30.06138
G1 X31.171 Y66.124 E30.09029
G1 X30.835 Y66.55 E30.11106
G1 X30.119 Y67.438 E30.15471
G1 X29.582 Y68.091 E30.18707
G1 X29.013 Y68.766 E30.22085
G1 X28.472 Y69.395 E30.2526
G1 X27.781 Y70.182 E30.29268
G1 X27.199 Y70.828 E30.32596
G1 X26.58 Y71.502 E30.36098
G1 X26.211 Y71.896 E30.38164
G1 X25.649 Y72.488 E30.41288
G1 X25.276 Y72.874 E30.43342
G1 X24.637 Y73.525 E30.46833
G1 X23.917 Y74.24 E30.50716
G1 X23.346 Y74.796 E30.53766
G1 X22.904 Y75.221 E30.56113
G1 X22.321 Y75.77 E30.59177
G1 X21.696 Y76.345 E30.62427
G1 X21.203 Y76.793 E30.64977
G1 X20.701 Y77.241 E30.67552
G1 X20.18 Y77.698 E30.70204
G1 X19.527 Y78.26 E30.73501
G1 X19.006 Y78.702 E30.76116
G1 X18.471 Y79.147 E30.78779
G1 X17.958 Y79.567 E30.81316
G1 X17.453 Y79.973 E30.83796
G1 X16.623 Y80.629 E30.87844
G1 X16.005 Y81.105 E30.9083
G1 X15.325 Y81.618 E30.94089
G1 X14.754 Y82.042 E30.96811
G1 X14.228 Y82.426 E30.99303
G1 X13.306 Y83.083 E31.03636
G1 X12.838 Y83.409 E31.05819
G1 X12.291 Y83.784 E31.08357
G1 X11.528 Y84.299 E31.1188
G1 X10.708 Y84.837 E31.15633
G1 X9.916 Y85.345 E31.19234
G1 X9.239 Y85.769 E31.22291
G1 X8.638 Y86.137 E31.24988
G1 X8.039 Y86.498 E31.27664
G1 X7.582 Y86.769 E31.29698
G1 X6.85 Y87.194 E31.32937
G1 X5.77 Y87.805 E31.37685
G1 X5.207 Y88.115 E31.40145
G1 X4.438 Y88.529 E31.43487
G1 X3.982 Y88.771 E31.45463
G1 X3.192 Y89.179 E31.48866
G1 X2.506 Y89.525 E31.51806
G1 X1.835 Y89.857 E31.54671
G1 X1.139 Y90.193 E31.57629
G1 X-0.047 Y90.747 E31.62638
G1 X-.659 Y91.024 E31.65209
G1 X-1.321 Y91.318 E31.67981
G1 X-1.853 Y91.548 E31.70199
G1 X-2.597 Y91.865 E31.73294
G1 X-3.393 Y92.193 E31.76589
G1 X-3.81 Y92.361 E31.78309
G1 X-4.773 Y92.74 E31.8227
G1 X-5.465 Y92.994 E31.85091
G1 X-6.023 Y93.156 E31.87314
G1 X-6.598 Y93.24 E31.89538
G1 X-7.179 Y93.244 E31.91762
G1 X-7.755 Y93.168 E31.93985
G1 X-8.315 Y93.014 E31.96208
G1 X-8.849 Y92.785 E31.98431
G1 X-9.346 Y92.484 E32.00655
G1 X-9.798 Y92.119 E32.02878
G1 X-10.195 Y91.694 E32.05104
G1 X-10.53 Y91.219 E32.07329
G1 X-10.822 Y90.642 E32.09803
G1 X-11.045 Y90.085 E32.12099
G1 X-16.809 Y74.782 E32.7468
G1 X-17.059 Y74.091 E32.77492
G1 X-17.168 Y73.743 E32.78888
G1 X-17.443 Y72.712 E32.82971
G1 X-18.171 Y70.14 E32.93201
G1 X-18.996 Y67.508 E33.03756
G1 X-19.881 Y64.947 E33.14126
G1 X-20.822 Y62.45 E33.24338
G1 X-21.865 Y59.904 E33.34867
G1 X-22.958 Y57.441 E33.45179
G1 X-24.008 Y55.23 E33.54546
G1 X-24.587 Y54.052 E33.5957
G1 X-24.725 Y53.739 E33.60879
G1 X-24.985 Y53.079 E33.63594
G1 X-31.811 Y34.955 E34.37709
G1 X-32.041 Y34.317 E34.40305
G1 X-32.226 Y33.62 E34.43065
G1 X-32.411 Y32.574 E34.4713
G1 X-32.498 Y32.037 E34.49212
G1 X-33.017 Y29.327 E34.59771
G1 X-33.593 Y26.723 E34.69977
G1 X-34.257 Y24.08 E34.80406
G1 X-34.991 Y21.47 E34.90782
G1 X-35.788 Y18.912 E35.01036
G1 X-36.681 Y16.313 E35.11553
G1 X-37.629 Y13.786 E35.21881
G0 F2040 X-37.302 Y13.661
G1 F1020 X-38.324 Y11.155 E35.32239
G1 X-39.427 Y8.656 E35.42692
G1 X-40.595 Y6.2 E35.531
G1 X-41.825 Y3.79 E35.63455
G1 X-43.13 Y1.405 E35.73859
G1 X-44.508 Y-.955 E35.84318
G1 X-45.055 Y-1.835 E35.88283
G1 X-45.48 Y-2.539 E35.9143
