;FLAVOR:Marlin
;TIME:10216
;Filament used: 10.3857m
;Layer height: 0.2
;MINX:-29.555
;MINY:-84.458
;MINZ:0.26
;MAXX:63.867
;MAXY:84.633
;MAXZ:3.46
;Generated with Cura_SteamEngine 4.8.0
M82 ;absolute extrusion mode
;Gcode by Cura
G90
G28
M107
M109 R100
G30
M109 S215 U-55 X55 V-85 Y-85 W0.26 Z0.26
M82
G92 E0
G1 F200 E6
G92 E0
G1 F200 E-3.5
G0 Z0.15
G0 X10
G0 Z3
G1 F6000
G92 E0
G92 E0
G1 F3600 E-3.8
;LAYER_COUNT:17
;LAYER:0
M107
G0 F2040 X-25.543 Y40.228 Z0.26
;TYPE:SKIRT
G1 F3600 E0
G1 F1020 X-28.222 Y-39.714 E3.06106
G1 X-28.235 Y-40.399 E3.08728
G1 X-28.226 Y-40.787 E3.10213
G1 X-28.16 Y-41.793 E3.14071
G1 X-28.02 Y-44.522 E3.24529
G1 X-27.957 Y-47.231 E3.34899
G1 X-27.972 Y-49.942 E3.45274
G1 X-28.062 Y-52.621 E3.55532
G1 X-28.229 Y-55.329 E3.65915
G1 X-28.473 Y-58.023 E3.76267
G1 X-28.765 Y-60.497 E3.85801
G1 X-28.928 Y-61.74 E3.90598
G1 X-28.97 Y-62.224 E3.92458
G1 X-28.997 Y-62.819 E3.94737
G1 X-29.541 Y-79.058 E4.56918
G1 X-29.555 Y-79.736 E4.59513
G1 X-29.528 Y-80.34 E4.61827
G1 X-29.421 Y-80.935 E4.6414
G1 X-29.236 Y-81.511 E4.66455
G1 X-28.977 Y-82.057 E4.68768
G1 X-28.649 Y-82.565 E4.71082
G1 X-28.256 Y-83.024 E4.73395
G1 X-27.806 Y-83.428 E4.75709
G1 X-27.307 Y-83.77 E4.78024
G1 X-26.767 Y-84.042 E4.80338
G1 X-26.196 Y-84.241 E4.82652
G1 X-25.604 Y-84.362 E4.84965
G1 X-25.056 Y-84.41 E4.8707
G1 X-24.651 Y-84.427 E4.88621
G1 X-24.038 Y-84.441 E4.90968
G1 X-23.26 Y-84.453 E4.93945
G1 X-22.558 Y-84.458 E4.96632
G1 X-21.921 Y-84.458 E4.9907
G1 X-21.138 Y-84.452 E5.02066
G1 X-20.475 Y-84.44 E5.04604
G1 X-19.367 Y-84.409 E5.08846
G1 X-18.542 Y-84.376 E5.12006
G1 X-17.672 Y-84.333 E5.15339
G1 X-16.813 Y-84.28 E5.18633
G1 X-16.195 Y-84.238 E5.21003
G1 X-15.465 Y-84.182 E5.23805
G1 X-14.844 Y-84.129 E5.2619
G1 X-14.051 Y-84.055 E5.29238
G1 X-13.335 Y-83.982 E5.31993
G1 X-12.281 Y-83.864 E5.36051
G1 X-11.605 Y-83.78 E5.38658
G1 X-10.943 Y-83.693 E5.41214
G1 X-10.029 Y-83.564 E5.44746
G1 X-9.196 Y-83.437 E5.47971
G1 X-8.448 Y-83.316 E5.5087
G1 X-7.674 Y-83.184 E5.53875
G1 X-7.11 Y-83.082 E5.56069
G1 X-6.269 Y-82.924 E5.59344
G1 X-5.6 Y-82.793 E5.61952
G1 X-4.984 Y-82.667 E5.64359
G1 X-4.168 Y-82.492 E5.67552
G1 X-3.633 Y-82.372 E5.69651
G1 X-2.568 Y-82.123 E5.73836
G1 X-1.52 Y-81.865 E5.77967
G1 X-.371 Y-81.565 E5.82511
G1 X0.727 Y-81.261 E5.86871
G1 X1.695 Y-80.983 E5.90726
G1 X2.202 Y-80.831 E5.92751
G1 X2.82 Y-80.641 E5.95225
G1 X3.862 Y-80.308 E5.99412
G1 X4.626 Y-80.056 E6.02491
G1 X5.357 Y-79.806 E6.05447
G1 X6.3 Y-79.474 E6.09273
G1 X7.212 Y-79.14 E6.1299
G1 X7.955 Y-78.859 E6.1603
G1 X8.595 Y-78.611 E6.18657
G1 X9.16 Y-78.386 E6.20984
G1 X9.85 Y-78.106 E6.23834
G1 X10.486 Y-77.842 E6.26469
G1 X11.075 Y-77.592 E6.28918
G1 X11.802 Y-77.275 E6.31953
G1 X12.39 Y-77.013 E6.34416
G1 X13.07 Y-76.704 E6.37275
G1 X13.691 Y-76.415 E6.39896
G1 X14.474 Y-76.041 E6.43217
G1 X15.145 Y-75.714 E6.46074
G1 X15.732 Y-75.421 E6.48584
G1 X16.342 Y-75.11 E6.51205
G1 X16.92 Y-74.81 E6.53697
G1 X17.695 Y-74.4 E6.57052
G1 X18.561 Y-73.929 E6.60825
G1 X19.168 Y-73.59 E6.63485
G1 X20.057 Y-73.083 E6.67402
G1 X20.61 Y-72.76 E6.69853
G1 X21.262 Y-72.372 E6.72756
G1 X21.899 Y-71.986 E6.75607
G1 X22.476 Y-71.628 E6.78205
G1 X23.149 Y-71.204 E6.81249
G1 X23.897 Y-70.721 E6.84657
G1 X24.592 Y-70.263 E6.87842
G1 X24.65 Y-70.231 E6.88096
G1 X26.493 Y-69.029 E6.96516
G1 X28.818 Y-67.607 E7.06946
G1 X31.124 Y-66.283 E7.17122
G1 X33.538 Y-64.987 E7.27608
G1 X35.907 Y-63.8 E7.37748
G1 X38.397 Y-62.64 E7.48261
G1 X40.861 Y-61.574 E7.58535
G1 X43.378 Y-60.568 E7.68908
G1 X45.917 Y-59.64 E7.79254
G1 X48.456 Y-58.79 E7.895
G1 X51.018 Y-58.012 E7.99747
G1 X53.651 Y-57.293 E8.10192
G1 X56.299 Y-56.65 E8.2062
G1 X57.034 Y-56.481 E8.23507
G1 X57.611 Y-56.303 E8.25818
G1 X58.161 Y-56.05 E8.28134
G1 X58.672 Y-55.727 E8.30448
G1 X59.136 Y-55.339 E8.32763
G1 X59.544 Y-54.893 E8.35076
G1 X59.891 Y-54.398 E8.37389
G1 X60.169 Y-53.861 E8.39703
G1 X60.374 Y-53.292 E8.42018
G1 X60.502 Y-52.701 E8.44332
G1 X60.563 Y-51.987 E8.47075
G1 X60.569 Y-51.851 E8.47595
G1 X63.854 Y46.132 E12.22782
G1 X63.867 Y46.811 E12.25381
G1 X63.839 Y47.415 E12.27695
G1 X63.731 Y48.01 E12.3001
G1 X63.546 Y48.586 E12.32325
G1 X63.286 Y49.132 E12.34639
G1 X62.957 Y49.639 E12.36952
G1 X62.563 Y50.098 E12.39267
G1 X62.113 Y50.502 E12.41581
G1 X61.613 Y50.842 E12.43895
G1 X61.073 Y51.114 E12.46209
G1 X60.593 Y51.285 E12.48159
G1 X60.164 Y51.412 E12.49872
G1 X57.518 Y52.241 E12.60483
G1 X54.99 Y53.11 E12.70713
G1 X52.429 Y54.073 E12.81184
G1 X49.948 Y55.086 E12.9144
G1 X47.5 Y56.168 E13.01682
G1 X45.022 Y57.348 E13.12186
G1 X42.649 Y58.562 E13.22387
G1 X40.26 Y59.87 E13.3281
G1 X37.956 Y61.218 E13.43025
G1 X35.657 Y62.652 E13.53395
G1 X33.393 Y64.155 E13.63794
G1 X31.201 Y65.701 E13.7406
G1 X29.282 Y67.13 E13.83216
G1 X28.708 Y67.569 E13.85981
G1 X28.292 Y67.881 E13.87971
G1 X27.655 Y68.352 E13.91003
G1 X26.97 Y68.848 E13.9424
G1 X26.45 Y69.219 E13.96684
G1 X25.891 Y69.61 E13.99295
G1 X25.149 Y70.118 E14.02736
G1 X24.768 Y70.375 E14.04495
G1 X24.203 Y70.75 E14.0709
G1 X23.531 Y71.189 E14.10162
G1 X22.992 Y71.533 E14.12609
G1 X22.324 Y71.953 E14.15629
G1 X21.657 Y72.363 E14.18625
G1 X21.173 Y72.655 E14.20788
G1 X20.522 Y73.042 E14.23687
G1 X19.82 Y73.449 E14.26792
G1 X19.031 Y73.897 E14.30264
G1 X18.238 Y74.335 E14.33731
G1 X17.655 Y74.652 E14.36271
G1 X16.776 Y75.115 E14.40073
G1 X16.345 Y75.339 E14.41932
G1 X15.126 Y75.953 E14.47155
G1 X14.274 Y76.367 E14.5078
G1 X13.577 Y76.698 E14.53733
G1 X12.956 Y76.986 E14.56353
G1 X12.293 Y77.287 E14.59139
G1 X11.594 Y77.597 E14.62066
G1 X11.092 Y77.814 E14.64159
G1 X10.335 Y78.135 E14.67305
G1 X9.834 Y78.342 E14.6938
G1 X9.023 Y78.671 E14.72729
G1 X8.046 Y79.053 E14.76744
G1 X7.184 Y79.38 E14.80272
G1 X6.281 Y79.71 E14.83951
G1 X5.63 Y79.941 E14.86595
G1 X5.014 Y80.154 E14.89089
G1 X4.474 Y80.336 E14.9127
G1 X3.527 Y80.646 E14.95083
G1 X2.568 Y80.948 E14.98931
G1 X1.907 Y81.149 E15.01575
G1 X0.96 Y81.425 E15.0535
G1 X0.331 Y81.602 E15.0785
G1 X-.393 Y81.801 E15.10724
G1 X-1.046 Y81.973 E15.13308
G1 X-1.755 Y82.154 E15.16108
G1 X-2.586 Y82.358 E15.19383
G1 X-3.654 Y82.606 E15.23579
G1 X-4.184 Y82.724 E15.25657
G1 X-4.971 Y82.892 E15.28737
G1 X-5.872 Y83.076 E15.32256
G1 X-6.74 Y83.244 E15.35639
G1 X-7.694 Y83.417 E15.3935
G1 X-8.576 Y83.567 E15.42774
G1 X-9.477 Y83.71 E15.46265
G1 X-10.048 Y83.796 E15.48475
G1 X-10.969 Y83.926 E15.52034
G1 X-11.842 Y84.039 E15.55403
G1 X-12.482 Y84.116 E15.5787
G1 X-13.531 Y84.232 E15.61909
G1 X-14.31 Y84.31 E15.64905
G1 X-15.323 Y84.4 E15.68797
G1 X-16.205 Y84.469 E15.72183
G1 X-17.117 Y84.53 E15.75681
G1 X-17.578 Y84.557 E15.77448
G1 X-18.764 Y84.615 E15.81992
G1 X-19.518 Y84.633 E15.84878
G1 X-20.122 Y84.607 E15.87192
G1 X-20.717 Y84.501 E15.89505
G1 X-21.293 Y84.317 E15.91819
G1 X-21.84 Y84.06 E15.94132
G1 X-22.348 Y83.732 E15.96446
G1 X-22.809 Y83.34 E15.98762
G1 X-23.214 Y82.891 E16.01076
G1 X-23.556 Y82.393 E16.03388
G1 X-23.829 Y81.854 E16.057
G1 X-24.029 Y81.283 E16.08015
G1 X-24.152 Y80.691 E16.10329
G1 X-24.199 Y80.166 E16.12346
G1 X-24.22 Y79.695 E16.14151
G1 X-24.767 Y63.354 E16.76722
G1 X-24.78 Y62.663 E16.79367
G1 X-24.771 Y62.276 E16.80848
G1 X-24.704 Y61.258 E16.84753
G1 X-24.564 Y58.536 E16.95183
G1 X-24.502 Y55.849 E17.05469
G1 X-24.517 Y53.134 E17.15859
G1 X-24.606 Y50.464 E17.26083
G1 X-24.771 Y47.789 E17.3634
G1 X-25.017 Y45.067 E17.46799
G1 X-25.314 Y42.543 E17.56525
G1 X-25.478 Y41.287 E17.61372
G1 X-25.511 Y40.917 E17.62794
G1 X-25.543 Y40.228 E17.65434
G0 F2040 X-25.194 Y40.217
G1 F1020 X-27.872 Y-39.721 E20.71524
G1 X-27.885 Y-40.406 E20.74146
G1 X-27.877 Y-40.764 E20.75516
G1 X-27.808 Y-41.812 E20.79536
G1 X-27.67 Y-44.496 E20.89821
G1 X-27.607 Y-47.225 E21.00267
G1 X-27.622 Y-49.92 E21.10581
G1 X-27.713 Y-52.655 E21.21054
G1 X-27.879 Y-55.336 E21.31333
G1 X-28.124 Y-58.048 E21.41754
G1 X-28.425 Y-60.597 E21.51577
G1 X-28.581 Y-61.786 E21.56166
G1 X-28.62 Y-62.24 E21.5791
G1 X-28.648 Y-62.831 E21.60174
G1 X-29.191 Y-79.065 E22.22336
G1 X-29.205 Y-79.743 E22.24931
G1 X-29.177 Y-80.323 E22.27153
G1 X-29.07 Y-80.894 E22.29376
G1 X-28.885 Y-81.445 E22.31601
G1 X-28.627 Y-81.965 E22.33822
G1 X-28.299 Y-82.445 E22.36047
G1 X-27.909 Y-82.876 E22.38272
G1 X-27.463 Y-83.249 E22.40497
G1 X-26.971 Y-83.557 E22.42718
G1 X-26.441 Y-83.795 E22.44941
G1 X-25.883 Y-83.958 E22.47166
G1 X-25.252 Y-84.046 E22.49604
G1 X-24.707 Y-84.075 E22.51693
G1 X-24.033 Y-84.092 E22.54273
G1 X-23.257 Y-84.103 E22.57243
G1 X-22.555 Y-84.108 E22.5993
G1 X-21.923 Y-84.108 E22.62348
G1 X-21.145 Y-84.102 E22.65326
G1 X-20.484 Y-84.09 E22.67856
G1 X-19.38 Y-84.059 E22.72082
G1 X-18.559 Y-84.027 E22.75227
G1 X-17.693 Y-83.983 E22.78545
G1 X-16.837 Y-83.931 E22.81827
G1 X-16.221 Y-83.889 E22.8419
G1 X-15.495 Y-83.833 E22.86977
G1 X-14.876 Y-83.781 E22.89354
G1 X-14.086 Y-83.707 E22.9239
G1 X-13.374 Y-83.635 E22.95129
G1 X-12.324 Y-83.516 E22.99173
G1 X-11.65 Y-83.433 E23.01772
G1 X-10.992 Y-83.346 E23.04312
G1 X-10.081 Y-83.218 E23.07833
G1 X-9.251 Y-83.092 E23.11045
G1 X-8.507 Y-82.971 E23.1393
G1 X-7.736 Y-82.84 E23.16923
G1 X-7.174 Y-82.738 E23.19109
G1 X-6.337 Y-82.581 E23.22368
G1 X-5.67 Y-82.45 E23.24969
G1 X-5.057 Y-82.324 E23.27364
G1 X-4.244 Y-82.15 E23.30546
G1 X-3.712 Y-82.031 E23.32632
G1 X-2.651 Y-81.783 E23.36802
G1 X-1.608 Y-81.527 E23.40912
G1 X-.464 Y-81.228 E23.45437
G1 X0.63 Y-80.925 E23.49781
G1 X1.594 Y-80.647 E23.53621
G1 X2.1 Y-80.496 E23.55642
G1 X2.713 Y-80.307 E23.58097
G1 X3.753 Y-79.975 E23.62274
G1 X4.513 Y-79.725 E23.65336
G1 X5.241 Y-79.476 E23.68281
G1 X6.18 Y-79.145 E23.72091
G1 X7.089 Y-78.812 E23.75796
G1 X7.828 Y-78.533 E23.78819
G1 X8.466 Y-78.285 E23.81438
G1 X9.029 Y-78.062 E23.83756
G1 X9.716 Y-77.783 E23.86593
G1 X10.349 Y-77.519 E23.89218
G1 X10.935 Y-77.272 E23.91652
G1 X11.66 Y-76.955 E23.9468
G1 X12.245 Y-76.695 E23.9713
G1 X12.922 Y-76.387 E23.99976
G1 X13.54 Y-76.099 E24.02585
G1 X14.321 Y-75.726 E24.05898
G1 X14.989 Y-75.401 E24.08741
G1 X15.573 Y-75.11 E24.11238
G1 X16.181 Y-74.8 E24.13849
G1 X16.756 Y-74.501 E24.1633
G1 X17.528 Y-74.092 E24.19673
G1 X18.391 Y-73.623 E24.23432
G1 X18.995 Y-73.286 E24.26079
G1 X19.88 Y-72.78 E24.2998
G1 X20.431 Y-72.459 E24.32421
G1 X21.081 Y-72.072 E24.35316
G1 X21.715 Y-71.688 E24.38152
G1 X22.29 Y-71.331 E24.40742
G1 X22.96 Y-70.91 E24.43771
G1 X23.705 Y-70.428 E24.47166
G1 X24.366 Y-69.992 E24.50197
G1 X24.458 Y-69.938 E24.50605
G1 X26.298 Y-68.738 E24.59012
G1 X28.621 Y-67.318 E24.69431
G1 X30.981 Y-65.962 E24.79847
G1 X33.373 Y-64.678 E24.90237
G1 X35.744 Y-63.49 E25.00386
G1 X38.252 Y-62.321 E25.10975
G1 X40.734 Y-61.248 E25.21323
G1 X43.258 Y-60.239 E25.31726
G1 X45.764 Y-59.323 E25.41937
G1 X48.387 Y-58.445 E25.52522
G1 X50.924 Y-57.674 E25.6267
G1 X53.545 Y-56.959 E25.73067
G1 X56.237 Y-56.305 E25.83669
G1 X56.953 Y-56.141 E25.8648
G1 X57.507 Y-55.968 E25.88701
G1 X58.033 Y-55.72 E25.90926
G1 X58.52 Y-55.403 E25.9315
G1 X58.959 Y-55.022 E25.95374
G1 X59.341 Y-54.585 E25.97596
G1 X59.66 Y-54.099 E25.99821
G1 X59.909 Y-53.574 E26.02044
G1 X60.083 Y-53.02 E26.04266
G1 X60.193 Y-52.297 E26.07065
G1 X60.22 Y-51.84 E26.08817
G1 X63.504 Y46.139 E29.83989
G1 X63.517 Y46.818 E29.86588
G1 X63.488 Y47.398 E29.8881
G1 X63.38 Y47.969 E29.91034
G1 X63.195 Y48.52 E29.93258
G1 X62.935 Y49.04 E29.95483
G1 X62.607 Y49.519 E29.97705
G1 X62.216 Y49.949 E29.99929
G1 X61.77 Y50.322 E30.02154
G1 X61.277 Y50.629 E30.04377
G1 X60.494 Y50.95 E30.07615
G1 X59.998 Y51.097 E30.09595
G1 X57.421 Y51.904 E30.19929
G1 X54.853 Y52.787 E30.30322
G1 X52.316 Y53.741 E30.40694
G1 X49.803 Y54.767 E30.51082
G1 X47.35 Y55.852 E30.61347
G1 X44.868 Y57.033 E30.71866
G1 X42.492 Y58.249 E30.8208
G1 X40.084 Y59.567 E30.92586
G1 X37.779 Y60.916 E31.02807
G1 X35.464 Y62.36 E31.13248
G1 X33.209 Y63.857 E31.23606
G1 X30.975 Y65.432 E31.34067
G1 X29.112 Y66.82 E31.42958
G1 X28.497 Y67.289 E31.45918
G1 X28.083 Y67.6 E31.47899
G1 X27.45 Y68.068 E31.50912
G1 X26.767 Y68.563 E31.5414
G1 X26.249 Y68.932 E31.56574
G1 X25.693 Y69.321 E31.59171
G1 X24.953 Y69.828 E31.62604
G1 X24.574 Y70.083 E31.64352
G1 X24.011 Y70.457 E31.66938
G1 X23.342 Y70.894 E31.69996
G1 X22.805 Y71.237 E31.72435
G1 X22.141 Y71.655 E31.75438
G1 X21.476 Y72.063 E31.78423
G1 X20.994 Y72.354 E31.80578
G1 X20.347 Y72.739 E31.83459
G1 X19.647 Y73.145 E31.86556
G1 X18.861 Y73.591 E31.90015
G1 X18.071 Y74.028 E31.9347
G1 X17.492 Y74.342 E31.9599
G1 X16.614 Y74.805 E31.99789
G1 X16.187 Y75.027 E32.01631
G1 X15.014 Y75.618 E32.06657
G1 X14.124 Y76.051 E32.10445
G1 X13.429 Y76.38 E32.13388
G1 X12.812 Y76.668 E32.15994
G1 X12.152 Y76.967 E32.18766
G1 X11.454 Y77.276 E32.21688
G1 X10.956 Y77.492 E32.23765
G1 X10.2 Y77.811 E32.26905
G1 X9.703 Y78.018 E32.28966
G1 X8.895 Y78.345 E32.32301
G1 X7.92 Y78.727 E32.36309
G1 X7.064 Y79.051 E32.39812
G1 X6.164 Y79.38 E32.43479
G1 X5.515 Y79.61 E32.46114
G1 X4.902 Y79.823 E32.48597
G1 X4.365 Y80.004 E32.50766
G1 X3.422 Y80.312 E32.54562
G1 X2.466 Y80.613 E32.58398
G1 X1.809 Y80.813 E32.61026
G1 X0.865 Y81.088 E32.64789
G1 X0.239 Y81.265 E32.67279
G1 X-.483 Y81.462 E32.70143
G1 X-1.133 Y81.634 E32.72716
G1 X-1.838 Y81.814 E32.755
G1 X-2.666 Y82.017 E32.78763
G1 X-3.729 Y82.264 E32.82939
G1 X-4.257 Y82.382 E32.8501
G1 X-5.041 Y82.549 E32.88077
G1 X-5.939 Y82.733 E32.91585
G1 X-6.803 Y82.9 E32.94953
G1 X-7.753 Y83.072 E32.98648
G1 X-8.631 Y83.221 E33.02056
G1 X-9.529 Y83.364 E33.05536
G1 X-10.097 Y83.449 E33.07734
G1 X-11.014 Y83.579 E33.11278
G1 X-11.884 Y83.692 E33.14636
G1 X-12.52 Y83.768 E33.17087
G1 X-13.566 Y83.884 E33.21114
G1 X-14.342 Y83.961 E33.24099
G1 X-15.35 Y84.051 E33.27972
G1 X-16.228 Y84.12 E33.31342
G1 X-17.138 Y84.18 E33.34832
G1 X-17.595 Y84.208 E33.36584
G1 X-18.567 Y84.256 E33.40309
G1 X-18.862 Y84.268 E33.41439
G1 X-19.525 Y84.283 E33.43976
G1 X-20.106 Y84.256 E33.46202
G1 X-20.677 Y84.15 E33.48425
G1 X-21.228 Y83.966 E33.50648
G1 X-21.749 Y83.709 E33.52871
G1 X-22.23 Y83.382 E33.55097
G1 X-22.661 Y82.993 E33.57319
G1 X-23.035 Y82.548 E33.59543
G1 X-23.344 Y82.056 E33.61767
G1 X-23.583 Y81.527 E33.63988
G1 X-23.747 Y80.969 E33.66214
G1 X-23.836 Y80.347 E33.68619
G1 X-23.869 Y79.718 E33.71029
G1 X-24.416 Y63.409 E34.33478
G1 X-24.43 Y62.656 E34.3636
G1 X-24.422 Y62.299 E34.37727
G1 X-24.354 Y61.268 E34.41681
G1 X-24.215 Y58.58 E34.51982
G1 X-24.152 Y55.834 E34.62493
G1 X-24.167 Y53.156 E34.72742
G1 X-24.257 Y50.432 E34.83172
G1 X-24.425 Y47.733 E34.93521
G1 X-24.668 Y45.033 E35.03896
G1 X-24.96 Y42.554 E35.13448
G1 X-25.131 Y41.242 E35.18512
G1 X-25.161 Y40.9 E35.19826
G1 X-25.194 Y40.217 E35.22442
G0 F2040 X-24.844 Y40.205
G1 F1020 X-27.522 Y-39.727 E38.2851
G1 X-27.535 Y-40.412 E38.31132
G1 X-27.528 Y-40.741 E38.32391
G1 X-27.459 Y-41.789 E38.36411
G1 X-27.32 Y-44.505 E38.46818
G1 X-27.257 Y-47.219 E38.57207
G1 X-27.272 Y-49.934 E38.67598
G1 X-27.363 Y-52.653 E38.78009
G1 X-27.532 Y-55.391 E38.88507
G1 X-27.778 Y-58.106 E38.9894
G1 X-28.071 Y-60.588 E39.08504
G1 X-28.234 Y-61.831 E39.13302
G1 X-28.271 Y-62.257 E39.14938
G1 X-28.298 Y-62.842 E39.17179
G1 X-28.841 Y-79.072 E39.79326
G1 X-28.855 Y-79.75 E39.81921
G1 X-28.827 Y-80.306 E39.84051
G1 X-28.719 Y-80.852 E39.86181
G1 X-28.534 Y-81.376 E39.88308
G1 X-28.276 Y-81.869 E39.90437
G1 X-27.95 Y-82.32 E39.92567
G1 X-27.563 Y-82.72 E39.94697
G1 X-27.122 Y-83.06 E39.96828
G1 X-26.638 Y-83.333 E39.98955
G1 X-26.119 Y-83.534 E40.01085
G1 X-25.577 Y-83.659 E40.03213
G1 X-25.011 Y-83.711 E40.05388
G1 X-24.633 Y-83.727 E40.06836
G1 X-24.027 Y-83.742 E40.09156
G1 X-23.255 Y-83.753 E40.12111
G1 X-22.553 Y-83.758 E40.14797
G1 X-21.926 Y-83.758 E40.17197
G1 X-21.151 Y-83.752 E40.20163
G1 X-20.494 Y-83.74 E40.22678
G1 X-19.394 Y-83.709 E40.26889
G1 X-18.577 Y-83.677 E40.30018
G1 X-17.714 Y-83.634 E40.33325
G1 X-16.861 Y-83.582 E40.36595
G1 X-16.248 Y-83.54 E40.38947
G1 X-15.524 Y-83.484 E40.41726
G1 X-14.908 Y-83.432 E40.44091
G1 X-14.122 Y-83.359 E40.47112
G1 X-13.413 Y-83.287 E40.4984
G1 X-12.367 Y-83.169 E40.53868
G1 X-11.696 Y-83.086 E40.56455
G1 X-11.041 Y-83 E40.58984
G1 X-10.134 Y-82.871 E40.6249
G1 X-9.307 Y-82.746 E40.6569
G1 X-8.565 Y-82.626 E40.68567
G1 X-7.798 Y-82.495 E40.71545
