;FLAVOR:Marlin
;TIME:7221
;Filament used: 9.98912m
;Layer height: 0.3
;MINX:-33.39
;MINY:-84.088
;MINZ:0.26
;MAXX:60.023
;MAXY:85.005
;MAXZ:2.96
;Generated with Cura_SteamEngine 4.9.1
M82 ;absolute extrusion mode
;Gcode by Cura
G90
G28
M107
M109 R100
G30
M109 S215 U-55 X55 V-85 Y-85 W0.26 Z0.26
M82
G92 E0
G1 F200 E6
G92 E0
G1 F200 E-3.5
G0 Z0.15
G0 X10
G0 Z3
G1 F6000
G92 E0
G92 E0
G1 F3600 E-3.8
;LAYER_COUNT:10
;LAYER:0
M107
G0 F2040 X-28.659 Y1.896 Z0.26
;TYPE:SKIRT
G1 F3600 E0
G1 F1020 X-28.749 Y-.779 E0.10243
G1 X-28.914 Y-3.453 E0.20496
G1 X-29.16 Y-6.175 E0.30955
G1 X-29.479 Y-8.853 E0.41276
G1 X-29.873 Y-11.519 E0.5159
G1 X-30.341 Y-14.162 E0.61862
G1 X-30.889 Y-16.822 E0.72255
G1 X-31.039 Y-17.46 E0.74763
G1 X-31.274 Y-18.532 E0.78963
G1 X-31.375 Y-19.292 E0.81897
G1 X-31.411 Y-20.064 E0.84855
G1 X-32.057 Y-39.341 E1.58668
G1 X-32.07 Y-40.016 E1.61252
G1 X-32.061 Y-40.403 E1.62733
G1 X-31.995 Y-41.407 E1.66584
G1 X-31.855 Y-44.148 E1.77087
G1 X-31.792 Y-46.856 E1.87454
G1 X-31.807 Y-49.568 E1.97832
G1 X-31.897 Y-52.246 E2.08087
G1 X-32.063 Y-54.946 E2.18439
G1 X-32.305 Y-57.613 E2.28687
G1 X-32.607 Y-60.18 E2.38579
G1 X-32.764 Y-61.372 E2.4318
G1 X-32.805 Y-61.853 E2.45028
G1 X-32.832 Y-62.448 E2.47307
G1 X-33.376 Y-78.697 E3.09526
G1 X-33.39 Y-79.363 E3.12075
G1 X-33.363 Y-79.967 E3.14389
G1 X-33.256 Y-80.562 E3.16703
G1 X-33.072 Y-81.138 E3.19017
G1 X-32.813 Y-81.685 E3.21333
G1 X-32.485 Y-82.192 E3.23644
G1 X-32.092 Y-82.652 E3.25959
G1 X-31.643 Y-83.056 E3.28271
G1 X-31.144 Y-83.398 E3.30586
G1 X-30.604 Y-83.67 E3.329
G1 X-30.033 Y-83.869 E3.35214
G1 X-29.441 Y-83.991 E3.37527
G1 X-28.928 Y-84.037 E3.39498
G1 X-28.418 Y-84.058 E3.41451
G1 X-27.783 Y-84.073 E3.43882
G1 X-27.043 Y-84.083 E3.46714
G1 X-26.334 Y-84.088 E3.49428
G1 X-25.649 Y-84.087 E3.52049
G1 X-24.9 Y-84.08 E3.54916
G1 X-24.175 Y-84.065 E3.57691
G1 X-23.44 Y-84.045 E3.60505
G1 X-22.768 Y-84.021 E3.63078
G1 X-22.108 Y-83.992 E3.65606
G1 X-21.329 Y-83.952 E3.68591
G1 X-20.369 Y-83.892 E3.72272
G1 X-19.651 Y-83.839 E3.75028
G1 X-18.682 Y-83.76 E3.78748
G1 X-17.784 Y-83.675 E3.822
G1 X-17.122 Y-83.606 E3.84747
G1 X-16.479 Y-83.534 E3.87223
G1 X-15.826 Y-83.457 E3.8974
G1 X-15.162 Y-83.372 E3.92302
G1 X-14.359 Y-83.263 E3.95403
G1 X-13.712 Y-83.169 E3.97905
G1 X-12.952 Y-83.054 E4.00846
G1 X-12.294 Y-82.947 E4.03398
G1 X-11.57 Y-82.823 E4.06209
G1 X-10.88 Y-82.699 E4.08892
G1 X-10.192 Y-82.571 E4.1157
G1 X-9.489 Y-82.433 E4.14311
G1 X-8.461 Y-82.22 E4.18329
G1 X-7.691 Y-82.051 E4.21346
G1 X-6.685 Y-81.82 E4.25296
G1 X-6.063 Y-81.67 E4.27745
G1 X-5.333 Y-81.487 E4.30625
G1 X-4.39 Y-81.242 E4.34353
G1 X-3.962 Y-81.127 E4.36049
G1 X-3.19 Y-80.914 E4.39114
G1 X-2.653 Y-80.76 E4.41252
G1 X-1.992 Y-80.566 E4.43889
G1 X-1.403 Y-80.389 E4.46242
G1 X-.892 Y-80.232 E4.48288
G1 X-.187 Y-80.008 E4.51119
G1 X0.573 Y-79.759 E4.54179
G1 X1.641 Y-79.394 E4.58499
G1 X2.516 Y-79.085 E4.6205
G1 X3.527 Y-78.714 E4.66171
G1 X4.267 Y-78.431 E4.69203
G1 X5.261 Y-78.041 E4.7329
G1 X6.052 Y-77.72 E4.76557
G1 X6.808 Y-77.404 E4.79692
G1 X7.453 Y-77.128 E4.82377
G1 X8.05 Y-76.867 E4.84871
G1 X8.721 Y-76.567 E4.87683
G1 X9.313 Y-76.296 E4.90175
G1 X10.221 Y-75.871 E4.94012
G1 X10.691 Y-75.646 E4.96006
G1 X11.63 Y-75.184 E5.00011
G1 X12.349 Y-74.821 E5.03093
G1 X12.998 Y-74.486 E5.05888
G1 X13.586 Y-74.175 E5.08434
G1 X14.376 Y-73.75 E5.11867
G1 X15.264 Y-73.258 E5.15752
G1 X15.987 Y-72.848 E5.18933
G1 X16.754 Y-72.4 E5.22332
G1 X17.394 Y-72.02 E5.25181
G1 X18.19 Y-71.538 E5.28742
G1 X18.705 Y-71.217 E5.31064
G1 X19.222 Y-70.891 E5.33403
G1 X19.784 Y-70.531 E5.35957
G1 X20.426 Y-70.111 E5.38893
G1 X21.102 Y-69.661 E5.42001
G1 X23.411 Y-68.16 E5.5254
G1 X25.713 Y-66.754 E5.62863
G1 X28.079 Y-65.401 E5.73294
G1 X30.433 Y-64.138 E5.83517
G1 X32.869 Y-62.921 E5.93938
G1 X35.3 Y-61.792 E6.04196
G1 X37.791 Y-60.719 E6.14576
G1 X40.287 Y-59.726 E6.24856
G1 X42.847 Y-58.79 E6.35287
G1 X45.379 Y-57.947 E6.455
G1 X47.958 Y-57.167 E6.55811
G1 X50.61 Y-56.446 E6.66329
G1 X52.067 Y-56.084 E6.72074
G1 X53.216 Y-55.809 E6.76596
G1 X53.793 Y-55.63 E6.78908
G1 X54.342 Y-55.376 E6.81222
G1 X54.853 Y-55.052 E6.83538
G1 X55.316 Y-54.664 E6.8585
G1 X55.724 Y-54.217 E6.88166
G1 X56.07 Y-53.721 E6.9048
G1 X56.347 Y-53.184 E6.92793
G1 X56.551 Y-52.615 E6.95106
G1 X56.678 Y-52.024 E6.97419
G1 X56.738 Y-51.336 E7.00062
G1 X56.745 Y-51.184 E7.00645
G1 X60.01 Y46.205 E10.73557
G1 X60.023 Y46.883 E10.76152
G1 X59.995 Y47.487 E10.78466
G1 X59.887 Y48.082 E10.8078
G1 X59.702 Y48.658 E10.83096
G1 X59.442 Y49.204 E10.8541
G1 X59.113 Y49.711 E10.87723
G1 X58.719 Y50.17 E10.90038
G1 X58.269 Y50.574 E10.92352
G1 X57.769 Y50.914 E10.94666
G1 X57.229 Y51.186 E10.9698
G1 X56.704 Y51.374 E10.99114
G1 X54.347 Y52.111 E11.08565
G1 X51.771 Y52.996 E11.18989
G1 X49.276 Y53.934 E11.29189
G1 X46.753 Y54.964 E11.39618
G1 X44.307 Y56.045 E11.49853
G1 X41.87 Y57.205 E11.60181
G1 X39.469 Y58.432 E11.705
G1 X37.07 Y59.745 E11.80966
G1 X34.779 Y61.086 E11.91125
G1 X32.463 Y62.528 E12.01566
G1 X30.236 Y64.005 E12.11793
G1 X28.011 Y65.574 E12.22212
G1 X25.618 Y67.369 E12.3366
G1 X24.941 Y67.888 E12.36924
G1 X24.301 Y68.368 E12.39986
G1 X23.687 Y68.82 E12.42904
G1 X23.105 Y69.24 E12.4565
G1 X22.201 Y69.88 E12.49889
G1 X21.485 Y70.373 E12.53216
G1 X20.93 Y70.748 E12.55779
G1 X20.194 Y71.236 E12.59159
G1 X19.581 Y71.634 E12.61956
G1 X18.64 Y72.23 E12.66219
G1 X17.885 Y72.695 E12.69612
G1 X17.296 Y73.052 E12.72248
G1 X16.402 Y73.579 E12.76219
G1 X15.657 Y74.007 E12.79507
G1 X15.116 Y74.313 E12.81886
G1 X14.554 Y74.624 E12.84344
G1 X13.793 Y75.037 E12.87658
G1 X12.941 Y75.486 E12.91343
G1 X12.247 Y75.843 E12.9433
G1 X11.551 Y76.195 E12.97315
G1 X10.945 Y76.494 E12.99901
G1 X10.278 Y76.816 E13.02735
G1 X9.685 Y77.096 E13.05245
G1 X9.18 Y77.329 E13.07373
G1 X8.526 Y77.626 E13.10122
G1 X7.802 Y77.948 E13.13155
G1 X7.028 Y78.282 E13.16381
G1 X6.586 Y78.469 E13.18217
G1 X5.927 Y78.743 E13.20949
G1 X5.074 Y79.088 E13.2447
G1 X4.292 Y79.394 E13.27684
G1 X3.756 Y79.598 E13.29878
G1 X2.836 Y79.939 E13.33633
G1 X1.969 Y80.251 E13.37159
G1 X1.089 Y80.555 E13.40722
G1 X0.575 Y80.727 E13.42797
G1 X-.328 Y81.024 E13.46435
G1 X-1.448 Y81.374 E13.50925
G1 X-2.196 Y81.598 E13.53913
G1 X-2.859 Y81.791 E13.56556
G1 X-3.547 Y81.984 E13.59291
G1 X-4.107 Y82.138 E13.61513
G1 X-5.02 Y82.379 E13.65127
G1 X-5.461 Y82.491 E13.66868
G1 X-6.317 Y82.703 E13.70243
G1 X-6.936 Y82.85 E13.72678
G1 X-7.651 Y83.013 E13.75484
G1 X-8.399 Y83.177 E13.78415
G1 X-9.491 Y83.405 E13.82684
G1 X-10.372 Y83.576 E13.86118
G1 X-11.069 Y83.705 E13.88831
G1 X-11.815 Y83.836 E13.9173
G1 X-12.952 Y84.025 E13.96141
G1 X-13.733 Y84.145 E13.99165
G1 X-14.755 Y84.29 E14.03115
G1 X-15.254 Y84.355 E14.05041
G1 X-15.948 Y84.442 E14.07717
G1 X-16.619 Y84.521 E14.10303
G1 X-17.599 Y84.627 E14.14075
G1 X-18.49 Y84.712 E14.17501
G1 X-19.542 Y84.802 E14.21541
G1 X-20.378 Y84.862 E14.24749
G1 X-21.172 Y84.914 E14.27794
G1 X-22.243 Y84.97 E14.31898
G1 X-22.674 Y84.989 E14.33549
G1 X-23.345 Y85.005 E14.36118
G1 X-23.949 Y84.979 E14.38431
G1 X-24.545 Y84.874 E14.40747
G1 X-25.121 Y84.692 E14.43059
G1 X-25.668 Y84.434 E14.45374
G1 X-26.177 Y84.108 E14.47687
G1 X-26.638 Y83.716 E14.50003
G1 X-27.043 Y83.268 E14.52314
G1 X-27.386 Y82.77 E14.54628
G1 X-27.66 Y82.231 E14.56942
G1 X-27.861 Y81.66 E14.59259
G1 X-27.984 Y81.068 E14.61572
G1 X-28.035 Y80.489 E14.63797
G1 X-28.054 Y80.061 E14.65436
G1 X-28.602 Y63.72 E15.28008
G1 X-28.615 Y63.061 E15.3053
G1 X-28.606 Y62.671 E15.32023
G1 X-28.54 Y61.666 E15.35878
G1 X-28.4 Y58.932 E15.46354
G1 X-28.336 Y56.218 E15.56743
G1 X-28.35 Y53.511 E15.67103
G1 X-28.44 Y50.832 E15.77361
G1 X-28.604 Y48.163 E15.87595
G1 X-28.853 Y45.409 E15.98177
G1 X-29.153 Y42.862 E16.07992
G1 X-29.311 Y41.657 E16.12643
G1 X-29.345 Y41.283 E16.1408
G1 X-29.378 Y40.569 E16.16815
G1 X-30.026 Y21.24 E16.90828
G1 X-30.039 Y20.565 E16.93412
G1 X-29.988 Y19.789 E16.96388
G1 X-29.813 Y18.639 E17.00839
G1 X-29.717 Y18.058 E17.03093
G1 X-29.351 Y15.386 E17.13414
G1 X-29.056 Y12.659 E17.23911
G1 X-28.846 Y10.023 E17.34031
G1 X-28.707 Y7.317 E17.444
G1 X-28.644 Y4.607 E17.54774
G1 X-28.659 Y1.896 E17.65149
G0 F2040 X-28.309 Y1.918
G1 F1020 X-28.4 Y-.812 E17.75602
G1 X-28.567 Y-3.504 E17.85924
G1 X-28.812 Y-6.217 E17.96349
G1 X-29.128 Y-8.871 E18.06578
G1 X-29.531 Y-11.596 E18.1712
G1 X-29.996 Y-14.225 E18.27337
G1 X-30.547 Y-16.897 E18.37778
G1 X-30.697 Y-17.535 E18.40286
G1 X-30.932 Y-18.607 E18.44486
G1 X-31.025 Y-19.308 E18.47192
G1 X-31.062 Y-20.075 E18.5013
G1 X-31.707 Y-39.348 E19.23929
G1 X-31.72 Y-40.023 E19.26512
G1 X-31.712 Y-40.38 E19.27879
G1 X-31.643 Y-41.435 E19.31925
G1 X-31.505 Y-44.122 E19.42221
G1 X-31.442 Y-46.85 E19.52664
G1 X-31.457 Y-49.546 E19.62982
G1 X-31.548 Y-52.28 E19.73451
G1 X-31.714 Y-54.961 E19.8373
G1 X-31.96 Y-57.678 E19.94171
G1 X-32.252 Y-60.164 E20.0375
G1 X-32.417 Y-61.418 E20.0859
G1 X-32.455 Y-61.869 E20.10322
G1 X-32.483 Y-62.46 E20.12586
G1 X-33.026 Y-78.704 E20.74786
G1 X-33.04 Y-79.37 E20.77336
G1 X-33.012 Y-79.951 E20.79562
G1 X-32.905 Y-80.522 E20.81785
G1 X-32.721 Y-81.073 E20.84008
G1 X-32.462 Y-81.593 E20.86231
G1 X-32.135 Y-82.073 E20.88454
G1 X-31.745 Y-82.504 E20.90678
G1 X-31.3 Y-82.877 E20.929
G1 X-30.807 Y-83.185 E20.95125
G1 X-30.277 Y-83.423 E20.97348
G1 X-29.719 Y-83.586 E20.99573
G1 X-29.098 Y-83.675 E21.01974
G1 X-28.405 Y-83.708 E21.04629
G1 X-27.779 Y-83.723 E21.07025
G1 X-27.041 Y-83.733 E21.0985
G1 X-26.335 Y-83.738 E21.12552
G1 X-25.652 Y-83.737 E21.15166
G1 X-24.907 Y-83.73 E21.18017
G1 X-24.184 Y-83.715 E21.20784
G1 X-23.452 Y-83.695 E21.23587
G1 X-22.783 Y-83.672 E21.26148
G1 X-22.126 Y-83.643 E21.28665
G1 X-21.351 Y-83.603 E21.31635
G1 X-20.395 Y-83.543 E21.35301
G1 X-19.68 Y-83.49 E21.38045
G1 X-18.714 Y-83.411 E21.41754
G1 X-17.82 Y-83.327 E21.4519
G1 X-17.16 Y-83.258 E21.4773
G1 X-16.52 Y-83.187 E21.50194
G1 X-15.87 Y-83.11 E21.52699
G1 X-15.209 Y-83.025 E21.55249
G1 X-14.409 Y-82.917 E21.58339
G1 X-13.764 Y-82.823 E21.60833
G1 X-13.008 Y-82.709 E21.63759
G1 X-12.353 Y-82.602 E21.66299
G1 X-11.632 Y-82.478 E21.69099
G1 X-10.944 Y-82.355 E21.71773
G1 X-10.259 Y-82.227 E21.7444
G1 X-9.561 Y-82.091 E21.77162
G1 X-8.536 Y-81.878 E21.81168
G1 X-7.769 Y-81.71 E21.84173
G1 X-6.767 Y-81.479 E21.88108
G1 X-6.148 Y-81.331 E21.90544
G1 X-5.421 Y-81.148 E21.93413
G1 X-4.481 Y-80.904 E21.97129
G1 X-4.055 Y-80.79 E21.98817
G1 X-3.286 Y-80.577 E22.01871
G1 X-2.751 Y-80.424 E22.04
G1 X-2.093 Y-80.231 E22.06624
G1 X-1.506 Y-80.055 E22.08969
G1 X-.998 Y-79.898 E22.11004
G1 X-.296 Y-79.675 E22.13823
G1 X0.46 Y-79.428 E22.16867
G1 X1.524 Y-79.064 E22.2117
G1 X2.396 Y-78.756 E22.2471
G1 X3.403 Y-78.387 E22.28814
G1 X4.14 Y-78.105 E22.31834
G1 X5.129 Y-77.717 E22.35899
G1 X5.917 Y-77.397 E22.39154
G1 X6.67 Y-77.082 E22.42278
G1 X7.313 Y-76.807 E22.44954
G1 X7.907 Y-76.548 E22.47434
G1 X8.576 Y-76.249 E22.50238
G1 X9.164 Y-75.979 E22.52715
G1 X10.069 Y-75.555 E22.56539
G1 X10.536 Y-75.331 E22.58521
G1 X11.473 Y-74.871 E22.62516
G1 X12.188 Y-74.51 E22.65581
G1 X12.834 Y-74.176 E22.68364
G1 X13.42 Y-73.867 E22.709
G1 X14.207 Y-73.444 E22.74319
G1 X15.091 Y-72.954 E22.78187
G1 X15.811 Y-72.545 E22.81356
G1 X16.575 Y-72.099 E22.84741
G1 X17.213 Y-71.721 E22.87579
G1 X18.005 Y-71.24 E22.91126
G1 X18.519 Y-70.921 E22.93441
G1 X19.033 Y-70.596 E22.95768
G1 X19.593 Y-70.238 E22.98311
G1 X20.232 Y-69.82 E23.01234
G1 X20.911 Y-69.368 E23.04355
G1 X23.233 Y-67.859 E23.14953
G1 X25.542 Y-66.449 E23.25307
G1 X27.897 Y-65.101 E23.35691
G1 X30.281 Y-63.823 E23.46043
G1 X32.722 Y-62.603 E23.56486
G1 X35.169 Y-61.466 E23.66812
G1 X37.635 Y-60.404 E23.77088
G1 X40.167 Y-59.397 E23.87516
G1 X42.717 Y-58.465 E23.97906
G1 X45.274 Y-57.613 E24.0822
G1 X47.866 Y-56.829 E24.18583
G1 X50.487 Y-56.116 E24.28978
G1 X51.999 Y-55.741 E24.3494
G1 X53.134 Y-55.469 E24.39407
G1 X53.689 Y-55.295 E24.41633
G1 X54.214 Y-55.047 E24.43855
G1 X54.7 Y-54.729 E24.46077
G1 X55.139 Y-54.347 E24.48304
G1 X55.52 Y-53.909 E24.50526
G1 X55.838 Y-53.423 E24.52749
G1 X56.086 Y-52.898 E24.54971
G1 X56.26 Y-52.343 E24.57196
G1 X56.367 Y-51.642 E24.5991
G1 X56.396 Y-51.173 E24.61709
G1 X59.66 Y46.212 E28.34606
G1 X59.673 Y46.89 E28.37201
G1 X59.644 Y47.47 E28.39423
G1 X59.536 Y48.041 E28.41647
G1 X59.351 Y48.592 E28.43871
G1 X59.091 Y49.112 E28.46096
G1 X58.763 Y49.591 E28.48318
G1 X58.372 Y50.021 E28.50542
G1 X57.926 Y50.393 E28.52765
G1 X57.433 Y50.701 E28.54989
G1 X56.763 Y50.986 E28.57776
G1 X56.599 Y51.04 E28.58436
G1 X54.239 Y51.778 E28.67899
G1 X51.677 Y52.658 E28.78266
G1 X49.132 Y53.615 E28.88672
G1 X46.609 Y54.645 E28.99101
G1 X44.171 Y55.723 E29.09302
G1 X41.703 Y56.897 E29.19761
G1 X39.284 Y58.133 E29.30157
G1 X36.936 Y59.418 E29.404
G1 X34.587 Y60.793 E29.50817
G1 X32.271 Y62.236 E29.6126
G1 X30.035 Y63.718 E29.71526
G1 X27.809 Y65.288 E29.8195
G1 X25.443 Y67.063 E29.93269
G1 X24.731 Y67.608 E29.96701
G1 X24.093 Y68.086 E29.99752
G1 X23.483 Y68.537 E30.02655
G1 X22.903 Y68.954 E30.05389
G1 X22.002 Y69.592 E30.09614
G1 X21.289 Y70.083 E30.12927
G1 X20.737 Y70.456 E30.15476
G1 X20.004 Y70.942 E30.18842
G1 X19.393 Y71.339 E30.2163
G1 X18.456 Y71.932 E30.25874
G1 X17.703 Y72.395 E30.29257
G1 X17.118 Y72.751 E30.31878
G1 X16.228 Y73.276 E30.35832
G1 X15.485 Y73.703 E30.39112
G1 X14.947 Y74.007 E30.41476
G1 X14.387 Y74.317 E30.43926
G1 X13.629 Y74.727 E30.47224
G1 X12.781 Y75.175 E30.50894
G1 X12.089 Y75.531 E30.53872
G1 X11.396 Y75.881 E30.56844
G1 X10.792 Y76.179 E30.59421
G1 X10.129 Y76.5 E30.6224
G1 X9.538 Y76.778 E30.6474
G1 X9.035 Y77.01 E30.66859
G1 X8.384 Y77.306 E30.69596
G1 X7.664 Y77.627 E30.72613
G1 X6.891 Y77.96 E30.75834
G1 X6.451 Y78.146 E30.77662
G1 X5.796 Y78.418 E30.80376
G1 X4.946 Y78.762 E30.83886
G1 X4.167 Y79.067 E30.87087
G1 X3.635 Y79.27 E30.89266
G1 X2.718 Y79.61 E30.93009
G1 X1.854 Y79.92 E30.96522
G1 X0.978 Y80.224 E31.0007
G1 X0.466 Y80.395 E31.02136
G1 X-.433 Y80.69 E31.05757
G1 X-1.549 Y81.039 E31.10232
G1 X-2.294 Y81.262 E31.13208
G1 X-2.954 Y81.454 E31.15839
G1 X-3.639 Y81.647 E31.18562
G1 X-4.196 Y81.8 E31.20773
G1 X-5.107 Y82.039 E31.24377
G1 X-5.545 Y82.151 E31.26107
G1 X-6.398 Y82.362 E31.2947
G1 X-7.014 Y82.509 E31.31894
G1 X-7.726 Y82.671 E31.34688
G1 X-8.471 Y82.835 E31.37607
G1 X-9.558 Y83.061 E31.41856
G1 X-10.436 Y83.232 E31.45279
G1 X-11.129 Y83.36 E31.47976
G1 X-11.873 Y83.491 E31.50867
G1 X-13.006 Y83.679 E31.55263
G1 X-13.782 Y83.798 E31.58267
G1 X-14.801 Y83.943 E31.62206
G1 X-15.298 Y84.008 E31.64124
G1 X-15.989 Y84.095 E31.66789
G1 X-16.657 Y84.174 E31.69364
G1 X-17.633 Y84.279 E31.7312
G1 X-18.52 Y84.364 E31.7653
G1 X-19.567 Y84.453 E31.80552
G1 X-20.401 Y84.513 E31.83752
G1 X-21.191 Y84.564 E31.86781
G1 X-22.259 Y84.621 E31.90874
G1 X-22.682 Y84.639 E31.92494
G1 X-23.353 Y84.655 E31.95063
G1 X-23.934 Y84.629 E31.97289
G1 X-24.505 Y84.523 E31.99511
G1 X-25.057 Y84.34 E32.01737
G1 X-25.578 Y84.083 E32.0396
G1 X-26.059 Y83.758 E32.06182
G1 X-26.491 Y83.369 E32.08406
G1 X-26.865 Y82.924 E32.10631
G1 X-27.175 Y82.433 E32.12853
G1 X-27.414 Y81.903 E32.15078
G1 X-27.579 Y81.346 E32.17301
G1 X-27.67 Y80.709 E32.19764
G1 X-27.703 Y80.089 E32.2214
G1 X-28.251 Y63.772 E32.84619
G1 X-28.265 Y63.054 E32.87368
G1 X-28.257 Y62.694 E32.88746
G1 X-28.188 Y61.643 E32.92776
G1 X-28.05 Y58.958 E33.03065
G1 X-27.986 Y56.224 E33.13531
G1 X-28 Y53.532 E33.23833
G1 X-28.091 Y50.798 E33.34302
G1 X-28.257 Y48.11 E33.44609
G1 X-28.501 Y45.41 E33.54983
G1 X-28.806 Y42.821 E33.6496
G1 X-28.964 Y41.612 E33.69626
G1 X-28.995 Y41.266 E33.70956
G1 X-29.029 Y40.558 E33.73668
G1 X-29.676 Y21.233 E34.47665
G1 X-29.689 Y20.558 E34.50249
G1 X-29.642 Y19.842 E34.52995
G1 X-29.467 Y18.696 E34.57432
G1 X-29.373 Y18.128 E34.59635
G1 X-29.004 Y15.432 E34.70049
G1 X-28.711 Y12.725 E34.80469
G1 X-28.493 Y9.999 E34.90934
G1 X-28.357 Y7.343 E35.01112
G1 X-28.294 Y4.613 E35.11562
G1 X-28.309 Y1.918 E35.21876
G0 F2040 X-27.959 Y1.904
G1 F1020 X-28.05 Y-.809 E35.32264
G1 X-28.22 Y-3.56 E35.42812
G1 X-28.46 Y-6.217 E35.53022
G1 X-28.788 Y-8.964 E35.63609
G1 X-29.177 Y-11.605 E35.73825
G1 X-29.659 Y-14.323 E35.84389
G1 X-30.198 Y-16.939 E35.94611
