;FLAVOR:Marlin
;TIME:7009
;Filament used: 9.70205m
;Layer height: 0.3
;MINX:-87.009
;MINY:-35.92
;MINZ:0.26
;MAXX:82.077
;MAXY:60.69
;MAXZ:2.36
;Generated with Cura_SteamEngine 4.9.1
M82 ;absolute extrusion mode
;Gcode by Cura
G90
G28
M107
M109 R100
G30
M109 S215 U-55 X55 V-85 Y-85 W0.26 Z0.26
M82
G92 E0
G1 F200 E6
G92 E0
G1 F200 E-3.5
G0 Z0.15
G0 X10
G0 Z3
G1 F6000
G92 E0
G92 E0
G1 F3600 E-3.8
;LAYER_COUNT:8
;LAYER:0
M107
G0 F2040 X-1.155 Y-26.477 Z0.26
;TYPE:SKIRT
G1 F3600 E0
G1 F1020 X1.551 Y-26.64 E0.10375
G1 X4.211 Y-26.876 E0.20594
G1 X6.915 Y-27.194 E0.31014
G1 X9.586 Y-27.584 E0.41344
G1 X12.21 Y-28.044 E0.51539
G1 X14.871 Y-28.587 E0.61932
G1 X18.192 Y-29.363 E0.74984
G1 X20.791 Y-30.047 E0.85269
G1 X23.382 Y-30.809 E0.95604
G1 X25.945 Y-31.642 E1.05918
G1 X28.5 Y-32.552 E1.16297
G1 X30.982 Y-33.517 E1.26489
G1 X33.379 Y-34.524 E1.36438
G1 X33.798 Y-34.707 E1.38188
G1 X34.367 Y-34.911 E1.40501
G1 X34.958 Y-35.039 E1.42816
G1 X35.409 Y-35.083 E1.4455
G1 X36.111 Y-35.116 E1.47239
G1 X61.38 Y-35.909 E2.4399
G1 X62.051 Y-35.92 E2.46558
G1 X62.955 Y-35.845 E2.5003
G1 X63.542 Y-35.698 E2.52345
G1 X63.827 Y-35.596 E2.53504
G1 X65.176 Y-35.059 E2.5906
G1 X65.47 Y-34.938 E2.60277
G1 X68.011 Y-33.975 E2.70676
G1 X70.566 Y-33.088 E2.81027
G1 X73.111 Y-32.284 E2.91241
G1 X75.73 Y-31.538 E3.01662
G1 X78.12 Y-30.927 E3.11103
G1 X78.544 Y-30.824 E3.12773
G1 X79.121 Y-30.642 E3.15088
G1 X79.669 Y-30.387 E3.17401
G1 X80.178 Y-30.061 E3.19714
G1 X80.64 Y-29.671 E3.22028
G1 X81.047 Y-29.223 E3.24344
G1 X81.391 Y-28.726 E3.26658
G1 X81.666 Y-28.188 E3.2897
G1 X81.868 Y-27.618 E3.31284
G1 X81.993 Y-27.026 E3.336
G1 X82.037 Y-26.52 E3.35543
G1 X82.061 Y-25.706 E3.3866
G1 X82.077 Y-24.645 E3.42721
G1 X82.076 Y-23.033 E3.4889
G1 X82.061 Y-22.051 E3.52648
G1 X82.007 Y-20.353 E3.5915
G1 X81.958 Y-19.316 E3.63123
G1 X81.857 Y-17.722 E3.69235
G1 X81.776 Y-16.7 E3.73159
G1 X81.619 Y-15.058 E3.79471
G1 X81.508 Y-14.057 E3.83325
G1 X81.302 Y-12.429 E3.89605
G1 X81.154 Y-11.392 E3.93614
G1 X80.906 Y-9.829 E3.9967
G1 X80.718 Y-8.755 E4.03843
G1 X80.428 Y-7.235 E4.09765
G1 X80.2 Y-6.139 E4.14049
G1 X79.864 Y-4.638 E4.19935
G1 X79.618 Y-3.612 E4.23973
G1 X79.201 Y-1.991 E4.30379
G1 X78.94 Y-1.04 E4.34153
G1 X78.483 Y0.532 E4.40418
G1 X78.171 Y1.543 E4.44467
G1 X77.685 Y3.04 E4.5049
G1 X77.33 Y4.073 E4.5467
G1 X76.794 Y5.56 E4.60719
G1 X76.43 Y6.521 E4.64652
G1 X75.82 Y8.06 E4.70987
G1 X75.428 Y9.003 E4.74896
G1 X74.787 Y10.485 E4.81075
G1 X74.362 Y11.424 E4.85019
G1 X73.673 Y12.889 E4.91215
G1 X73.206 Y13.839 E4.95266
G1 X72.475 Y15.274 E5.01429
G1 X71.986 Y16.196 E5.05423
G1 X71.217 Y17.593 E5.11526
G1 X70.692 Y18.513 E5.1558
G1 X69.867 Y19.907 E5.21779
G1 X69.346 Y20.755 E5.25588
G1 X68.445 Y22.174 E5.3202
G1 X67.888 Y23.021 E5.359
G1 X66.978 Y24.358 E5.42089
G1 X66.39 Y25.195 E5.46004
G1 X65.419 Y26.529 E5.52318
G1 X64.822 Y27.324 E5.56123
G1 X63.842 Y28.588 E5.62244
G1 X63.171 Y29.426 E5.66352
G1 X62.127 Y30.687 E5.72617
G1 X61.465 Y31.461 E5.76515
G1 X60.375 Y32.697 E5.82821
G1 X59.71 Y33.427 E5.86601
G1 X58.563 Y34.647 E5.93009
G1 X57.88 Y35.352 E5.96765
G1 X56.687 Y36.544 E6.03219
G1 X55.989 Y37.219 E6.06935
G1 X54.757 Y38.374 E6.13398
G1 X54.02 Y39.046 E6.17215
G1 X52.808 Y40.113 E6.23394
G1 X52.03 Y40.777 E6.27309
G1 X50.742 Y41.841 E6.33702
G1 X49.981 Y42.45 E6.37432
G1 X48.639 Y43.491 E6.43932
G1 X47.847 Y44.084 E6.47718
G1 X46.55 Y45.026 E6.53853
G1 X45.685 Y45.633 E6.57897
G1 X44.36 Y46.533 E6.64027
G1 X43.476 Y47.114 E6.68075
G1 X42.088 Y47.993 E6.74363
G1 X41.257 Y48.501 E6.7809
G1 X39.807 Y49.358 E6.84536
G1 X38.933 Y49.856 E6.88385
G1 X37.507 Y50.639 E6.94611
G1 X36.622 Y51.108 E6.98444
G1 X35.109 Y51.878 E7.04941
G1 X34.269 Y52.288 E7.08518
G1 X32.719 Y53.018 E7.15075
G1 X31.786 Y53.438 E7.18991
G1 X30.336 Y54.065 E7.25036
G1 X29.397 Y54.454 E7.28926
G1 X27.821 Y55.077 E7.35411
G1 X26.906 Y55.421 E7.39152
G1 X25.338 Y55.986 E7.45531
G1 X24.399 Y56.307 E7.49328
G1 X22.831 Y56.816 E7.55637
G1 X21.847 Y57.117 E7.59575
G1 X20.291 Y57.569 E7.65776
G1 X19.322 Y57.833 E7.6962
G1 X17.713 Y58.246 E7.75977
G1 X16.71 Y58.486 E7.79923
G1 X15.146 Y58.836 E7.86057
G1 X14.08 Y59.056 E7.90222
G1 X12.561 Y59.345 E7.9614
G1 X11.489 Y59.531 E8.00304
G1 X9.922 Y59.779 E8.06375
G1 X8.886 Y59.926 E8.10379
G1 X7.263 Y60.13 E8.1664
G1 X6.271 Y60.24 E8.20459
G1 X4.593 Y60.398 E8.26909
G1 X3.63 Y60.473 E8.30606
G1 X1.969 Y60.577 E8.36975
G1 X0.918 Y60.626 E8.41001
G1 X-.671 Y60.674 E8.47085
G1 X-1.669 Y60.69 E8.50905
G1 X-3.377 Y60.689 E8.57441
G1 X-4.367 Y60.673 E8.6123
G1 X-5.964 Y60.623 E8.67345
G1 X-7.043 Y60.572 E8.71479
G1 X-8.637 Y60.47 E8.77592
G1 X-9.658 Y60.39 E8.81511
G1 X-11.298 Y60.234 E8.87815
G1 X-12.331 Y60.119 E8.91793
G1 X-13.894 Y59.922 E8.97822
G1 X-14.95 Y59.771 E9.01904
G1 X-16.55 Y59.517 E9.08104
G1 X-17.608 Y59.331 E9.12215
G1 X-19.122 Y59.042 E9.18114
G1 X-20.19 Y58.821 E9.22287
G1 X-21.753 Y58.47 E9.28418
G1 X-22.781 Y58.222 E9.32465
G1 X-24.338 Y57.822 E9.38617
G1 X-25.319 Y57.552 E9.42511
G1 X-26.89 Y57.096 E9.48771
G1 X-27.901 Y56.784 E9.5282
G1 X-29.396 Y56.298 E9.58836
G1 X-30.42 Y55.947 E9.62979
G1 X-31.921 Y55.405 E9.69086
G1 X-32.864 Y55.05 E9.72942
G1 X-34.439 Y54.425 E9.79427
G1 X-35.361 Y54.042 E9.83248
G1 X-36.841 Y53.401 E9.8942
G1 X-37.785 Y52.975 E9.93383
G1 X-39.258 Y52.281 E9.99615
G1 X-40.189 Y51.824 E10.03584
G1 X-41.631 Y51.088 E10.0978
G1 X-42.541 Y50.606 E10.1372
G1 X-43.965 Y49.823 E10.19939
G1 X-44.845 Y49.321 E10.23817
G1 X-46.29 Y48.465 E10.30244
G1 X-47.117 Y47.957 E10.33958
G1 X-48.514 Y47.071 E10.40289
G1 X-49.39 Y46.494 E10.44303
G1 X-50.714 Y45.594 E10.5043
G1 X-51.584 Y44.981 E10.54503
G1 X-52.869 Y44.047 E10.60582
G1 X-53.725 Y43.403 E10.64682
G1 X-54.955 Y42.448 E10.70641
G1 X-55.773 Y41.794 E10.74649
G1 X-57.053 Y40.734 E10.81009
G1 X-57.835 Y40.066 E10.84945
G1 X-59.048 Y38.995 E10.91138
G1 X-59.816 Y38.295 E10.95115
G1 X-60.968 Y37.213 E11.01163
G1 X-61.735 Y36.469 E11.05252
G1 X-62.881 Y35.322 E11.11457
G1 X-63.618 Y34.56 E11.15514
G1 X-64.7 Y33.407 E11.21565
G1 X-65.406 Y32.631 E11.2558
G1 X-66.472 Y31.421 E11.31751
G1 X-67.139 Y30.64 E11.35682
G1 X-68.199 Y29.356 E11.42054
G1 X-68.848 Y28.545 E11.46029
G1 X-69.762 Y27.367 E11.51735
G1 X-70.447 Y26.453 E11.56106
G1 X-71.382 Y25.167 E11.62191
G1 X-71.992 Y24.297 E11.66257
G1 X-72.891 Y22.974 E11.72379
G1 X-73.472 Y22.09 E11.76427
G1 X-74.351 Y20.702 E11.82714
G1 X-74.859 Y19.871 E11.86442
G1 X-75.716 Y18.421 E11.92887
G1 X-76.214 Y17.547 E11.96737
G1 X-76.997 Y16.122 E12.02959
G1 X-77.481 Y15.208 E12.06917
G1 X-78.212 Y13.77 E12.13091
G1 X-78.672 Y12.832 E12.17089
G1 X-79.362 Y11.362 E12.23303
G1 X-79.789 Y10.416 E12.27275
G1 X-80.426 Y8.941 E12.33424
G1 X-80.812 Y8.011 E12.37278
G1 X-81.435 Y6.434 E12.43767
G1 X-81.786 Y5.503 E12.47574
G1 X-82.33 Y3.993 E12.53717
G1 X-82.679 Y2.969 E12.57857
G1 X-83.164 Y1.475 E12.63868
G1 X-83.471 Y0.475 E12.67871
G1 X-83.933 Y-1.117 E12.74215
G1 X-84.196 Y-2.079 E12.78032
G1 X-84.605 Y-3.674 E12.84333
G1 X-84.849 Y-4.7 E12.88369
G1 X-85.186 Y-6.207 E12.94279
G1 X-85.414 Y-7.307 E12.98578
G1 X-85.702 Y-8.818 E13.04464
G1 X-85.886 Y-9.876 E13.08574
G1 X-86.141 Y-11.494 E13.14843
G1 X-86.284 Y-12.5 E13.18731
G1 X-86.488 Y-14.123 E13.24991
G1 X-86.598 Y-15.115 E13.28811
G1 X-86.756 Y-16.793 E13.35261
G1 X-86.831 Y-17.756 E13.38957
G1 X-86.935 Y-19.417 E13.45326
G1 X-86.987 Y-20.526 E13.49575
G1 X-87.009 Y-21.205 E13.52175
G1 X-86.988 Y-21.809 E13.54488
G1 X-86.888 Y-22.405 E13.56801
G1 X-86.711 Y-22.983 E13.59114
G1 X-86.458 Y-23.533 E13.61431
G1 X-86.136 Y-24.044 E13.63742
G1 X-85.748 Y-24.509 E13.6606
G1 X-85.303 Y-24.918 E13.68373
G1 X-84.808 Y-25.265 E13.70686
G1 X-84.272 Y-25.544 E13.72999
G1 X-83.793 Y-25.722 E13.74954
G1 X-83.153 Y-25.921 E13.77519
G1 X-80.586 Y-26.762 E13.87857
G1 X-78.053 Y-27.673 E13.98158
G1 X-75.508 Y-28.67 E14.08619
G1 X-73.047 Y-29.716 E14.18852
G1 X-70.589 Y-30.843 E14.29201
G1 X-70.113 Y-31.075 E14.31227
G1 X-69.397 Y-31.412 E14.34255
G1 X-68.834 Y-31.633 E14.3657
G1 X-68.247 Y-31.778 E14.38884
G1 X-67.663 Y-31.843 E14.41133
G1 X-66.953 Y-31.876 E14.43853
G1 X-41.686 Y-32.67 E15.40596
G1 X-41.005 Y-32.68 E15.43203
G1 X-40.401 Y-32.648 E15.45517
G1 X-39.807 Y-32.538 E15.47829
G1 X-39.08 Y-32.298 E15.50759
G1 X-36.527 Y-31.407 E15.61107
G1 X-33.96 Y-30.591 E15.71415
G1 X-31.343 Y-29.84 E15.81835
G1 X-28.739 Y-29.172 E15.92123
G1 X-26.106 Y-28.575 E16.02455
G1 X-23.43 Y-28.048 E16.12893
G1 X-20.887 Y-27.619 E16.22762
G1 X-20.652 Y-27.583 E16.23672
G1 X-19.989 Y-27.472 E16.26244
G1 X-17.324 Y-27.102 E16.36541
G1 X-14.623 Y-26.806 E16.4694
G1 X-11.961 Y-26.589 E16.57161
G1 X-9.253 Y-26.446 E16.67539
G1 X-6.541 Y-26.379 E16.7792
G1 X-3.868 Y-26.39 E16.8815
G1 X-1.155 Y-26.477 E16.98538
G0 F2040 X-1.122 Y-26.128
G1 F1020 X1.568 Y-26.29 E17.08851
G1 X4.248 Y-26.528 E17.19148
G1 X6.932 Y-26.843 E17.2949
G1 X9.633 Y-27.238 E17.39936
G1 X12.3 Y-27.705 E17.50298
G1 X14.953 Y-28.246 E17.6066
G1 X18.251 Y-29.017 E17.73621
G1 X20.911 Y-29.717 E17.84148
G1 X23.479 Y-30.473 E17.94392
G1 X26.071 Y-31.315 E18.04822
G1 X28.603 Y-32.217 E18.15108
G1 X31.134 Y-33.201 E18.25501
G1 X33.516 Y-34.202 E18.35389
G1 X33.938 Y-34.386 E18.3715
G1 X34.486 Y-34.581 E18.39376
G1 X35.055 Y-34.699 E18.416
G1 X35.425 Y-34.733 E18.43022
G1 X36.122 Y-34.766 E18.45693
G1 X61.386 Y-35.559 E19.42424
G1 X62.057 Y-35.57 E19.44992
G1 X62.893 Y-35.501 E19.48203
G1 X63.697 Y-35.27 E19.51404
G1 X65.043 Y-34.735 E19.56947
G1 X65.324 Y-34.62 E19.58109
G1 X67.883 Y-33.649 E19.68584
G1 X70.446 Y-32.76 E19.78965
G1 X73.052 Y-31.937 E19.89424
G1 X75.624 Y-31.204 E19.99659
G1 X78.037 Y-30.587 E20.0919
G1 X78.461 Y-30.484 E20.1086
G1 X79.015 Y-30.308 E20.13085
G1 X79.54 Y-30.058 E20.1531
G1 X80.025 Y-29.738 E20.17534
G1 X80.462 Y-29.355 E20.19757
G1 X80.842 Y-28.916 E20.21979
G1 X81.158 Y-28.428 E20.24204
G1 X81.405 Y-27.902 E20.26428
G1 X81.576 Y-27.347 E20.28651
G1 X81.687 Y-26.509 E20.31886
G1 X81.712 Y-25.701 E20.34979
G1 X81.727 Y-24.709 E20.38776
G1 X81.726 Y-23.038 E20.45171
G1 X81.711 Y-22.062 E20.48906
G1 X81.657 Y-20.37 E20.55385
G1 X81.609 Y-19.338 E20.59339
G1 X81.508 Y-17.749 E20.65432
G1 X81.427 Y-16.733 E20.69332
G1 X81.271 Y-15.097 E20.75622
G1 X81.161 Y-14.101 E20.79457
G1 X80.956 Y-12.479 E20.85713
G1 X80.809 Y-11.447 E20.89703
G1 X80.561 Y-9.889 E20.9574
G1 X80.374 Y-8.821 E20.99889
G1 X80.085 Y-7.306 E21.05792
G1 X79.858 Y-6.215 E21.10056
G1 X79.523 Y-4.719 E21.15923
G1 X79.279 Y-3.699 E21.19937
G1 X78.863 Y-2.083 E21.26323
G1 X78.604 Y-1.137 E21.30076
G1 X78.148 Y0.429 E21.36318
G1 X77.838 Y1.435 E21.40347
G1 X77.353 Y2.927 E21.46351
G1 X77 Y3.955 E21.5051
G1 X76.467 Y5.436 E21.56534
G1 X76.104 Y6.392 E21.60447
G1 X75.497 Y7.926 E21.66761
G1 X75.107 Y8.864 E21.70648
G1 X74.468 Y10.341 E21.76807
G1 X74.045 Y11.275 E21.80731
G1 X73.358 Y12.735 E21.86906
G1 X72.895 Y13.68 E21.90933
G1 X72.165 Y15.11 E21.97078
G1 X71.679 Y16.028 E22.01053
G1 X70.913 Y17.419 E22.0713
G1 X70.391 Y18.335 E22.11164
G1 X69.568 Y19.724 E22.17343
G1 X69.05 Y20.568 E22.21133
G1 X68.153 Y21.982 E22.27541
G1 X67.598 Y22.824 E22.31401
G1 X66.691 Y24.157 E22.37571
G1 X66.107 Y24.989 E22.41461
G1 X65.139 Y26.319 E22.47756
G1 X64.545 Y27.11 E22.51542
G1 X63.565 Y28.374 E22.57663
G1 X62.901 Y29.203 E22.61727
G1 X61.861 Y30.459 E22.67968
G1 X61.202 Y31.23 E22.71849
G1 X60.116 Y32.461 E22.78132
G1 X59.454 Y33.188 E22.81894
G1 X58.311 Y34.404 E22.88281
G1 X57.632 Y35.105 E22.92016
G1 X56.443 Y36.292 E22.98446
G1 X55.749 Y36.964 E23.02142
G1 X54.521 Y38.115 E23.08584
G1 X53.789 Y38.783 E23.12376
G1 X52.58 Y39.847 E23.18539
G1 X51.807 Y40.508 E23.22432
G1 X50.523 Y41.568 E23.28804
G1 X49.766 Y42.174 E23.32515
G1 X48.429 Y43.211 E23.3899
G1 X47.641 Y43.801 E23.42757
G1 X46.349 Y44.74 E23.48869
G1 X45.488 Y45.344 E23.52894
G1 X44.168 Y46.241 E23.59002
G1 X43.289 Y46.818 E23.63026
G1 X41.905 Y47.694 E23.69294
G1 X41.078 Y48.2 E23.73004
G1 X39.634 Y49.054 E23.79425
G1 X38.765 Y49.549 E23.83252
G1 X37.343 Y50.33 E23.89461
G1 X36.463 Y50.796 E23.93271
G1 X34.955 Y51.563 E23.99746
G1 X34.12 Y51.972 E24.03304
G1 X32.576 Y52.699 E24.09835
G1 X31.647 Y53.117 E24.13734
G1 X30.202 Y53.741 E24.19757
G1 X29.269 Y54.128 E24.23623
G1 X27.698 Y54.75 E24.30089
G1 X26.788 Y55.092 E24.33809
G1 X25.225 Y55.655 E24.40167
G1 X24.356 Y55.953 E24.43683
G1 X22.728 Y56.481 E24.50233
G1 X21.749 Y56.781 E24.54151
G1 X20.199 Y57.231 E24.60328
G1 X19.235 Y57.494 E24.64152
G1 X17.632 Y57.905 E24.70485
G1 X16.633 Y58.144 E24.74416
G1 X15.075 Y58.494 E24.80527
G1 X14.014 Y58.712 E24.84672
G1 X12.501 Y59 E24.90566
G1 X11.434 Y59.186 E24.94711
G1 X9.872 Y59.433 E25.00763
G1 X8.842 Y59.579 E25.04744
G1 X7.225 Y59.782 E25.10981
G1 X6.238 Y59.891 E25.14781
G1 X4.565 Y60.049 E25.21212
G1 X3.608 Y60.124 E25.24886
G1 X1.953 Y60.227 E25.31232
G1 X0.907 Y60.276 E25.35239
G1 X-.676 Y60.324 E25.413
G1 X-1.669 Y60.34 E25.45101
G1 X-3.372 Y60.339 E25.51618
G1 X-4.356 Y60.323 E25.55384
G1 X-5.948 Y60.273 E25.6148
G1 X-7.021 Y60.223 E25.65591
G1 X-8.609 Y60.121 E25.7168
G1 X-9.625 Y60.041 E25.7558
G1 X-11.259 Y59.886 E25.81862
G1 X-12.287 Y59.772 E25.8582
G1 X-13.845 Y59.576 E25.91829
G1 X-14.895 Y59.425 E25.95889
G1 X-16.489 Y59.172 E26.02066
G1 X-17.543 Y58.987 E26.06161
G1 X-19.051 Y58.699 E26.12036
G1 X-20.114 Y58.479 E26.1619
G1 X-21.671 Y58.13 E26.22297
G1 X-22.694 Y57.883 E26.26324
G1 X-24.245 Y57.484 E26.32453
G1 X-25.222 Y57.216 E26.3633
G1 X-26.787 Y56.761 E26.42567
G1 X-27.793 Y56.451 E26.46596
G1 X-29.283 Y55.967 E26.52591
G1 X-30.302 Y55.618 E26.56713
G1 X-31.798 Y55.078 E26.628
G1 X-32.736 Y54.724 E26.66637
G1 X-34.305 Y54.102 E26.73096
G1 X-35.222 Y53.721 E26.76896
G1 X-36.697 Y53.082 E26.83048
G1 X-37.636 Y52.658 E26.86991
G1 X-39.104 Y51.967 E26.932
G1 X-40.03 Y51.512 E26.97148
G1 X-41.468 Y50.779 E27.03325
G1 X-42.373 Y50.299 E27.07246
G1 X-43.792 Y49.518 E27.13444
G1 X-44.666 Y49.02 E27.17294
G1 X-46.107 Y48.166 E27.23704
G1 X-46.93 Y47.661 E27.274
G1 X-48.322 Y46.779 E27.33706
G1 X-49.193 Y46.205 E27.37698
G1 X-50.512 Y45.308 E27.43802
G1 X-51.378 Y44.698 E27.47856
G1 X-52.659 Y43.767 E27.53916
G1 X-53.511 Y43.126 E27.57997
G1 X-54.737 Y42.175 E27.63935
G1 X-55.549 Y41.524 E27.67918
G1 X-56.826 Y40.468 E27.74259
G1 X-57.603 Y39.803 E27.78173
G1 X-58.812 Y38.737 E27.84341
G1 X-59.576 Y38.04 E27.88299
G1 X-60.724 Y36.961 E27.94328
G1 X-61.488 Y36.221 E27.98399
G1 X-62.629 Y35.078 E28.04579
G1 X-63.363 Y34.32 E28.08617
G1 X-64.441 Y33.171 E28.14647
G1 X-65.143 Y32.4 E28.18637
G1 X-66.206 Y31.194 E28.2479
G1 X-66.869 Y30.416 E28.28701
G1 X-67.926 Y29.138 E28.35048
G1 X-68.571 Y28.33 E28.39005
G1 X-69.525 Y27.099 E28.44965
G1 X-70.164 Y26.247 E28.49041
G1 X-71.096 Y24.965 E28.55106
G1 X-71.703 Y24.1 E28.5915
G1 X-72.599 Y22.782 E28.65249
G1 X-73.176 Y21.903 E28.69273
G1 X-74.052 Y20.519 E28.75542
G1 X-74.558 Y19.692 E28.79252
G1 X-75.412 Y18.248 E28.85672
G1 X-75.907 Y17.379 E28.89499
G1 X-76.688 Y15.958 E28.95705
G1 X-77.169 Y15.05 E28.99637
G1 X-77.898 Y13.616 E29.05793
G1 X-78.355 Y12.683 E29.09769
G1 X-79.043 Y11.218 E29.15963
G1 X-79.468 Y10.277 E29.19915
G1 X-80.103 Y8.807 E29.26043
G1 X-80.486 Y7.883 E29.2987
G1 X-81.108 Y6.311 E29.3634
G1 X-81.456 Y5.384 E29.4013
G1 X-81.999 Y3.879 E29.46253
G1 X-82.346 Y2.861 E29.50368
G1 X-82.829 Y1.372 E29.56359
G1 X-83.135 Y0.377 E29.60343
G1 X-83.596 Y-1.209 E29.66664
G1 X-83.857 Y-2.166 E29.7046
G1 X-84.265 Y-3.755 E29.76738
G1 X-84.508 Y-4.776 E29.80755
G1 X-84.844 Y-6.278 E29.86645
G1 X-85.07 Y-7.372 E29.9092
G1 X-85.357 Y-8.879 E29.96791
G1 X-85.54 Y-9.93 E30.00873
G1 X-85.795 Y-11.543 E30.07123
G1 X-85.937 Y-12.544 E30.10992
G1 X-86.14 Y-14.161 E30.17229
G1 X-86.249 Y-15.148 E30.21029
G1 X-86.407 Y-16.821 E30.2746
G1 X-86.482 Y-17.778 E30.31134
G1 X-86.585 Y-19.434 E30.37483
G1 X-86.637 Y-20.537 E30.41709
G1 X-86.659 Y-21.216 E30.44309
G1 X-86.638 Y-21.797 E30.46534
G1 X-86.537 Y-22.369 E30.48757
G1 X-86.359 Y-22.922 E30.5098
G1 X-86.106 Y-23.445 E30.53203
G1 X-85.785 Y-23.929 E30.55426
G1 X-85.4 Y-24.364 E30.57649
G1 X-84.958 Y-24.742 E30.59875
G1 X-84.469 Y-25.056 E30.62099
