;FLAVOR:Marlin
;TIME:9686
;Filament used: 9.83376m
;Layer height: 0.2
;MINX:-38.89
;MINY:-84.865
;MINZ:0.26
;MAXX:58.546
;MAXY:84.219
;MAXZ:3.46
;Generated with Cura_SteamEngine 4.8.0
M82 ;absolute extrusion mode
;Gcode by Cura
G90
G28
M107
M109 R100
G30
M109 S215 U-55 X55 V-85 Y-85 W0.26 Z0.26
M82
G92 E0
G1 F200 E6
G92 E0
G1 F200 E-3.5
G0 Z0.15
G0 X10
G0 Z3
G1 F6000
G92 E0
G92 E0
G1 F3600 E-3.8
;LAYER_COUNT:17
;LAYER:0
M107
G0 F2040 X-29.5 Y-1.828 Z0.26
;TYPE:SKIRT
G1 F3600 E0
G1 F1020 X-29.491 Y-4.505 E0.10245
G1 X-29.561 Y-7.249 E0.20749
G1 X-29.703 Y-9.888 E0.30863
G1 X-29.927 Y-12.625 E0.41373
G1 X-30.221 Y-15.281 E0.51599
G1 X-30.593 Y-17.942 E0.61882
G1 X-31.048 Y-20.648 E0.72383
G1 X-31.563 Y-23.256 E0.82556
G1 X-32.162 Y-25.89 E0.92894
G1 X-32.844 Y-28.543 E1.03377
G1 X-33.58 Y-31.104 E1.13574
G1 X-34.393 Y-33.661 E1.23843
G1 X-35.231 Y-36.066 E1.33589
G1 X-35.375 Y-36.461 E1.35198
G1 X-35.543 Y-37.042 E1.37513
G1 X-35.634 Y-37.64 E1.39827
G1 X-35.65 Y-38.187 E1.41922
G1 X-35.639 Y-38.778 E1.44184
G1 X-34.794 Y-65.651 E2.47076
G1 X-34.761 Y-66.346 E2.49739
G1 X-34.692 Y-66.947 E2.52054
G1 X-34.545 Y-67.533 E2.54366
G1 X-34.212 Y-68.311 E2.57605
G1 X-33.848 Y-68.98 E2.6052
G1 X-33.15 Y-70.221 E2.65968
G1 X-31.882 Y-72.633 E2.76397
G1 X-30.703 Y-75.039 E2.86651
G1 X-29.577 Y-77.513 E2.97053
G1 X-28.529 Y-79.998 E3.07374
G1 X-27.959 Y-81.463 E3.1339
G1 X-27.734 Y-82.016 E3.15675
G1 X-27.469 Y-82.56 E3.1799
G1 X-27.135 Y-83.064 E3.20304
G1 X-26.738 Y-83.52 E3.22618
G1 X-26.284 Y-83.919 E3.24931
G1 X-25.781 Y-84.255 E3.27246
G1 X-25.239 Y-84.522 E3.29558
G1 X-24.666 Y-84.715 E3.31872
G1 X-24.072 Y-84.831 E3.34188
G1 X-23.353 Y-84.865 E3.36943
G1 X-22.545 Y-84.839 E3.40037
G1 X-21.465 Y-84.788 E3.44175
G1 X-19.865 Y-84.686 E3.5031
G1 X-18.849 Y-84.606 E3.5421
G1 X-17.183 Y-84.447 E3.60615
G1 X-16.215 Y-84.34 E3.64342
G1 X-14.576 Y-84.133 E3.70664
G1 X-13.551 Y-83.986 E3.74627
G1 X-11.942 Y-83.731 E3.80861
G1 X-10.905 Y-83.549 E3.84891
G1 X-9.354 Y-83.252 E3.90934
G1 X-8.36 Y-83.046 E3.94819
G1 X-6.73 Y-82.681 E4.01211
G1 X-5.721 Y-82.438 E4.05183
G1 X-4.164 Y-82.038 E4.11335
G1 X-3.183 Y-81.768 E4.15229
G1 X-1.612 Y-81.312 E4.21489
G1 X-.601 Y-81 E4.25538
G1 X0.894 Y-80.514 E4.31554
G1 X1.918 Y-80.163 E4.35697
G1 X3.419 Y-79.621 E4.41804
G1 X4.362 Y-79.266 E4.4566
G1 X5.937 Y-78.641 E4.52145
G1 X6.859 Y-78.258 E4.55966
G1 X8.339 Y-77.617 E4.62138
G1 X9.283 Y-77.191 E4.66102
G1 X10.756 Y-76.497 E4.72333
G1 X11.687 Y-76.04 E4.76302
G1 X13.129 Y-75.304 E4.82498
G1 X14.039 Y-74.822 E4.86439
G1 X15.463 Y-74.039 E4.92658
G1 X16.343 Y-73.537 E4.96535
G1 X17.787 Y-72.681 E5.02959
G1 X18.645 Y-72.155 E5.0681
G1 X19.981 Y-71.307 E5.12866
G1 X20.912 Y-70.694 E5.17132
G1 X22.183 Y-69.83 E5.23014
G1 X23.081 Y-69.198 E5.27216
G1 X24.368 Y-68.261 E5.33308
G1 X25.164 Y-67.664 E5.37116
G1 X26.508 Y-66.62 E5.43629
G1 X27.268 Y-66.012 E5.47354
G1 X28.564 Y-64.939 E5.53793
G1 X29.298 Y-64.31 E5.57492
G1 X30.565 Y-63.193 E5.63956
G1 X31.283 Y-62.539 E5.67673
G1 X32.503 Y-61.392 E5.74081
G1 X33.208 Y-60.709 E5.77837
G1 X34.4 Y-59.516 E5.84291
G1 X35.075 Y-58.818 E5.88007
G1 X36.232 Y-57.584 E5.94481
G1 X36.903 Y-56.847 E5.98295
G1 X37.969 Y-55.637 E6.04467
G1 X38.633 Y-54.859 E6.08381
G1 X39.697 Y-53.571 E6.14774
G1 X40.306 Y-52.81 E6.18504
G1 X41.347 Y-51.468 E6.25004
G1 X41.94 Y-50.676 E6.28791
G1 X42.881 Y-49.381 E6.34917
G1 X43.511 Y-48.484 E6.39112
G1 X44.373 Y-47.214 E6.44986
G1 X44.984 Y-46.284 E6.49244
G1 X45.832 Y-44.945 E6.55309
G1 X46.357 Y-44.087 E6.59159
G1 X47.214 Y-42.637 E6.65605
G1 X47.712 Y-41.763 E6.69454
G1 X48.496 Y-40.336 E6.75685
G1 X48.977 Y-39.426 E6.79624
G1 X49.71 Y-37.987 E6.85805
G1 X50.123 Y-37.146 E6.8939
G1 X50.86 Y-35.58 E6.96014
G1 X51.265 Y-34.683 E6.9978
G1 X51.921 Y-33.165 E7.06109
G1 X52.31 Y-32.226 E7.09999
G1 X52.933 Y-30.65 E7.16484
G1 X53.277 Y-29.735 E7.20225
G1 X53.842 Y-28.165 E7.2661
G1 X54.155 Y-27.249 E7.30315
G1 X54.673 Y-25.652 E7.3674
G1 X54.972 Y-24.679 E7.40636
G1 X55.428 Y-23.11 E7.46888
G1 X55.697 Y-22.123 E7.50803
G1 X56.096 Y-20.567 E7.56951
G1 X56.337 Y-19.561 E7.6091
G1 X56.702 Y-17.928 E7.67313
G1 X56.903 Y-16.951 E7.71131
G1 X57.203 Y-15.377 E7.77263
G1 X57.374 Y-14.392 E7.81089
G1 X57.645 Y-12.688 E7.87692
G1 X57.776 Y-11.758 E7.91286
G1 X57.992 Y-10.037 E7.97924
G1 X58.095 Y-9.107 E8.01504
G1 X58.252 Y-7.438 E8.0792
G1 X58.327 Y-6.475 E8.11616
G1 X58.433 Y-4.789 E8.18081
G1 X58.482 Y-3.748 E8.2207
G1 X58.53 Y-2.17 E8.28111
G1 X58.546 Y-1.116 E8.32145
G1 X58.545 Y0.5 E8.3833
G1 X58.529 Y1.555 E8.42368
G1 X58.479 Y3.134 E8.48413
G1 X58.43 Y4.156 E8.52329
G1 X58.322 Y5.856 E8.58848
G1 X58.246 Y6.824 E8.62564
G1 X58.087 Y8.491 E8.68972
G1 X57.984 Y9.419 E8.72546
G1 X57.767 Y11.142 E8.79192
G1 X57.633 Y12.077 E8.82806
G1 X57.363 Y13.772 E8.89375
G1 X57.19 Y14.762 E8.93221
G1 X56.892 Y16.317 E8.9928
G1 X56.686 Y17.313 E9.03172
G1 X56.321 Y18.943 E9.09565
G1 X56.078 Y19.952 E9.13537
G1 X55.678 Y21.507 E9.19681
G1 X55.409 Y22.489 E9.23578
G1 X54.952 Y24.061 E9.29843
G1 X54.64 Y25.072 E9.33892
G1 X54.154 Y26.567 E9.39908
G1 X53.803 Y27.591 E9.44051
G1 X53.261 Y29.094 E9.50165
G1 X52.902 Y30.044 E9.54052
G1 X52.283 Y31.604 E9.60474
G1 X51.916 Y32.49 E9.64144
G1 X51.245 Y34.039 E9.70605
G1 X50.83 Y34.958 E9.74464
G1 X50.135 Y36.433 E9.80704
G1 X49.68 Y37.36 E9.84655
G1 X48.944 Y38.802 E9.90851
G1 X48.462 Y39.712 E9.94792
G1 X47.712 Y41.076 E10.00749
G1 X47.177 Y42.016 E10.04888
G1 X46.321 Y43.46 E10.11312
G1 X45.795 Y44.318 E10.15164
G1 X44.943 Y45.66 E10.21247
G1 X44.334 Y46.585 E10.25485
G1 X43.47 Y47.856 E10.31367
G1 X42.838 Y48.754 E10.35569
G1 X41.901 Y50.042 E10.41665
G1 X41.301 Y50.841 E10.45489
G1 X40.262 Y52.179 E10.51972
G1 X39.652 Y52.939 E10.55701
G1 X38.594 Y54.218 E10.62053
G1 X37.921 Y55.005 E10.66016
G1 X36.851 Y56.218 E10.72206
G1 X36.179 Y56.956 E10.76026
G1 X35.032 Y58.176 E10.82434
G1 X34.349 Y58.881 E10.86191
G1 X33.154 Y60.075 E10.92656
G1 X32.423 Y60.781 E10.96545
G1 X31.26 Y61.873 E11.0265
G1 X30.468 Y62.593 E11.06746
G1 X29.291 Y63.63 E11.12749
G1 X28.511 Y64.295 E11.16672
G1 X27.206 Y65.374 E11.23152
G1 X26.45 Y65.979 E11.26858
G1 X25.108 Y67.02 E11.33358
G1 X24.316 Y67.613 E11.37144
G1 X23.021 Y68.554 E11.4327
G1 X22.124 Y69.184 E11.47465
G1 X20.854 Y70.046 E11.53339
G1 X19.924 Y70.657 E11.57597
G1 X18.585 Y71.505 E11.63663
G1 X17.727 Y72.03 E11.67512
G1 X16.277 Y72.887 E11.73958
G1 X15.403 Y73.385 E11.77808
G1 X13.976 Y74.169 E11.84039
G1 X13.066 Y74.65 E11.87978
G1 X11.626 Y75.383 E11.94162
G1 X10.692 Y75.841 E11.98143
G1 X9.218 Y76.533 E12.04374
G1 X8.255 Y76.967 E12.08416
G1 X6.806 Y77.594 E12.14459
G1 X5.841 Y77.993 E12.18455
G1 X4.316 Y78.596 E12.24731
G1 X3.38 Y78.949 E12.28559
G1 X1.831 Y79.507 E12.3486
G1 X0.825 Y79.85 E12.38927
G1 X-.671 Y80.335 E12.44946
G1 X-1.681 Y80.645 E12.48989
G1 X-3.25 Y81.101 E12.55242
G1 X-4.237 Y81.37 E12.59157
G1 X-5.793 Y81.769 E12.65304
G1 X-6.799 Y82.01 E12.69263
G1 X-8.434 Y82.375 E12.75674
G1 X-9.42 Y82.578 E12.79527
G1 X-10.984 Y82.876 E12.8562
G1 X-11.968 Y83.047 E12.89442
G1 X-13.672 Y83.318 E12.96045
G1 X-14.602 Y83.449 E12.99639
G1 X-16.323 Y83.665 E13.06277
G1 X-17.254 Y83.768 E13.09862
G1 X-18.922 Y83.925 E13.16273
G1 X-19.886 Y84 E13.19974
G1 X-21.589 Y84.107 E13.26504
G1 X-22.613 Y84.155 E13.30427
G1 X-24.19 Y84.203 E13.36465
G1 X-25.243 Y84.219 E13.40495
G1 X-26.86 Y84.218 E13.46683
G1 X-27.95 Y84.201 E13.50855
G1 X-28.658 Y84.18 E13.53566
G1 X-29.26 Y84.122 E13.5588
G1 X-29.849 Y83.985 E13.58194
G1 X-30.414 Y83.772 E13.60505
G1 X-30.947 Y83.486 E13.6282
G1 X-31.438 Y83.133 E13.65134
G1 X-31.877 Y82.717 E13.67449
G1 X-32.258 Y82.248 E13.69761
G1 X-32.574 Y81.732 E13.72077
G1 X-32.861 Y81.057 E13.74884
G1 X-33.011 Y80.608 E13.76696
G1 X-33.621 Y78.708 E13.84332
G1 X-34.53 Y76.137 E13.94768
G1 X-35.48 Y73.669 E14.04889
G1 X-36.535 Y71.147 E14.15351
G1 X-37.647 Y68.684 E14.25693
G1 X-38.334 Y67.259 E14.31747
G1 X-38.468 Y66.969 E14.32969
G1 X-38.685 Y66.405 E14.35282
G1 X-38.825 Y65.816 E14.37599
G1 X-38.89 Y65.108 E14.4032
G1 X-38.89 Y64.885 E14.41173
G1 X-38.879 Y64.298 E14.4342
G1 X-38.033 Y37.422 E15.46324
G1 X-38.003 Y36.744 E15.48921
G1 X-37.936 Y36.143 E15.51236
G1 X-37.791 Y35.556 E15.53549
G1 X-37.509 Y34.851 E15.56455
G1 X-36.462 Y32.366 E15.66775
G1 X-35.477 Y29.835 E15.77169
G1 X-34.575 Y27.296 E15.8748
G1 X-33.755 Y24.772 E15.97636
G1 X-32.98 Y22.134 E16.08158
G1 X-32.292 Y19.524 E16.18488
G1 X-31.684 Y16.917 E16.28733
G1 X-31.138 Y14.242 E16.39181
G1 X-30.687 Y11.645 E16.49268
G1 X-30.292 Y8.923 E16.59794
G1 X-29.979 Y6.248 E16.70101
G1 X-29.745 Y3.588 E16.8032
G1 X-29.584 Y0.881 E16.90698
G1 X-29.5 Y-1.828 E17.0107
G0 F2040 X-29.15 Y-1.816
G1 F1020 X-29.141 Y-4.512 E17.11388
G1 X-29.211 Y-7.242 E17.21839
G1 X-29.356 Y-9.937 E17.32167
G1 X-29.578 Y-12.653 E17.42596
G1 X-29.875 Y-15.332 E17.52911
G1 X-30.249 Y-18.013 E17.63271
G1 X-30.696 Y-20.671 E17.73585
G1 X-31.221 Y-23.333 E17.83969
G1 X-31.823 Y-25.978 E17.9435
G1 X-32.502 Y-28.616 E18.04775
G1 X-33.245 Y-31.206 E18.15086
G1 X-34.073 Y-33.805 E18.25525
G1 X-34.881 Y-36.127 E18.34934
G1 X-35.046 Y-36.581 E18.36783
G1 X-35.206 Y-37.139 E18.39004
G1 X-35.3 Y-37.969 E18.42201
G1 X-35.3 Y-38.18 E18.43008
G1 X-35.289 Y-38.767 E18.45255
G1 X-34.444 Y-65.634 E19.48125
G1 X-34.411 Y-66.329 E19.50787
G1 X-34.344 Y-66.906 E19.5301
G1 X-34.198 Y-67.469 E19.55236
G1 X-33.904 Y-68.144 E19.58054
G1 X-33.543 Y-68.809 E19.6095
G1 X-32.841 Y-70.057 E19.66429
G1 X-31.571 Y-72.473 E19.76875
G1 X-30.377 Y-74.911 E19.87264
G1 X-29.269 Y-77.344 E19.97495
G1 X-28.205 Y-79.866 E20.0797
G1 X-27.634 Y-81.331 E20.13987
G1 X-27.409 Y-81.884 E20.16272
G1 X-27.154 Y-82.406 E20.18495
G1 X-26.829 Y-82.888 E20.2072
G1 X-26.442 Y-83.321 E20.22943
G1 X-25.998 Y-83.696 E20.25167
G1 X-25.508 Y-84.007 E20.27388
G1 X-24.979 Y-84.248 E20.29612
G1 X-24.422 Y-84.414 E20.31837
G1 X-23.848 Y-84.502 E20.34059
G1 X-23.364 Y-84.515 E20.35912
G1 X-22.562 Y-84.489 E20.38983
G1 X-21.487 Y-84.439 E20.43101
G1 X-19.892 Y-84.337 E20.49218
G1 X-18.882 Y-84.257 E20.53095
G1 X-17.222 Y-84.1 E20.59476
G1 X-16.259 Y-83.993 E20.63184
G1 X-14.625 Y-83.786 E20.69487
G1 X-13.606 Y-83.641 E20.73426
G1 X-12.002 Y-83.386 E20.79642
G1 X-10.971 Y-83.205 E20.83648
G1 X-9.424 Y-82.909 E20.89675
G1 X-8.436 Y-82.704 E20.93537
G1 X-6.811 Y-82.341 E20.99909
G1 X-5.808 Y-82.099 E21.03858
G1 X-4.257 Y-81.7 E21.09986
G1 X-3.28 Y-81.432 E21.13864
G1 X-1.715 Y-80.977 E21.20101
G1 X-.709 Y-80.667 E21.24129
G1 X0.781 Y-80.183 E21.30125
G1 X1.8 Y-79.834 E21.34247
G1 X3.296 Y-79.294 E21.40333
G1 X4.234 Y-78.94 E21.4417
G1 X5.803 Y-78.318 E21.50629
G1 X6.72 Y-77.937 E21.5443
G1 X8.195 Y-77.298 E21.60581
G1 X9.134 Y-76.874 E21.64524
G1 X10.602 Y-76.183 E21.70733
G1 X11.528 Y-75.728 E21.74682
G1 X12.966 Y-74.995 E21.80859
G1 X13.871 Y-74.515 E21.84779
G1 X15.29 Y-73.734 E21.90978
G1 X16.164 Y-73.236 E21.94827
G1 X17.605 Y-72.382 E22.01238
G1 X18.457 Y-71.859 E22.05063
G1 X19.789 Y-71.014 E22.111
G1 X20.715 Y-70.405 E22.15342
G1 X21.981 Y-69.544 E22.21201
G1 X22.875 Y-68.915 E22.25384
G1 X24.159 Y-67.981 E22.3146
G1 X24.949 Y-67.388 E22.35241
G1 X26.289 Y-66.347 E22.41734
G1 X27.044 Y-65.742 E22.45437
G1 X28.336 Y-64.673 E22.51854
G1 X29.066 Y-64.048 E22.55532
G1 X30.329 Y-62.934 E22.61977
G1 X31.044 Y-62.283 E22.65678
G1 X32.26 Y-61.14 E22.72064
G1 X32.961 Y-60.461 E22.75799
G1 X34.148 Y-59.272 E22.82229
G1 X34.82 Y-58.578 E22.85926
G1 X35.973 Y-57.349 E22.92375
G1 X36.64 Y-56.616 E22.96168
G1 X37.703 Y-55.409 E23.02323
G1 X38.364 Y-54.636 E23.06215
G1 X39.424 Y-53.352 E23.12587
G1 X40.03 Y-52.595 E23.16298
G1 X41.067 Y-51.258 E23.22773
G1 X41.657 Y-50.47 E23.2654
G1 X42.595 Y-49.18 E23.32644
G1 X43.221 Y-48.287 E23.36818
G1 X44.08 Y-47.022 E23.42669
G1 X44.688 Y-46.097 E23.46906
G1 X45.533 Y-44.763 E23.52949
G1 X46.056 Y-43.908 E23.56784
G1 X46.91 Y-42.464 E23.63205
G1 X47.405 Y-41.595 E23.67032
G1 X48.187 Y-40.172 E23.73246
G1 X48.665 Y-39.268 E23.77159
G1 X49.395 Y-37.832 E23.83324
G1 X49.839 Y-36.928 E23.87178
G1 X50.541 Y-35.436 E23.93489
G1 X50.973 Y-34.476 E23.97517
G1 X51.597 Y-33.031 E24.03541
G1 X51.984 Y-32.098 E24.07406
G1 X52.606 Y-30.527 E24.13873
G1 X52.948 Y-29.617 E24.17593
G1 X53.511 Y-28.052 E24.23958
G1 X53.822 Y-27.141 E24.27642
G1 X54.339 Y-25.549 E24.34048
G1 X54.636 Y-24.582 E24.37919
G1 X55.09 Y-23.017 E24.44155
G1 X55.358 Y-22.036 E24.48047
G1 X55.756 Y-20.486 E24.54171
G1 X55.995 Y-19.485 E24.58109
G1 X56.359 Y-17.857 E24.64494
G1 X56.559 Y-16.885 E24.68291
G1 X56.858 Y-15.317 E24.744
G1 X57.029 Y-14.337 E24.78207
G1 X57.298 Y-12.639 E24.84786
G1 X57.429 Y-11.714 E24.88362
G1 X57.644 Y-9.999 E24.94976
G1 X57.746 Y-9.074 E24.98538
G1 X57.903 Y-7.41 E25.04934
G1 X57.978 Y-6.452 E25.08611
G1 X58.083 Y-4.773 E25.15049
G1 X58.132 Y-3.737 E25.19019
G1 X58.181 Y-2.164 E25.25041
G1 X58.196 Y-1.18 E25.28807
G1 X58.196 Y0.495 E25.35218
G1 X58.179 Y1.544 E25.39233
G1 X58.129 Y3.118 E25.45259
G1 X58.081 Y4.134 E25.49152
G1 X57.973 Y5.829 E25.55652
G1 X57.897 Y6.791 E25.59345
G1 X57.739 Y8.452 E25.6573
G1 X57.637 Y9.375 E25.69284
G1 X57.42 Y11.093 E25.75911
G1 X57.288 Y12.022 E25.79501
G1 X57.018 Y13.712 E25.86051
G1 X56.846 Y14.696 E25.89874
G1 X56.549 Y16.247 E25.95917
G1 X56.344 Y17.237 E25.99786
G1 X55.981 Y18.862 E26.06158
G1 X55.739 Y19.865 E26.10107
G1 X55.341 Y21.415 E26.16231
G1 X55.073 Y22.392 E26.20108
G1 X54.617 Y23.958 E26.2635
G1 X54.307 Y24.964 E26.30379
G1 X53.823 Y26.454 E26.36374
G1 X53.474 Y27.473 E26.40496
G1 X52.933 Y28.97 E26.46588
G1 X52.577 Y29.915 E26.50452
G1 X51.96 Y31.47 E26.56855
G1 X51.595 Y32.351 E26.60504
G1 X50.926 Y33.895 E26.66944
G1 X50.513 Y34.809 E26.70782
G1 X49.821 Y36.278 E26.76996
G1 X49.368 Y37.201 E26.80931
G1 X48.635 Y38.639 E26.87108
G1 X48.155 Y39.544 E26.91028
G1 X47.375 Y40.961 E26.97218
G1 X46.876 Y41.837 E27.01077
G1 X46.022 Y43.278 E27.07487
G1 X45.499 Y44.131 E27.11316
G1 X44.65 Y45.468 E27.17377
G1 X44.045 Y46.388 E27.21591
G1 X43.184 Y47.654 E27.2745
G1 X42.555 Y48.548 E27.31633
G1 X41.621 Y49.832 E27.3771
G1 X41.024 Y50.627 E27.41515
G1 X39.989 Y51.96 E27.47973
G1 X39.382 Y52.716 E27.51683
G1 X38.327 Y53.991 E27.58017
G1 X37.659 Y54.774 E27.61955
G1 X36.592 Y55.982 E27.68124
G1 X35.923 Y56.717 E27.71927
G1 X34.78 Y57.933 E27.78314
G1 X34.101 Y58.634 E27.82049
G1 X32.91 Y59.823 E27.88489
G1 X32.183 Y60.526 E27.92359
G1 X31.024 Y61.614 E27.98443
G1 X30.237 Y62.33 E28.02514
G1 X29.063 Y63.364 E28.08501
G1 X28.288 Y64.026 E28.12402
G1 X26.987 Y65.101 E28.18861
G1 X26.235 Y65.703 E28.22547
G1 X24.898 Y66.74 E28.29022
G1 X24.11 Y67.33 E28.3279
G1 X22.82 Y68.268 E28.38894
G1 X21.927 Y68.894 E28.43067
G1 X20.662 Y69.753 E28.48919
G1 X19.737 Y70.361 E28.53155
G1 X18.403 Y71.206 E28.59198
G1 X17.548 Y71.729 E28.63034
G1 X16.104 Y72.583 E28.69454
G1 X15.235 Y73.078 E28.73281
G1 X13.812 Y73.86 E28.79495
G1 X12.908 Y74.338 E28.83409
G1 X11.471 Y75.069 E28.89579
G1 X10.543 Y75.524 E28.93534
G1 X9.074 Y76.214 E28.99745
G1 X8.116 Y76.646 E29.03767
G1 X6.671 Y77.27 E29.0979
G1 X5.712 Y77.668 E29.13764
G1 X4.192 Y78.268 E29.20018
G1 X3.261 Y78.619 E29.23825
G1 X1.718 Y79.175 E29.30102
G1 X0.717 Y79.517 E29.3415
G1 X-.773 Y80.001 E29.40146
G1 X-1.779 Y80.309 E29.44172
G1 X-3.343 Y80.763 E29.50404
G1 X-4.324 Y81.031 E29.54296
G1 X-5.874 Y81.429 E29.6042
G1 X-6.875 Y81.668 E29.64359
G1 X-8.504 Y82.032 E29.70747
G1 X-9.486 Y82.234 E29.74583
G1 X-11.044 Y82.531 E29.80653
G1 X-12.023 Y82.702 E29.84456
G1 X-13.721 Y82.971 E29.91036
G1 X-14.646 Y83.102 E29.94611
G1 X-16.362 Y83.317 E30.01229
G1 X-17.287 Y83.419 E30.04791
G1 X-18.95 Y83.576 E30.11183
G1 X-19.908 Y83.651 E30.14861
G1 X-21.605 Y83.757 E30.21368
G1 X-22.624 Y83.805 E30.25272
G1 X-24.196 Y83.854 E30.31291
G1 X-25.179 Y83.869 E30.35053
G1 X-26.855 Y83.868 E30.41467
G1 X-27.939 Y83.851 E30.45616
G1 X-28.647 Y83.83 E30.48326
G1 X-29.225 Y83.773 E30.50549
G1 X-29.79 Y83.637 E30.52773
G1 X-30.331 Y83.425 E30.54997
G1 X-30.838 Y83.141 E30.57221
G1 X-31.301 Y82.789 E30.59447
G1 X-31.711 Y82.378 E30.61668
G1 X-32.061 Y81.914 E30.63892
G1 X-32.344 Y81.407 E30.66115
G1 X-32.662 Y80.548 E30.6962
