;FLAVOR:Marlin
;TIME:7005
;Filament used: 9.6823m
;Layer height: 0.3
;MINX:-59.72
;MINY:-80.996
;MINZ:0.26
;MAXX:36.89
;MAXY:88.089
;MAXZ:2.36
;Generated with Cura_SteamEngine 4.9.1
M82 ;absolute extrusion mode
;Gcode by Cura
G90
G28
M107
M109 R100
G30
M109 S215 U-55 X55 V-85 Y-85 W0.26 Z0.26
M82
G92 E0
G1 F200 E6
G92 E0
G1 F200 E-3.5
G0 Z0.15
G0 X10
G0 Z3
G1 F6000
G92 E0
G92 E0
G1 F3600 E-3.8
;LAYER_COUNT:8
;LAYER:0
M107
G0 F2040 X27.351 Y-.577 Z0.26
;TYPE:SKIRT
G1 F3600 E0
G1 F1020 X27.36 Y2.099 E0.10241
G1 X27.445 Y4.81 E0.20621
G1 X27.607 Y7.512 E0.3098
G1 X27.843 Y10.187 E0.41257
G1 X28.156 Y12.867 E0.51583
G1 X28.545 Y15.533 E0.61893
G1 X29.009 Y18.192 E0.72223
G1 X29.542 Y20.81 E0.82448
G1 X30.334 Y24.207 E0.95796
G1 X31.01 Y26.775 E1.05959
G1 X31.782 Y29.405 E1.16448
G1 X32.609 Y31.952 E1.26697
G1 X33.514 Y34.489 E1.37005
G1 X34.482 Y36.982 E1.47239
G1 X35.508 Y39.426 E1.57383
G1 X35.672 Y39.8 E1.58946
G1 X35.878 Y40.368 E1.61258
G1 X36.041 Y41.256 E1.64713
G1 X36.057 Y41.491 E1.65615
G1 X36.087 Y42.155 E1.68158
G1 X36.88 Y67.401 E2.64821
G1 X36.89 Y68.081 E2.67424
G1 X36.858 Y68.685 E2.69739
G1 X36.748 Y69.279 E2.7205
G1 X36.567 Y69.836 E2.74292
G1 X36.131 Y70.934 E2.78813
G1 X36.042 Y71.146 E2.79693
G1 X35.078 Y73.659 E2.89993
G1 X34.189 Y76.187 E3.00249
G1 X33.361 Y78.771 E3.10633
G1 X32.608 Y81.374 E3.21003
G1 X31.891 Y84.158 E3.32005
G1 X31.797 Y84.548 E3.3354
G1 X31.616 Y85.125 E3.35854
G1 X31.362 Y85.674 E3.38169
G1 X31.037 Y86.184 E3.40483
G1 X30.648 Y86.646 E3.42795
G1 X30.201 Y87.053 E3.45108
G1 X29.704 Y87.398 E3.47424
G1 X29.166 Y87.675 E3.49739
G1 X28.597 Y87.878 E3.52051
G1 X28.005 Y88.004 E3.54368
G1 X27.486 Y88.049 E3.56361
G1 X26.654 Y88.073 E3.59547
G1 X25.66 Y88.089 E3.63351
G1 X23.952 Y88.088 E3.69888
G1 X22.962 Y88.072 E3.73677
G1 X21.364 Y88.022 E3.79795
G1 X20.315 Y87.972 E3.83814
G1 X18.657 Y87.867 E3.90172
G1 X17.692 Y87.791 E3.93876
G1 X16.012 Y87.631 E4.00335
G1 X15.027 Y87.521 E4.04128
G1 X13.399 Y87.315 E4.10408
G1 X12.362 Y87.167 E4.14417
G1 X10.799 Y86.919 E4.20473
G1 X9.725 Y86.731 E4.24646
G1 X8.205 Y86.441 E4.30567
G1 X7.109 Y86.213 E4.34852
G1 X5.611 Y85.877 E4.40727
G1 X4.577 Y85.629 E4.44796
G1 X2.966 Y85.215 E4.51162
G1 X2.016 Y84.954 E4.54932
G1 X0.497 Y84.513 E4.60985
G1 X-.572 Y84.183 E4.65267
G1 X-2.067 Y83.697 E4.71283
G1 X-3.091 Y83.346 E4.75425
G1 X-4.592 Y82.804 E4.81533
G1 X-5.535 Y82.449 E4.85389
G1 X-7.11 Y81.824 E4.91873
G1 X-8.032 Y81.441 E4.95694
G1 X-9.512 Y80.8 E5.01866
G1 X-10.456 Y80.374 E5.0583
G1 X-11.929 Y79.68 E5.12061
G1 X-12.86 Y79.223 E5.1603
G1 X-14.302 Y78.487 E5.22226
G1 X-15.212 Y78.005 E5.26167
G1 X-16.636 Y77.222 E5.32386
G1 X-17.516 Y76.72 E5.36263
G1 X-18.961 Y75.864 E5.4269
G1 X-19.788 Y75.356 E5.46405
G1 X-21.185 Y74.47 E5.52736
G1 X-22.061 Y73.893 E5.5675
G1 X-23.384 Y72.994 E5.62871
G1 X-24.255 Y72.381 E5.66947
G1 X-25.544 Y71.443 E5.73048
G1 X-26.343 Y70.843 E5.76872
G1 X-27.68 Y69.806 E5.83347
G1 X-28.439 Y69.196 E5.87074
G1 X-29.73 Y68.128 E5.93486
G1 X-30.506 Y67.465 E5.97392
G1 X-31.72 Y66.393 E6.0359
G1 X-32.447 Y65.73 E6.07355
G1 X-33.68 Y64.572 E6.13829
G1 X-34.391 Y63.884 E6.17615
G1 X-35.561 Y62.712 E6.23952
G1 X-36.264 Y61.986 E6.2782
G1 X-37.398 Y60.777 E6.34163
G1 X-38.073 Y60.035 E6.38002
G1 X-39.146 Y58.817 E6.44214
G1 X-39.817 Y58.03 E6.48172
G1 X-40.861 Y56.767 E6.54443
G1 X-41.485 Y55.987 E6.58266
G1 X-42.506 Y54.67 E6.64643
G1 X-43.088 Y53.896 E6.68349
G1 X-44.045 Y52.578 E6.74582
G1 X-44.665 Y51.695 E6.78711
G1 X-45.571 Y50.361 E6.84883
G1 X-46.162 Y49.46 E6.89006
G1 X-46.997 Y48.141 E6.94981
G1 X-47.547 Y47.243 E6.99011
G1 X-48.369 Y45.851 E7.05197
G1 X-48.895 Y44.93 E7.09256
G1 X-49.662 Y43.534 E7.15352
G1 X-50.153 Y42.607 E7.19366
G1 X-50.881 Y41.175 E7.25514
G1 X-51.362 Y40.192 E7.29702
G1 X-52.02 Y38.79 E7.35629
G1 X-52.451 Y37.837 E7.39632
G1 X-53.108 Y36.316 E7.45972
G1 X-53.483 Y35.41 E7.49725
G1 X-54.105 Y33.836 E7.56202
G1 X-54.462 Y32.89 E7.60071
G1 X-54.996 Y31.407 E7.66103
G1 X-55.351 Y30.368 E7.70305
G1 X-55.836 Y28.872 E7.76324
G1 X-56.146 Y27.862 E7.80367
G1 X-56.602 Y26.292 E7.86623
G1 X-56.862 Y25.339 E7.90404
G1 X-57.281 Y23.708 E7.96848
G1 X-57.52 Y22.699 E8.00817
G1 X-57.857 Y21.192 E8.06726
G1 X-58.085 Y20.092 E8.11025
G1 X-58.373 Y18.581 E8.16912
G1 X-58.557 Y17.523 E8.21022
G1 X-58.812 Y15.905 E8.2729
G1 X-58.955 Y14.899 E8.31179
G1 X-59.159 Y13.276 E8.37439
G1 X-59.269 Y12.284 E8.41258
G1 X-59.427 Y10.604 E8.47716
G1 X-59.502 Y9.64 E8.51416
G1 X-59.606 Y7.985 E8.57762
G1 X-59.653 Y6.987 E8.61586
G1 X-59.705 Y5.301 E8.68041
G1 X-59.72 Y4.3 E8.71872
G1 X-59.719 Y2.685 E8.78053
G1 X-59.704 Y1.678 E8.81907
G1 X-59.65 Y-0.006 E8.88355
G1 X-59.602 Y-1.002 E8.92171
G1 X-59.497 Y-2.655 E8.9851
G1 X-59.421 Y-3.624 E9.02229
G1 X-59.261 Y-5.304 E9.08688
G1 X-59.151 Y-6.289 E9.12481
G1 X-58.945 Y-7.917 E9.18761
G1 X-58.797 Y-8.954 E9.2277
G1 X-58.549 Y-10.514 E9.28815
G1 X-58.368 Y-11.555 E9.32858
G1 X-58.059 Y-13.172 E9.39158
G1 X-57.86 Y-14.133 E9.42914
G1 X-57.487 Y-15.797 E9.4944
G1 X-57.258 Y-16.742 E9.53161
G1 X-56.844 Y-18.354 E9.59531
G1 X-56.583 Y-19.305 E9.63305
G1 X-56.126 Y-20.877 E9.6957
G1 X-55.814 Y-21.888 E9.73619
G1 X-55.328 Y-23.385 E9.79642
G1 X-54.973 Y-24.418 E9.83822
G1 X-54.437 Y-25.904 E9.89868
G1 X-54.08 Y-26.847 E9.93726
G1 X-53.455 Y-28.425 E10.00222
G1 X-53.081 Y-29.327 E10.03959
G1 X-52.42 Y-30.852 E10.10319
G1 X-51.993 Y-31.795 E10.14281
G1 X-51.329 Y-33.207 E10.20252
G1 X-50.849 Y-34.184 E10.24418
G1 X-50.118 Y-35.618 E10.30578
G1 X-49.636 Y-36.528 E10.34519
G1 X-48.853 Y-37.951 E10.40734
G1 X-48.351 Y-38.831 E10.44612
G1 X-47.49 Y-40.283 E10.51072
G1 X-46.981 Y-41.113 E10.54798
G1 X-46.105 Y-42.493 E10.61053
G1 X-45.54 Y-43.354 E10.64994
G1 X-44.657 Y-44.654 E10.71008
G1 X-44.012 Y-45.571 E10.75299
G1 X-43.073 Y-46.862 E10.81408
G1 X-42.46 Y-47.677 E10.85311
G1 X-41.455 Y-48.972 E10.91584
G1 X-40.791 Y-49.799 E10.95643
G1 X-39.79 Y-51.008 E11.0165
G1 X-39.1 Y-51.816 E11.05716
G1 X-38.025 Y-53.034 E11.11933
G1 X-37.325 Y-53.803 E11.15913
G1 X-36.238 Y-54.959 E11.21985
G1 X-35.523 Y-55.698 E11.2592
G1 X-34.328 Y-56.892 E11.32385
G1 X-33.597 Y-57.598 E11.36274
G1 X-32.434 Y-58.69 E11.4238
G1 X-31.663 Y-59.391 E11.46367
G1 X-30.445 Y-60.463 E11.52577
G1 X-29.638 Y-61.151 E11.56635
G1 X-28.427 Y-62.153 E11.6265
G1 X-27.625 Y-62.795 E11.66582
G1 X-26.267 Y-63.848 E11.73158
G1 X-25.474 Y-64.441 E11.76948
G1 X-24.207 Y-65.362 E11.82942
G1 X-23.327 Y-65.98 E11.87057
G1 X-21.992 Y-66.886 E11.93232
G1 X-21.1 Y-67.471 E11.97314
G1 X-19.762 Y-68.319 E12.03376
G1 X-18.867 Y-68.867 E12.07392
G1 X-17.492 Y-69.68 E12.13505
G1 X-16.595 Y-70.192 E12.17458
G1 X-15.145 Y-70.989 E12.2379
G1 X-14.255 Y-71.46 E12.27644
G1 X-12.753 Y-72.223 E12.34091
G1 X-11.898 Y-72.64 E12.37731
G1 X-10.371 Y-73.359 E12.4419
G1 X-9.472 Y-73.765 E12.47965
G1 X-7.935 Y-74.429 E12.54373
G1 X-7.04 Y-74.799 E12.58079
G1 X-5.467 Y-75.421 E12.64553
G1 X-4.538 Y-75.772 E12.68353
G1 X-2.996 Y-76.326 E12.74624
G1 X-2.042 Y-76.653 E12.78483
G1 X-.474 Y-77.162 E12.84792
G1 X0.51 Y-77.463 E12.8873
G1 X2.066 Y-77.915 E12.94931
G1 X3.035 Y-78.179 E12.98774
G1 X4.645 Y-78.592 E13.05135
G1 X5.629 Y-78.827 E13.09007
G1 X7.255 Y-79.191 E13.15383
G1 X8.214 Y-79.389 E13.19131
G1 X9.835 Y-79.697 E13.25445
G1 X10.868 Y-79.876 E13.29457
G1 X12.435 Y-80.124 E13.35529
G1 X13.471 Y-80.271 E13.39533
G1 X15.094 Y-80.475 E13.45793
G1 X16.086 Y-80.585 E13.49613
G1 X17.766 Y-80.743 E13.56071
G1 X18.73 Y-80.818 E13.59771
G1 X20.387 Y-80.922 E13.66125
G1 X21.467 Y-80.972 E13.70262
G1 X22.167 Y-80.996 E13.72943
G1 X22.772 Y-80.977 E13.75259
G1 X23.368 Y-80.878 E13.77571
G1 X23.946 Y-80.702 E13.79883
G1 X24.496 Y-80.45 E13.82199
G1 X25.008 Y-80.129 E13.84511
G1 X25.473 Y-79.742 E13.86827
G1 X25.884 Y-79.298 E13.89142
G1 X26.231 Y-78.804 E13.91452
G1 X26.511 Y-78.267 E13.9377
G1 X26.693 Y-77.781 E13.95756
G1 X26.886 Y-77.159 E13.98248
G1 X27.748 Y-74.532 E14.08829
G1 X28.663 Y-71.989 E14.19172
G1 X29.652 Y-69.469 E14.29532
G1 X30.702 Y-67 E14.398
G1 X31.827 Y-64.548 E14.50124
G1 X32.041 Y-64.11 E14.51989
G1 X32.382 Y-63.386 E14.55052
G1 X32.603 Y-62.824 E14.57363
G1 X32.748 Y-62.236 E14.59681
G1 X32.818 Y-61.583 E14.62194
G1 X32.848 Y-60.919 E14.64738
G1 X33.64 Y-35.68 E15.61374
G1 X33.651 Y-35.003 E15.63965
G1 X33.621 Y-34.399 E15.66279
G1 X33.512 Y-33.805 E15.6859
G1 X33.276 Y-33.087 E15.71483
G1 X32.38 Y-30.522 E15.81881
G1 X31.56 Y-27.943 E15.92237
G1 X30.822 Y-25.373 E16.0247
G1 X30.143 Y-22.727 E16.12924
G1 X29.547 Y-20.104 E16.23218
G1 X29.031 Y-17.489 E16.33419
G1 X28.564 Y-14.709 E16.44206
G1 X28.455 Y-14.061 E16.46721
G1 X28.076 Y-11.333 E16.57261
G1 X27.784 Y-8.689 E16.67441
G1 X27.561 Y-5.962 E16.77912
G1 X27.42 Y-3.322 E16.8803
G1 X27.351 Y-.577 E16.98538
G0 F2040 X27.001 Y-.585
G1 F1020 X27.01 Y2.111 E17.08856
G1 X27.096 Y4.84 E17.19305
G1 X27.255 Y7.496 E17.29487
G1 X27.495 Y10.219 E17.39948
G1 X27.811 Y12.923 E17.50367
G1 X28.203 Y15.609 E17.60755
G1 X28.664 Y18.253 E17.71026
G1 X29.201 Y20.891 E17.81329
G1 X29.988 Y24.266 E17.94591
G1 X30.68 Y26.894 E18.04991
G1 X31.436 Y29.469 E18.15261
G1 X32.279 Y32.067 E18.25714
G1 X33.194 Y34.634 E18.36143
G1 X34.153 Y37.102 E18.46276
G1 X35.171 Y39.527 E18.56341
G1 X35.352 Y39.94 E18.58067
G1 X35.548 Y40.487 E18.60291
G1 X35.692 Y41.285 E18.63394
G1 X35.708 Y41.507 E18.64246
G1 X35.737 Y42.166 E18.6677
G1 X36.53 Y67.406 E19.6341
G1 X36.54 Y68.086 E19.66013
G1 X36.508 Y68.666 E19.68236
G1 X36.397 Y69.236 E19.70458
G1 X36.242 Y69.707 E19.72355
G1 X35.808 Y70.799 E19.76852
G1 X35.713 Y71.028 E19.77801
G1 X34.757 Y73.517 E19.88005
G1 X33.847 Y76.106 E19.98507
G1 X33.036 Y78.635 E20.08671
G1 X32.268 Y81.291 E20.19252
G1 X31.55 Y84.076 E20.30258
G1 X31.456 Y84.466 E20.31794
G1 X31.282 Y85.02 E20.34016
G1 X31.033 Y85.545 E20.3624
G1 X30.714 Y86.031 E20.38464
G1 X30.332 Y86.468 E20.40686
G1 X29.893 Y86.849 E20.4291
G1 X29.406 Y87.166 E20.45134
G1 X28.88 Y87.414 E20.47359
G1 X28.325 Y87.587 E20.49584
G1 X27.475 Y87.699 E20.52865
G1 X26.648 Y87.723 E20.56031
G1 X25.66 Y87.739 E20.59813
G1 X23.957 Y87.738 E20.6633
G1 X22.973 Y87.722 E20.70096
G1 X21.38 Y87.672 E20.76196
G1 X20.337 Y87.623 E20.80192
G1 X18.684 Y87.518 E20.8653
G1 X17.725 Y87.442 E20.90212
G1 X16.05 Y87.283 E20.96651
G1 X15.071 Y87.174 E21.00421
G1 X13.449 Y86.969 E21.06677
G1 X12.417 Y86.822 E21.10667
G1 X10.859 Y86.574 E21.16704
G1 X9.791 Y86.387 E21.20853
G1 X8.276 Y86.098 E21.26756
G1 X7.185 Y85.871 E21.3102
G1 X5.693 Y85.537 E21.36872
G1 X4.664 Y85.29 E21.40921
G1 X3.058 Y84.877 E21.47267
G1 X2.114 Y84.617 E21.51015
G1 X0.53 Y84.157 E21.57327
G1 X-.464 Y83.85 E21.61308
G1 X-1.954 Y83.366 E21.67304
G1 X-2.973 Y83.017 E21.71426
G1 X-4.469 Y82.477 E21.77512
G1 X-5.407 Y82.123 E21.81349
G1 X-6.976 Y81.501 E21.87808
G1 X-7.893 Y81.12 E21.91608
G1 X-9.368 Y80.481 E21.9776
G1 X-10.307 Y80.057 E22.01703
G1 X-11.775 Y79.366 E22.07912
G1 X-12.701 Y78.911 E22.11861
G1 X-14.139 Y78.178 E22.18037
G1 X-15.044 Y77.698 E22.21958
G1 X-16.463 Y76.917 E22.28156
G1 X-17.337 Y76.419 E22.32006
G1 X-18.778 Y75.565 E22.38416
G1 X-19.601 Y75.06 E22.42112
G1 X-20.993 Y74.178 E22.48418
G1 X-21.864 Y73.604 E22.5241
G1 X-23.183 Y72.707 E22.58515
G1 X-24.049 Y72.098 E22.62566
G1 X-25.334 Y71.163 E22.68648
G1 X-26.128 Y70.567 E22.72447
G1 X-27.461 Y69.532 E22.78906
G1 X-28.216 Y68.927 E22.82608
G1 X-29.503 Y67.862 E22.89001
G1 X-30.274 Y67.202 E22.92885
G1 X-31.484 Y66.134 E22.99062
G1 X-32.207 Y65.475 E23.02805
G1 X-33.437 Y64.32 E23.09263
G1 X-34.144 Y63.636 E23.13027
G1 X-35.309 Y62.469 E23.19338
G1 X-36.008 Y61.747 E23.23184
G1 X-37.139 Y60.541 E23.29511
G1 X-37.81 Y59.804 E23.33325
G1 X-38.88 Y58.589 E23.39521
G1 X-39.547 Y57.807 E23.43454
G1 X-40.588 Y56.548 E23.49706
G1 X-41.208 Y55.773 E23.53504
G1 X-42.226 Y54.459 E23.59866
G1 X-42.848 Y53.631 E23.63829
G1 X-43.759 Y52.377 E23.69761
G1 X-44.376 Y51.499 E23.73867
G1 X-45.278 Y50.169 E23.80017
G1 X-45.866 Y49.273 E23.84119
G1 X-46.699 Y47.959 E23.90073
G1 X-47.246 Y47.065 E23.94083
G1 X-48.066 Y45.678 E24.0025
G1 X-48.588 Y44.762 E24.04284
G1 X-49.353 Y43.37 E24.10363
G1 X-49.841 Y42.449 E24.14352
G1 X-50.567 Y41.021 E24.20482
G1 X-51.045 Y40.044 E24.24645
G1 X-51.701 Y38.646 E24.30555
G1 X-52.13 Y37.698 E24.34537
G1 X-52.785 Y36.182 E24.40857
G1 X-53.158 Y35.281 E24.44589
G1 X-53.778 Y33.712 E24.51045
G1 X-54.133 Y32.772 E24.5489
G1 X-54.665 Y31.293 E24.60905
G1 X-55.018 Y30.26 E24.65083
G1 X-55.502 Y28.77 E24.71079
G1 X-55.81 Y27.764 E24.75105
G1 X-56.264 Y26.199 E24.81341
G1 X-56.523 Y25.252 E24.85098
G1 X-56.94 Y23.627 E24.91518
G1 X-57.179 Y22.623 E24.95468
G1 X-57.515 Y21.121 E25.01358
G1 X-57.741 Y20.027 E25.05633
G1 X-58.028 Y18.52 E25.11504
G1 X-58.211 Y17.469 E25.15587
G1 X-58.466 Y15.856 E25.21836
G1 X-58.608 Y14.855 E25.25706
G1 X-58.811 Y13.238 E25.31942
G1 X-58.92 Y12.251 E25.35742
G1 X-59.078 Y10.577 E25.42177
G1 X-59.153 Y9.618 E25.45858
G1 X-59.256 Y7.969 E25.52181
G1 X-59.303 Y6.976 E25.55986
G1 X-59.356 Y5.295 E25.62422
G1 X-59.37 Y4.363 E25.65989
G1 X-59.37 Y2.69 E25.72392
G1 X-59.354 Y1.689 E25.76223
G1 X-59.3 Y0.01 E25.82652
G1 X-59.253 Y-.98 E25.86445
G1 X-59.148 Y-2.627 E25.92761
G1 X-59.072 Y-3.591 E25.96461
G1 X-58.913 Y-5.266 E26.029
G1 X-58.804 Y-6.245 E26.0667
G1 X-58.599 Y-7.867 E26.12927
G1 X-58.452 Y-8.899 E26.16916
G1 X-58.205 Y-10.454 E26.22941
G1 X-58.024 Y-11.489 E26.26962
G1 X-57.716 Y-13.101 E26.33243
G1 X-57.518 Y-14.057 E26.36979
G1 X-57.146 Y-15.715 E26.43482
G1 X-56.919 Y-16.655 E26.47183
G1 X-56.507 Y-18.262 E26.53532
G1 X-56.247 Y-19.208 E26.57286
G1 X-55.791 Y-20.774 E26.63528
G1 X-55.481 Y-21.78 E26.67557
G1 X-54.996 Y-23.272 E26.73561
G1 X-54.643 Y-24.3 E26.7772
G1 X-54.11 Y-25.78 E26.8374
G1 X-53.755 Y-26.718 E26.87578
G1 X-53.132 Y-28.291 E26.94053
G1 X-52.76 Y-29.188 E26.97769
G1 X-52.101 Y-30.708 E27.04109
G1 X-51.676 Y-31.647 E27.08054
G1 X-51.015 Y-33.053 E27.14
G1 X-50.538 Y-34.025 E27.18143
G1 X-49.809 Y-35.455 E27.24286
G1 X-49.329 Y-36.36 E27.28206
G1 X-48.549 Y-37.778 E27.344
G1 X-48.05 Y-38.653 E27.38254
G1 X-47.192 Y-40.1 E27.44692
G1 X-46.686 Y-40.925 E27.48396
G1 X-45.812 Y-42.301 E27.54634
G1 X-45.25 Y-43.157 E27.58553
G1 X-44.329 Y-44.512 E27.64823
G1 X-43.729 Y-45.365 E27.68814
G1 X-42.793 Y-46.651 E27.74901
G1 X-42.184 Y-47.462 E27.78783
G1 X-41.182 Y-48.753 E27.85037
G1 X-40.522 Y-49.576 E27.89074
G1 X-39.524 Y-50.781 E27.95062
G1 X-38.837 Y-51.584 E27.99106
G1 X-37.766 Y-52.799 E28.05304
G1 X-37.07 Y-53.563 E28.09259
G1 X-35.986 Y-54.716 E28.15316
G1 X-35.275 Y-55.451 E28.19229
G1 X-34.084 Y-56.64 E28.2567
G1 X-33.357 Y-57.343 E28.2954
G1 X-32.198 Y-58.431 E28.35623
G1 X-31.431 Y-59.129 E28.39592
G1 X-30.218 Y-60.197 E28.45777
G1 X-29.415 Y-60.882 E28.49816
G1 X-28.208 Y-61.88 E28.5581
G1 X-27.41 Y-62.518 E28.5972
G1 X-26.057 Y-63.568 E28.66274
G1 X-25.268 Y-64.158 E28.70044
G1 X-24.005 Y-65.076 E28.7602
G1 X-23.13 Y-65.69 E28.80111
G1 X-21.8 Y-66.594 E28.86265
G1 X-20.913 Y-67.175 E28.90323
G1 X-19.579 Y-68.02 E28.96366
G1 X-18.688 Y-68.566 E29.00365
G1 X-17.319 Y-69.376 E29.06452
G1 X-16.426 Y-69.886 E29.10388
G1 X-14.981 Y-70.679 E29.16696
G1 X-14.097 Y-71.148 E29.20526
G1 X-12.599 Y-71.909 E29.26956
G1 X-11.749 Y-72.324 E29.30576
G1 X-10.227 Y-73.04 E29.37013
G1 X-9.333 Y-73.444 E29.40767
G1 X-7.801 Y-74.105 E29.47152
G1 X-6.911 Y-74.474 E29.50839
G1 X-5.343 Y-75.094 E29.57292
G1 X-4.42 Y-75.442 E29.61067
G1 X-2.882 Y-75.995 E29.67322
G1 X-1.933 Y-76.32 E29.71161
G1 X-.371 Y-76.827 E29.77445
G1 X0.608 Y-77.127 E29.81364
G1 X2.158 Y-77.577 E29.87541
G1 X3.122 Y-77.84 E29.91365
G1 X4.726 Y-78.252 E29.97702
G1 X5.705 Y-78.486 E30.01555
G1 X7.326 Y-78.848 E30.07911
G1 X8.28 Y-79.045 E30.11639
G1 X9.895 Y-79.353 E30.17931
G1 X10.923 Y-79.531 E30.21923
G1 X12.485 Y-79.778 E30.27975
G1 X13.515 Y-79.924 E30.31956
G1 X15.132 Y-80.127 E30.38193
G1 X16.119 Y-80.236 E30.41993
G1 X17.793 Y-80.394 E30.48428
G1 X18.752 Y-80.469 E30.52109
G1 X20.404 Y-80.572 E30.58444
G1 X21.479 Y-80.623 E30.62562
G1 X22.179 Y-80.647 E30.65243
G1 X22.76 Y-80.626 E30.67468
G1 X23.332 Y-80.527 E30.69689
G1 X23.886 Y-80.35 E30.71915
