;FLAVOR:Marlin
;TIME:10202
;Filament used: 10.3851m
;Layer height: 0.2
;MINX:-38.288
;MINY:-84.551
;MINZ:0.26
;MAXX:55.135
;MAXY:84.541
;MAXZ:3.46
;Generated with Cura_SteamEngine 4.8.0
M82 ;absolute extrusion mode
;Gcode by Cura
G90
G28
M107
M109 R100
G30
M109 S215 U-55 X55 V-85 Y-85 W0.26 Z0.26
M82
G92 E0
G1 F200 E6
G92 E0
G1 F200 E-3.5
G0 Z0.15
G0 X10
G0 Z3
G1 F6000
G92 E0
G92 E0
G1 F3600 E-3.8
;LAYER_COUNT:17
;LAYER:0
M107
G0 F2040 X-34.275 Y40.151 Z0.26
;TYPE:SKIRT
G1 F3600 E0
G1 F1020 X-36.955 Y-39.806 E3.06163
G1 X-36.968 Y-40.48 E3.08743
G1 X-36.959 Y-40.867 E3.10225
G1 X-36.893 Y-41.871 E3.14075
G1 X-36.753 Y-44.612 E3.24579
G1 X-36.69 Y-47.32 E3.34945
G1 X-36.705 Y-50.032 E3.45324
G1 X-36.795 Y-52.71 E3.55578
G1 X-36.961 Y-55.41 E3.6593
G1 X-37.201 Y-58.063 E3.76125
G1 X-37.506 Y-60.648 E3.86086
G1 X-37.661 Y-61.832 E3.90656
G1 X-37.703 Y-62.316 E3.92515
G1 X-37.73 Y-62.911 E3.94794
G1 X-38.274 Y-79.163 E4.57025
G1 X-38.288 Y-79.825 E4.59559
G1 X-38.261 Y-80.429 E4.61873
G1 X-38.154 Y-81.024 E4.64186
G1 X-37.97 Y-81.6 E4.665
G1 X-37.711 Y-82.147 E4.68816
G1 X-37.383 Y-82.655 E4.7113
G1 X-36.991 Y-83.115 E4.73443
G1 X-36.541 Y-83.519 E4.75758
G1 X-36.042 Y-83.86 E4.78071
G1 X-35.502 Y-84.133 E4.80386
G1 X-34.931 Y-84.332 E4.827
G1 X-34.339 Y-84.454 E4.85014
G1 X-33.791 Y-84.501 E4.87118
G1 X-33.349 Y-84.52 E4.88811
G1 X-32.624 Y-84.537 E4.91587
G1 X-32.087 Y-84.546 E4.93642
G1 X-31.281 Y-84.551 E4.96727
G1 X-30.06 Y-84.546 E5.01399
G1 X-29.281 Y-84.533 E5.04381
G1 X-28.454 Y-84.511 E5.07547
G1 X-27.747 Y-84.487 E5.10254
G1 X-27.036 Y-84.456 E5.12978
G1 X-26.214 Y-84.414 E5.16128
G1 X-25.594 Y-84.376 E5.18505
G1 X-24.669 Y-84.312 E5.22053
G1 X-23.685 Y-84.231 E5.25832
G1 X-23.122 Y-84.18 E5.27995
G1 X-22.052 Y-84.073 E5.3211
G1 X-21.454 Y-84.006 E5.34413
G1 X-20.705 Y-83.918 E5.37299
G1 X-19.9 Y-83.814 E5.40406
G1 X-19.242 Y-83.724 E5.42947
G1 X-18.553 Y-83.625 E5.45611
G1 X-18.005 Y-83.541 E5.47733
G1 X-17.257 Y-83.42 E5.50632
G1 X-16.534 Y-83.298 E5.53438
G1 X-15.685 Y-83.145 E5.5674
G1 X-15.171 Y-83.048 E5.58742
G1 X-14.288 Y-82.876 E5.62184
G1 X-13.783 Y-82.772 E5.64158
G1 X-13.024 Y-82.609 E5.67128
G1 X-12.266 Y-82.442 E5.70099
G1 X-11.692 Y-82.309 E5.72354
G1 X-10.807 Y-82.097 E5.75836
G1 X-9.49 Y-81.76 E5.81039
G1 X-8.957 Y-81.617 E5.83151
G1 X-8.213 Y-81.412 E5.86104
G1 X-7.544 Y-81.221 E5.88767
G1 X-6.789 Y-81 E5.91777
G1 X-5.962 Y-80.748 E5.95086
G1 X-5.038 Y-80.455 E5.98795
G1 X-4.447 Y-80.262 E6.01175
G1 X-3.872 Y-80.069 E6.03496
G1 X-2.982 Y-79.761 E6.071
G1 X-2.48 Y-79.583 E6.09138
G1 X-1.684 Y-79.293 E6.1238
G1 X-1.064 Y-79.061 E6.14914
G1 X-.256 Y-78.75 E6.18227
G1 X0.593 Y-78.412 E6.21724
G1 X1.21 Y-78.161 E6.24273
G1 X1.78 Y-77.922 E6.26639
G1 X2.53 Y-77.602 E6.29759
G1 X3.169 Y-77.323 E6.32428
G1 X3.741 Y-77.068 E6.34824
G1 X4.286 Y-76.819 E6.37117
G1 X5.119 Y-76.431 E6.40634
G1 X5.753 Y-76.128 E6.43323
G1 X6.409 Y-75.807 E6.46118
G1 X7.434 Y-75.293 E6.50506
G1 X8.268 Y-74.861 E6.54101
G1 X8.896 Y-74.527 E6.56823
G1 X9.512 Y-74.195 E6.59501
G1 X10.099 Y-73.871 E6.62067
G1 X10.765 Y-73.497 E6.6499
G1 X11.374 Y-73.147 E6.67678
G1 X12.273 Y-72.619 E6.71668
G1 X12.939 Y-72.218 E6.74643
G1 X13.719 Y-71.737 E6.7815
G1 X14.375 Y-71.323 E6.81119
G1 X14.948 Y-70.955 E6.83725
G1 X15.914 Y-70.319 E6.88151
G1 X18.169 Y-68.866 E6.98417
G1 X20.493 Y-67.46 E7.08812
G1 X22.832 Y-66.133 E7.19103
G1 X25.254 Y-64.848 E7.29596
G1 X27.643 Y-63.667 E7.39795
G1 X30.091 Y-62.541 E7.50107
G1 X32.573 Y-61.484 E7.60431
G1 X35.082 Y-60.498 E7.70747
G1 X37.647 Y-59.572 E7.81183
G1 X40.193 Y-58.735 E7.9144
G1 X42.785 Y-57.963 E8.0179
G1 X45.385 Y-57.267 E8.1209
G1 X46.91 Y-56.914 E8.18081
G1 X47.041 Y-56.874 E8.18605
G1 X48.307 Y-56.572 E8.23586
G1 X48.884 Y-56.393 E8.25898
G1 X49.433 Y-56.139 E8.28213
G1 X49.944 Y-55.815 E8.30528
G1 X50.407 Y-55.427 E8.3284
G1 X50.816 Y-54.981 E8.35156
G1 X51.161 Y-54.485 E8.37468
G1 X51.439 Y-53.948 E8.39782
G1 X51.643 Y-53.379 E8.42095
G1 X51.77 Y-52.788 E8.44409
G1 X51.831 Y-52.081 E8.47125
G1 X55.12 Y45.976 E12.22595
G1 X55.135 Y46.719 E12.25439
G1 X55.107 Y47.323 E12.27753
G1 X54.999 Y47.918 E12.30067
G1 X54.814 Y48.494 E12.32382
G1 X54.554 Y49.04 E12.34697
G1 X54.225 Y49.547 E12.3701
G1 X53.831 Y50.006 E12.39325
G1 X53.381 Y50.41 E12.41639
G1 X52.881 Y50.75 E12.43953
G1 X52.341 Y51.022 E12.46267
G1 X51.86 Y51.194 E12.48222
G1 X51.357 Y51.343 E12.50229
G1 X48.798 Y52.143 E12.6049
G1 X46.244 Y53.022 E12.70827
G1 X43.698 Y53.979 E12.81236
G1 X41.209 Y54.996 E12.91525
G1 X38.747 Y56.084 E13.01826
G1 X36.298 Y57.251 E13.12208
G1 X33.91 Y58.473 E13.22474
G1 X31.537 Y59.771 E13.32825
G1 X29.203 Y61.138 E13.43177
G1 X26.918 Y62.564 E13.53484
G1 X24.647 Y64.071 E13.63915
G1 X22.477 Y65.601 E13.74076
G1 X20.458 Y67.108 E13.83718
G1 X19.965 Y67.484 E13.8609
G1 X19.474 Y67.852 E13.88439
G1 X18.868 Y68.3 E13.91323
G1 X18.255 Y68.744 E13.94219
G1 X17.666 Y69.162 E13.96983
G1 X17.176 Y69.505 E13.99272
G1 X16.594 Y69.904 E14.01973
G1 X16.105 Y70.235 E14.04232
G1 X15.457 Y70.667 E14.07213
G1 X14.816 Y71.085 E14.10141
G1 X14.178 Y71.492 E14.13038
G1 X13.787 Y71.739 E14.14807
G1 X13.027 Y72.206 E14.18221
G1 X12.401 Y72.586 E14.21024
G1 X11.823 Y72.929 E14.23596
G1 X11.039 Y73.385 E14.27067
G1 X10.473 Y73.706 E14.29557
G1 X9.988 Y73.977 E14.31683
G1 X9.226 Y74.396 E14.35011
G1 X8.713 Y74.671 E14.37239
G1 X8.097 Y74.996 E14.39904
G1 X7.577 Y75.264 E14.42143
G1 X6.7 Y75.708 E14.45905
G1 X6.09 Y76.009 E14.48508
G1 X5.288 Y76.395 E14.51914
G1 X4.302 Y76.857 E14.56081
G1 X3.56 Y77.193 E14.59198
G1 X2.876 Y77.497 E14.62063
G1 X2.329 Y77.734 E14.64344
G1 X1.778 Y77.968 E14.66635
G1 X0.845 Y78.355 E14.705
G1 X0.474 Y78.504 E14.7203
G1 X-.401 Y78.85 E14.75631
G1 X-1.064 Y79.105 E14.7835
G1 X-1.548 Y79.287 E14.80329
G1 X-2.444 Y79.615 E14.8398
G1 X-3.022 Y79.82 E14.86327
G1 X-3.89 Y80.119 E14.89841
G1 X-4.558 Y80.343 E14.92537
G1 X-4.995 Y80.485 E14.94295
G1 X-5.661 Y80.698 E14.96971
G1 X-6.447 Y80.942 E15.00121
G1 X-6.984 Y81.102 E15.02265
G1 X-7.759 Y81.328 E15.05355
G1 X-8.474 Y81.53 E15.08198
G1 X-9.007 Y81.675 E15.10312
G1 X-9.654 Y81.847 E15.12874
G1 X-10.359 Y82.027 E15.15658
G1 X-11.205 Y82.237 E15.18994
G1 X-11.677 Y82.349 E15.20851
G1 X-12.5 Y82.539 E15.24083
G1 X-13.194 Y82.692 E15.26803
G1 X-13.95 Y82.852 E15.2976
G1 X-14.638 Y82.99 E15.32446
G1 X-15.306 Y83.12 E15.3505
G1 X-16.11 Y83.268 E15.38178
G1 X-16.654 Y83.363 E15.40292
G1 X-17.306 Y83.472 E15.42822
G1 X-18.006 Y83.584 E15.45535
G1 X-18.632 Y83.68 E15.47958
G1 X-19.555 Y83.813 E15.51527
G1 X-20.092 Y83.884 E15.536
G1 X-20.795 Y83.972 E15.56311
G1 X-21.549 Y84.061 E15.59217
G1 X-22.722 Y84.187 E15.63732
G1 X-23.795 Y84.286 E15.67855
G1 X-24.752 Y84.362 E15.71529
G1 X-25.442 Y84.41 E15.74176
G1 X-26.294 Y84.463 E15.77443
G1 X-27.1 Y84.504 E15.80532
G1 X-27.548 Y84.522 E15.82248
G1 X-28.225 Y84.541 E15.84839
G1 X-28.829 Y84.518 E15.87153
G1 X-29.425 Y84.416 E15.89467
G1 X-30.002 Y84.236 E15.9178
G1 X-30.55 Y83.981 E15.94093
G1 X-31.06 Y83.656 E15.96407
G1 X-31.523 Y83.267 E15.98721
G1 X-31.93 Y82.82 E16.01035
G1 X-32.275 Y82.323 E16.0335
G1 X-32.552 Y81.785 E16.05666
G1 X-32.755 Y81.216 E16.07978
G1 X-32.881 Y80.624 E16.10294
G1 X-32.932 Y80.045 E16.12519
G1 X-32.952 Y79.591 E16.14258
G1 X-33.5 Y63.255 E16.7681
G1 X-33.513 Y62.577 E16.79405
G1 X-33.504 Y62.189 E16.80891
G1 X-33.437 Y61.169 E16.84802
G1 X-33.298 Y58.447 E16.95233
G1 X-33.235 Y55.741 E17.05591
G1 X-33.25 Y53.029 E17.1597
G1 X-33.34 Y50.354 E17.26213
G1 X-33.505 Y47.681 E17.36462
G1 X-33.753 Y44.933 E17.47021
G1 X-34.049 Y42.432 E17.56659
G1 X-34.206 Y41.236 E17.61276
G1 X-34.248 Y40.751 E17.63139
G1 X-34.275 Y40.151 E17.65437
G0 F2040 X-33.926 Y40.14
G1 F1020 X-36.605 Y-39.813 E20.71585
G1 X-36.618 Y-40.487 E20.74165
G1 X-36.61 Y-40.844 E20.75532
G1 X-36.541 Y-41.899 E20.79578
G1 X-36.403 Y-44.586 E20.89874
G1 X-36.34 Y-47.314 E21.00317
G1 X-36.355 Y-50.01 E21.10635
G1 X-36.446 Y-52.744 E21.21103
G1 X-36.612 Y-55.425 E21.31383
G1 X-36.857 Y-58.138 E21.41808
G1 X-37.158 Y-60.689 E21.51638
G1 X-37.314 Y-61.878 E21.56227
G1 X-37.353 Y-62.332 E21.57971
G1 X-37.381 Y-62.923 E21.60235
G1 X-37.924 Y-79.171 E22.2245
G1 X-37.938 Y-79.833 E22.24984
G1 X-37.91 Y-80.413 E22.27207
G1 X-37.803 Y-80.984 E22.2943
G1 X-37.619 Y-81.535 E22.31653
G1 X-37.361 Y-82.056 E22.33878
G1 X-37.033 Y-82.536 E22.36103
G1 X-36.643 Y-82.966 E22.38324
G1 X-36.198 Y-83.34 E22.40549
G1 X-35.706 Y-83.648 E22.4277
G1 X-35.176 Y-83.886 E22.44994
G1 X-34.618 Y-84.049 E22.47218
G1 X-33.978 Y-84.139 E22.49692
G1 X-33.406 Y-84.168 E22.51884
G1 X-32.619 Y-84.187 E22.54896
G1 X-32.085 Y-84.196 E22.5694
G1 X-31.282 Y-84.201 E22.60013
G1 X-30.066 Y-84.196 E22.64667
G1 X-29.29 Y-84.184 E22.67637
G1 X-28.466 Y-84.161 E22.70792
G1 X-27.762 Y-84.137 E22.73487
G1 X-27.054 Y-84.107 E22.76199
G1 X-26.235 Y-84.065 E22.79338
G1 X-25.618 Y-84.027 E22.81703
G1 X-24.697 Y-83.963 E22.85236
G1 X-23.716 Y-83.882 E22.89003
G1 X-23.157 Y-83.832 E22.91151
G1 X-22.091 Y-83.725 E22.95251
G1 X-21.495 Y-83.659 E22.97546
G1 X-20.749 Y-83.571 E23.00421
G1 X-19.948 Y-83.468 E23.03511
G1 X-19.292 Y-83.377 E23.06046
G1 X-18.606 Y-83.279 E23.08698
G1 X-18.06 Y-83.195 E23.10812
G1 X-17.315 Y-83.075 E23.137
G1 X-16.596 Y-82.954 E23.1649
G1 X-15.75 Y-82.802 E23.19779
G1 X-15.238 Y-82.705 E23.21774
G1 X-14.359 Y-82.533 E23.25201
G1 X-13.856 Y-82.429 E23.27167
G1 X-13.099 Y-82.267 E23.3013
G1 X-12.345 Y-82.101 E23.33084
G1 X-11.773 Y-81.968 E23.35332
G1 X-10.894 Y-81.758 E23.3879
G1 X-9.581 Y-81.422 E23.43977
G1 X-9.05 Y-81.28 E23.46081
G1 X-8.309 Y-81.076 E23.49022
G1 X-7.642 Y-80.886 E23.51676
G1 X-6.891 Y-80.665 E23.54672
G1 X-6.068 Y-80.415 E23.57963
G1 X-5.147 Y-80.122 E23.61662
G1 X-4.558 Y-79.93 E23.64033
G1 X-3.986 Y-79.738 E23.66342
G1 X-3.099 Y-79.431 E23.69934
G1 X-2.599 Y-79.254 E23.71964
G1 X-1.807 Y-78.965 E23.7519
G1 X-1.19 Y-78.735 E23.7771
G1 X-.385 Y-78.425 E23.81012
G1 X0.461 Y-78.088 E23.84497
G1 X1.075 Y-77.838 E23.87034
G1 X1.643 Y-77.6 E23.8939
G1 X2.39 Y-77.281 E23.92499
G1 X3.026 Y-77.003 E23.95155
G1 X3.596 Y-76.749 E23.97543
G1 X4.139 Y-76.502 E23.99826
G1 X4.968 Y-76.115 E24.03328
G1 X5.599 Y-75.813 E24.06005
G1 X6.252 Y-75.495 E24.08784
G1 X7.273 Y-74.982 E24.13157
G1 X8.104 Y-74.552 E24.16738
G1 X8.73 Y-74.219 E24.19451
G1 X9.343 Y-73.888 E24.22117
G1 X9.928 Y-73.566 E24.24673
G1 X10.591 Y-73.193 E24.27584
G1 X11.197 Y-72.845 E24.30258
G1 X12.092 Y-72.319 E24.34231
G1 X12.755 Y-71.92 E24.37193
G1 X13.532 Y-71.44 E24.40688
G1 X14.186 Y-71.029 E24.43644
G1 X14.756 Y-70.662 E24.46238
G1 X15.702 Y-70.04 E24.50571
G1 X18.009 Y-68.553 E24.61075
G1 X20.325 Y-67.152 E24.71434
G1 X22.665 Y-65.824 E24.8173
G1 X25.05 Y-64.559 E24.92062
G1 X27.526 Y-63.335 E25.02632
G1 X29.936 Y-62.227 E25.12783
G1 X32.45 Y-61.156 E25.23241
G1 X34.978 Y-60.162 E25.33636
G1 X37.529 Y-59.242 E25.44014
G1 X40.083 Y-58.402 E25.54303
G1 X42.662 Y-57.634 E25.64601
G1 X45.308 Y-56.926 E25.75084
G1 X46.831 Y-56.573 E25.81067
G1 X46.962 Y-56.533 E25.81591
G1 X48.226 Y-56.231 E25.86564
G1 X48.78 Y-56.058 E25.88785
G1 X49.306 Y-55.81 E25.91011
G1 X49.792 Y-55.492 E25.93233
G1 X50.23 Y-55.111 E25.95455
G1 X50.612 Y-54.673 E25.97679
G1 X50.93 Y-54.187 E25.99902
G1 X51.179 Y-53.661 E26.02129
G1 X51.353 Y-53.107 E26.04351
G1 X51.461 Y-52.39 E26.07126
G1 X51.488 Y-51.933 E26.08878
G1 X54.772 Y46.048 E29.84057
G1 X54.785 Y46.726 E29.86652
G1 X54.756 Y47.306 E29.88875
G1 X54.648 Y47.877 E29.91099
G1 X54.463 Y48.428 E29.93323
G1 X54.203 Y48.948 E29.95548
G1 X53.875 Y49.427 E29.9777
G1 X53.484 Y49.857 E29.99994
G1 X53.038 Y50.229 E30.02216
G1 X52.545 Y50.537 E30.04441
G1 X51.761 Y50.858 E30.07683
G1 X51.258 Y51.007 E30.09691
G1 X48.691 Y51.81 E30.19984
G1 X46.126 Y52.692 E30.30364
G1 X43.566 Y53.655 E30.40831
G1 X41.064 Y54.677 E30.51175
G1 X38.596 Y55.768 E30.61501
G1 X36.144 Y56.936 E30.71895
G1 X33.753 Y58.16 E30.82175
G1 X31.362 Y59.468 E30.92604
G1 X29.026 Y60.836 E31.02964
G1 X26.709 Y62.282 E31.13417
G1 X24.462 Y63.773 E31.23737
G1 X22.27 Y65.319 E31.34002
G1 X20.249 Y66.827 E31.43652
G1 X19.755 Y67.204 E31.4603
G1 X19.266 Y67.571 E31.4837
G1 X18.662 Y68.016 E31.51241
G1 X18.052 Y68.458 E31.54124
G1 X17.465 Y68.875 E31.56879
G1 X16.978 Y69.216 E31.59155
G1 X16.398 Y69.614 E31.61846
G1 X15.911 Y69.944 E31.64098
G1 X15.266 Y70.374 E31.67064
G1 X14.628 Y70.79 E31.69979
G1 X13.992 Y71.196 E31.72867
G1 X13.603 Y71.441 E31.74626
G1 X12.846 Y71.907 E31.78028
G1 X12.222 Y72.285 E31.8082
G1 X11.647 Y72.626 E31.83378
G1 X10.867 Y73.08 E31.86832
G1 X10.302 Y73.401 E31.89319
G1 X9.819 Y73.671 E31.91437
G1 X9.06 Y74.087 E31.94749
G1 X8.549 Y74.361 E31.96968
G1 X7.937 Y74.685 E31.99618
G1 X7.419 Y74.952 E32.01848
G1 X6.545 Y75.394 E32.05596
G1 X5.938 Y75.694 E32.08188
G1 X5.14 Y76.078 E32.11577
G1 X4.157 Y76.539 E32.15732
G1 X3.417 Y76.874 E32.1884
G1 X2.737 Y77.176 E32.21688
G1 X2.192 Y77.412 E32.23961
G1 X1.644 Y77.645 E32.26239
G1 X0.714 Y78.03 E32.30091
G1 X0.346 Y78.179 E32.31611
G1 X-.527 Y78.524 E32.35203
G1 X-1.188 Y78.777 E32.37912
G1 X-1.669 Y78.958 E32.39879
G1 X-2.561 Y79.286 E32.43516
G1 X-3.136 Y79.489 E32.45849
G1 X-4.001 Y79.787 E32.4935
G1 X-4.666 Y80.01 E32.52035
G1 X-5.076 Y80.144 E32.53685
G1 X-5.764 Y80.364 E32.5645
G1 X-6.547 Y80.606 E32.59586
G1 X-7.082 Y80.766 E32.61723
G1 X-7.854 Y80.991 E32.648
G1 X-8.567 Y81.192 E32.67635
G1 X-9.096 Y81.337 E32.69734
G1 X-9.741 Y81.508 E32.72288
G1 X-10.444 Y81.688 E32.75065
G1 X-11.286 Y81.897 E32.78385
G1 X-11.756 Y82.008 E32.80234
G1 X-12.575 Y82.198 E32.83451
G1 X-13.267 Y82.349 E32.86162
G1 X-14.019 Y82.508 E32.89103
G1 X-14.705 Y82.647 E32.91782
G1 X-15.37 Y82.776 E32.94374
G1 X-16.17 Y82.923 E32.97487
G1 X-16.712 Y83.018 E32.99593
G1 X-17.362 Y83.127 E33.02115
G1 X-18.059 Y83.238 E33.04816
G1 X-18.682 Y83.334 E33.07228
G1 X-19.601 Y83.466 E33.10781
G1 X-20.136 Y83.537 E33.12847
G1 X-20.836 Y83.625 E33.15547
G1 X-21.587 Y83.713 E33.1844
G1 X-22.708 Y83.834 E33.22755
G1 X-23.823 Y83.937 E33.27041
G1 X-24.777 Y84.013 E33.30703
G1 X-25.463 Y84.061 E33.33335
G1 X-26.312 Y84.113 E33.3659
G1 X-27.114 Y84.154 E33.39663
G1 X-27.557 Y84.172 E33.4136
G1 X-28.234 Y84.191 E33.43952
G1 X-28.815 Y84.168 E33.46177
G1 X-29.387 Y84.065 E33.48401
G1 X-29.939 Y83.884 E33.50624
G1 X-30.461 Y83.629 E33.52848
G1 X-30.944 Y83.305 E33.55073
G1 X-31.377 Y82.918 E33.57296
G1 X-31.753 Y82.476 E33.59517
G1 X-32.065 Y81.985 E33.61743
G1 X-32.307 Y81.457 E33.63966
G1 X-32.474 Y80.9 E33.66191
G1 X-32.568 Y80.264 E33.68651
G1 X-32.601 Y79.627 E33.71092
G1 X-33.149 Y63.309 E34.33576
G1 X-33.163 Y62.57 E34.36404
G1 X-33.155 Y62.212 E34.37775
G1 X-33.086 Y61.161 E34.41806
G1 X-32.948 Y58.475 E34.52098
G1 X-32.885 Y55.743 E34.62556
G1 X-32.9 Y53.051 E34.72859
G1 X-32.991 Y50.323 E34.83304
G1 X-33.159 Y47.625 E34.9365
G1 X-33.401 Y44.934 E35.03989
G1 X-33.702 Y42.391 E35.13789
G1 X-33.859 Y41.19 E35.18425
G1 X-33.899 Y40.735 E35.20173
G1 X-33.926 Y40.14 E35.22452
G0 F2040 X-33.576 Y40.128
G1 F1020 X-36.255 Y-39.819 E38.28577
G1 X-36.268 Y-40.493 E38.31157
G1 X-36.261 Y-40.821 E38.32412
G1 X-36.192 Y-41.876 E38.36458
G1 X-36.053 Y-44.595 E38.46878
G1 X-35.99 Y-47.308 E38.57263
G1 X-36.005 Y-50.024 E38.67657
G1 X-36.096 Y-52.742 E38.78064
G1 X-36.265 Y-55.481 E38.88566
G1 X-36.508 Y-58.172 E38.98907
G1 X-36.804 Y-60.68 E39.08571
G1 X-36.967 Y-61.923 E39.13369
G1 X-37.004 Y-62.349 E39.15005
G1 X-37.031 Y-62.934 E39.17246
G1 X-37.574 Y-79.178 E39.79446
G1 X-37.588 Y-79.84 E39.8198
G1 X-37.56 Y-80.396 E39.84111
G1 X-37.452 Y-80.942 E39.86241
G1 X-37.268 Y-81.467 E39.8837
G1 X-37.01 Y-81.96 E39.90499
G1 X-36.684 Y-82.411 E39.92629
G1 X-36.297 Y-82.81 E39.94756
G1 X-35.857 Y-83.151 E39.96886
G1 X-35.372 Y-83.424 E39.99016
G1 X-34.854 Y-83.626 E40.01144
G1 X-34.311 Y-83.751 E40.03276
G1 X-33.748 Y-83.802 E40.0544
G1 X-33.331 Y-83.82 E40.07037
G1 X-32.613 Y-83.837 E40.09786
G1 X-32.082 Y-83.846 E40.11818
G1 X-31.284 Y-83.851 E40.14872
G1 X-30.072 Y-83.846 E40.1951
G1 X-29.299 Y-83.834 E40.22469
G1 X-28.478 Y-83.812 E40.25612
G1 X-27.777 Y-83.787 E40.28296
G1 X-27.071 Y-83.757 E40.31001
G1 X-26.257 Y-83.716 E40.3412
