;FLAVOR:Marlin
;TIME:10195
;Filament used: 10.358m
;Layer height: 0.2
;MINX:-46.348
;MINY:-84.335
;MINZ:0.26
;MAXX:47.471
;MAXY:84.698
;MAXZ:3.46
;Generated with Cura_SteamEngine 4.8.0
M82 ;absolute extrusion mode
;Gcode by Cura
G90
G28
M107
M109 R100
G30
M109 S215 U-55 X55 V-85 Y-85 W0.26 Z0.26
M82
G92 E0
G1 F200 E6
G92 E0
G1 F200 E-3.5
G0 Z0.15
G0 X10
G0 Z3
G1 F6000
G92 E0
G92 E0
G1 F3600 E-3.8
;LAYER_COUNT:17
;LAYER:0
M107
G0 F2040 X-42.005 Y40.095 Z0.26
;TYPE:SKIRT
G1 F3600 E0
G1 F1020 X-45.34 Y-39.504 E3.04889
G1 X-45.36 Y-40.222 E3.07638
G1 X-45.354 Y-40.611 E3.09126
G1 X-45.299 Y-41.574 E3.12818
G1 X-45.179 Y-44.362 E3.23497
G1 X-45.139 Y-47.003 E3.33605
G1 X-45.176 Y-49.748 E3.44111
G1 X-45.288 Y-52.423 E3.54357
G1 X-45.478 Y-55.129 E3.64739
G1 X-45.741 Y-57.8 E3.7501
G1 X-46.068 Y-60.385 E3.84981
G1 X-46.226 Y-61.512 E3.89337
G1 X-46.269 Y-62.049 E3.91398
G1 X-46.291 Y-63.116 E3.95482
G1 X-46.348 Y-79.068 E4.5653
G1 X-46.341 Y-79.753 E4.59152
G1 X-46.295 Y-80.356 E4.61466
G1 X-46.169 Y-80.947 E4.63779
G1 X-45.967 Y-81.517 E4.66093
G1 X-45.692 Y-82.055 E4.68405
G1 X-45.348 Y-82.552 E4.70719
G1 X-44.941 Y-83 E4.73035
G1 X-44.479 Y-83.39 E4.75349
G1 X-43.969 Y-83.715 E4.77663
G1 X-43.421 Y-83.971 E4.79978
G1 X-42.844 Y-84.152 E4.82292
G1 X-42.058 Y-84.272 E4.85335
G1 X-41.625 Y-84.296 E4.86994
G1 X-40.761 Y-84.32 E4.90302
G1 X-40.021 Y-84.33 E4.93134
G1 X-39.312 Y-84.335 E4.95848
G1 X-38.634 Y-84.334 E4.98442
G1 X-37.88 Y-84.327 E5.01328
G1 X-37.175 Y-84.313 E5.04027
G1 X-36.508 Y-84.295 E5.0658
G1 X-35.808 Y-84.271 E5.09261
G1 X-35.172 Y-84.245 E5.11697
G1 X-34.046 Y-84.185 E5.16012
G1 X-33.309 Y-84.137 E5.18838
G1 X-32.505 Y-84.078 E5.21923
G1 X-31.6 Y-84.002 E5.25399
G1 X-30.726 Y-83.92 E5.28758
G1 X-30.167 Y-83.862 E5.30909
G1 X-29.507 Y-83.79 E5.3345
G1 X-28.775 Y-83.703 E5.36271
G1 X-27.703 Y-83.565 E5.40407
G1 X-26.785 Y-83.435 E5.43956
G1 X-25.851 Y-83.292 E5.47572
G1 X-25.186 Y-83.184 E5.5015
G1 X-24.434 Y-83.055 E5.5307
G1 X-23.928 Y-82.964 E5.55037
G1 X-23.123 Y-82.813 E5.58172
G1 X-22.368 Y-82.664 E5.61117
G1 X-21.719 Y-82.531 E5.63652
G1 X-20.929 Y-82.362 E5.66744
G1 X-20.403 Y-82.244 E5.68807
G1 X-19.741 Y-82.091 E5.71407
G1 X-18.929 Y-81.896 E5.74603
G1 X-18.245 Y-81.725 E5.77301
G1 X-17.608 Y-81.56 E5.79819
G1 X-17.01 Y-81.4 E5.82188
G1 X-16.266 Y-81.195 E5.85142
G1 X-15.59 Y-81.002 E5.87832
G1 X-14.438 Y-80.661 E5.9243
G1 X-13.388 Y-80.333 E5.9664
G1 X-12.865 Y-80.164 E5.98743
G1 X-12.309 Y-79.981 E6.00983
G1 X-11.429 Y-79.682 E6.0454
G1 X-10.736 Y-79.439 E6.0735
G1 X-10.166 Y-79.234 E6.09668
G1 X-9.516 Y-78.994 E6.1232
G1 X-8.722 Y-78.692 E6.15571
G1 X-8.167 Y-78.477 E6.17849
G1 X-7.606 Y-78.254 E6.20159
G1 X-6.939 Y-77.984 E6.22913
G1 X-5.975 Y-77.58 E6.26913
G1 X-5.087 Y-77.197 E6.30614
G1 X-4.325 Y-76.857 E6.33807
G1 X-3.57 Y-76.512 E6.36984
G1 X-2.992 Y-76.242 E6.39425
G1 X-2.274 Y-75.899 E6.4247
G1 X-1.607 Y-75.573 E6.45312
G1 X-.699 Y-75.117 E6.492
G1 X0.061 Y-74.725 E6.52473
G1 X0.813 Y-74.327 E6.55729
G1 X1.461 Y-73.977 E6.58547
G1 X2.092 Y-73.628 E6.61307
G1 X2.756 Y-73.254 E6.64223
G1 X3.313 Y-72.934 E6.66682
G1 X3.911 Y-72.585 E6.69331
G1 X4.396 Y-72.296 E6.71492
G1 X5.192 Y-71.812 E6.75057
G1 X5.662 Y-71.521 E6.77173
G1 X6.323 Y-71.106 E6.80159
G1 X7.015 Y-70.66 E6.8331
G1 X7.373 Y-70.427 E6.84945
G1 X9.705 Y-68.958 E6.95492
G1 X12.037 Y-67.58 E7.05858
G1 X14.423 Y-66.259 E7.16296
G1 X16.791 Y-65.034 E7.26499
G1 X19.218 Y-63.864 E7.36809
G1 X21.675 Y-62.765 E7.4711
G1 X24.203 Y-61.716 E7.57584
G1 X26.7 Y-60.767 E7.67807
G1 X29.263 Y-59.873 E7.78195
G1 X31.808 Y-59.064 E7.88415
G1 X34.433 Y-58.311 E7.98866
G1 X37.034 Y-57.644 E8.09142
G1 X38.374 Y-57.347 E8.14395
G1 X38.448 Y-57.326 E8.14689
G1 X39.78 Y-57.018 E8.19921
G1 X40.359 Y-56.843 E8.22236
G1 X40.91 Y-56.594 E8.2455
G1 X41.423 Y-56.274 E8.26864
G1 X41.889 Y-55.889 E8.29177
G1 X42.301 Y-55.446 E8.31492
G1 X42.65 Y-54.953 E8.33804
G1 X42.932 Y-54.418 E8.36118
G1 X43.14 Y-53.85 E8.38433
G1 X43.272 Y-53.26 E8.40747
G1 X43.34 Y-52.523 E8.43579
G1 X43.347 Y-52.395 E8.4407
G1 X47.45 Y45.49 E12.19
G1 X47.471 Y46.202 E12.21726
G1 X47.449 Y46.806 E12.24039
G1 X47.347 Y47.402 E12.26353
G1 X47.168 Y47.98 E12.28668
G1 X46.914 Y48.529 E12.30983
G1 X46.59 Y49.039 E12.33296
G1 X46.201 Y49.502 E12.3561
G1 X45.755 Y49.91 E12.37923
G1 X45.259 Y50.256 E12.40238
G1 X44.721 Y50.533 E12.42553
G1 X44.243 Y50.71 E12.44504
G1 X43.723 Y50.87 E12.46586
G1 X41.147 Y51.701 E12.56945
G1 X38.608 Y52.598 E12.6725
G1 X36.095 Y53.568 E12.77558
G1 X33.592 Y54.616 E12.87943
G1 X31.138 Y55.726 E12.9825
G1 X28.728 Y56.899 E13.08508
G1 X26.308 Y58.164 E13.18958
G1 X23.986 Y59.461 E13.29136
G1 X21.625 Y60.87 E13.39659
G1 X19.364 Y62.307 E13.49911
G1 X17.147 Y63.806 E13.60153
G1 X14.927 Y65.4 E13.70612
G1 X13.033 Y66.838 E13.79712
G1 X12.544 Y67.217 E13.8208
G1 X11.912 Y67.7 E13.85124
G1 X11.421 Y68.068 E13.87472
G1 X10.815 Y68.516 E13.90356
G1 X10.205 Y68.958 E13.93239
G1 X9.555 Y69.42 E13.96291
G1 X9.084 Y69.748 E13.98488
G1 X8.542 Y70.12 E14.01003
G1 X7.936 Y70.53 E14.03803
G1 X7.333 Y70.93 E14.06573
G1 X6.767 Y71.299 E14.09158
G1 X6.225 Y71.645 E14.11619
G1 X5.412 Y72.155 E14.15292
G1 X5.045 Y72.38 E14.16939
G1 X4.306 Y72.827 E14.20245
G1 X3.609 Y73.24 E14.23345
G1 X3.004 Y73.59 E14.2602
G1 X2.268 Y74.008 E14.29259
G1 X1.379 Y74.5 E14.33148
G1 X0.653 Y74.891 E14.36303
G1 X0.18 Y75.141 E14.38351
G1 X-.642 Y75.567 E14.41894
G1 X-1.276 Y75.885 E14.44608
G1 X-2.024 Y76.255 E14.47802
G1 X-2.909 Y76.68 E14.51559
G1 X-3.807 Y77.1 E14.55353
G1 X-4.492 Y77.41 E14.5823
G1 X-5.178 Y77.715 E14.61103
G1 X-5.665 Y77.925 E14.63133
G1 X-6.444 Y78.256 E14.66372
G1 X-6.961 Y78.47 E14.68513
G1 X-7.734 Y78.784 E14.71706
G1 X-8.452 Y79.066 E14.74659
G1 X-9.127 Y79.325 E14.77425
G1 X-9.613 Y79.508 E14.79413
G1 X-10.491 Y79.83 E14.82992
G1 X-11.424 Y80.158 E14.86776
G1 X-12.309 Y80.459 E14.90354
G1 X-13.026 Y80.695 E14.93243
G1 X-13.643 Y80.892 E14.95721
G1 X-14.476 Y81.151 E14.9906
G1 X-15.091 Y81.335 E15.01516
G1 X-15.549 Y81.469 E15.03342
G1 X-16.388 Y81.708 E15.06681
G1 X-17.374 Y81.976 E15.10591
G1 X-18.258 Y82.206 E15.14087
G1 X-18.902 Y82.367 E15.16627
G1 X-19.44 Y82.497 E15.18746
G1 X-20.708 Y82.791 E15.23727
G1 X-21.723 Y83.009 E15.277
G1 X-22.318 Y83.132 E15.30025
G1 X-23.007 Y83.268 E15.32713
G1 X-23.736 Y83.406 E15.35552
G1 X-24.343 Y83.516 E15.37913
G1 X-25.302 Y83.68 E15.41636
G1 X-26.205 Y83.824 E15.45136
G1 X-26.657 Y83.892 E15.46885
G1 X-27.604 Y84.028 E15.50546
G1 X-28.16 Y84.103 E15.52693
G1 X-28.847 Y84.188 E15.55342
G1 X-29.597 Y84.277 E15.58233
G1 X-30.44 Y84.369 E15.61478
G1 X-31.203 Y84.444 E15.64412
G1 X-31.848 Y84.503 E15.66891
G1 X-32.806 Y84.579 E15.70568
G1 X-33.492 Y84.627 E15.732
G1 X-34.214 Y84.671 E15.75968
G1 X-34.882 Y84.698 E15.78527
G1 X-35.487 Y84.683 E15.80843
G1 X-36.084 Y84.588 E15.83156
G1 X-36.663 Y84.415 E15.85469
G1 X-37.215 Y84.167 E15.87785
G1 X-37.729 Y83.848 E15.901
G1 X-38.196 Y83.465 E15.92411
G1 X-38.609 Y83.023 E15.94726
G1 X-38.96 Y82.53 E15.97042
G1 X-39.243 Y81.996 E15.99355
G1 X-39.453 Y81.429 E16.01669
G1 X-39.614 Y80.636 E16.04766
G1 X-39.674 Y80.036 E16.07073
G1 X-40.988 Y63.667 E16.69918
G1 X-41.033 Y62.989 E16.72519
G1 X-41.038 Y62.468 E16.74512
G1 X-40.997 Y61.613 E16.77788
G1 X-40.922 Y60.379 E16.82519
G1 X-40.833 Y57.666 E16.92908
G1 X-40.821 Y54.989 E17.03152
G1 X-40.885 Y52.283 E17.13511
G1 X-41.028 Y49.57 E17.23908
G1 X-41.242 Y46.91 E17.34121
G1 X-41.536 Y44.217 E17.44488
G1 X-41.877 Y41.72 E17.54132
G1 X-41.941 Y41.174 E17.56236
G1 X-42.005 Y40.095 E17.60373
G0 F2040 X-41.655 Y40.08
G1 F1020 X-44.99 Y-39.513 E20.65239
G1 X-45.01 Y-40.231 E20.67987
G1 X-45.005 Y-40.591 E20.69365
G1 X-44.946 Y-41.619 E20.73306
G1 X-44.83 Y-44.306 E20.83598
G1 X-44.79 Y-47.038 E20.94055
G1 X-44.827 Y-49.768 E21.04503
G1 X-44.937 Y-52.425 E21.1468
G1 X-45.129 Y-55.153 E21.25146
G1 X-45.394 Y-57.844 E21.35494
G1 X-45.721 Y-60.429 E21.45466
G1 X-45.879 Y-61.56 E21.49836
G1 X-45.919 Y-62.056 E21.5174
G1 X-45.941 Y-63.117 E21.55802
G1 X-45.998 Y-79.064 E22.1683
G1 X-45.991 Y-79.749 E22.19452
G1 X-45.945 Y-80.328 E22.21675
G1 X-45.82 Y-80.896 E22.239
G1 X-45.618 Y-81.441 E22.26125
G1 X-45.344 Y-81.953 E22.28347
G1 X-45.002 Y-82.423 E22.30572
G1 X-44.599 Y-82.841 E22.32794
G1 X-44.142 Y-83.2 E22.35018
G1 X-43.64 Y-83.493 E22.37242
G1 X-43.103 Y-83.714 E22.39464
G1 X-42.54 Y-83.859 E22.41689
G1 X-42.035 Y-83.922 E22.43637
G1 X-41.616 Y-83.946 E22.45243
G1 X-40.757 Y-83.97 E22.48532
G1 X-40.019 Y-83.98 E22.51356
G1 X-39.312 Y-83.985 E22.54062
G1 X-38.637 Y-83.984 E22.56645
G1 X-37.887 Y-83.977 E22.59515
G1 X-37.185 Y-83.963 E22.62202
G1 X-36.52 Y-83.946 E22.64748
G1 X-35.822 Y-83.921 E22.67421
G1 X-35.19 Y-83.895 E22.69842
G1 X-34.069 Y-83.835 E22.74138
G1 X-33.334 Y-83.788 E22.76957
G1 X-32.534 Y-83.729 E22.80026
G1 X-31.632 Y-83.654 E22.8349
G1 X-30.763 Y-83.572 E22.86831
G1 X-30.204 Y-83.514 E22.88981
G1 X-29.548 Y-83.442 E22.91507
G1 X-28.819 Y-83.356 E22.94316
G1 X-27.752 Y-83.218 E22.98433
G1 X-26.838 Y-83.089 E23.01966
G1 X-25.907 Y-82.947 E23.0557
G1 X-25.246 Y-82.839 E23.08133
G1 X-24.496 Y-82.71 E23.11046
G1 X-23.993 Y-82.62 E23.13001
G1 X-23.191 Y-82.47 E23.16124
G1 X-22.438 Y-82.321 E23.19061
G1 X-21.792 Y-82.189 E23.21584
G1 X-21.005 Y-82.02 E23.24665
G1 X-20.482 Y-81.903 E23.26716
G1 X-19.822 Y-81.75 E23.29309
G1 X-19.014 Y-81.556 E23.32489
G1 X-18.332 Y-81.386 E23.35179
G1 X-17.698 Y-81.222 E23.37685
G1 X-17.103 Y-81.063 E23.40042
G1 X-16.362 Y-80.859 E23.42983
G1 X-15.689 Y-80.667 E23.45661
G1 X-14.542 Y-80.327 E23.50239
G1 X-13.495 Y-80 E23.54437
G1 X-12.975 Y-79.832 E23.56528
G1 X-12.422 Y-79.649 E23.58758
G1 X-11.545 Y-79.352 E23.62301
G1 X-10.854 Y-79.11 E23.65103
G1 X-10.287 Y-78.905 E23.6741
G1 X-9.64 Y-78.667 E23.70049
G1 X-8.849 Y-78.366 E23.73288
G1 X-8.296 Y-78.151 E23.75558
G1 X-7.738 Y-77.93 E23.77855
G1 X-7.074 Y-77.661 E23.80597
G1 X-6.113 Y-77.259 E23.84583
G1 X-5.23 Y-76.877 E23.88265
G1 X-4.471 Y-76.539 E23.91445
G1 X-3.718 Y-76.194 E23.94614
G1 X-3.143 Y-75.926 E23.97042
G1 X-2.427 Y-75.584 E24.00079
G1 X-1.765 Y-75.26 E24.02899
G1 X-.86 Y-74.806 E24.06774
G1 X-.103 Y-74.416 E24.10033
G1 X0.646 Y-74.02 E24.13275
G1 X1.292 Y-73.67 E24.16087
G1 X1.921 Y-73.323 E24.18836
G1 X2.582 Y-72.95 E24.21741
G1 X3.137 Y-72.632 E24.24189
G1 X3.732 Y-72.284 E24.26827
G1 X4.215 Y-71.997 E24.28977
G1 X5.008 Y-71.515 E24.32528
G1 X5.476 Y-71.225 E24.34635
G1 X6.133 Y-70.811 E24.37607
G1 X6.824 Y-70.367 E24.4075
G1 X7.212 Y-70.114 E24.42523
G1 X9.526 Y-68.656 E24.5299
G1 X11.874 Y-67.269 E24.63426
G1 X14.207 Y-65.977 E24.73632
G1 X16.649 Y-64.714 E24.84153
G1 X19.065 Y-63.549 E24.94418
G1 X21.541 Y-62.442 E25.04798
G1 X24.075 Y-61.391 E25.15296
G1 X26.604 Y-60.43 E25.2565
G1 X29.152 Y-59.541 E25.35977
G1 X31.715 Y-58.726 E25.4627
G1 X34.31 Y-57.981 E25.56602
G1 X36.942 Y-57.307 E25.66999
G1 X38.298 Y-57.006 E25.72315
G1 X38.377 Y-56.983 E25.7263
G1 X39.701 Y-56.677 E25.7783
G1 X40.257 Y-56.507 E25.80055
G1 X40.784 Y-56.263 E25.82278
G1 X41.273 Y-55.949 E25.84502
G1 X41.714 Y-55.571 E25.86725
G1 X42.1 Y-55.136 E25.8895
G1 X42.421 Y-54.653 E25.9117
G1 X42.674 Y-54.129 E25.93396
G1 X42.852 Y-53.576 E25.9562
G1 X42.966 Y-52.855 E25.98413
G1 X42.997 Y-52.38 E26.00235
G1 X47.1 Y45.5 E29.75146
G1 X47.121 Y46.212 E29.77872
G1 X47.098 Y46.793 E29.80097
G1 X46.996 Y47.365 E29.82321
G1 X46.816 Y47.918 E29.84546
G1 X46.562 Y48.44 E29.86768
G1 X46.239 Y48.923 E29.88991
G1 X45.853 Y49.357 E29.91214
G1 X45.411 Y49.734 E29.93437
G1 X44.921 Y50.046 E29.95661
G1 X44.141 Y50.375 E29.989
G1 X43.649 Y50.526 E30.0087
G1 X41.023 Y51.373 E30.11429
G1 X38.508 Y52.263 E30.21639
G1 X35.946 Y53.251 E30.32147
G1 X33.455 Y54.294 E30.42482
G1 X30.998 Y55.406 E30.52803
G1 X28.569 Y56.588 E30.63141
G1 X26.133 Y57.861 E30.7366
G1 X23.79 Y59.17 E30.83931
G1 X21.468 Y60.555 E30.94277
G1 X19.166 Y62.019 E31.04718
G1 X16.939 Y63.524 E31.15004
G1 X14.733 Y65.109 E31.25399
G1 X12.855 Y66.534 E31.34421
G1 X12.331 Y66.939 E31.36956
G1 X11.702 Y67.42 E31.39986
G1 X11.213 Y67.787 E31.42326
G1 X10.609 Y68.232 E31.45197
G1 X10.002 Y68.672 E31.48066
G1 X9.355 Y69.133 E31.51106
G1 X8.886 Y69.46 E31.53294
G1 X8.346 Y69.83 E31.55799
G1 X7.742 Y70.238 E31.58589
G1 X7.142 Y70.637 E31.61346
G1 X6.578 Y71.004 E31.63922
G1 X6.039 Y71.348 E31.66369
G1 X5.229 Y71.857 E31.7003
G1 X4.162 Y72.505 E31.74807
G1 X3.434 Y72.937 E31.78047
G1 X2.831 Y73.286 E31.80713
G1 X2.099 Y73.702 E31.83935
G1 X1.213 Y74.192 E31.8781
G1 X0.489 Y74.581 E31.90955
G1 X0.019 Y74.83 E31.9299
G1 X-.8 Y75.254 E31.9652
G1 X-1.431 Y75.572 E31.99224
G1 X-2.176 Y75.94 E32.02404
G1 X-3.057 Y76.363 E32.06144
G1 X-3.951 Y76.781 E32.09921
G1 X-4.635 Y77.091 E32.12795
G1 X-5.317 Y77.394 E32.15651
G1 X-5.802 Y77.603 E32.17672
G1 X-6.578 Y77.933 E32.20899
G1 X-7.092 Y78.146 E32.23028
G1 X-7.862 Y78.458 E32.26208
G1 X-8.577 Y78.739 E32.29148
G1 X-9.251 Y78.998 E32.31911
G1 X-9.734 Y79.18 E32.33886
G1 X-10.607 Y79.5 E32.37444
G1 X-11.537 Y79.827 E32.41217
G1 X-12.419 Y80.126 E32.44781
G1 X-13.133 Y80.361 E32.47658
G1 X-13.747 Y80.558 E32.50125
G1 X-14.577 Y80.815 E32.53451
G1 X-15.189 Y80.999 E32.55896
G1 X-15.645 Y81.133 E32.57715
G1 X-16.436 Y81.358 E32.60862
G1 X-17.462 Y81.638 E32.64932
G1 X-18.342 Y81.867 E32.68412
G1 X-18.985 Y82.027 E32.70948
G1 X-19.519 Y82.156 E32.7305
G1 X-20.781 Y82.449 E32.78009
G1 X-21.794 Y82.666 E32.81973
G1 X-22.386 Y82.789 E32.84287
G1 X-23.072 Y82.924 E32.86963
G1 X-23.831 Y83.068 E32.89919
G1 X-24.402 Y83.171 E32.9214
G1 X-25.357 Y83.335 E32.95848
G1 X-26.258 Y83.478 E32.99339
G1 X-26.707 Y83.546 E33.01077
G1 X-27.651 Y83.682 E33.04727
G1 X-28.204 Y83.755 E33.06862
G1 X-28.888 Y83.841 E33.095
G1 X-29.635 Y83.929 E33.12378
G1 X-30.474 Y84.02 E33.15608
G1 X-31.235 Y84.096 E33.18535
G1 X-31.875 Y84.154 E33.20994
G1 X-32.83 Y84.23 E33.2466
G1 X-33.514 Y84.278 E33.27285
G1 X-34.228 Y84.322 E33.30022
G1 X-34.896 Y84.349 E33.32581
G1 X-35.477 Y84.332 E33.34805
G1 X-36.05 Y84.236 E33.37028
G1 X-36.605 Y84.062 E33.39254
G1 X-37.13 Y83.814 E33.41476
G1 X-37.616 Y83.496 E33.43699
G1 X-38.055 Y83.115 E33.45924
G1 X-38.436 Y82.676 E33.48148
G1 X-38.754 Y82.19 E33.50371
G1 X-39.002 Y81.665 E33.52593
G1 X-39.176 Y81.11 E33.54819
G1 X-39.266 Y80.597 E33.56812
G1 X-39.325 Y80.005 E33.59089
G1 X-40.639 Y63.644 E34.21903
G1 X-40.684 Y62.966 E34.24503
G1 X-40.688 Y62.484 E34.26348
G1 X-40.647 Y61.634 E34.29605
G1 X-40.573 Y60.412 E34.3429
G1 X-40.483 Y57.679 E34.44755
G1 X-40.471 Y54.982 E34.55076
G1 X-40.536 Y52.25 E34.65534
G1 X-40.677 Y49.558 E34.7585
G1 X-40.893 Y46.878 E34.8614
G1 X-41.189 Y44.171 E34.96561
G1 X-41.531 Y41.668 E35.06229
G1 X-41.591 Y41.153 E35.08213
G1 X-41.655 Y40.08 E35.12327
G0 F2040 X-41.306 Y40.065
G1 F1020 X-44.64 Y-39.523 E38.17174
G1 X-44.66 Y-40.241 E38.19922
G1 X-44.656 Y-40.571 E38.21185
G1 X-44.597 Y-41.599 E38.25126
G1 X-44.481 Y-44.286 E38.35418
G1 X-44.44 Y-47.038 E38.45951
G1 X-44.476 Y-49.751 E38.56335
G1 X-44.591 Y-52.501 E38.66868
G1 X-44.779 Y-55.177 E38.77134
G1 X-45.045 Y-57.884 E38.87544
G1 X-45.367 Y-60.423 E38.97338
G1 X-45.533 Y-61.609 E39.01921
G1 X-45.569 Y-62.063 E39.03664
G1 X-45.591 Y-63.118 E39.07702
G1 X-45.648 Y-79.061 E39.68716
G1 X-45.641 Y-79.746 E39.71338
G1 X-45.595 Y-80.3 E39.73465
G1 X-45.471 Y-80.842 E39.75593
G1 X-45.27 Y-81.361 E39.77723
G1 X-44.996 Y-81.846 E39.79855
G1 X-44.657 Y-82.287 E39.81983
G1 X-44.257 Y-82.674 E39.84113
G1 X-43.806 Y-83 E39.86243
G1 X-43.314 Y-83.259 E39.88371
G1 X-42.789 Y-83.444 E39.90501
G1 X-42.013 Y-83.573 E39.93511
G1 X-41.606 Y-83.597 E39.95072
G1 X-40.752 Y-83.62 E39.98341
G1 X-40.016 Y-83.63 E40.01158
G1 X-39.313 Y-83.635 E40.03848
G1 X-38.64 Y-83.634 E40.06424
G1 X-37.894 Y-83.627 E40.09279
G1 X-37.194 Y-83.614 E40.11958
G1 X-36.532 Y-83.596 E40.14493
G1 X-35.836 Y-83.572 E40.17158
G1 X-35.209 Y-83.546 E40.19559
G1 X-34.091 Y-83.486 E40.23844
G1 X-33.359 Y-83.439 E40.26651
G1 X-32.563 Y-83.381 E40.29705
G1 X-31.665 Y-83.305 E40.33154
G1 X-30.799 Y-83.224 E40.36483
G1 X-29.627 Y-83.099 E40.40994
G1 X-28.864 Y-83.008 E40.43934
G1 X-27.801 Y-82.872 E40.48035
