;FLAVOR:Marlin
;TIME:30948
;Filament used: 44.9674m
;Layer height: 0.3
;MINX:-45.528
;MINY:-62.842
;MINZ:0.26
;MAXX:45.562
;MAXY:63.114
;MAXZ:189.86
;Generated with Cura_SteamEngine 4.9.1
M82 ;absolute extrusion mode
;Gcode by Cura
G90
G28
M107
M109 R100
G30
M109 S215 U-55 X55 V-85 Y-85 W0.26 Z0.26
M82
G92 E0
G1 F200 E6
G92 E0
G1 F200 E-3.5
G0 Z0.15
G0 X10
G0 Z3
G1 F6000
G92 E0
G92 E0
G1 F3600 E-3.8
;LAYER_COUNT:633
;LAYER:0
M107
G0 F2040 X-14.578 Y59.95 Z0.26
;TYPE:SKIRT
G1 F3600 E0
G1 F1020 X-14.953 Y60.578 E0.02799
G1 X-15.297 Y61.075 E0.05112
G1 X-15.703 Y61.523 E0.07426
G1 X-16.165 Y61.913 E0.0974
G1 X-16.674 Y62.239 E0.12053
G1 X-17.222 Y62.495 E0.14368
G1 X-17.778 Y62.672 E0.16601
G1 X-17.931 Y62.71 E0.17204
G1 X-18.652 Y62.829 E0.20001
G1 X-19.46 Y62.896 E0.23103
G1 X-20.718 Y62.983 E0.27929
G1 X-21.733 Y63.077 E0.3183
G1 X-22.117 Y63.107 E0.33304
G1 X-22.721 Y63.114 E0.35616
G1 X-23.322 Y63.042 E0.37932
G1 X-23.907 Y62.89 E0.40245
G1 X-24.467 Y62.663 E0.42558
G1 X-24.757 Y62.51 E0.43813
G1 X-25.554 Y62.05 E0.47334
G1 X-27.714 Y60.759 E0.56965
G1 X-28.249 Y60.429 E0.5937
G1 X-28.803 Y60.03 E0.61983
G1 X-29.034 Y59.838 E0.63132
G1 X-30.747 Y58.369 E0.71768
G1 X-32.848 Y56.67 E0.82109
G1 X-34.959 Y55.058 E0.92274
G1 X-37.207 Y53.442 E1.02869
G1 X-39.401 Y51.955 E1.13012
G1 X-41.674 Y50.508 E1.23324
G1 X-43.306 Y49.52 E1.30624
G1 X-43.803 Y49.176 E1.32938
G1 X-44.25 Y48.769 E1.35251
G1 X-44.64 Y48.306 E1.37568
G1 X-44.965 Y47.797 E1.39879
G1 X-45.22 Y47.248 E1.42196
G1 X-45.401 Y46.671 E1.4451
G1 X-45.504 Y46.076 E1.46821
G1 X-45.528 Y45.487 E1.49077
G1 X-45.523 Y45.278 E1.49877
G1 X-45.468 Y44.675 E1.52194
G1 X-45.335 Y44.086 E1.54505
G1 X-45.125 Y43.519 E1.56819
G1 X-44.94 Y43.15 E1.58398
G1 X-44.643 Y42.621 E1.6072
G1 X14.58 Y-59.953 E6.13996
G1 X14.951 Y-60.575 E6.16768
G1 X15.294 Y-61.072 E6.19079
G1 X15.7 Y-61.52 E6.21393
G1 X16.162 Y-61.911 E6.23709
G1 X16.671 Y-62.237 E6.26022
G1 X17.218 Y-62.494 E6.28335
G1 X17.827 Y-62.685 E6.30778
G1 X18.42 Y-62.803 E6.33092
G1 X19.023 Y-62.842 E6.35404
G1 X19.677 Y-62.794 E6.37914
G1 X20.491 Y-62.675 E6.41062
G1 X22.8 Y-62.372 E6.49974
G1 X23.329 Y-62.296 E6.52019
G1 X23.92 Y-62.17 E6.54332
G1 X24.49 Y-61.968 E6.56646
G1 X24.929 Y-61.75 E6.58522
G1 X25.843 Y-61.232 E6.62542
G1 X27.839 Y-60.052 E6.71416
G1 X27.914 Y-60.017 E6.71733
G1 X29.32 Y-59.186 E6.77983
G1 X31.677 Y-57.882 E6.88292
G1 X34.044 Y-56.659 E6.98488
G1 X36.517 Y-55.468 E7.08992
G1 X36.853 Y-55.317 E7.10402
G1 X37.907 Y-54.826 E7.14852
G1 X38.137 Y-54.711 E7.15836
G1 X38.756 Y-54.378 E7.18526
G1 X40.646 Y-53.333 E7.26791
G1 X41.272 Y-52.974 E7.29552
G1 X41.775 Y-52.639 E7.31865
G1 X42.23 Y-52.241 E7.34178
G1 X42.629 Y-51.786 E7.36494
G1 X42.98 Y-51.254 E7.38934
G1 X43.539 Y-50.263 E7.43288
G1 X44.223 Y-49.098 E7.48458
G1 X44.913 Y-47.893 E7.53772
G1 X45.178 Y-47.35 E7.56084
G1 X45.37 Y-46.784 E7.58371
G1 X45.506 Y-46.195 E7.60685
G1 X45.562 Y-45.593 E7.62999
G1 X45.539 Y-44.989 E7.65312
G1 X45.436 Y-44.393 E7.67626
G1 X45.256 Y-43.816 E7.6994
G1 X45.038 Y-43.336 E7.71957
G1 X44.928 Y-43.132 E7.72844
G1 X44.654 Y-42.645 E7.74982
G1 X-14.578 Y59.95 E12.28346
G0 F2040 X-14.879 Y59.77
G1 F1020 X-15.254 Y60.398 E12.31145
G1 X-15.585 Y60.875 E12.33367
G1 X-15.979 Y61.302 E12.3559
G1 X-16.428 Y61.672 E12.37817
G1 X-16.923 Y61.976 E12.4004
G1 X-17.455 Y62.209 E12.42262
G1 X-18.016 Y62.37 E12.44496
G1 X-18.681 Y62.48 E12.47076
G1 X-19.484 Y62.547 E12.50159
G1 X-20.736 Y62.633 E12.54962
G1 X-21.76 Y62.728 E12.58898
G1 X-22.144 Y62.758 E12.60372
G1 X-22.725 Y62.763 E12.62595
G1 X-23.301 Y62.689 E12.64818
G1 X-23.862 Y62.536 E12.67043
G1 X-24.583 Y62.207 E12.70076
G1 X-25.374 Y61.75 E12.73572
G1 X-27.53 Y60.461 E12.83185
G1 X-28.065 Y60.131 E12.85591
G1 X-28.579 Y59.761 E12.88014
G1 X-28.807 Y59.572 E12.89148
G1 X-30.527 Y58.097 E12.97819
G1 X-32.626 Y56.4 E13.08148
G1 X-34.791 Y54.746 E13.18575
G1 X-36.952 Y53.193 E13.28759
G1 X-39.228 Y51.651 E13.3928
G1 X-41.531 Y50.185 E13.49728
G1 X-42.804 Y49.413 E13.55425
G1 X-43.126 Y49.22 E13.56862
G1 X-43.603 Y48.888 E13.59086
G1 X-44.029 Y48.493 E13.61309
G1 X-44.398 Y48.044 E13.63533
G1 X-44.701 Y47.548 E13.65758
G1 X-44.933 Y47.016 E13.67979
G1 X-45.09 Y46.456 E13.70205
G1 X-45.169 Y45.881 E13.72426
G1 X-45.173 Y45.286 E13.74703
G1 X-45.119 Y44.707 E13.76928
G1 X-44.986 Y44.142 E13.7915
G1 X-44.777 Y43.6 E13.81373
G1 X-44.634 Y43.321 E13.82572
G1 X-44.34 Y42.796 E13.84875
G1 X14.88 Y-59.773 E18.38129
G1 X15.251 Y-60.395 E18.40901
G1 X15.583 Y-60.873 E18.43128
G1 X15.976 Y-61.3 E18.45349
G1 X16.425 Y-61.669 E18.47573
G1 X16.92 Y-61.974 E18.49798
G1 X17.452 Y-62.207 E18.52021
G1 X17.918 Y-62.347 E18.53883
G1 X18.488 Y-62.459 E18.56106
G1 X19.068 Y-62.492 E18.58329
G1 X19.627 Y-62.447 E18.60475
G1 X20.398 Y-62.334 E18.63458
G1 X22.75 Y-62.025 E18.72536
G1 X23.279 Y-61.949 E18.74581
G1 X23.847 Y-61.827 E18.76804
G1 X24.393 Y-61.628 E18.79028
G1 X24.757 Y-61.445 E18.80588
G1 X25.665 Y-60.931 E18.84581
G1 X27.644 Y-59.761 E18.93379
G1 X27.736 Y-59.715 E18.93772
G1 X29.116 Y-58.899 E18.99908
G1 X31.504 Y-57.578 E19.10352
G1 X33.902 Y-56.339 E19.20681
G1 X36.363 Y-55.154 E19.31134
G1 X36.705 Y-55 E19.3257
G1 X37.759 Y-54.509 E19.37019
G1 X37.971 Y-54.403 E19.37926
G1 X38.587 Y-54.072 E19.40603
G1 X40.472 Y-53.029 E19.48847
G1 X41.098 Y-52.67 E19.51609
G1 X41.581 Y-52.347 E19.53832
G1 X42.015 Y-51.961 E19.56055
G1 X42.392 Y-51.519 E19.58278
G1 X42.675 Y-51.082 E19.60271
G1 X43.237 Y-50.086 E19.64647
G1 X43.919 Y-48.924 E19.69804
G1 X44.609 Y-47.719 E19.75118
G1 X44.863 Y-47.197 E19.77339
G1 X45.035 Y-46.683 E19.79414
G1 X45.164 Y-46.117 E19.81635
G1 X45.213 Y-45.538 E19.83859
G1 X45.183 Y-44.958 E19.86081
G1 X45.074 Y-44.387 E19.88306
G1 X44.887 Y-43.837 E19.90529
G1 X44.623 Y-43.304 E19.92806
G1 X44.351 Y-42.82 E19.9493
G1 X-14.879 Y59.77 E24.48273
G0 F2040 X-15.179 Y59.591
G1 F1020 X-15.554 Y60.219 E24.51072
G1 X-15.873 Y60.675 E24.53202
G1 X-16.254 Y61.08 E24.5533
G1 X-16.689 Y61.427 E24.57459
G1 X-17.169 Y61.708 E24.59588
G1 X-17.947 Y61.993 E24.62759
G1 X-18.1 Y62.031 E24.63362
G1 X-18.71 Y62.131 E24.65728
G1 X-19.508 Y62.198 E24.68792
G1 X-20.794 Y62.287 E24.73726
G1 X-21.787 Y62.379 E24.77542
G1 X-22.171 Y62.409 E24.79016
G1 X-22.728 Y62.413 E24.81148
G1 X-23.279 Y62.336 E24.83277
G1 X-23.813 Y62.182 E24.85404
G1 X-24.408 Y61.903 E24.87919
G1 X-25.195 Y61.449 E24.91396
G1 X-27.346 Y60.163 E25.00987
G1 X-27.881 Y59.833 E25.03392
G1 X-28.356 Y59.492 E25.0563
G1 X-28.579 Y59.306 E25.06741
G1 X-30.29 Y57.84 E25.15364
G1 X-32.421 Y56.116 E25.25854
G1 X-34.568 Y54.477 E25.36191
G1 X-36.762 Y52.899 E25.46533
G1 X-39.03 Y51.362 E25.57018
G1 X-41.335 Y49.895 E25.67474
G1 X-42.642 Y49.102 E25.73325
G1 X-42.946 Y48.92 E25.74681
G1 X-43.402 Y48.6 E25.76812
G1 X-43.807 Y48.219 E25.7894
G1 X-44.153 Y47.783 E25.81071
G1 X-44.433 Y47.302 E25.832
G1 X-44.642 Y46.786 E25.85331
G1 X-44.774 Y46.246 E25.87458
G1 X-44.828 Y45.503 E25.90309
G1 X-44.823 Y45.294 E25.91109
G1 X-44.77 Y44.74 E25.93239
G1 X-44.638 Y44.2 E25.95367
G1 X-44.329 Y43.492 E25.98323
G1 X-44.037 Y42.971 E26.00609
G1 X15.181 Y-59.594 E30.53846
G1 X15.552 Y-60.216 E30.56617
G1 X15.871 Y-60.672 E30.58747
G1 X16.251 Y-61.078 E30.60875
G1 X16.686 Y-61.425 E30.63005
G1 X17.166 Y-61.706 E30.65133
G1 X17.875 Y-61.973 E30.68032
G1 X18.009 Y-62.009 E30.68563
G1 X18.555 Y-62.115 E30.70692
G1 X19.111 Y-62.141 E30.72822
G1 X19.576 Y-62.101 E30.74608
G1 X20.37 Y-61.985 E30.77679
G1 X22.7 Y-61.679 E30.86672
G1 X23.229 Y-61.603 E30.88718
G1 X23.773 Y-61.484 E30.90849
G1 X24.294 Y-61.289 E30.92978
G1 X24.584 Y-61.141 E30.94224
G1 X25.487 Y-60.63 E30.98194
G1 X27.399 Y-59.5 E31.06694
G1 X27.558 Y-59.414 E31.07386
G1 X28.953 Y-58.589 E31.13588
G1 X31.33 Y-57.274 E31.23984
G1 X33.775 Y-56.011 E31.34515
G1 X36.179 Y-54.853 E31.44727
G1 X36.557 Y-54.683 E31.46313
G1 X37.611 Y-54.192 E31.50763
G1 X37.806 Y-54.094 E31.51598
G1 X38.417 Y-53.766 E31.54252
G1 X40.298 Y-52.725 E31.62479
G1 X40.924 Y-52.366 E31.65241
G1 X41.385 Y-52.056 E31.67367
G1 X41.798 Y-51.682 E31.69499
G1 X42.152 Y-51.253 E31.71628
G1 X42.37 Y-50.91 E31.73183
G1 X42.952 Y-49.879 E31.77714
G1 X43.616 Y-48.751 E31.82723
G1 X44.306 Y-47.546 E31.88037
G1 X44.547 Y-47.044 E31.90168
G1 X44.7 Y-46.583 E31.92027
G1 X44.821 Y-46.04 E31.94156
G1 X44.864 Y-45.485 E31.96287
G1 X44.827 Y-44.93 E31.98415
G1 X44.71 Y-44.386 E32.00545
G1 X44.418 Y-43.662 E32.03532
G1 X44.318 Y-43.475 E32.04344
G1 X44.048 Y-42.995 E32.06451
G1 X-15.179 Y59.591 E36.59775
G0 F2040 X-15.48 Y59.411
G1 F1020 X-15.855 Y60.039 E36.62574
G1 X-16.16 Y60.473 E36.64604
G1 X-16.527 Y60.856 E36.66634
G1 X-16.948 Y61.18 E36.68667
G1 X-17.412 Y61.436 E36.70696
G1 X-18.031 Y61.653 E36.73206
G1 X-18.184 Y61.691 E36.73809
G1 X-18.74 Y61.783 E36.75966
G1 X-19.532 Y61.849 E36.79007
G1 X-20.808 Y61.937 E36.83902
G1 X-21.814 Y62.03 E36.87768
G1 X-22.198 Y62.06 E36.89242
G1 X-22.729 Y62.062 E36.91275
G1 X-23.254 Y61.983 E36.93306
G1 X-23.761 Y61.827 E36.95336
G1 X-24.233 Y61.6 E36.97341
G1 X-25.015 Y61.149 E37.00795
G1 X-27.163 Y59.865 E37.10372
G1 X-27.698 Y59.535 E37.12778
G1 X-28.132 Y59.223 E37.14824
G1 X-28.309 Y59.076 E37.15704
G1 X-30.073 Y57.564 E37.24595
G1 X-32.176 Y55.863 E37.34946
G1 X-34.361 Y54.194 E37.45469
G1 X-36.588 Y52.593 E37.55965
G1 X-38.814 Y51.085 E37.66255
G1 X-41.159 Y49.592 E37.76893
G1 X-42.766 Y48.619 E37.84083
G1 X-43.2 Y48.313 E37.86115
G1 X-43.582 Y47.945 E37.88145
G1 X-43.905 Y47.524 E37.90176
G1 X-44.161 Y47.059 E37.92207
G1 X-44.344 Y46.561 E37.94237
G1 X-44.451 Y46.042 E37.96265
G1 X-44.478 Y45.512 E37.98296
G1 X-44.473 Y45.303 E37.99096
G1 X-44.42 Y44.775 E38.01127
G1 X-44.289 Y44.26 E38.03161
G1 X-44.024 Y43.663 E38.0566
G1 X-43.734 Y43.146 E38.07929
G1 X15.482 Y-59.415 E42.61149
G1 X15.853 Y-60.037 E42.6392
G1 X16.158 Y-60.471 E42.6595
G1 X16.525 Y-60.854 E42.67981
G1 X16.945 Y-61.178 E42.70011
G1 X17.41 Y-61.435 E42.72044
G1 X17.965 Y-61.635 E42.74301
G1 X18.099 Y-61.671 E42.74832
G1 X18.621 Y-61.77 E42.76866
G1 X19.151 Y-61.789 E42.78895
G1 X19.525 Y-61.755 E42.80332
G1 X20.333 Y-61.637 E42.83457
G1 X22.65 Y-61.332 E42.92401
G1 X23.179 Y-61.256 E42.94446
G1 X23.697 Y-61.141 E42.96477
G1 X24.412 Y-60.836 E42.99452
G1 X25.309 Y-60.328 E43.03397
G1 X27.295 Y-59.154 E43.12226
G1 X27.379 Y-59.113 E43.12583
G1 X28.787 Y-58.281 E43.18842
G1 X31.157 Y-56.969 E43.29209
G1 X33.605 Y-55.705 E43.39753
G1 X36.04 Y-54.532 E43.50096
G1 X36.41 Y-54.365 E43.5165
G1 X37.464 Y-53.874 E43.56099
G1 X37.641 Y-53.786 E43.56856
G1 X38.248 Y-53.46 E43.59493
G1 X40.124 Y-52.422 E43.67698
G1 X40.75 Y-52.063 E43.70459
G1 X41.189 Y-51.765 E43.7249
G1 X41.578 Y-51.405 E43.74518
G1 X41.909 Y-50.99 E43.7655
G1 X42.066 Y-50.738 E43.77686
G1 X42.647 Y-49.709 E43.82208
G1 X43.312 Y-48.577 E43.87233
G1 X44.002 Y-47.372 E43.92547
G1 X44.23 Y-46.893 E43.94577
G1 X44.365 Y-46.482 E43.96232
G1 X44.479 Y-45.964 E43.98262
G1 X44.514 Y-45.434 E44.00295
G1 X44.469 Y-44.905 E44.02327
G1 X44.345 Y-44.389 E44.04358
G1 X44.108 Y-43.825 E44.06699
G1 X44.013 Y-43.646 E44.07474
G1 X43.745 Y-43.17 E44.09565
G1 X-15.48 Y59.411 E48.62868
G0 F2040 X-15.78 Y59.232
G1 F1020 X-16.155 Y59.86 E48.65667
G1 X-16.447 Y60.27 E48.67594
G1 X-16.8 Y60.63 E48.69523
G1 X-17.205 Y60.928 E48.71448
G1 X-17.652 Y61.16 E48.73375
G1 X-18.269 Y61.351 E48.75847
G1 X-18.769 Y61.434 E48.77786
G1 X-19.556 Y61.5 E48.80809
G1 X-20.866 Y61.59 E48.85834
G1 X-21.842 Y61.681 E48.89585
G1 X-22.226 Y61.711 E48.91059
G1 X-22.729 Y61.711 E48.92984
G1 X-23.226 Y61.63 E48.94911
G1 X-23.705 Y61.472 E48.96841
G1 X-24.058 Y61.297 E48.98349
G1 X-24.836 Y60.848 E49.01787
G1 X-26.979 Y59.567 E49.11342
G1 X-27.514 Y59.237 E49.13747
G1 X-28.086 Y58.806 E49.16488
G1 X-29.856 Y57.29 E49.25407
G1 X-31.954 Y55.592 E49.35736
G1 X-34.171 Y53.9 E49.46409
G1 X-36.381 Y52.311 E49.56825
G1 X-38.641 Y50.78 E49.67272
G1 X-40.932 Y49.321 E49.77667
G1 X-42.586 Y48.319 E49.85067
G1 X-42.996 Y48.027 E49.86994
G1 X-43.355 Y47.673 E49.88923
G1 X-43.653 Y47.268 E49.90847
G1 X-43.884 Y46.82 E49.92776
G1 X-44.04 Y46.341 E49.94704
G1 X-44.119 Y45.844 E49.9663
G1 X-44.123 Y45.311 E49.9867
G1 X-44.071 Y44.81 E50.00598
G1 X-43.941 Y44.324 E50.02523
G1 X-43.718 Y43.834 E50.04583
G1 X-43.431 Y43.321 E50.06833
G1 X15.782 Y-59.235 E54.6003
G1 X16.153 Y-59.857 E54.62802
G1 X16.445 Y-60.268 E54.64731
G1 X16.797 Y-60.628 E54.66658
G1 X17.203 Y-60.927 E54.68588
G1 X17.65 Y-61.158 E54.70513
G1 X18.19 Y-61.333 E54.72686
G1 X18.685 Y-61.425 E54.74613
G1 X19.189 Y-61.437 E54.76542
G1 X19.474 Y-61.408 E54.77638
G1 X20.246 Y-61.295 E54.80624
G1 X22.601 Y-60.986 E54.89714
G1 X23.13 Y-60.91 E54.91759
G1 X23.621 Y-60.799 E54.93685
G1 X24.24 Y-60.531 E54.96267
G1 X25.131 Y-60.027 E55.00184
G1 X27.063 Y-58.885 E55.08773
G1 X27.201 Y-58.811 E55.09372
G1 X28.597 Y-57.986 E55.15578
G1 X30.997 Y-56.658 E55.26075
G1 X33.42 Y-55.406 E55.36512
G1 X35.932 Y-54.196 E55.47183
G1 X36.262 Y-54.048 E55.48567
G1 X37.316 Y-53.557 E55.53017
G1 X37.475 Y-53.477 E55.53698
G1 X38.079 Y-53.153 E55.56321
G1 X39.95 Y-52.118 E55.64504
G1 X40.576 Y-51.759 E55.67265
G1 X40.991 Y-51.475 E55.6919
G1 X41.357 Y-51.128 E55.7112
G1 X41.761 Y-50.566 E55.73769
G1 X42.355 Y-49.515 E55.78389
G1 X43.008 Y-48.403 E55.83324
G1 X43.698 Y-47.198 E55.88638
G1 X43.984 Y-46.534 E55.91405
G1 X44.03 Y-46.381 E55.92016
G1 X44.136 Y-45.889 E55.93942
G1 X44.163 Y-45.386 E55.9587
G1 X44.11 Y-44.885 E55.97798
G1 X43.979 Y-44.399 E55.99724
G1 X43.749 Y-43.893 E56.01851
G1 X43.442 Y-43.345 E56.04255
G1 X-15.78 Y59.232 E60.5754
G0 F2040 X-18.988 Y58.089
;TYPE:SUPPORT
G1 F1020 X-21.215 Y56.804 E60.67379
G1 X-21.691 Y56.925 E60.69259
G1 X-22.541 Y58.317 E60.755
G1 X-25.636 Y56.467 E60.893
G1 X-24.849 Y55.108 E60.9531
G1 X-24.977 Y54.632 E60.97196
G1 X-40.812 Y45.488 E61.67174
G1 X18.989 Y-58.09 E66.24884
G1 X21.711 Y-56.519 E66.36911
G1 X22.186 Y-56.637 E66.38784
G1 X22.76 Y-57.537 E66.42869
G1 X25.407 Y-55.972 E66.54637
G1 X25.407 Y-54.638 E66.59742
G1 X25.628 Y-54.255 E66.61435
G1 X34.771 Y-48.977 E67.01836
G1 X35.247 Y-49.106 E67.03723
G1 X36.025 Y-50.461 E67.09703
G1 X38.789 Y-48.932 E67.21791
G1 X38.748 Y-48.809 E67.22287
G1 X38.866 Y-48.434 E67.23792
G1 X38.225 Y-47.401 E67.28444
G1 X38.346 Y-46.92 E67.30342
G1 X40.812 Y-45.49 E67.41251
G1 X-18.988 Y58.089 E71.98963
G0 F2040 X-20.917 Y45.928
G1 F1020 X29.319 Y-41.081 E75.83457
G1 X29.091 Y-41.92 E75.86784
G1 X21.756 Y-46.156 E76.19199
G1 X20.917 Y-45.928 E76.22527
G1 X-29.319 Y41.081 E80.0702
G1 X-29.091 Y41.92 E80.10348
G1 X-21.756 Y46.156 E80.42763
G1 X-20.917 Y45.928 E80.4609
G0 F2040 X-20.997 Y46.094
G1 F1020 X-20.997 Y56.767 E80.86935
G0 F2040 X-18.664 Y57.249
G1 F1020 X-18.664 Y42.305 E81.44125
G0 F2040 X-18.483 Y41.994
G1 F1020 X-9.857 Y41.994 E81.77137
G0 F2040 X-9.332 Y41.085
G1 F1020 X-9.332 Y26.141 E82.34327
G0 F2040 X-9.054 Y25.663
G1 F1020 X-.428 Y25.663 E82.67338
G0 F2040 X0.00 Y24.921
G1 F1020 X0.00 Y9.978 E83.24524
G0 F2040 X0.373 Y9.332
G1 F1020 X9 Y9.332 E83.57539
G0 F2040 X9.332 Y8.757
G1 F1020 X9.332 Y-6.185 E84.14722
G0 F2040 X9.803 Y-6.998
G1 F1020 X18.428 Y-6.998 E84.47729
G0 F2040 X18.664 Y-7.407
G1 F1020 X18.664 Y-22.348 E85.04908
G0 F2040 X19.231 Y-23.33
G1 F1020 X27.856 Y-23.33 E85.37915
G0 F2040 X27.996 Y-23.571
G1 F1020 X27.996 Y-38.511 E85.9509
G0 F2040 X28.66 Y-39.661
G1 F1020 X37.285 Y-39.661 E86.28097
G0 F2040 X37.328 Y-39.735
G1 F1020 X37.328 Y-49.579 E86.6577
G0 F2040 X38.389 Y-48.993
G1 F1020 X35.346 Y-48.993 E86.77415
G0 F2040 X34.995 Y-48.893
G1 F1020 X34.995 Y-35.694 E87.27927
G0 F2040 X34.591 Y-34.995
G1 F1020 X25.966 Y-34.995 E87.60934
G0 F2040 X25.663 Y-34.47
G1 F1020 X25.663 Y-19.53 E88.18109
G0 F2040 X25.163 Y-18.664
G1 F1020 X16.537 Y-18.664 E88.5112
G0 F2040 X16.331 Y-18.307
G1 F1020 X16.331 Y-3.366 E89.08299
G0 F2040 X15.734 Y-2.332
G1 F1020 X7.109 Y-2.332 E89.41306
G0 F2040 X6.999 Y-2.144
G1 F1020 X6.999 Y12.798 E89.98489
G0 F2040 X7.652 Y11.665
G1 F1020 X-.973 Y11.665 E90.31496
G0 F2040 X-2.32 Y13.998
G1 F1020 X6.305 Y13.998 E90.64504
G0 F2040 X4.958 Y16.331
G1 F1020 X-3.667 Y16.331 E90.97511
G0 F2040 X-4.666 Y18.06
G1 F1020 X-4.666 Y33.003 E91.54697
