;FLAVOR:Marlin
;TIME:7218
;Filament used: 9.98955m
;Layer height: 0.3
;MINX:-36.912
;MINY:-83.6
;MINZ:0.26
;MAXX:56.501
;MAXY:85.494
;MAXZ:2.96
;Generated with Cura_SteamEngine 4.9.1
M82 ;absolute extrusion mode
;Gcode by Cura
G90
G28
M107
M109 R100
G30
M109 S215 U-55 X55 V-85 Y-85 W0.26 Z0.26
M82
G92 E0
G1 F200 E6
G92 E0
G1 F200 E-3.5
G0 Z0.15
G0 X10
G0 Z3
G1 F6000
G92 E0
G92 E0
G1 F3600 E-3.8
;LAYER_COUNT:10
;LAYER:0
M107
G0 F2040 X-32.181 Y2.359 Z0.26
;TYPE:SKIRT
G1 F3600 E0
G1 F1020 X-32.271 Y-.314 E0.10235
G1 X-32.441 Y-3.028 E0.20642
G1 X-32.681 Y-5.684 E0.30848
G1 X-33.006 Y-8.41 E0.41354
G1 X-33.396 Y-11.038 E0.51521
G1 X-33.872 Y-13.728 E0.61976
G1 X-34.414 Y-16.352 E0.7223
G1 X-34.568 Y-17.004 E0.74793
G1 X-34.796 Y-18.045 E0.78872
G1 X-34.897 Y-18.804 E0.81802
G1 X-34.933 Y-19.576 E0.8476
G1 X-35.579 Y-38.862 E1.58608
G1 X-35.591 Y-39.559 E1.61275
G1 X-35.582 Y-39.936 E1.62719
G1 X-35.519 Y-40.904 E1.66431
G1 X-35.377 Y-43.656 E1.76977
G1 X-35.314 Y-46.361 E1.87331
G1 X-35.329 Y-49.075 E1.97718
G1 X-35.418 Y-51.745 E2.07942
G1 X-35.583 Y-54.421 E2.18202
G1 X-35.829 Y-57.147 E2.28677
G1 X-36.125 Y-59.659 E2.38356
G1 X-36.29 Y-60.92 E2.43223
G1 X-36.323 Y-61.297 E2.44672
G1 X-36.354 Y-61.976 E2.47273
G1 X-36.898 Y-78.209 E3.09431
G1 X-36.912 Y-78.875 E3.1198
G1 X-36.885 Y-79.479 E3.14294
G1 X-36.778 Y-80.074 E3.16607
G1 X-36.594 Y-80.65 E3.18921
G1 X-36.335 Y-81.197 E3.21237
G1 X-36.007 Y-81.704 E3.23548
G1 X-35.614 Y-82.164 E3.25864
G1 X-35.165 Y-82.568 E3.28175
G1 X-34.666 Y-82.91 E3.3049
G1 X-34.126 Y-83.182 E3.32804
G1 X-33.555 Y-83.381 E3.35118
G1 X-32.963 Y-83.503 E3.37431
G1 X-32.444 Y-83.549 E3.39425
G1 X-31.964 Y-83.568 E3.41264
G1 X-31.285 Y-83.584 E3.43863
G1 X-30.801 Y-83.593 E3.45716
G1 X-29.856 Y-83.6 E3.49332
G1 X-29.168 Y-83.599 E3.51965
G1 X-28.409 Y-83.591 E3.5487
G1 X-28.011 Y-83.584 E3.56393
G1 X-26.958 Y-83.557 E3.60424
G1 X-26.352 Y-83.535 E3.62745
G1 X-25.72 Y-83.509 E3.65166
G1 X-24.983 Y-83.47 E3.6799
G1 X-24.383 Y-83.435 E3.7029
G1 X-23.896 Y-83.403 E3.72158
G1 X-23.215 Y-83.354 E3.74771
G1 X-22.282 Y-83.277 E3.78354
G1 X-21.725 Y-83.227 E3.80494
G1 X-20.851 Y-83.14 E3.83855
G1 X-20.051 Y-83.052 E3.86935
G1 X-19.321 Y-82.965 E3.89748
G1 X-18.5 Y-82.86 E3.92916
G1 X-17.954 Y-82.785 E3.95025
G1 X-17.176 Y-82.673 E3.98033
G1 X-16.598 Y-82.584 E4.00271
G1 X-15.717 Y-82.441 E4.03687
G1 X-14.964 Y-82.312 E4.06611
G1 X-14.356 Y-82.203 E4.08974
G1 X-13.507 Y-82.042 E4.12281
G1 X-12.881 Y-81.918 E4.14724
G1 X-12.181 Y-81.773 E4.17459
G1 X-11.34 Y-81.59 E4.20753
G1 X-10.384 Y-81.373 E4.24505
G1 X-9.71 Y-81.212 E4.27157
G1 X-9.111 Y-81.065 E4.29517
G1 X-8.088 Y-80.801 E4.3356
G1 X-7.554 Y-80.658 E4.35676
G1 X-6.749 Y-80.436 E4.38872
G1 X-6.118 Y-80.255 E4.41384
G1 X-4.983 Y-79.918 E4.45915
G1 X-3.935 Y-79.591 E4.50116
G1 X-3.306 Y-79.388 E4.52646
G1 X-2.722 Y-79.193 E4.55002
G1 X-1.88 Y-78.906 E4.58406
G1 X-1.02 Y-78.601 E4.61898
G1 X-0.009 Y-78.23 E4.6602
G1 X0.737 Y-77.946 E4.69074
G1 X1.741 Y-77.553 E4.732
G1 X2.501 Y-77.244 E4.7634
G1 X3.285 Y-76.916 E4.79592
G1 X3.93 Y-76.64 E4.82277
G1 X4.534 Y-76.376 E4.848
G1 X5.515 Y-75.935 E4.88916
G1 X6.387 Y-75.529 E4.92597
G1 X7.111 Y-75.184 E4.95666
G1 X7.838 Y-74.83 E4.98761
G1 X8.362 Y-74.568 E5.01003
G1 X9.443 Y-74.015 E5.0565
G1 X10.344 Y-73.538 E5.09551
G1 X11.002 Y-73.181 E5.12416
G1 X11.912 Y-72.674 E5.16403
G1 X12.572 Y-72.297 E5.19311
G1 X13.363 Y-71.836 E5.22815
G1 X13.848 Y-71.547 E5.24976
G1 X14.647 Y-71.061 E5.28555
G1 X15.211 Y-70.712 E5.31093
G1 X15.704 Y-70.401 E5.33324
G1 X16.375 Y-69.969 E5.36378
G1 X17.415 Y-69.284 E5.41144
G1 X17.584 Y-69.17 E5.41924
G1 X19.846 Y-67.698 E5.52252
G1 X22.163 Y-66.281 E5.62646
G1 X24.486 Y-64.949 E5.72893
G1 X26.862 Y-63.675 E5.83211
G1 X29.3 Y-62.455 E5.93644
G1 X31.732 Y-61.324 E6.03908
G1 X34.219 Y-60.251 E6.14274
G1 X36.762 Y-59.236 E6.24752
G1 X39.213 Y-58.341 E6.34738
G1 X41.843 Y-57.463 E6.45349
G1 X44.405 Y-56.687 E6.55594
G1 X46.984 Y-55.985 E6.65822
G1 X48.565 Y-55.592 E6.72057
G1 X49.697 Y-55.32 E6.76512
G1 X50.274 Y-55.14 E6.78825
G1 X50.823 Y-54.886 E6.8114
G1 X51.333 Y-54.562 E6.83453
G1 X51.796 Y-54.173 E6.85767
G1 X52.204 Y-53.727 E6.8808
G1 X52.55 Y-53.23 E6.90398
G1 X52.827 Y-52.693 E6.9271
G1 X53.03 Y-52.124 E6.95022
G1 X53.157 Y-51.532 E6.97339
G1 X53.217 Y-50.828 E7.00043
G1 X53.223 Y-50.692 E7.00564
G1 X56.488 Y46.693 E10.73461
G1 X56.501 Y47.372 E10.7606
G1 X56.473 Y47.976 E10.78374
G1 X56.365 Y48.571 E10.80688
G1 X56.18 Y49.147 E10.83004
G1 X55.92 Y49.693 E10.85318
G1 X55.591 Y50.2 E10.87631
G1 X55.197 Y50.659 E10.89946
G1 X54.747 Y51.063 E10.9226
G1 X54.247 Y51.403 E10.94574
G1 X53.707 Y51.675 E10.96888
G1 X53.295 Y51.826 E10.98567
G1 X50.768 Y52.618 E11.08702
G1 X48.25 Y53.484 E11.18892
G1 X45.682 Y54.449 E11.29391
G1 X43.239 Y55.45 E11.39494
G1 X40.707 Y56.571 E11.50091
G1 X38.327 Y57.704 E11.60179
G1 X35.886 Y58.953 E11.70672
G1 X33.541 Y60.238 E11.80906
G1 X31.198 Y61.611 E11.91298
G1 X28.927 Y63.026 E12.01538
G1 X26.682 Y64.517 E12.11852
G1 X24.465 Y66.081 E12.22235
G1 X22.241 Y67.747 E12.32869
G1 X21.55 Y68.277 E12.36202
G1 X21.01 Y68.685 E12.38792
G1 X20.28 Y69.225 E12.42267
G1 X19.639 Y69.689 E12.45296
G1 X18.753 Y70.317 E12.49452
G1 X17.955 Y70.867 E12.53161
G1 X17.036 Y71.485 E12.57399
G1 X16.43 Y71.882 E12.60171
G1 X15.758 Y72.314 E12.63229
G1 X15.099 Y72.729 E12.66209
G1 X14.577 Y73.054 E12.68562
G1 X13.774 Y73.54 E12.72154
G1 X12.88 Y74.067 E12.76126
G1 X12.124 Y74.502 E12.79464
G1 X11.13 Y75.059 E12.83824
G1 X10.256 Y75.534 E12.87631
G1 X9.722 Y75.816 E12.89942
G1 X9.152 Y76.114 E12.92403
G1 X8.308 Y76.544 E12.96028
G1 X7.571 Y76.91 E12.99178
G1 X6.743 Y77.31 E13.02697
G1 X6.078 Y77.623 E13.05509
G1 X5.522 Y77.88 E13.07853
G1 X4.915 Y78.155 E13.10404
G1 X4.271 Y78.441 E13.131
G1 X3.497 Y78.775 E13.16326
G1 X2.948 Y79.006 E13.18606
G1 X2.456 Y79.209 E13.20643
G1 X1.668 Y79.529 E13.23898
G1 X0.79 Y79.874 E13.27508
G1 X-.228 Y80.259 E13.31673
G1 X-1.083 Y80.571 E13.35156
G1 X-1.556 Y80.74 E13.37078
G1 X-2.569 Y81.09 E13.4118
G1 X-3.36 Y81.354 E13.44371
G1 X-4.054 Y81.577 E13.47161
G1 X-4.652 Y81.764 E13.49558
G1 X-5.594 Y82.05 E13.53326
G1 X-6.373 Y82.276 E13.5643
G1 X-7.161 Y82.5 E13.59565
G1 X-7.733 Y82.655 E13.61833
G1 X-8.323 Y82.811 E13.64169
G1 X-9.087 Y83.006 E13.67186
G1 X-10.198 Y83.278 E13.71563
G1 X-11.307 Y83.533 E13.75918
G1 X-12.132 Y83.711 E13.79148
G1 X-12.984 Y83.887 E13.82478
G1 X-13.925 Y84.071 E13.86147
G1 X-14.703 Y84.213 E13.89173
G1 X-15.479 Y84.349 E13.92188
G1 X-15.912 Y84.422 E13.93869
G1 X-16.579 Y84.53 E13.96455
G1 X-17.355 Y84.647 E13.99458
G1 X-18.232 Y84.772 E14.02848
G1 X-19.255 Y84.905 E14.06796
G1 X-20.089 Y85.004 E14.1001
G1 X-20.678 Y85.069 E14.12278
G1 X-21.827 Y85.184 E14.16697
G1 X-22.467 Y85.242 E14.19156
G1 X-23.088 Y85.292 E14.21541
G1 X-24.105 Y85.365 E14.25443
G1 X-24.915 Y85.415 E14.28548
G1 X-25.887 Y85.464 E14.32273
G1 X-26.227 Y85.478 E14.33575
G1 X-26.862 Y85.494 E14.36006
G1 X-27.466 Y85.469 E14.38319
G1 X-28.062 Y85.365 E14.40635
G1 X-28.638 Y85.183 E14.42947
G1 X-29.186 Y84.926 E14.45263
G1 X-29.695 Y84.6 E14.47576
G1 X-30.156 Y84.21 E14.49887
G1 X-30.563 Y83.762 E14.52203
G1 X-30.906 Y83.264 E14.54517
G1 X-31.181 Y82.725 E14.56833
G1 X-31.382 Y82.155 E14.59146
G1 X-31.507 Y81.564 E14.61458
G1 X-31.557 Y80.981 E14.63697
G1 X-31.578 Y80.499 E14.65544
G1 X-32.125 Y64.172 E15.28061
G1 X-32.137 Y63.539 E15.30484
G1 X-32.128 Y63.154 E15.31958
G1 X-32.063 Y62.153 E15.35797
G1 X-31.922 Y59.408 E15.46316
G1 X-31.859 Y56.699 E15.56686
G1 X-31.874 Y53.988 E15.67061
G1 X-31.964 Y51.309 E15.77319
G1 X-32.13 Y48.609 E15.87671
G1 X-32.37 Y45.956 E15.97865
G1 X-32.67 Y43.414 E16.07661
G1 X-32.835 Y42.145 E16.12558
G1 X-32.868 Y41.776 E16.13976
G1 X-32.9 Y41.087 E16.16616
G1 X-33.548 Y21.737 E16.90709
G1 X-33.561 Y21.057 E16.93312
G1 X-33.51 Y20.285 E16.96272
G1 X-33.328 Y19.081 E17.00932
G1 X-33.234 Y18.514 E17.03132
G1 X-32.87 Y15.852 E17.13414
G1 X-32.578 Y13.149 E17.23819
G1 X-32.364 Y10.452 E17.34172
G1 X-32.228 Y7.779 E17.44415
G1 X-32.166 Y5.068 E17.54792
G1 X-32.181 Y2.359 E17.6516
G0 F2040 X-31.831 Y2.38
G1 F1020 X-31.923 Y-.348 E17.75606
G1 X-32.091 Y-3.043 E17.85939
G1 X-32.337 Y-5.756 E17.96364
G1 X-32.656 Y-8.433 E18.06682
G1 X-33.054 Y-11.116 E18.17062
G1 X-33.522 Y-13.758 E18.2733
G1 X-34.073 Y-16.427 E18.3776
G1 X-34.226 Y-17.079 E18.40322
G1 X-34.454 Y-18.12 E18.44401
G1 X-34.547 Y-18.82 E18.47103
G1 X-34.584 Y-19.587 E18.50042
G1 X-35.229 Y-38.868 E19.23871
G1 X-35.241 Y-39.565 E19.26538
G1 X-35.233 Y-39.913 E19.27871
G1 X-35.166 Y-40.939 E19.31805
G1 X-35.027 Y-43.63 E19.42117
G1 X-34.964 Y-46.355 E19.52549
G1 X-34.979 Y-49.053 E19.62874
G1 X-35.069 Y-51.779 E19.73312
G1 X-35.236 Y-54.475 E19.83649
G1 X-35.48 Y-57.176 E19.94028
G1 X-35.777 Y-59.7 E20.03754
G1 X-35.942 Y-60.965 E20.08636
G1 X-35.973 Y-61.314 E20.09977
G1 X-36.005 Y-61.988 E20.12559
G1 X-36.548 Y-78.216 E20.74697
G1 X-36.562 Y-78.882 E20.77247
G1 X-36.534 Y-79.463 E20.79473
G1 X-36.427 Y-80.034 E20.81696
G1 X-36.243 Y-80.585 E20.83919
G1 X-35.984 Y-81.105 E20.86142
G1 X-35.657 Y-81.585 E20.88365
G1 X-35.267 Y-82.016 E20.90589
G1 X-34.822 Y-82.389 E20.92812
G1 X-34.329 Y-82.697 E20.95036
G1 X-33.799 Y-82.935 E20.9726
G1 X-33.241 Y-83.098 E20.99484
G1 X-32.609 Y-83.187 E21.01927
G1 X-32.006 Y-83.216 E21.04237
G1 X-31.279 Y-83.234 E21.0702
G1 X-30.798 Y-83.243 E21.08861
G1 X-29.857 Y-83.25 E21.12462
G1 X-29.171 Y-83.249 E21.15088
G1 X-28.415 Y-83.241 E21.17981
G1 X-28.02 Y-83.235 E21.19493
G1 X-26.971 Y-83.207 E21.23509
G1 X-26.366 Y-83.185 E21.25826
G1 X-25.738 Y-83.159 E21.28231
G1 X-25.003 Y-83.121 E21.31048
G1 X-24.406 Y-83.086 E21.33336
G1 X-23.921 Y-83.054 E21.35196
G1 X-23.244 Y-83.005 E21.37794
G1 X-22.313 Y-82.928 E21.41369
G1 X-21.759 Y-82.878 E21.43498
G1 X-20.889 Y-82.792 E21.46843
G1 X-20.092 Y-82.704 E21.49912
G1 X-19.365 Y-82.618 E21.52714
G1 X-18.548 Y-82.513 E21.55866
G1 X-18.004 Y-82.439 E21.57967
G1 X-17.229 Y-82.327 E21.60964
G1 X-16.654 Y-82.239 E21.6319
G1 X-15.776 Y-82.096 E21.66594
G1 X-15.026 Y-81.968 E21.69506
G1 X-14.421 Y-81.859 E21.71858
G1 X-13.575 Y-81.699 E21.75153
G1 X-12.952 Y-81.575 E21.77584
G1 X-12.255 Y-81.43 E21.80309
G1 X-11.417 Y-81.249 E21.8359
G1 X-10.465 Y-81.032 E21.87327
G1 X-9.794 Y-80.872 E21.89966
G1 X-9.198 Y-80.726 E21.92315
G1 X-8.179 Y-80.463 E21.96342
G1 X-7.647 Y-80.321 E21.98449
G1 X-6.846 Y-80.1 E22.01629
G1 X-6.217 Y-79.919 E22.04134
G1 X-5.087 Y-79.584 E22.08645
G1 X-4.042 Y-79.258 E22.12834
G1 X-3.375 Y-79.042 E22.15517
G1 X-2.835 Y-78.862 E22.17695
G1 X-1.996 Y-78.576 E22.21088
G1 X-1.141 Y-78.273 E22.24559
G1 X-.133 Y-77.903 E22.28668
G1 X0.609 Y-77.621 E22.31706
G1 X1.609 Y-77.228 E22.35818
G1 X2.366 Y-76.921 E22.38944
G1 X3.147 Y-76.594 E22.42184
G1 X3.79 Y-76.319 E22.44861
G1 X4.39 Y-76.057 E22.47366
G1 X5.367 Y-75.618 E22.51465
G1 X6.237 Y-75.213 E22.55138
G1 X6.957 Y-74.87 E22.5819
G1 X7.641 Y-74.537 E22.61101
G1 X8.203 Y-74.256 E22.63506
G1 X9.279 Y-73.706 E22.6813
G1 X10.177 Y-73.23 E22.7202
G1 X10.831 Y-72.875 E22.74868
G1 X11.739 Y-72.37 E22.78844
G1 X12.395 Y-71.995 E22.81736
G1 X13.184 Y-71.535 E22.85231
G1 X13.667 Y-71.248 E22.87381
G1 X14.463 Y-70.764 E22.90946
G1 X15.024 Y-70.416 E22.93472
G1 X15.515 Y-70.106 E22.95695
G1 X16.183 Y-69.677 E22.98733
G1 X17.219 Y-68.993 E23.03484
G1 X17.344 Y-68.909 E23.0406
G1 X19.657 Y-67.403 E23.14623
G1 X21.976 Y-65.985 E23.25025
G1 X24.344 Y-64.628 E23.3547
G1 X26.697 Y-63.366 E23.45688
G1 X29.138 Y-62.145 E23.56133
G1 X31.605 Y-60.997 E23.66546
G1 X34.075 Y-59.931 E23.76842
G1 X36.613 Y-58.919 E23.87298
G1 X39.13 Y-58 E23.97553
G1 X41.74 Y-57.128 E24.08084
G1 X44.27 Y-56.362 E24.182
G1 X46.947 Y-55.633 E24.28818
G1 X48.495 Y-55.248 E24.34922
G1 X49.615 Y-54.979 E24.3933
G1 X50.17 Y-54.805 E24.41556
G1 X50.695 Y-54.557 E24.43778
G1 X51.181 Y-54.239 E24.46001
G1 X51.619 Y-53.857 E24.48225
G1 X52 Y-53.419 E24.50447
G1 X52.318 Y-52.932 E24.52673
G1 X52.566 Y-52.407 E24.54895
G1 X52.739 Y-51.852 E24.57119
G1 X52.847 Y-51.138 E24.59883
G1 X52.874 Y-50.681 E24.61635
G1 X56.138 Y46.7 E28.34517
G1 X56.151 Y47.379 E28.37116
G1 X56.122 Y47.959 E28.39338
G1 X56.014 Y48.53 E28.41562
G1 X55.829 Y49.081 E28.43786
G1 X55.569 Y49.601 E28.46011
G1 X55.241 Y50.08 E28.48233
G1 X54.85 Y50.51 E28.50457
G1 X54.404 Y50.883 E28.52682
G1 X53.911 Y51.19 E28.54905
G1 X53.19 Y51.492 E28.57896
G1 X50.671 Y52.281 E28.67998
G1 X48.113 Y53.161 E28.78351
G1 X45.556 Y54.122 E28.88804
G1 X43.076 Y55.138 E28.99061
G1 X40.6 Y56.234 E29.09423
G1 X38.16 Y57.397 E29.19767
G1 X35.757 Y58.626 E29.30096
G1 X33.366 Y59.936 E29.4053
G1 X30.995 Y61.325 E29.51046
G1 X28.734 Y62.734 E29.61241
G1 X26.481 Y64.231 E29.71593
G1 X24.263 Y65.795 E29.8198
G1 X22.031 Y67.467 E29.92652
G1 X21.339 Y67.998 E29.9599
G1 X20.801 Y68.403 E29.98567
G1 X20.075 Y68.941 E30.02025
G1 X19.436 Y69.403 E30.05043
G1 X18.554 Y70.029 E30.09182
G1 X17.759 Y70.577 E30.12877
G1 X16.845 Y71.192 E30.17093
G1 X16.24 Y71.588 E30.1986
G1 X15.571 Y72.018 E30.22904
G1 X14.914 Y72.432 E30.25876
G1 X14.395 Y72.754 E30.28213
G1 X13.596 Y73.239 E30.3179
G1 X12.706 Y73.764 E30.35745
G1 X11.953 Y74.196 E30.39067
G1 X10.963 Y74.751 E30.4341
G1 X10.092 Y75.224 E30.47203
G1 X9.56 Y75.506 E30.49508
G1 X8.993 Y75.802 E30.51955
G1 X8.152 Y76.23 E30.55567
G1 X7.419 Y76.595 E30.587
G1 X6.594 Y76.993 E30.62206
G1 X5.931 Y77.305 E30.6501
G1 X5.378 Y77.561 E30.67342
G1 X4.773 Y77.835 E30.69884
G1 X4.133 Y78.119 E30.72563
G1 X3.361 Y78.452 E30.75781
G1 X2.814 Y78.682 E30.78052
G1 X2.325 Y78.885 E30.80078
G1 X1.539 Y79.204 E30.83324
G1 X0.663 Y79.548 E30.86926
G1 X-.348 Y79.93 E30.91062
G1 X-1.2 Y80.242 E30.94534
G1 X-1.67 Y80.409 E30.96443
G1 X-2.679 Y80.758 E31.00529
G1 X-3.467 Y81.02 E31.03707
G1 X-4.158 Y81.243 E31.06486
G1 X-4.754 Y81.429 E31.08875
G1 X-5.692 Y81.714 E31.12627
G1 X-6.468 Y81.94 E31.1572
G1 X-7.253 Y82.162 E31.18842
G1 X-7.822 Y82.316 E31.21098
G1 X-8.41 Y82.472 E31.23426
G1 X-9.171 Y82.666 E31.26431
G1 X-10.322 Y82.947 E31.30965
G1 X-11.381 Y83.191 E31.35124
G1 X-12.203 Y83.368 E31.38342
G1 X-13.051 Y83.544 E31.41657
G1 X-13.988 Y83.726 E31.45309
G1 X-14.763 Y83.869 E31.48325
G1 X-15.537 Y84.004 E31.51332
G1 X-15.968 Y84.077 E31.53005
G1 X-16.631 Y84.184 E31.55575
G1 X-17.405 Y84.3 E31.5857
G1 X-18.277 Y84.425 E31.61942
G1 X-19.296 Y84.557 E31.65874
G1 X-20.127 Y84.656 E31.69076
G1 X-20.713 Y84.721 E31.71333
G1 X-21.859 Y84.836 E31.7574
G1 X-22.495 Y84.893 E31.78184
G1 X-23.114 Y84.943 E31.80561
G1 X-24.127 Y85.016 E31.84448
G1 X-24.933 Y85.066 E31.87538
G1 X-25.901 Y85.114 E31.91247
G1 X-26.236 Y85.128 E31.9253
G1 X-26.871 Y85.144 E31.94961
G1 X-27.451 Y85.118 E31.97183
G1 X-28.023 Y85.014 E31.99408
G1 X-28.574 Y84.831 E32.0163
G1 X-29.096 Y84.575 E32.03855
G1 X-29.577 Y84.25 E32.06076
G1 X-30.01 Y83.862 E32.08301
G1 X-30.385 Y83.418 E32.10525
G1 X-30.695 Y82.927 E32.12748
G1 X-30.935 Y82.398 E32.14971
G1 X-31.1 Y81.841 E32.17194
G1 X-31.194 Y81.184 E32.19734
G1 X-31.227 Y80.527 E32.22251
G1 X-31.774 Y64.227 E32.84666
G1 X-31.787 Y63.532 E32.87326
G1 X-31.779 Y63.177 E32.88685
G1 X-31.71 Y62.121 E32.92735
G1 X-31.572 Y59.434 E33.03031
G1 X-31.509 Y56.705 E33.13478
G1 X-31.524 Y54.01 E33.23792
G1 X-31.615 Y51.275 E33.34264
G1 X-31.781 Y48.594 E33.44544
G1 X-32.026 Y45.882 E33.54965
G1 X-32.316 Y43.423 E33.6444
G1 X-32.488 Y42.1 E33.69546
G1 X-32.518 Y41.759 E33.70856
G1 X-32.551 Y41.075 E33.73477
G1 X-33.198 Y21.731 E34.47547
G1 X-33.211 Y21.051 E34.5015
G1 X-33.164 Y20.338 E34.52884
G1 X-32.982 Y19.138 E34.57529
G1 X-32.89 Y18.579 E34.59697
G1 X-32.524 Y15.903 E34.70033
G1 X-32.23 Y13.183 E34.80503
G1 X-32.016 Y10.495 E34.90823
G1 X-31.877 Y7.77 E35.01265
G1 X-31.816 Y5.074 E35.11585
G1 X-31.831 Y2.38 E35.21895
G0 F2040 X-31.481 Y2.367
G1 F1020 X-31.574 Y-.383 E35.32425
G1 X-31.741 Y-3.062 E35.42697
G1 X-31.985 Y-5.76 E35.53064
G1 X-32.311 Y-8.487 E35.63575
G1 X-32.707 Y-11.159 E35.73912
G1 X-33.183 Y-13.848 E35.84363
G1 X-33.734 Y-16.517 E35.94792
G1 X-33.884 Y-17.154 E35.97297
G1 X-34.112 Y-18.195 E36.01375
G1 X-34.198 Y-18.837 E36.03854
G1 X-34.234 Y-19.599 E36.06773
