;FLAVOR:Marlin
;TIME:10249
;Filament used: 10.4448m
;Layer height: 0.2
;MINX:-31.097
;MINY:-87.688
;MINZ:0.26
;MAXX:66.338
;MAXY:81.396
;MAXZ:3.46
;Generated with Cura_SteamEngine 4.8.0
M82 ;absolute extrusion mode
;Gcode by Cura
G90
G28
M107
M109 R100
G30
M109 S215 U-55 X55 V-85 Y-85 W0.26 Z0.26
M82
G92 E0
G1 F200 E6
G92 E0
G1 F200 E-3.5
G0 Z0.15
G0 X10
G0 Z3
G1 F6000
G92 E0
G92 E0
G1 F3600 E-3.8
;LAYER_COUNT:17
;LAYER:0
M107
G0 F2040 X-22.882 Y-.623 Z0.26
;TYPE:SKIRT
G1 F3600 E0
G1 F1020 X-22.712 Y-6.03 E0.20703
G1 X-22.665 Y-8.709 E0.30957
G1 X-22.695 Y-11.454 E0.41462
G1 X-22.798 Y-14.093 E0.51569
G1 X-22.984 Y-16.831 E0.62072
G1 X-23.241 Y-19.504 E0.72348
G1 X-23.574 Y-22.179 E0.82664
G1 X-23.982 Y-24.837 E0.92955
G1 X-24.47 Y-27.511 E1.03358
G1 X-25.032 Y-30.161 E1.13725
G1 X-25.651 Y-32.725 E1.23819
G1 X-26.371 Y-35.371 E1.34313
G1 X-27.663 Y-39.553 E1.51064
G1 X-27.776 Y-39.985 E1.52773
G1 X-27.858 Y-40.788 E1.55862
G1 X-27.858 Y-41.01 E1.56711
G1 X-27.847 Y-41.601 E1.58973
G1 X-27.002 Y-68.474 E2.61866
G1 X-26.969 Y-69.169 E2.64529
G1 X-26.9 Y-69.77 E2.66844
G1 X-26.753 Y-70.356 E2.69156
G1 X-26.42 Y-71.134 E2.72395
G1 X-26.056 Y-71.803 E2.75309
G1 X-25.358 Y-73.044 E2.80758
G1 X-24.09 Y-75.456 E2.91187
G1 X-22.911 Y-77.862 E3.0144
G1 X-21.785 Y-80.336 E3.11843
G1 X-20.737 Y-82.821 E3.22164
G1 X-20.167 Y-84.286 E3.2818
G1 X-19.942 Y-84.839 E3.30464
G1 X-19.677 Y-85.383 E3.3278
G1 X-19.343 Y-85.887 E3.35094
G1 X-18.946 Y-86.343 E3.37408
G1 X-18.492 Y-86.742 E3.39721
G1 X-17.989 Y-87.078 E3.42036
G1 X-17.447 Y-87.345 E3.44348
G1 X-16.874 Y-87.538 E3.46662
G1 X-16.28 Y-87.654 E3.48978
G1 X-15.561 Y-87.688 E3.51733
G1 X-14.75 Y-87.662 E3.54838
G1 X-13.711 Y-87.612 E3.58819
G1 X-12.021 Y-87.506 E3.65299
G1 X-11.065 Y-87.429 E3.68969
G1 X-9.394 Y-87.27 E3.75393
G1 X-8.425 Y-87.163 E3.79124
G1 X-6.752 Y-86.952 E3.85577
G1 X-5.776 Y-86.811 E3.89351
G1 X-4.173 Y-86.557 E3.95562
G1 X-3.134 Y-86.376 E3.99598
G1 X-1.528 Y-86.068 E4.05856
G1 X-.568 Y-85.869 E4.09608
G1 X1.062 Y-85.504 E4.16001
G1 X2.071 Y-85.261 E4.19973
G1 X3.628 Y-84.861 E4.26125
G1 X4.609 Y-84.591 E4.30018
G1 X6.18 Y-84.135 E4.36279
G1 X7.191 Y-83.823 E4.40328
G1 X8.686 Y-83.337 E4.46344
G1 X9.71 Y-82.986 E4.50486
G1 X11.211 Y-82.444 E4.56594
G1 X12.154 Y-82.089 E4.6045
G1 X13.729 Y-81.464 E4.66935
G1 X14.651 Y-81.081 E4.70755
G1 X16.131 Y-80.44 E4.76928
G1 X17.075 Y-80.014 E4.80891
G1 X18.548 Y-79.32 E4.87122
G1 X19.479 Y-78.863 E4.91091
G1 X20.921 Y-78.127 E4.97287
G1 X21.831 Y-77.645 E5.01228
G1 X23.255 Y-76.862 E5.07447
G1 X24.135 Y-76.36 E5.11324
G1 X25.58 Y-75.504 E5.17752
G1 X26.408 Y-74.996 E5.21469
G1 X27.792 Y-74.118 E5.27742
G1 X28.68 Y-73.533 E5.31811
G1 X30.004 Y-72.633 E5.37938
G1 X30.874 Y-72.02 E5.42011
G1 X32.157 Y-71.087 E5.48082
G1 X32.965 Y-70.48 E5.51949
G1 X34.296 Y-69.447 E5.58397
G1 X35.074 Y-68.823 E5.62214
G1 X36.336 Y-67.779 E5.68482
G1 X37.119 Y-67.109 E5.72425
G1 X38.338 Y-66.033 E5.78648
G1 X39.076 Y-65.361 E5.82468
G1 X40.285 Y-64.225 E5.88816
G1 X41.012 Y-63.521 E5.92689
G1 X42.186 Y-62.345 E5.99049
G1 X42.867 Y-61.641 E6.02797
G1 X44.024 Y-60.407 E6.09271
G1 X44.695 Y-59.67 E6.13085
G1 X45.761 Y-58.46 E6.19256
G1 X46.425 Y-57.682 E6.23171
G1 X47.489 Y-56.394 E6.29564
G1 X48.098 Y-55.633 E6.33294
G1 X49.139 Y-54.291 E6.39794
G1 X49.732 Y-53.499 E6.4358
G1 X50.674 Y-52.202 E6.49715
G1 X51.281 Y-51.337 E6.53759
G1 X52.183 Y-50.009 E6.59902
G1 X52.771 Y-49.113 E6.64004
G1 X53.629 Y-47.761 E6.70132
G1 X54.157 Y-46.899 E6.74
G1 X55 Y-45.47 E6.8035
G1 X55.504 Y-44.586 E6.84244
G1 X56.288 Y-43.159 E6.90475
G1 X56.769 Y-42.249 E6.94414
G1 X57.502 Y-40.809 E7.00598
G1 X57.96 Y-39.875 E7.04579
G1 X58.652 Y-38.403 E7.10803
G1 X59.057 Y-37.506 E7.1457
G1 X59.713 Y-35.988 E7.20898
G1 X60.102 Y-35.049 E7.24788
G1 X60.725 Y-33.473 E7.31273
G1 X61.069 Y-32.558 E7.35014
G1 X61.634 Y-30.988 E7.414
G1 X61.947 Y-30.072 E7.45104
G1 X62.465 Y-28.475 E7.5153
G1 X62.764 Y-27.502 E7.55425
G1 X63.22 Y-25.933 E7.61678
G1 X63.489 Y-24.946 E7.65593
G1 X63.888 Y-23.391 E7.71737
G1 X64.133 Y-22.367 E7.75766
G1 X64.484 Y-20.798 E7.81919
G1 X64.704 Y-19.732 E7.86084
G1 X64.993 Y-18.214 E7.91998
G1 X65.18 Y-17.141 E7.96166
G1 X65.427 Y-15.574 E8.02237
G1 X65.574 Y-14.538 E8.06242
G1 X65.778 Y-12.913 E8.12509
G1 X65.889 Y-11.911 E8.16367
G1 X66.044 Y-10.269 E8.22679
G1 X66.12 Y-9.296 E8.26414
G1 X66.226 Y-7.595 E8.32936
G1 X66.273 Y-6.581 E8.36821
G1 X66.322 Y-4.976 E8.42966
G1 X66.338 Y-3.983 E8.46767
G1 X66.337 Y-2.275 E8.53303
G1 X66.321 Y-1.285 E8.57092
G1 X66.271 Y0.312 E8.63207
G1 X66.22 Y1.391 E8.67341
G1 X66.118 Y2.985 E8.73454
G1 X66.038 Y4.006 E8.77373
G1 X65.881 Y5.648 E8.83685
G1 X65.77 Y6.649 E8.8754
G1 X65.564 Y8.277 E8.9382
G1 X65.416 Y9.314 E8.97828
G1 X65.168 Y10.877 E9.03885
G1 X64.98 Y11.951 E9.08057
G1 X64.69 Y13.468 E9.13968
G1 X64.469 Y14.538 E9.18149
G1 X64.125 Y16.07 E9.24158
G1 X63.87 Y17.129 E9.28327
G1 X63.47 Y18.684 E9.34471
G1 X63.201 Y19.666 E9.38368
G1 X62.744 Y21.238 E9.44633
G1 X62.432 Y22.249 E9.48682
G1 X61.946 Y23.744 E9.54698
G1 X61.595 Y24.768 E9.58841
G1 X61.053 Y26.271 E9.64955
G1 X60.694 Y27.221 E9.68842
G1 X60.075 Y28.781 E9.75264
G1 X59.708 Y29.667 E9.78935
G1 X59.037 Y31.216 E9.85395
G1 X58.622 Y32.135 E9.89254
G1 X57.927 Y33.61 E9.95494
G1 X57.472 Y34.537 E9.99446
G1 X56.736 Y35.979 E10.05641
G1 X56.254 Y36.889 E10.09582
G1 X55.504 Y38.253 E10.15539
G1 X54.969 Y39.193 E10.19678
G1 X54.113 Y40.637 E10.26102
G1 X53.587 Y41.495 E10.29954
G1 X52.735 Y42.837 E10.36037
G1 X52.126 Y43.762 E10.40276
G1 X51.262 Y45.033 E10.46157
G1 X50.63 Y45.931 E10.50359
G1 X49.693 Y47.218 E10.56452
G1 X49.096 Y48.014 E10.6026
G1 X48.053 Y49.358 E10.6677
G1 X47.442 Y50.121 E10.70511
G1 X46.381 Y51.402 E10.76876
G1 X45.753 Y52.137 E10.80576
G1 X44.607 Y53.435 E10.87203
G1 X43.944 Y54.162 E10.90968
G1 X42.851 Y55.325 E10.97076
G1 X42.141 Y56.058 E11.00981
G1 X40.948 Y57.249 E11.07432
G1 X40.246 Y57.929 E11.11173
G1 X39.024 Y59.076 E11.17587
G1 X38.302 Y59.733 E11.21322
G1 X37.038 Y60.846 E11.27768
G1 X36.3 Y61.476 E11.31481
G1 X35 Y62.55 E11.37934
G1 X34.194 Y63.194 E11.41882
G1 X32.96 Y64.151 E11.47859
G1 X32.123 Y64.78 E11.51865
G1 X30.779 Y65.755 E11.5822
G1 X29.939 Y66.344 E11.62146
G1 X28.632 Y67.233 E11.68195
G1 X27.716 Y67.834 E11.72388
G1 X26.377 Y68.682 E11.78453
G1 X25.519 Y69.207 E11.82303
G1 X24.069 Y70.064 E11.88749
G1 X23.195 Y70.562 E11.92598
G1 X21.768 Y71.346 E11.98829
G1 X20.858 Y71.827 E12.02768
G1 X19.418 Y72.56 E12.08952
G1 X18.48 Y73.02 E12.1295
G1 X17.01 Y73.71 E12.19165
G1 X16.064 Y74.137 E12.23137
G1 X14.589 Y74.774 E12.29285
G1 X13.659 Y75.16 E12.33139
G1 X12.082 Y75.783 E12.39628
G1 X11.151 Y76.134 E12.43435
G1 X9.641 Y76.678 E12.49578
G1 X8.617 Y77.027 E12.53718
G1 X7.121 Y77.512 E12.59736
G1 X6.111 Y77.822 E12.63779
G1 X4.542 Y78.278 E12.70032
G1 X3.556 Y78.547 E12.73944
G1 X2.008 Y78.944 E12.80059
G1 X0.976 Y79.191 E12.8412
G1 X-.593 Y79.542 E12.90273
G1 X-1.659 Y79.762 E12.94439
G1 X-3.178 Y80.051 E13.00356
G1 X-4.25 Y80.237 E13.0452
G1 X-5.817 Y80.485 E13.10592
G1 X-6.853 Y80.632 E13.14596
G1 X-8.478 Y80.836 E13.20864
G1 X-9.481 Y80.947 E13.24725
G1 X-11.127 Y81.102 E13.31052
G1 X-12.14 Y81.181 E13.34941
G1 X-13.743 Y81.282 E13.41088
G1 X-14.82 Y81.332 E13.45214
G1 X-16.409 Y81.38 E13.51298
G1 X-17.407 Y81.396 E13.55117
G1 X-19.113 Y81.395 E13.61646
G1 X-20.132 Y81.379 E13.65546
G1 X-20.867 Y81.357 E13.6836
G1 X-21.469 Y81.299 E13.70675
G1 X-22.058 Y81.162 E13.72989
G1 X-22.623 Y80.949 E13.753
G1 X-23.156 Y80.663 E13.77615
G1 X-23.646 Y80.309 E13.79928
G1 X-24.086 Y79.893 E13.82245
G1 X-24.467 Y79.424 E13.84558
G1 X-24.782 Y78.908 E13.86871
G1 X-25.067 Y78.242 E13.89644
G1 X-25.208 Y77.82 E13.91347
G1 X-25.809 Y75.944 E13.98885
G1 X-26.701 Y73.413 E14.09155
G1 X-27.665 Y70.902 E14.19449
G1 X-28.715 Y68.384 E14.29889
G1 X-29.829 Y65.912 E14.40266
G1 X-30.53 Y64.46 E14.46436
G1 X-30.674 Y64.149 E14.47748
G1 X-30.891 Y63.585 E14.5006
G1 X-31.032 Y62.997 E14.52374
G1 X-31.097 Y62.286 E14.55107
G1 X-31.097 Y62.064 E14.55956
G1 X-31.086 Y61.473 E14.58218
G1 X-30.241 Y34.6 E15.61111
G1 X-30.208 Y33.903 E15.63781
G1 X-30.139 Y33.302 E15.66096
G1 X-29.992 Y32.715 E15.68412
G1 X-29.841 Y32.308 E15.70073
G1 X-28.828 Y29.699 E15.80784
G1 X-27.944 Y27.221 E15.90853
G1 X-27.095 Y24.61 E16.0136
G1 X-26.336 Y22.03 E16.11652
G1 X-25.654 Y19.438 E16.21909
G1 X-25.032 Y16.778 E16.32363
G1 X-24.496 Y14.139 E16.42669
G1 X-24.032 Y11.481 E16.52994
G1 X-23.646 Y8.825 E16.63266
G1 X-23.332 Y6.133 E16.73638
G1 X-23.099 Y3.488 E16.83799
G1 X-22.882 Y-.623 E16.99554
G0 F2040 X-22.533 Y-.594
G1 F1020 X-22.362 Y-6.019 E17.20325
G1 X-22.315 Y-8.714 E17.3064
G1 X-22.344 Y-11.437 E17.41062
G1 X-22.452 Y-14.166 E17.51514
G1 X-22.631 Y-16.816 E17.61678
G1 X-22.894 Y-19.55 E17.72189
G1 X-23.228 Y-22.236 E17.82548
G1 X-23.641 Y-24.919 E17.92936
G1 X-24.125 Y-27.571 E18.03253
G1 X-24.685 Y-30.213 E18.13588
G1 X-25.317 Y-32.83 E18.23892
G1 X-26.028 Y-35.447 E18.3427
G1 X-27.324 Y-39.64 E18.51065
G1 X-27.437 Y-40.073 E18.52778
G1 X-27.508 Y-40.792 E18.55543
G1 X-27.508 Y-41.003 E18.5635
G1 X-27.497 Y-41.59 E18.58597
G1 X-26.652 Y-68.457 E19.61467
G1 X-26.619 Y-69.152 E19.64129
G1 X-26.552 Y-69.729 E19.66352
G1 X-26.406 Y-70.292 E19.68578
G1 X-26.112 Y-70.967 E19.71396
G1 X-25.751 Y-71.632 E19.74291
G1 X-25.049 Y-72.88 E19.79771
G1 X-23.779 Y-75.296 E19.90217
G1 X-22.585 Y-77.734 E20.00606
G1 X-21.477 Y-80.167 E20.10837
G1 X-20.413 Y-82.689 E20.21312
G1 X-19.842 Y-84.154 E20.27329
G1 X-19.617 Y-84.707 E20.29614
G1 X-19.362 Y-85.229 E20.31837
G1 X-19.037 Y-85.711 E20.34062
G1 X-18.65 Y-86.144 E20.36285
G1 X-18.206 Y-86.519 E20.38509
G1 X-17.716 Y-86.83 E20.4073
G1 X-17.187 Y-87.071 E20.42954
G1 X-16.63 Y-87.237 E20.45179
G1 X-16.056 Y-87.325 E20.47401
G1 X-15.572 Y-87.338 E20.49254
G1 X-14.767 Y-87.312 E20.52336
G1 X-13.733 Y-87.263 E20.56298
G1 X-12.049 Y-87.157 E20.62755
G1 X-11.098 Y-87.08 E20.66406
G1 X-9.432 Y-86.923 E20.7281
G1 X-8.469 Y-86.816 E20.76518
G1 X-6.801 Y-86.605 E20.82953
G1 X-5.831 Y-86.465 E20.86703
G1 X-4.233 Y-86.212 E20.92895
G1 X-3.2 Y-86.032 E20.96908
G1 X-1.598 Y-85.725 E21.0315
G1 X-.644 Y-85.527 E21.06879
G1 X0.981 Y-85.164 E21.13251
G1 X1.984 Y-84.922 E21.17199
G1 X3.535 Y-84.523 E21.23328
G1 X4.512 Y-84.255 E21.27205
G1 X6.077 Y-83.8 E21.33442
G1 X7.083 Y-83.49 E21.37471
G1 X8.573 Y-83.006 E21.43466
G1 X9.592 Y-82.657 E21.47588
G1 X11.088 Y-82.117 E21.53675
G1 X12.026 Y-81.763 E21.57512
G1 X13.595 Y-81.141 E21.63971
G1 X14.512 Y-80.76 E21.67771
G1 X15.987 Y-80.121 E21.73923
G1 X16.926 Y-79.697 E21.77866
G1 X18.394 Y-79.006 E21.84075
G1 X19.32 Y-78.551 E21.88023
G1 X20.758 Y-77.818 E21.942
G1 X21.663 Y-77.338 E21.98121
G1 X23.082 Y-76.557 E22.04319
G1 X23.956 Y-76.059 E22.08169
G1 X25.397 Y-75.205 E22.14579
G1 X26.22 Y-74.7 E22.18275
G1 X27.6 Y-73.825 E22.24528
G1 X28.483 Y-73.244 E22.28573
G1 X29.802 Y-72.347 E22.34677
G1 X30.668 Y-71.737 E22.38731
G1 X31.947 Y-70.807 E22.44783
G1 X32.75 Y-70.204 E22.48626
G1 X34.077 Y-69.174 E22.55055
G1 X34.851 Y-68.553 E22.58852
G1 X36.108 Y-67.513 E22.65096
G1 X36.887 Y-66.846 E22.6902
G1 X38.103 Y-65.774 E22.75224
G1 X38.837 Y-65.105 E22.79025
G1 X40.041 Y-63.974 E22.85347
G1 X40.765 Y-63.273 E22.89203
G1 X41.935 Y-62.101 E22.95541
G1 X42.612 Y-61.401 E22.99268
G1 X43.765 Y-60.172 E23.05717
G1 X44.432 Y-59.439 E23.09509
G1 X45.495 Y-58.232 E23.15664
G1 X46.156 Y-57.459 E23.19557
G1 X47.216 Y-56.175 E23.25929
G1 X47.822 Y-55.418 E23.2964
G1 X48.859 Y-54.081 E23.36115
G1 X49.449 Y-53.293 E23.39882
G1 X50.388 Y-52.001 E23.45995
G1 X50.992 Y-51.14 E23.50019
G1 X51.891 Y-49.817 E23.56141
G1 X52.476 Y-48.925 E23.60223
G1 X53.33 Y-47.578 E23.66327
G1 X53.855 Y-46.72 E23.70176
G1 X54.696 Y-45.296 E23.76505
G1 X55.197 Y-44.418 E23.80374
G1 X55.979 Y-42.995 E23.86588
G1 X56.457 Y-42.091 E23.90501
G1 X57.188 Y-40.654 E23.96671
G1 X57.643 Y-39.726 E24.00626
G1 X58.333 Y-38.259 E24.0683
G1 X58.765 Y-37.299 E24.10859
G1 X59.389 Y-35.854 E24.16883
G1 X59.776 Y-34.921 E24.20748
G1 X60.398 Y-33.35 E24.27214
G1 X60.74 Y-32.44 E24.30935
G1 X61.303 Y-30.875 E24.373
G1 X61.614 Y-29.964 E24.40984
G1 X62.131 Y-28.372 E24.47389
G1 X62.428 Y-27.405 E24.51261
G1 X62.882 Y-25.84 E24.57497
G1 X63.15 Y-24.859 E24.61389
G1 X63.547 Y-23.309 E24.67512
G1 X63.791 Y-22.29 E24.71522
G1 X64.142 Y-20.727 E24.77652
G1 X64.36 Y-19.666 E24.81797
G1 X64.648 Y-18.154 E24.87688
G1 X64.834 Y-17.087 E24.91833
G1 X65.081 Y-15.524 E24.97889
G1 X65.227 Y-14.494 E25.0187
G1 X65.43 Y-12.875 E25.08114
G1 X65.54 Y-11.878 E25.11953
G1 X65.695 Y-10.241 E25.18245
G1 X65.771 Y-9.274 E25.21957
G1 X65.876 Y-7.579 E25.28457
G1 X65.923 Y-6.57 E25.32322
G1 X65.972 Y-4.97 E25.38448
G1 X65.988 Y-3.983 E25.42226
G1 X65.987 Y-2.28 E25.48743
G1 X65.971 Y-1.296 E25.52509
G1 X65.921 Y0.296 E25.58605
G1 X65.871 Y1.369 E25.62716
G1 X65.769 Y2.957 E25.68805
G1 X65.689 Y3.973 E25.72706
G1 X65.533 Y5.609 E25.78995
G1 X65.423 Y6.605 E25.8283
G1 X65.218 Y8.227 E25.89086
G1 X65.071 Y9.259 E25.93076
G1 X64.823 Y10.817 E25.99113
G1 X64.636 Y11.885 E26.03263
G1 X64.348 Y13.397 E26.09153
G1 X64.127 Y14.461 E26.13312
G1 X63.785 Y15.989 E26.19304
G1 X63.531 Y17.042 E26.23449
G1 X63.133 Y18.592 E26.29574
G1 X62.865 Y19.569 E26.33451
G1 X62.409 Y21.135 E26.39692
G1 X62.099 Y22.141 E26.43721
G1 X61.615 Y23.631 E26.49717
G1 X61.266 Y24.65 E26.53839
G1 X60.725 Y26.147 E26.5993
G1 X60.369 Y27.092 E26.63795
G1 X59.752 Y28.647 E26.70197
G1 X59.387 Y29.528 E26.73846
G1 X58.718 Y31.072 E26.80286
G1 X58.305 Y31.986 E26.84124
G1 X57.613 Y33.455 E26.90339
G1 X57.16 Y34.378 E26.94273
G1 X56.427 Y35.816 E27.0045
G1 X55.947 Y36.721 E27.04371
G1 X55.167 Y38.138 E27.10561
G1 X54.668 Y39.014 E27.14419
G1 X53.814 Y40.455 E27.20829
G1 X53.291 Y41.308 E27.24658
G1 X52.442 Y42.645 E27.30719
G1 X51.837 Y43.565 E27.34933
G1 X50.976 Y44.831 E27.40793
G1 X50.347 Y45.725 E27.44976
G1 X49.413 Y47.009 E27.51052
G1 X48.82 Y47.799 E27.54832
G1 X47.78 Y49.139 E27.61324
G1 X47.172 Y49.897 E27.65042
G1 X46.115 Y51.175 E27.71389
G1 X45.49 Y51.905 E27.75067
G1 X44.349 Y53.199 E27.81669
G1 X43.689 Y53.922 E27.85416
G1 X42.599 Y55.082 E27.91507
G1 X41.893 Y55.811 E27.95391
G1 X40.704 Y56.998 E28.01821
G1 X40.007 Y57.673 E28.05534
G1 X38.789 Y58.817 E28.11929
G1 X38.071 Y59.47 E28.15643
G1 X36.81 Y60.58 E28.22072
G1 X36.076 Y61.206 E28.25764
G1 X34.782 Y62.277 E28.32192
G1 X33.979 Y62.918 E28.36124
G1 X32.75 Y63.871 E28.42076
G1 X31.918 Y64.497 E28.4606
G1 X30.578 Y65.469 E28.52396
G1 X29.742 Y66.054 E28.563
G1 X28.44 Y66.94 E28.62327
G1 X27.529 Y67.538 E28.66498
G1 X26.195 Y68.383 E28.72541
G1 X25.34 Y68.906 E28.76377
G1 X23.896 Y69.76 E28.82797
G1 X23.027 Y70.255 E28.86624
G1 X21.604 Y71.037 E28.92838
G1 X20.7 Y71.515 E28.96751
G1 X19.264 Y72.246 E29.02918
G1 X18.331 Y72.703 E29.06894
G1 X16.866 Y73.391 E29.13088
G1 X15.925 Y73.816 E29.17039
G1 X14.455 Y74.451 E29.23167
G1 X13.531 Y74.834 E29.26995
G1 X11.959 Y75.456 E29.33465
G1 X11.032 Y75.804 E29.37254
G1 X9.527 Y76.347 E29.43377
G1 X8.509 Y76.694 E29.47493
G1 X7.019 Y77.178 E29.53489
G1 X6.013 Y77.486 E29.57515
G1 X4.449 Y77.94 E29.63747
G1 X3.468 Y78.208 E29.67639
G1 X1.927 Y78.604 E29.73728
G1 X0.899 Y78.849 E29.77772
G1 X-.664 Y79.2 E29.83903
G1 X-1.725 Y79.418 E29.88048
G1 X-3.238 Y79.706 E29.93942
G1 X-4.305 Y79.892 E29.98087
G1 X-5.867 Y80.139 E30.04139
G1 X-6.897 Y80.285 E30.0812
G1 X-8.517 Y80.488 E30.14368
G1 X-9.514 Y80.598 E30.18207
G1 X-11.154 Y80.753 E30.24511
G1 X-12.162 Y80.832 E30.28381
G1 X-13.759 Y80.932 E30.34504
G1 X-14.831 Y80.982 E30.38611
G1 X-16.414 Y81.03 E30.44672
G1 X-17.407 Y81.046 E30.48473
G1 X-19.107 Y81.045 E30.54978
G1 X-20.121 Y81.029 E30.58859
G1 X-20.856 Y81.007 E30.61674
G1 X-21.435 Y80.95 E30.639
G1 X-21.999 Y80.814 E30.6612
G1 X-22.54 Y80.601 E30.68345
G1 X-23.047 Y80.317 E30.70569
G1 X-23.51 Y79.966 E30.72793
G1 X-23.92 Y79.554 E30.75017
G1 X-24.27 Y79.09 E30.77241
G1 X-24.553 Y78.583 E30.79464
G1 X-24.856 Y77.77 E30.82784
G1 X-25.487 Y75.804 E30.90686
G1 X-26.376 Y73.282 E31.00919
G1 X-27.34 Y70.771 E31.11213
G1 X-28.393 Y68.248 E31.21675
G1 X-29.508 Y65.772 E31.32067
