;FLAVOR:Marlin
;TIME:31365
;Filament used: 44.839m
;Layer height: 0.3
;MINX:-45.267
;MINY:-62.652
;MINZ:0.26
;MAXX:45.264
;MAXY:62.652
;MAXZ:194.96
;Generated with Cura_SteamEngine 4.9.1
M82 ;absolute extrusion mode
;Gcode by Cura
G90
G28
M107
M109 R100
G30
M109 S215 U-55 X55 V-85 Y-85 W0.26 Z0.26
M82
G92 E0
G1 F200 E6
G92 E0
G1 F200 E-3.5
G0 Z0.15
G0 X10
G0 Z3
G1 F6000
G92 E0
G92 E0
G1 F3600 E-3.8
;LAYER_COUNT:650
;LAYER:0
M107
G0 F2040 X-44.364 Y42.739 Z0.26
;TYPE:SKIRT
G1 F3600 E0
G1 F1020 X14.877 Y-59.866 E4.53414
G1 X15.21 Y-60.424 E4.559
G1 X15.554 Y-60.922 E4.58217
G1 X15.96 Y-61.37 E4.6053
G1 X16.422 Y-61.761 E4.62847
G1 X16.931 Y-62.087 E4.6516
G1 X17.478 Y-62.343 E4.67471
G1 X18.055 Y-62.525 E4.69787
G1 X18.651 Y-62.629 E4.72102
G1 X19.309 Y-62.652 E4.74622
G1 X19.524 Y-62.644 E4.75445
G1 X20.126 Y-62.581 E4.77761
G1 X20.713 Y-62.44 E4.80072
G1 X21.278 Y-62.223 E4.82388
G1 X21.591 Y-62.063 E4.83733
G1 X22.097 Y-61.779 E4.85954
G1 X42.437 Y-50.034 E5.75839
G1 X43.024 Y-49.685 E5.78453
G1 X43.522 Y-49.343 E5.80765
G1 X43.971 Y-48.937 E5.83081
G1 X44.362 Y-48.476 E5.85394
G1 X44.689 Y-47.968 E5.87707
G1 X44.946 Y-47.421 E5.90019
G1 X45.129 Y-46.844 E5.92336
G1 X45.234 Y-46.249 E5.94648
G1 X45.264 Y-45.603 E5.97123
G1 X45.232 Y-44.999 E5.99438
G1 X45.121 Y-44.405 E6.0175
G1 X44.933 Y-43.83 E6.04065
G1 X44.68 Y-43.302 E6.06306
G1 X44.387 Y-42.781 E6.08594
G1 X-14.845 Y59.811 E10.61947
G1 X-15.21 Y60.423 E10.64674
G1 X-15.553 Y60.921 E10.66988
G1 X-15.959 Y61.369 E10.69302
G1 X-16.421 Y61.76 E10.71618
G1 X-16.93 Y62.086 E10.73931
G1 X-17.477 Y62.343 E10.76244
G1 X-18.054 Y62.524 E10.78558
G1 X-18.649 Y62.629 E10.80871
G1 X-19.309 Y62.652 E10.83398
G1 X-19.524 Y62.644 E10.84221
G1 X-20.126 Y62.581 E10.86538
G1 X-20.713 Y62.44 E10.88848
G1 X-21.278 Y62.223 E10.91164
G1 X-21.589 Y62.064 E10.92501
G1 X-22.11 Y61.772 E10.94787
G1 X-42.445 Y50.029 E11.84651
G1 X-43.038 Y49.675 E11.87294
G1 X-43.536 Y49.332 E11.89609
G1 X-43.984 Y48.926 E11.91922
G1 X-44.374 Y48.464 E11.94236
G1 X-44.7 Y47.955 E11.96549
G1 X-44.956 Y47.407 E11.98864
G1 X-45.138 Y46.83 E12.01179
G1 X-45.242 Y46.235 E12.03491
G1 X-45.267 Y45.659 E12.05697
G1 X-45.263 Y45.451 E12.06494
G1 X-45.212 Y44.849 E12.08806
G1 X-45.081 Y44.258 E12.11122
G1 X-44.874 Y43.69 E12.13436
G1 X-44.68 Y43.302 E12.15096
G1 X-44.364 Y42.739 E12.17567
G0 F2040 X-44.061 Y42.914
G1 F1020 X15.178 Y-59.687 E16.70963
G1 X15.511 Y-60.245 E16.7345
G1 X15.842 Y-60.722 E16.75672
G1 X16.236 Y-61.15 E16.77898
G1 X16.685 Y-61.519 E16.80122
G1 X17.18 Y-61.823 E16.82345
G1 X17.712 Y-62.057 E16.8457
G1 X18.271 Y-62.215 E16.86793
G1 X18.846 Y-62.295 E16.89014
G1 X19.511 Y-62.294 E16.91559
G1 X20.089 Y-62.233 E16.93784
G1 X20.653 Y-62.092 E16.96008
G1 X21.42 Y-61.758 E16.9921
G1 X21.922 Y-61.476 E17.01413
G1 X42.258 Y-49.734 E17.9128
G1 X42.845 Y-49.385 E17.93893
G1 X43.323 Y-49.054 E17.96118
G1 X43.751 Y-48.661 E17.98342
G1 X44.121 Y-48.213 E18.00566
G1 X44.426 Y-47.719 E18.02787
G1 X44.66 Y-47.187 E18.05012
G1 X44.819 Y-46.628 E18.07236
G1 X44.911 Y-45.812 E18.10378
G1 X44.914 Y-45.598 E18.11197
G1 X44.882 Y-45.018 E18.1342
G1 X44.771 Y-44.448 E18.15643
G1 X44.582 Y-43.898 E18.17868
G1 X44.375 Y-43.473 E18.19677
G1 X44.084 Y-42.956 E18.21948
G1 X-15.145 Y59.632 E22.75282
G1 X-15.51 Y60.244 E22.78009
G1 X-15.842 Y60.722 E22.80236
G1 X-16.235 Y61.149 E22.82457
G1 X-16.684 Y61.518 E22.84681
G1 X-17.179 Y61.823 E22.86906
G1 X-17.711 Y62.056 E22.89129
G1 X-18.27 Y62.215 E22.91353
G1 X-18.845 Y62.295 E22.93575
G1 X-19.511 Y62.294 E22.96124
G1 X-20.089 Y62.233 E22.98348
G1 X-20.653 Y62.092 E23.00573
G1 X-21.418 Y61.759 E23.03766
G1 X-21.935 Y61.469 E23.06034
G1 X-42.266 Y49.729 E23.9588
G1 X-42.859 Y49.375 E23.98523
G1 X-43.336 Y49.043 E24.00747
G1 X-43.763 Y48.65 E24.02968
G1 X-44.132 Y48.201 E24.05192
G1 X-44.436 Y47.706 E24.07415
G1 X-44.67 Y47.174 E24.0964
G1 X-44.828 Y46.615 E24.11863
G1 X-44.908 Y46.039 E24.14088
G1 X-44.913 Y45.458 E24.16312
G1 X-44.862 Y44.879 E24.18536
G1 X-44.732 Y44.313 E24.20758
G1 X-44.526 Y43.77 E24.22981
G1 X-44.374 Y43.473 E24.24258
G1 X-44.061 Y42.914 E24.2671
G0 F2040 X-43.758 Y43.089
G1 F1020 X15.478 Y-59.508 E28.80087
G1 X15.811 Y-60.066 E28.82574
G1 X16.13 Y-60.522 E28.84704
G1 X16.511 Y-60.928 E28.86834
G1 X16.946 Y-61.275 E28.88964
G1 X17.426 Y-61.556 E28.91092
G1 X17.941 Y-61.765 E28.93219
G1 X18.482 Y-61.899 E28.95352
G1 X19.283 Y-61.952 E28.98424
G1 X19.498 Y-61.944 E28.99248
G1 X20.051 Y-61.884 E29.01377
G1 X20.59 Y-61.745 E29.03507
G1 X21.248 Y-61.452 E29.06263
G1 X21.747 Y-61.173 E29.08451
G1 X42.079 Y-49.433 E29.983
G1 X42.666 Y-49.084 E30.00914
G1 X43.123 Y-48.766 E30.03045
G1 X43.529 Y-48.386 E30.05173
G1 X43.877 Y-47.951 E30.07305
G1 X44.159 Y-47.472 E30.09432
G1 X44.369 Y-46.957 E30.1156
G1 X44.504 Y-46.417 E30.1369
G1 X44.561 Y-45.807 E30.16035
G1 X44.564 Y-45.593 E30.16854
G1 X44.531 Y-45.038 E30.18982
G1 X44.42 Y-44.493 E30.2111
G1 X44.232 Y-43.969 E30.23241
G1 X44.069 Y-43.644 E30.24632
G1 X43.781 Y-43.131 E30.26884
G1 X-15.446 Y59.453 E34.80201
G1 X-15.811 Y60.065 E34.82928
G1 X-16.13 Y60.521 E34.85058
G1 X-16.51 Y60.927 E34.87186
G1 X-16.945 Y61.274 E34.89315
G1 X-17.425 Y61.555 E34.91444
G1 X-17.94 Y61.765 E34.93572
G1 X-18.481 Y61.899 E34.95705
G1 X-19.283 Y61.952 E34.98781
G1 X-19.498 Y61.944 E34.99604
G1 X-20.051 Y61.884 E35.01733
G1 X-20.59 Y61.745 E35.03863
G1 X-21.247 Y61.453 E35.06615
G1 X-21.76 Y61.166 E35.08864
G1 X-42.086 Y49.428 E35.9869
G1 X-42.679 Y49.074 E36.01333
G1 X-43.135 Y48.755 E36.03463
G1 X-43.541 Y48.375 E36.05591
G1 X-43.888 Y47.94 E36.0772
G1 X-44.169 Y47.459 E36.09852
G1 X-44.378 Y46.944 E36.11979
G1 X-44.512 Y46.404 E36.14108
G1 X-44.567 Y45.672 E36.16918
G1 X-44.563 Y45.464 E36.17714
G1 X-44.513 Y44.91 E36.19842
G1 X-44.383 Y44.369 E36.21972
G1 X-44.069 Y43.644 E36.24995
G1 X-43.758 Y43.089 E36.2743
G0 F2040 X-43.455 Y43.264
G1 F1020 X15.779 Y-59.328 E40.80787
G1 X16.112 Y-59.886 E40.83274
G1 X16.418 Y-60.32 E40.85306
G1 X16.785 Y-60.703 E40.87336
G1 X17.205 Y-61.027 E40.89366
G1 X17.669 Y-61.284 E40.91396
G1 X18.167 Y-61.468 E40.93428
G1 X18.687 Y-61.576 E40.9546
G1 X19.27 Y-61.603 E40.97694
G1 X19.485 Y-61.595 E40.98517
G1 X20.012 Y-61.535 E41.00547
G1 X20.525 Y-61.397 E41.0258
G1 X21.077 Y-61.147 E41.04899
G1 X21.572 Y-60.87 E41.0707
G1 X41.9 Y-49.132 E41.96902
G1 X42.487 Y-48.783 E41.99516
G1 X42.922 Y-48.478 E42.01549
G1 X43.306 Y-48.112 E42.03579
G1 X43.63 Y-47.692 E42.05609
G1 X43.888 Y-47.228 E42.07641
G1 X44.073 Y-46.73 E42.09674
G1 X44.181 Y-46.211 E42.11702
G1 X44.214 Y-45.588 E42.1409
G1 X44.181 Y-45.059 E42.16118
G1 X44.069 Y-44.54 E42.1815
G1 X43.764 Y-43.815 E42.2116
G1 X43.478 Y-43.306 E42.23395
G1 X-15.747 Y59.274 E46.76695
G1 X-16.112 Y59.886 E46.79422
G1 X-16.417 Y60.32 E46.81452
G1 X-16.784 Y60.703 E46.83482
G1 X-17.204 Y61.027 E46.85512
G1 X-17.669 Y61.284 E46.87545
G1 X-18.166 Y61.468 E46.89573
G1 X-18.686 Y61.576 E46.91606
G1 X-19.27 Y61.603 E46.93843
G1 X-19.485 Y61.595 E46.94666
G1 X-20.012 Y61.535 E46.96696
G1 X-20.525 Y61.397 E46.98729
G1 X-21.076 Y61.148 E47.01043
G1 X-21.585 Y60.863 E47.03276
G1 X-41.907 Y49.128 E47.93082
G1 X-42.5 Y48.774 E47.95725
G1 X-42.934 Y48.468 E47.97757
G1 X-43.317 Y48.101 E47.99787
G1 X-43.64 Y47.68 E48.01818
G1 X-43.897 Y47.216 E48.03848
G1 X-44.082 Y46.718 E48.05881
G1 X-44.189 Y46.199 E48.07909
G1 X-44.217 Y45.679 E48.09902
G1 X-44.213 Y45.471 E48.10698
G1 X-44.163 Y44.943 E48.12728
G1 X-44.034 Y44.428 E48.1476
G1 X-43.764 Y43.815 E48.17323
G1 X-43.455 Y43.264 E48.19741
G0 F2040 X-43.152 Y43.439
G1 F1020 X16.08 Y-59.149 E52.73081
G1 X16.413 Y-59.707 E52.75567
G1 X16.704 Y-60.118 E52.77495
G1 X17.057 Y-60.477 E52.79421
G1 X17.462 Y-60.776 E52.81348
G1 X17.909 Y-61.007 E52.83273
G1 X18.388 Y-61.165 E52.85204
G1 X18.885 Y-61.245 E52.8713
G1 X19.472 Y-61.245 E52.89377
G1 X19.972 Y-61.186 E52.91303
G1 X20.457 Y-61.049 E52.93232
G1 X20.906 Y-60.842 E52.95124
G1 X21.397 Y-60.567 E52.97278
G1 X41.722 Y-48.831 E53.87096
G1 X42.309 Y-48.482 E53.8971
G1 X42.72 Y-48.191 E53.91637
G1 X43.08 Y-47.839 E53.93564
G1 X43.379 Y-47.434 E53.9549
G1 X43.611 Y-46.987 E53.97418
G1 X43.77 Y-46.509 E53.99346
G1 X43.861 Y-45.798 E54.02089
G1 X43.864 Y-45.584 E54.02908
G1 X43.831 Y-45.081 E54.04837
G1 X43.719 Y-44.59 E54.06764
G1 X43.459 Y-43.987 E54.09277
G1 X43.175 Y-43.481 E54.11498
G1 X-16.047 Y59.094 E58.64776
G1 X-16.412 Y59.706 E58.67503
G1 X-16.704 Y60.117 E58.69432
G1 X-17.056 Y60.476 E58.71356
G1 X-17.461 Y60.776 E58.73285
G1 X-17.909 Y61.007 E58.75214
G1 X-18.387 Y61.165 E58.77141
G1 X-18.884 Y61.245 E58.79067
G1 X-19.472 Y61.245 E58.81317
G1 X-19.972 Y61.186 E58.83244
G1 X-20.457 Y61.049 E58.85173
G1 X-20.905 Y60.842 E58.87061
G1 X-21.41 Y60.56 E58.89275
G1 X-41.727 Y48.827 E59.79061
G1 X-42.32 Y48.473 E59.81704
G1 X-42.731 Y48.182 E59.83631
G1 X-43.09 Y47.829 E59.85558
G1 X-43.389 Y47.424 E59.87485
G1 X-43.62 Y46.976 E59.89414
G1 X-43.778 Y46.498 E59.9134
G1 X-43.858 Y46.001 E59.93267
G1 X-43.863 Y45.478 E59.95268
G1 X-43.814 Y44.977 E59.97195
G1 X-43.686 Y44.49 E59.99122
G1 X-43.459 Y43.987 E60.01234
G1 X-43.152 Y43.439 E60.03637
G0 F2040 X-40.551 Y45.638
;TYPE:SUPPORT
G1 F1020 X19.249 Y-57.938 E64.61339
G1 X40.551 Y-45.638 E65.55474
G1 X-19.249 Y57.938 E70.13176
G1 X-40.551 Y45.638 E71.07311
G0 F2040 X-28.453 Y41.581
G1 F1020 X-28.225 Y42.42 E71.10639
G1 X-22.622 Y45.656 E71.354
G1 X-21.783 Y45.428 E71.38728
G1 X28.453 Y-41.581 E75.23222
G1 X28.225 Y-42.42 E75.26549
G1 X22.622 Y-45.656 E75.5131
G1 X21.783 Y-45.428 E75.54638
G1 X-28.453 Y41.581 E79.39132
G0 F2040 X-28.484 Y41.994
G1 F1020 X-38.284 Y41.994 E79.76636
G0 F2040 X-37.328 Y40.337
G1 F1020 X-37.328 Y47.337 E80.03424
G0 F2040 X-38.501 Y46.66
G1 F1020 X-12.899 Y46.66 E81.01402
G0 F2040 X-13.998 Y48.563
G1 F1020 X-13.998 Y32.223 E81.63934
G0 F2040 X-14.25 Y32.662
G1 F1020 X-4.818 Y32.662 E82.0003
G0 F2040 X-4.666 Y32.4
G1 F1020 X-4.666 Y16.06 E82.62563
G0 F2040 X-4.821 Y16.331
G1 F1020 X4.61 Y16.331 E82.98655
G0 F2040 X4.666 Y16.236
G1 F1020 X4.666 Y-.103 E83.61183
G0 F2040 X4.607 Y0.00
G1 F1020 X14.039 Y0.00 E83.97279
G0 F2040 X13.998 Y0.072
G1 F1020 X13.998 Y-16.266 E84.59804
G0 F2040 X14.036 Y-16.331
G1 F1020 X23.468 Y-16.33 E84.959
G0 F2040 X23.33 Y-16.091
G1 F1020 X23.33 Y-32.43 E85.58428
G0 F2040 X23.464 Y-32.662
G1 F1020 X32.896 Y-32.661 E85.94524
G0 F2040 X32.662 Y-32.255
G1 F1020 X32.662 Y-50.031 E86.62552
G0 F2040 X34.46 Y-48.993
G1 F1020 X14.246 Y-48.993 E87.3991
G0 F2040 X13.998 Y-48.563
G1 F1020 X13.998 Y-32.223 E88.02442
G0 F2040 X14.25 Y-32.662
G1 F1020 X4.818 Y-32.662 E88.38538
G0 F2040 X4.666 Y-32.4
G1 F1020 X4.666 Y-16.06 E89.0107
G0 F2040 X4.821 Y-16.331
G1 F1020 X-4.61 Y-16.331 E89.37162
G0 F2040 X-4.666 Y-16.236
G1 F1020 X-4.666 Y0.103 E89.99691
G0 F2040 X-4.607 Y0.00
G1 F1020 X-14.039 Y0.00 E90.35787
G0 F2040 X-13.998 Y-0.072
G1 F1020 X-13.998 Y16.266 E90.98312
G0 F2040 X-14.036 Y16.331
G1 F1020 X-23.468 Y16.33 E91.34407
G0 F2040 X-23.33 Y16.091
G1 F1020 X-23.33 Y32.43 E91.96936
G0 F2040 X-23.464 Y32.662
G1 F1020 X-32.896 Y32.661 E92.33032
G0 F2040 X-32.662 Y32.255
G1 F1020 X-32.662 Y50.031 E93.0106
G0 F2040 X-34.46 Y48.993
G1 F1020 X-14.246 Y48.993 E93.78418
G0 F2040 X-15.593 Y51.326
G1 F1020 X-30.419 Y51.326 E94.35156
G0 F2040 X-30.329 Y51.378
G1 F1020 X-30.329 Y28.214 E95.23804
G0 F2040 X-30.203 Y27.995
G1 F1020 X-20.77 Y27.996 E95.59903
G0 F2040 X-20.997 Y28.389
G1 F1020 X-20.997 Y12.05 E96.22432
G0 F2040 X-20.774 Y11.664
G1 F1020 X-11.342 Y11.665 E96.58528
G0 F2040 X-11.665 Y12.226
G1 F1020 X-11.665 Y-4.113 E97.21056
G0 F2040 X-11.346 Y-4.666
G1 F1020 X-1.912 Y-4.666 E97.5716
G0 F2040 X-2.333 Y-3.938
G1 F1020 X-2.333 Y-20.277 E98.19688
G0 F2040 X-1.916 Y-20.997
G1 F1020 X7.515 Y-20.997 E98.5578
G0 F2040 X6.999 Y-20.101
G1 F1020 X6.999 Y-36.44 E99.18309
G0 F2040 X7.511 Y-37.328
G1 F1020 X16.944 Y-37.328 E99.54408
G0 F2040 X16.331 Y-36.264
G1 F1020 X16.331 Y-52.604 E100.16941
G0 F2040 X16.94 Y-53.659
G1 F1020 X26.378 Y-53.659 E100.5306
G0 F2040 X25.663 Y-54.072
G1 F1020 X25.663 Y-44.061 E100.91371
G0 F2040 X25.201 Y-44.327
G1 F1020 X39.631 Y-44.327 E101.46594
G0 F2040 X39.661 Y-44.378
G1 F1020 X39.661 Y-45.99 E101.52763
G0 F2040 X38.501 Y-46.66
G1 F1020 X12.899 Y-46.66 E102.50741
G0 F2040 X11.665 Y-44.522
G1 F1020 X11.665 Y-28.182 E103.13273
G0 F2040 X11.556 Y-27.996
G1 F1020 X2.124 Y-27.996 E103.49369
G0 F2040 X2.333 Y-28.359
G1 F1020 X2.333 Y-12.019 E104.11901
G0 F2040 X2.128 Y-11.665
G1 F1020 X-7.304 Y-11.665 E104.47997
G0 F2040 X-6.999 Y-12.195
G1 F1020 X-6.999 Y4.144 E105.10526
G0 F2040 X-7.301 Y4.666
G1 F1020 X-16.733 Y4.665 E105.46622
G0 F2040 X-16.331 Y3.969
G1 F1020 X-16.331 Y20.307 E106.09146
G0 F2040 X-16.73 Y20.997
G1 F1020 X-26.162 Y20.997 E106.45242
G0 F2040 X-25.663 Y20.132
G1 F1020 X-25.663 Y36.47 E107.07767
G0 F2040 X-26.158 Y37.328
G1 F1020 X-35.59 Y37.328 E107.43863
G0 F2040 X-34.995 Y36.296
G1 F1020 X-34.995 Y48.684 E107.91271
G0 F2040 X-39.661 Y45.99
G1 F1020 X-39.661 Y44.378 E107.9744
G0 F2040 X-39.631 Y44.327
G1 F1020 X-25.201 Y44.327 E108.52663
G0 F2040 X-25.663 Y44.061
G1 F1020 X-25.663 Y54.072 E108.90974
G0 F2040 X-26.378 Y53.659
G1 F1020 X-16.94 Y53.659 E109.27093
G0 F2040 X-16.331 Y52.604
G1 F1020 X-16.331 Y36.264 E109.89626
G0 F2040 X-16.944 Y37.328
G1 F1020 X-7.511 Y37.328 E110.25725
G0 F2040 X-6.999 Y36.44
G1 F1020 X-6.999 Y20.101 E110.88254
G0 F2040 X-7.515 Y20.997
G1 F1020 X1.916 Y20.997 E111.24346
G0 F2040 X2.333 Y20.277
G1 F1020 X2.333 Y3.938 E111.86874
G0 F2040 X1.912 Y4.666
G1 F1020 X11.346 Y4.666 E112.22978
G0 F2040 X11.665 Y4.113
G1 F1020 X11.665 Y-12.226 E112.85506
G0 F2040 X11.342 Y-11.665
G1 F1020 X20.774 Y-11.664 E113.21602
G0 F2040 X20.997 Y-12.05
G1 F1020 X20.997 Y-28.389 E113.84131
G0 F2040 X20.77 Y-27.996
G1 F1020 X30.203 Y-27.995 E114.2023
G0 F2040 X30.329 Y-28.214
G1 F1020 X30.329 Y-51.378 E115.08878
G0 F2040 X30.419 Y-51.326
G1 F1020 X15.593 Y-51.326 E115.65616
G0 F2040 X18.287 Y-55.992
G1 F1020 X22.338 Y-55.992 E115.81119
G0 F2040 X23.33 Y-55.419
G1 F1020 X23.33 Y-45.409 E116.19427
G1 F3600 E112.39427
G0 F2040 X20.997 Y-44.345
G1 F3600 E116.19427
G1 F1020 X20.997 Y-56.766 E116.66962
G0 F2040 X18.664 Y-56.645
G1 F1020 X18.664 Y-40.305 E117.29494
G0 F2040 X18.291 Y-39.661
G1 F1020 X8.858 Y-39.661 E117.65594
G0 F2040 X9.332 Y-40.481
G1 F1020 X9.332 Y-24.142 E118.28122
G0 F2040 X8.862 Y-23.33
G1 F1020 X-.569 Y-23.33 E118.64214
G0 F2040 X0.00 Y-24.318
G1 F1020 X0.00 Y-7.978 E119.26747
G0 F2040 X-.565 Y-6.999
G1 F1020 X-9.999 Y-6.999 E119.6285
G0 F2040 X-9.332 Y-8.154
G1 F1020 X-9.332 Y8.185 E120.25379
G0 F2040 X-9.995 Y9.332
G1 F1020 X-19.427 Y9.331 E120.61475
G0 F2040 X-18.664 Y8.009
G1 F1020 X-18.664 Y24.348 E121.24003
G0 F2040 X-18.076 Y23.33
G1 F1020 X-27.509 Y23.33 E121.60103
G0 F2040 X-27.996 Y24.173
G1 F1020 X-27.996 Y40.511 E122.22627
G0 F2040 X-27.505 Y39.661
G1 F1020 X-36.937 Y39.661 E122.58723
G0 F2040 X-34.243 Y34.995
G1 F1020 X-24.811 Y34.995 E122.94819
G0 F2040 X-22.117 Y30.329
G1 F1020 X-31.549 Y30.328 E123.30915
G0 F2040 X-28.856 Y25.663
G1 F1020 X-19.423 Y25.663 E123.67015
G1 F3600 E119.87015
G0 F2040 X-28.223 Y41.611
G0 X-22.592 Y45.426
G0 X-12.903 Y30.329
G1 F3600 E123.67015
G1 F1020 X-3.471 Y30.329 E124.0311
G0 F2040 X-2.333 Y28.359
G1 F1020 X-2.333 Y12.019 E124.65643
G0 F2040 X-2.128 Y11.665
G1 F1020 X7.304 Y11.665 E125.01739
G0 F2040 X6.999 Y12.195
G1 F1020 X6.999 Y-4.144 E125.64267
G0 F2040 X7.301 Y-4.666
G1 F1020 X16.733 Y-4.665 E126.00363
G0 F2040 X16.331 Y-3.969
G1 F1020 X16.331 Y-20.307 E126.62888
G0 F2040 X16.73 Y-20.997
G1 F1020 X26.162 Y-20.997 E126.98984
G0 F2040 X25.663 Y-20.132
G1 F1020 X25.663 Y-36.47 E127.61508
G0 F2040 X26.158 Y-37.328
G1 F1020 X35.59 Y-37.328 E127.97604
G0 F2040 X34.995 Y-36.296
G1 F1020 X34.995 Y-48.684 E128.45012
G0 F2040 X37.328 Y-47.337
G1 F1020 X37.328 Y-40.337 E128.71801
G0 F2040 X36.937 Y-39.661
G1 F1020 X27.505 Y-39.661 E129.07897
G0 F2040 X27.996 Y-40.511
G1 F1020 X27.996 Y-24.173 E129.70422
G0 F2040 X27.509 Y-23.33
G1 F1020 X18.076 Y-23.33 E130.06521
G0 F2040 X18.664 Y-24.348
G1 F1020 X18.664 Y-8.009 E130.6905
G0 F2040 X18.08 Y-6.998
