;FLAVOR:Marlin
;TIME:30677
;Filament used: 44.0179m
;Layer height: 0.3
;MINX:-45.267
;MINY:-62.652
;MINZ:0.26
;MAXX:45.264
;MAXY:62.652
;MAXZ:194.96
;Generated with Cura_SteamEngine 4.9.1
M82 ;absolute extrusion mode
;Gcode by Cura
G90
G28
M107
M109 R100
G30
M109 S215 U-55 X55 V-85 Y-85 W0.26 Z0.26
M82
G92 E0
G1 F200 E6
G92 E0
G1 F200 E-3.5
G0 Z0.15
G0 X10
G0 Z3
G1 F6000
G92 E0
G92 E0
G1 F3600 E-3.8
;LAYER_COUNT:650
;LAYER:0
M107
G0 F2040 X-44.364 Y42.739 Z0.26
;TYPE:SKIRT
G1 F3600 E0
G1 F1020 X14.877 Y-59.866 E4.53414
G1 X15.21 Y-60.424 E4.559
G1 X15.554 Y-60.922 E4.58217
G1 X15.96 Y-61.37 E4.6053
G1 X16.422 Y-61.761 E4.62847
G1 X16.931 Y-62.087 E4.6516
G1 X17.478 Y-62.343 E4.67471
G1 X18.055 Y-62.525 E4.69787
G1 X18.651 Y-62.629 E4.72102
G1 X19.309 Y-62.652 E4.74622
G1 X19.524 Y-62.644 E4.75445
G1 X20.126 Y-62.581 E4.77761
G1 X20.713 Y-62.44 E4.80072
G1 X21.278 Y-62.223 E4.82388
G1 X21.591 Y-62.063 E4.83733
G1 X22.097 Y-61.779 E4.85954
G1 X42.437 Y-50.034 E5.75839
G1 X43.024 Y-49.685 E5.78453
G1 X43.522 Y-49.343 E5.80765
G1 X43.971 Y-48.937 E5.83081
G1 X44.362 Y-48.476 E5.85394
G1 X44.689 Y-47.968 E5.87707
G1 X44.946 Y-47.421 E5.90019
G1 X45.129 Y-46.844 E5.92336
G1 X45.234 Y-46.249 E5.94648
G1 X45.264 Y-45.603 E5.97123
G1 X45.232 Y-44.999 E5.99438
G1 X45.121 Y-44.405 E6.0175
G1 X44.933 Y-43.83 E6.04065
G1 X44.68 Y-43.302 E6.06306
G1 X44.387 Y-42.781 E6.08594
G1 X-14.845 Y59.811 E10.61947
G1 X-15.21 Y60.423 E10.64674
G1 X-15.553 Y60.921 E10.66988
G1 X-15.959 Y61.369 E10.69302
G1 X-16.421 Y61.76 E10.71618
G1 X-16.93 Y62.086 E10.73931
G1 X-17.477 Y62.343 E10.76244
G1 X-18.054 Y62.524 E10.78558
G1 X-18.649 Y62.629 E10.80871
G1 X-19.309 Y62.652 E10.83398
G1 X-19.524 Y62.644 E10.84221
G1 X-20.126 Y62.581 E10.86538
G1 X-20.713 Y62.44 E10.88848
G1 X-21.278 Y62.223 E10.91164
G1 X-21.589 Y62.064 E10.92501
G1 X-22.11 Y61.772 E10.94787
G1 X-42.445 Y50.029 E11.84651
G1 X-43.038 Y49.675 E11.87294
G1 X-43.536 Y49.332 E11.89609
G1 X-43.984 Y48.926 E11.91922
G1 X-44.374 Y48.464 E11.94236
G1 X-44.7 Y47.955 E11.96549
G1 X-44.956 Y47.407 E11.98864
G1 X-45.138 Y46.83 E12.01179
G1 X-45.242 Y46.235 E12.03491
G1 X-45.267 Y45.659 E12.05697
G1 X-45.263 Y45.451 E12.06494
G1 X-45.212 Y44.849 E12.08806
G1 X-45.081 Y44.258 E12.11122
G1 X-44.874 Y43.69 E12.13436
G1 X-44.68 Y43.302 E12.15096
G1 X-44.364 Y42.739 E12.17567
G0 F2040 X-44.061 Y42.914
G1 F1020 X15.178 Y-59.687 E16.70963
G1 X15.511 Y-60.245 E16.7345
G1 X15.842 Y-60.722 E16.75672
G1 X16.236 Y-61.15 E16.77898
G1 X16.685 Y-61.519 E16.80122
G1 X17.18 Y-61.823 E16.82345
G1 X17.712 Y-62.057 E16.8457
G1 X18.271 Y-62.215 E16.86793
G1 X18.846 Y-62.295 E16.89014
G1 X19.511 Y-62.294 E16.91559
G1 X20.089 Y-62.233 E16.93784
G1 X20.653 Y-62.092 E16.96008
G1 X21.42 Y-61.758 E16.9921
G1 X21.922 Y-61.476 E17.01413
G1 X42.258 Y-49.734 E17.9128
G1 X42.845 Y-49.385 E17.93893
G1 X43.323 Y-49.054 E17.96118
G1 X43.751 Y-48.661 E17.98342
G1 X44.121 Y-48.213 E18.00566
G1 X44.426 Y-47.719 E18.02787
G1 X44.66 Y-47.187 E18.05012
G1 X44.819 Y-46.628 E18.07236
G1 X44.911 Y-45.812 E18.10378
G1 X44.914 Y-45.598 E18.11197
G1 X44.882 Y-45.018 E18.1342
G1 X44.771 Y-44.448 E18.15643
G1 X44.582 Y-43.898 E18.17868
G1 X44.375 Y-43.473 E18.19677
G1 X44.084 Y-42.956 E18.21948
G1 X-15.145 Y59.632 E22.75282
G1 X-15.51 Y60.244 E22.78009
G1 X-15.842 Y60.722 E22.80236
G1 X-16.235 Y61.149 E22.82457
G1 X-16.684 Y61.518 E22.84681
G1 X-17.179 Y61.823 E22.86906
G1 X-17.711 Y62.056 E22.89129
G1 X-18.27 Y62.215 E22.91353
G1 X-18.845 Y62.295 E22.93575
G1 X-19.511 Y62.294 E22.96124
G1 X-20.089 Y62.233 E22.98348
G1 X-20.653 Y62.092 E23.00573
G1 X-21.418 Y61.759 E23.03766
G1 X-21.935 Y61.469 E23.06034
G1 X-42.266 Y49.729 E23.9588
G1 X-42.859 Y49.375 E23.98523
G1 X-43.336 Y49.043 E24.00747
G1 X-43.763 Y48.65 E24.02968
G1 X-44.132 Y48.201 E24.05192
G1 X-44.436 Y47.706 E24.07415
G1 X-44.67 Y47.174 E24.0964
G1 X-44.828 Y46.615 E24.11863
G1 X-44.908 Y46.039 E24.14088
G1 X-44.913 Y45.458 E24.16312
G1 X-44.862 Y44.879 E24.18536
G1 X-44.732 Y44.313 E24.20758
G1 X-44.526 Y43.77 E24.22981
G1 X-44.374 Y43.473 E24.24258
G1 X-44.061 Y42.914 E24.2671
G0 F2040 X-43.758 Y43.089
G1 F1020 X15.478 Y-59.508 E28.80087
G1 X15.811 Y-60.066 E28.82574
G1 X16.13 Y-60.522 E28.84704
G1 X16.511 Y-60.928 E28.86834
G1 X16.946 Y-61.275 E28.88964
G1 X17.426 Y-61.556 E28.91092
G1 X17.941 Y-61.765 E28.93219
G1 X18.482 Y-61.899 E28.95352
G1 X19.283 Y-61.952 E28.98424
G1 X19.498 Y-61.944 E28.99248
G1 X20.051 Y-61.884 E29.01377
G1 X20.59 Y-61.745 E29.03507
G1 X21.248 Y-61.452 E29.06263
G1 X21.747 Y-61.173 E29.08451
G1 X42.079 Y-49.433 E29.983
G1 X42.666 Y-49.084 E30.00914
G1 X43.123 Y-48.766 E30.03045
G1 X43.529 Y-48.386 E30.05173
G1 X43.877 Y-47.951 E30.07305
G1 X44.159 Y-47.472 E30.09432
G1 X44.369 Y-46.957 E30.1156
G1 X44.504 Y-46.417 E30.1369
G1 X44.561 Y-45.807 E30.16035
G1 X44.564 Y-45.593 E30.16854
G1 X44.531 Y-45.038 E30.18982
G1 X44.42 Y-44.493 E30.2111
G1 X44.232 Y-43.969 E30.23241
G1 X44.069 Y-43.644 E30.24632
G1 X43.781 Y-43.131 E30.26884
G1 X-15.446 Y59.453 E34.80201
G1 X-15.811 Y60.065 E34.82928
G1 X-16.13 Y60.521 E34.85058
G1 X-16.51 Y60.927 E34.87186
G1 X-16.945 Y61.274 E34.89315
G1 X-17.425 Y61.555 E34.91444
G1 X-17.94 Y61.765 E34.93572
G1 X-18.481 Y61.899 E34.95705
G1 X-19.283 Y61.952 E34.98781
G1 X-19.498 Y61.944 E34.99604
G1 X-20.051 Y61.884 E35.01733
G1 X-20.59 Y61.745 E35.03863
G1 X-21.247 Y61.453 E35.06615
G1 X-21.76 Y61.166 E35.08864
G1 X-42.086 Y49.428 E35.9869
G1 X-42.679 Y49.074 E36.01333
G1 X-43.135 Y48.755 E36.03463
G1 X-43.541 Y48.375 E36.05591
G1 X-43.888 Y47.94 E36.0772
G1 X-44.169 Y47.459 E36.09852
G1 X-44.378 Y46.944 E36.11979
G1 X-44.512 Y46.404 E36.14108
G1 X-44.567 Y45.672 E36.16918
G1 X-44.563 Y45.464 E36.17714
G1 X-44.513 Y44.91 E36.19842
G1 X-44.383 Y44.369 E36.21972
G1 X-44.069 Y43.644 E36.24995
G1 X-43.758 Y43.089 E36.2743
G0 F2040 X-43.455 Y43.264
G1 F1020 X15.779 Y-59.328 E40.80787
G1 X16.112 Y-59.886 E40.83274
G1 X16.418 Y-60.32 E40.85306
G1 X16.785 Y-60.703 E40.87336
G1 X17.205 Y-61.027 E40.89366
G1 X17.669 Y-61.284 E40.91396
G1 X18.167 Y-61.468 E40.93428
G1 X18.687 Y-61.576 E40.9546
G1 X19.27 Y-61.603 E40.97694
G1 X19.485 Y-61.595 E40.98517
G1 X20.012 Y-61.535 E41.00547
G1 X20.525 Y-61.397 E41.0258
G1 X21.077 Y-61.147 E41.04899
G1 X21.572 Y-60.87 E41.0707
G1 X41.9 Y-49.132 E41.96902
G1 X42.487 Y-48.783 E41.99516
G1 X42.922 Y-48.478 E42.01549
G1 X43.306 Y-48.112 E42.03579
G1 X43.63 Y-47.692 E42.05609
G1 X43.888 Y-47.228 E42.07641
G1 X44.073 Y-46.73 E42.09674
G1 X44.181 Y-46.211 E42.11702
G1 X44.214 Y-45.588 E42.1409
G1 X44.181 Y-45.059 E42.16118
G1 X44.069 Y-44.54 E42.1815
G1 X43.764 Y-43.815 E42.2116
G1 X43.478 Y-43.306 E42.23395
G1 X-15.747 Y59.274 E46.76695
G1 X-16.112 Y59.886 E46.79422
G1 X-16.417 Y60.32 E46.81452
G1 X-16.784 Y60.703 E46.83482
G1 X-17.204 Y61.027 E46.85512
G1 X-17.669 Y61.284 E46.87545
G1 X-18.166 Y61.468 E46.89573
G1 X-18.686 Y61.576 E46.91606
G1 X-19.27 Y61.603 E46.93843
G1 X-19.485 Y61.595 E46.94666
G1 X-20.012 Y61.535 E46.96696
G1 X-20.525 Y61.397 E46.98729
G1 X-21.076 Y61.148 E47.01043
G1 X-21.585 Y60.863 E47.03276
G1 X-41.907 Y49.128 E47.93082
G1 X-42.5 Y48.774 E47.95725
G1 X-42.934 Y48.468 E47.97757
G1 X-43.317 Y48.101 E47.99787
G1 X-43.64 Y47.68 E48.01818
G1 X-43.897 Y47.216 E48.03848
G1 X-44.082 Y46.718 E48.05881
G1 X-44.189 Y46.199 E48.07909
G1 X-44.217 Y45.679 E48.09902
G1 X-44.213 Y45.471 E48.10698
G1 X-44.163 Y44.943 E48.12728
G1 X-44.034 Y44.428 E48.1476
G1 X-43.764 Y43.815 E48.17323
G1 X-43.455 Y43.264 E48.19741
G0 F2040 X-43.152 Y43.439
G1 F1020 X16.08 Y-59.149 E52.73081
G1 X16.413 Y-59.707 E52.75567
G1 X16.704 Y-60.118 E52.77495
G1 X17.057 Y-60.477 E52.79421
G1 X17.462 Y-60.776 E52.81348
G1 X17.909 Y-61.007 E52.83273
G1 X18.388 Y-61.165 E52.85204
G1 X18.885 Y-61.245 E52.8713
G1 X19.472 Y-61.245 E52.89377
G1 X19.972 Y-61.186 E52.91303
G1 X20.457 Y-61.049 E52.93232
G1 X20.906 Y-60.842 E52.95124
G1 X21.397 Y-60.567 E52.97278
G1 X41.722 Y-48.831 E53.87096
G1 X42.309 Y-48.482 E53.8971
G1 X42.72 Y-48.191 E53.91637
G1 X43.08 Y-47.839 E53.93564
G1 X43.379 Y-47.434 E53.9549
G1 X43.611 Y-46.987 E53.97418
G1 X43.77 Y-46.509 E53.99346
G1 X43.861 Y-45.798 E54.02089
G1 X43.864 Y-45.584 E54.02908
G1 X43.831 Y-45.081 E54.04837
G1 X43.719 Y-44.59 E54.06764
G1 X43.459 Y-43.987 E54.09277
G1 X43.175 Y-43.481 E54.11498
G1 X-16.047 Y59.094 E58.64776
G1 X-16.412 Y59.706 E58.67503
G1 X-16.704 Y60.117 E58.69432
G1 X-17.056 Y60.476 E58.71356
G1 X-17.461 Y60.776 E58.73285
G1 X-17.909 Y61.007 E58.75214
G1 X-18.387 Y61.165 E58.77141
G1 X-18.884 Y61.245 E58.79067
G1 X-19.472 Y61.245 E58.81317
G1 X-19.972 Y61.186 E58.83244
G1 X-20.457 Y61.049 E58.85173
G1 X-20.905 Y60.842 E58.87061
G1 X-21.41 Y60.56 E58.89275
G1 X-41.727 Y48.827 E59.79061
G1 X-42.32 Y48.473 E59.81704
G1 X-42.731 Y48.182 E59.83631
G1 X-43.09 Y47.829 E59.85558
G1 X-43.389 Y47.424 E59.87485
G1 X-43.62 Y46.976 E59.89414
G1 X-43.778 Y46.498 E59.9134
G1 X-43.858 Y46.001 E59.93267
G1 X-43.863 Y45.478 E59.95268
G1 X-43.814 Y44.977 E59.97195
G1 X-43.686 Y44.49 E59.99122
G1 X-43.459 Y43.987 E60.01234
G1 X-43.152 Y43.439 E60.03637
G0 F2040 X-40.551 Y45.638
;TYPE:SUPPORT
G1 F1020 X19.249 Y-57.938 E64.61339
G1 X40.551 Y-45.638 E65.55474
G1 X-19.249 Y57.938 E70.13176
G1 X-40.551 Y45.638 E71.07311
G0 F2040 X-29.136 Y41.764
G1 F1020 X-28.908 Y42.603 E71.10639
G1 X-22.439 Y46.339 E71.39227
G1 X-21.6 Y46.111 E71.42554
G1 X29.136 Y-41.764 E75.30875
G1 X28.908 Y-42.603 E75.34203
G1 X22.439 Y-46.339 E75.62791
G1 X21.6 Y-46.111 E75.66118
G1 X-29.136 Y41.764 E79.54439
G0 F2040 X-29.217 Y41.994
G1 F1020 X-38.284 Y41.994 E79.89138
G0 F2040 X-37.328 Y40.337
G1 F1020 X-37.328 Y47.337 E80.15927
G0 F2040 X-38.501 Y46.66
G1 F1020 X-12.899 Y46.66 E81.13904
G0 F2040 X-13.998 Y48.563
G1 F1020 X-13.998 Y33.223 E81.7261
G0 F2040 X-13.673 Y32.662
G1 F1020 X-4.818 Y32.662 E82.06497
G0 F2040 X-4.666 Y32.4
G1 F1020 X-4.666 Y17.06 E82.65203
G0 F2040 X-4.244 Y16.331
G1 F1020 X4.61 Y16.331 E82.99087
G0 F2040 X4.666 Y16.236
G1 F1020 X4.666 Y0.897 E83.57788
G0 F2040 X5.184 Y0.00
G1 F1020 X14.039 Y0.00 E83.91676
G0 F2040 X13.998 Y0.072
G1 F1020 X13.998 Y-15.266 E84.50374
G0 F2040 X14.613 Y-16.331
G1 F1020 X23.468 Y-16.33 E84.84261
G0 F2040 X23.33 Y-16.091
G1 F1020 X23.33 Y-31.43 E85.42963
G0 F2040 X22.695 Y-30.329
G1 F1020 X31.549 Y-30.328 E85.76847
G0 F2040 X32.662 Y-32.255
G1 F1020 X32.662 Y-50.031 E86.44875
G0 F2040 X34.46 Y-48.993
G1 F1020 X14.246 Y-48.993 E87.22233
G0 F2040 X13.998 Y-48.563
G1 F1020 X13.998 Y-33.223 E87.80938
G0 F2040 X13.673 Y-32.662
G1 F1020 X4.818 Y-32.662 E88.14826
G0 F2040 X4.666 Y-32.4
G1 F1020 X4.666 Y-17.06 E88.73531
G0 F2040 X4.244 Y-16.331
G1 F1020 X-4.61 Y-16.331 E89.07415
G0 F2040 X-4.666 Y-16.236
G1 F1020 X-4.666 Y-.897 E89.66117
G0 F2040 X-5.184 Y0.00
G1 F1020 X-14.039 Y0.00 E90.00004
G0 F2040 X-13.998 Y-0.072
G1 F1020 X-13.998 Y15.266 E90.58702
G0 F2040 X-14.613 Y16.331
G1 F1020 X-23.468 Y16.33 E90.9259
G0 F2040 X-23.33 Y16.091
G1 F1020 X-23.33 Y31.43 E91.51292
G0 F2040 X-22.695 Y30.329
G1 F1020 X-31.549 Y30.328 E91.85175
G0 F2040 X-32.662 Y32.255
G1 F1020 X-32.662 Y50.031 E92.53203
G0 F2040 X-34.46 Y48.993
G1 F1020 X-14.246 Y48.993 E93.30561
G0 F2040 X-15.593 Y51.326
G1 F1020 X-30.419 Y51.326 E93.873
G0 F2040 X-30.329 Y51.378
G1 F1020 X-30.329 Y28.214 E94.75947
G0 F2040 X-30.203 Y27.995
G1 F1020 X-21.348 Y27.996 E95.09835
G0 F2040 X-20.997 Y27.389
G1 F1020 X-20.997 Y12.05 E95.68536
G0 F2040 X-20.774 Y11.664
G1 F1020 X-11.919 Y11.665 E96.02424
G0 F2040 X-11.665 Y11.226
G1 F1020 X-11.665 Y-4.113 E96.61126
G0 F2040 X-11.346 Y-4.666
G1 F1020 X-2.49 Y-4.666 E96.95017
G0 F2040 X-2.333 Y-4.938
G1 F1020 X-2.333 Y-20.277 E97.53719
G0 F2040 X-1.916 Y-20.997
G1 F1020 X6.938 Y-20.997 E97.87603
G0 F2040 X6.999 Y-21.101
G1 F1020 X6.999 Y-36.44 E98.46304
G0 F2040 X7.511 Y-37.328
G1 F1020 X16.366 Y-37.328 E98.80192
G0 F2040 X16.331 Y-37.264
G1 F1020 X16.331 Y-52.604 E99.38897
G0 F2040 X16.94 Y-53.659
G1 F1020 X26.378 Y-53.659 E99.75016
G0 F2040 X25.663 Y-54.072
G1 F1020 X25.663 Y-44.639 E100.11116
G0 F2040 X26.2 Y-44.327
G1 F1020 X39.631 Y-44.327 E100.62516
G0 F2040 X39.661 Y-44.378
G1 F1020 X39.661 Y-45.99 E100.68685
G0 F2040 X38.501 Y-46.66
G1 F1020 X12.899 Y-46.66 E101.66662
G0 F2040 X11.665 Y-44.522
G1 F1020 X11.665 Y-29.182 E102.25368
G0 F2040 X12.326 Y-30.329
G1 F1020 X3.471 Y-30.329 E102.59255
G0 F2040 X2.333 Y-28.359
G1 F1020 X2.333 Y-13.019 E103.17961
G0 F2040 X2.897 Y-13.998
G1 F1020 X-5.957 Y-13.998 E103.51845
G0 F2040 X-6.999 Y-12.195
G1 F1020 X-6.999 Y3.144 E104.10546
G0 F2040 X-6.531 Y2.332
G1 F1020 X-15.386 Y2.332 E104.44434
G0 F2040 X-16.331 Y3.969
G1 F1020 X-16.331 Y19.307 E105.03132
G0 F2040 X-15.96 Y18.664
G1 F1020 X-24.815 Y18.664 E105.37019
G0 F2040 X-25.663 Y20.132
G1 F1020 X-25.663 Y35.47 E105.95717
G0 F2040 X-25.388 Y34.995
G1 F1020 X-34.243 Y34.995 E106.29605
G0 F2040 X-34.995 Y36.296
G1 F1020 X-34.995 Y48.684 E106.77013
G0 F2040 X-39.661 Y45.99
G1 F1020 X-39.661 Y44.378 E106.83182
G0 F2040 X-39.631 Y44.327
G1 F1020 X-26.2 Y44.327 E107.34582
G0 F2040 X-25.663 Y44.639
G1 F1020 X-25.663 Y54.072 E107.70682
G0 F2040 X-26.378 Y53.659
G1 F1020 X-16.94 Y53.659 E108.068
G0 F2040 X-16.331 Y52.604
G1 F1020 X-16.331 Y37.264 E108.65506
G0 F2040 X-16.366 Y37.328
G1 F1020 X-7.511 Y37.328 E108.99393
G0 F2040 X-6.999 Y36.44
G1 F1020 X-6.999 Y21.101 E109.58095
G0 F2040 X-6.938 Y20.997
G1 F1020 X1.916 Y20.997 E109.91979
G0 F2040 X2.333 Y20.277
G1 F1020 X2.333 Y4.938 E110.5068
G0 F2040 X2.49 Y4.666
G1 F1020 X11.346 Y4.666 E110.84572
G0 F2040 X11.665 Y4.113
G1 F1020 X11.665 Y-11.226 E111.43274
G0 F2040 X11.919 Y-11.665
G1 F1020 X20.774 Y-11.664 E111.77161
G0 F2040 X20.997 Y-12.05
G1 F1020 X20.997 Y-27.389 E112.35863
G0 F2040 X21.348 Y-27.996
G1 F1020 X30.203 Y-27.995 E112.69751
G0 F2040 X30.329 Y-28.214
G1 F1020 X30.329 Y-51.378 E113.58398
G0 F2040 X30.419 Y-51.326
G1 F1020 X15.593 Y-51.326 E114.15136
G0 F2040 X18.287 Y-55.992
G1 F1020 X22.338 Y-55.992 E114.30639
G0 F2040 X23.33 Y-55.419
G1 F1020 X23.33 Y-45.986 E114.66739
G1 F3600 E110.86739
G0 F2040 X20.997 Y-45.345
G1 F3600 E114.66739
G1 F1020 X20.997 Y-56.766 E115.10447
G0 F2040 X18.664 Y-56.645
G1 F1020 X18.664 Y-41.305 E115.69152
G0 F2040 X19.06 Y-41.994
G1 F1020 X10.205 Y-41.994 E116.0304
G0 F2040 X9.332 Y-40.481
G1 F1020 X9.332 Y-25.141 E116.61745
G0 F2040 X9.632 Y-25.663
G1 F1020 X0.777 Y-25.663 E116.95633
G0 F2040 X0.00 Y-24.318
G1 F1020 X0.00 Y-8.978 E117.54338
G0 F2040 X0.203 Y-9.332
G1 F1020 X-8.652 Y-9.332 E117.88226
G0 F2040 X-9.332 Y-8.154
G1 F1020 X-9.332 Y7.185 E118.46928
G0 F2040 X-9.225 Y6.998
G1 F1020 X-18.08 Y6.998 E118.80815
G0 F2040 X-18.664 Y8.009
G1 F1020 X-18.664 Y23.348 E119.39517
G0 F2040 X-18.654 Y23.33
G1 F1020 X-27.509 Y23.33 E119.73405
G0 F2040 X-27.996 Y24.173
G1 F1020 X-27.996 Y39.511 E120.32102
G0 F2040 X-28.082 Y39.661
G1 F1020 X-36.937 Y39.661 E120.6599
G0 F2040 X-35.59 Y37.328
G1 F1020 X-26.735 Y37.328 E120.99878
G0 F2040 X-24.042 Y32.662
G1 F1020 X-32.896 Y32.661 E121.33761
G0 F2040 X-28.856 Y25.663
G1 F1020 X-20.001 Y25.663 E121.67649
G0 F2040 X-17.307 Y20.997
G1 F1020 X-26.162 Y20.997 E122.01537
G0 F2040 X-22.121 Y13.997
G1 F1020 X-13.266 Y13.998 E122.35424
G0 F2040 X-10.572 Y9.332
G1 F1020 X-19.427 Y9.331 E122.69312
G0 F2040 X-16.733 Y4.665
G1 F1020 X-7.878 Y4.665 E123.032
G0 F2040 X-3.838 Y-2.333
G1 F1020 X-12.692 Y-2.333 E123.37084
G0 F2040 X-9.999 Y-6.999
G1 F1020 X-1.143 Y-6.999 E123.70975
G0 F2040 X1.55 Y-11.665
G1 F1020 X-7.304 Y-11.665 E124.04859
G0 F2040 X-3.263 Y-18.664
G1 F1020 X5.591 Y-18.664 E124.38743
G0 F2040 X8.285 Y-23.33
G1 F1020 X-.569 Y-23.33 E124.72627
G0 F2040 X2.124 Y-27.996
G1 F1020 X10.979 Y-27.996 E125.06514
G0 F2040 X15.02 Y-34.995
G1 F1020 X6.164 Y-34.995 E125.40406
G0 F2040 X8.858 Y-39.661
G1 F1020 X17.713 Y-39.661 E125.74293
G0 F2040 X20.407 Y-44.327
G1 F1020 X11.552 Y-44.327 E126.08181
G1 F3600 E122.28181
G0 F2040 X22.409 Y-46.109
G0 X27.996 Y-43.291
G1 F3600 E126.08181
G1 F1020 X27.996 Y-52.725 E126.44285
G0 F2040 X34.995 Y-48.684
G1 F1020 X34.995 Y-36.296 E126.91693
G0 F2040 X35.59 Y-37.328
G1 F1020 X26.735 Y-37.328 E127.2558
