;FLAVOR:Marlin
;TIME:7213
;Filament used: 10.0058m
;Layer height: 0.3
;MINX:-78.956
;MINY:-60.337
;MINZ:0.26
;MAXX:89.255
;MAXY:47.473
;MAXZ:2.96
;Generated with Cura_SteamEngine 4.9.1
M82 ;absolute extrusion mode
;Gcode by Cura
G90
G28
M107
M109 R100
G30
M109 S215 U-55 X55 V-85 Y-85 W0.26 Z0.26
M82
G92 E0
G1 F200 E6
G92 E0
G1 F200 E-3.5
G0 Z0.15
G0 X10
G0 Z3
G1 F6000
G92 E0
G92 E0
G1 F3600 E-3.8
;LAYER_COUNT:10
;LAYER:0
M107
G0 F2040 X4.736 Y33.49 Z0.26
;TYPE:SKIRT
G1 F3600 E0
G1 F1020 X2.107 Y33.967 E0.10225
G1 X-.539 Y34.525 E0.20574
G1 X-3.124 Y35.146 E0.30748
G1 X-5.773 Y35.864 E0.41252
G1 X-8.329 Y36.635 E0.51469
G1 X-10.922 Y37.497 E0.61926
G1 X-12.101 Y37.924 E0.66725
G1 X-12.653 Y38.115 E0.6896
G1 X-13.297 Y38.287 E0.71511
G1 X-14.002 Y38.409 E0.74249
G1 X-33.224 Y41.36 E1.48673
G1 X-33.907 Y41.455 E1.51312
G1 X-34.293 Y41.492 E1.52796
G1 X-35.322 Y41.547 E1.56739
G1 X-38.036 Y41.732 E1.6715
G1 X-40.734 Y41.991 E1.77522
G1 X-43.413 Y42.325 E1.87854
G1 X-46.104 Y42.739 E1.98273
G1 X-48.716 Y43.217 E2.08435
G1 X-51.364 Y43.778 E2.18794
G1 X-53.808 Y44.366 E2.28414
G1 X-55.041 Y44.68 E2.33283
G1 X-55.484 Y44.772 E2.35015
G1 X-56.076 Y44.87 E2.37311
G1 X-72.147 Y47.337 E2.99535
G1 X-72.819 Y47.43 E3.02131
G1 X-73.422 Y47.473 E3.04444
G1 X-74.025 Y47.436 E3.06756
G1 X-74.619 Y47.32 E3.09072
G1 X-75.192 Y47.127 E3.11386
G1 X-75.734 Y46.86 E3.13699
G1 X-76.237 Y46.523 E3.16016
G1 X-76.69 Y46.124 E3.18326
G1 X-77.087 Y45.668 E3.2064
G1 X-77.421 Y45.163 E3.22957
G1 X-77.685 Y44.619 E3.25271
G1 X-77.94 Y43.753 E3.28726
G1 X-78.044 Y43.153 E3.31056
G1 X-78.186 Y42.157 E3.34906
G1 X-78.325 Y41.087 E3.39035
G1 X-78.416 Y40.309 E3.42033
G1 X-78.504 Y39.497 E3.45159
G1 X-78.556 Y38.979 E3.47151
G1 X-78.631 Y38.176 E3.50237
G1 X-78.685 Y37.529 E3.52722
G1 X-78.727 Y36.991 E3.54787
G1 X-78.771 Y36.355 E3.57227
G1 X-78.821 Y35.55 E3.60314
G1 X-78.865 Y34.686 E3.63624
G1 X-78.904 Y33.745 E3.67229
G1 X-78.928 Y32.97 E3.70196
G1 X-78.943 Y32.304 E3.72745
G1 X-78.955 Y31.282 E3.76657
G1 X-78.956 Y30.449 E3.79845
G1 X-78.95 Y29.665 E3.82845
G1 X-78.942 Y29.136 E3.8487
G1 X-78.915 Y28.069 E3.88954
G1 X-78.876 Y27.037 E3.92907
G1 X-78.847 Y26.439 E3.95198
G1 X-78.82 Y25.952 E3.97064
G1 X-78.778 Y25.255 E3.99737
G1 X-78.746 Y24.786 E4.01536
G1 X-78.674 Y23.841 E4.05163
G1 X-78.634 Y23.374 E4.06956
G1 X-78.544 Y22.415 E4.10643
G1 X-78.439 Y21.418 E4.14479
G1 X-78.338 Y20.551 E4.1782
G1 X-78.252 Y19.866 E4.20462
G1 X-78.12 Y18.9 E4.24193
G1 X-77.975 Y17.914 E4.28007
G1 X-77.876 Y17.287 E4.30436
G1 X-77.717 Y16.339 E4.34115
G1 X-77.603 Y15.689 E4.3664
G1 X-77.499 Y15.126 E4.38831
G1 X-77.419 Y14.705 E4.40471
G1 X-77.226 Y13.742 E4.4423
G1 X-77.082 Y13.056 E4.46912
G1 X-76.884 Y12.154 E4.50446
G1 X-76.779 Y11.691 E4.52263
G1 X-76.588 Y10.891 E4.55411
G1 X-76.333 Y9.862 E4.59468
G1 X-76.04 Y8.742 E4.63898
G1 X-75.847 Y8.043 E4.66673
G1 X-75.626 Y7.266 E4.69765
G1 X-75.436 Y6.618 E4.72349
G1 X-75.28 Y6.104 E4.74405
G1 X-75.068 Y5.415 E4.77164
G1 X-74.866 Y4.783 E4.79703
G1 X-74.606 Y3.992 E4.82889
G1 X-74.437 Y3.488 E4.84924
G1 X-74.162 Y2.692 E4.88146
G1 X-73.827 Y1.761 E4.91933
G1 X-73.663 Y1.313 E4.93759
G1 X-73.324 Y0.416 E4.97428
G1 X-72.917 Y-.623 E5.01699
G1 X-72.612 Y-1.373 E5.04797
G1 X-72.404 Y-1.874 E5.06873
G1 X-71.985 Y-2.859 E5.1097
G1 X-71.564 Y-3.814 E5.14964
G1 X-71.191 Y-4.635 E5.18415
G1 X-70.821 Y-5.427 E5.2176
G1 X-70.624 Y-5.841 E5.23515
G1 X-70.259 Y-6.591 E5.26707
G1 X-69.932 Y-7.248 E5.29515
G1 X-69.703 Y-7.699 E5.31451
G1 X-68.468 Y-10.196 E5.42112
G1 X-67.354 Y-12.621 E5.52325
G1 X-66.297 Y-15.103 E5.62649
G1 X-65.295 Y-17.651 E5.73127
G1 X-64.384 Y-20.18 E5.83414
G1 X-63.549 Y-22.723 E5.93657
G1 X-62.781 Y-25.299 E6.03944
G1 X-62.078 Y-27.929 E6.14362
G1 X-61.457 Y-30.548 E6.24663
G1 X-60.908 Y-33.187 E6.34978
G1 X-60.433 Y-35.863 E6.45379
G1 X-60.034 Y-38.539 E6.55734
G1 X-59.82 Y-40.242 E6.62302
G1 X-59.69 Y-41.359 E6.66606
G1 X-59.581 Y-41.954 E6.68921
G1 X-59.393 Y-42.529 E6.71236
G1 X-59.132 Y-43.074 E6.73548
G1 X-58.801 Y-43.58 E6.75862
G1 X-58.407 Y-44.038 E6.78174
G1 X-57.955 Y-44.44 E6.80489
G1 X-57.454 Y-44.779 E6.82804
G1 X-56.913 Y-45.049 E6.85118
G1 X-56.341 Y-45.245 E6.87432
G1 X-55.615 Y-45.394 E6.90268
G1 X-55.485 Y-45.416 E6.90773
G1 X40.758 Y-60.194 E10.63407
G1 X41.465 Y-60.293 E10.66139
G1 X42.068 Y-60.337 E10.68453
G1 X42.671 Y-60.301 E10.70764
G1 X43.265 Y-60.186 E10.7308
G1 X43.838 Y-59.994 E10.75393
G1 X44.381 Y-59.727 E10.77708
G1 X44.884 Y-59.392 E10.80021
G1 X45.338 Y-58.993 E10.82334
G1 X45.736 Y-58.537 E10.8465
G1 X46.07 Y-58.034 E10.86961
G1 X46.32 Y-57.535 E10.89097
G1 X47.325 Y-55.294 E10.98496
G1 X48.512 Y-52.838 E11.08935
G1 X49.729 Y-50.488 E11.19063
G1 X51.051 Y-48.104 E11.29495
G1 X52.423 Y-45.788 E11.39797
G1 X53.866 Y-43.501 E11.50146
G1 X55.359 Y-41.274 E11.60406
G1 X56.936 Y-39.066 E11.7079
G1 X58.573 Y-36.902 E11.81174
G1 X60.243 Y-34.819 E11.91392
G1 X61.997 Y-32.754 E12.0176
G1 X63.807 Y-30.743 E12.12114
G1 X65.784 Y-28.67 E12.23077
G1 X66.07 Y-28.379 E12.24639
G1 X66.75 Y-27.675 E12.28384
G1 X67.004 Y-27.409 E12.29792
G1 X67.479 Y-26.904 E12.32445
G1 X68.001 Y-26.338 E12.35392
G1 X68.634 Y-25.64 E12.38998
G1 X69.176 Y-25.028 E12.42126
G1 X69.875 Y-24.222 E12.46209
G1 X70.291 Y-23.731 E12.48672
G1 X70.842 Y-23.071 E12.51962
G1 X71.224 Y-22.604 E12.54271
G1 X71.564 Y-22.184 E12.56339
G1 X72.065 Y-21.554 E12.59419
G1 X72.611 Y-20.853 E12.6282
G1 X72.974 Y-20.378 E12.65108
G1 X73.38 Y-19.839 E12.6769
G1 X73.741 Y-19.352 E12.7001
G1 X74.057 Y-18.921 E12.72055
G1 X74.391 Y-18.457 E12.74243
G1 X74.9 Y-17.737 E12.77618
G1 X75.266 Y-17.212 E12.80067
G1 X75.716 Y-16.551 E12.83127
G1 X76.088 Y-15.996 E12.85684
G1 X76.581 Y-15.245 E12.89122
G1 X76.981 Y-14.619 E12.91965
G1 X77.429 Y-13.909 E12.95178
G1 X77.904 Y-13.136 E12.9865
G1 X78.418 Y-12.279 E13.02474
G1 X78.785 Y-11.652 E13.05255
G1 X79.211 Y-10.908 E13.08536
G1 X79.504 Y-10.384 E13.10833
G1 X79.898 Y-9.67 E13.13954
G1 X80.196 Y-9.118 E13.16355
G1 X80.685 Y-8.191 E13.20365
G1 X81.104 Y-7.371 E13.23889
G1 X81.517 Y-6.543 E13.27431
G1 X81.799 Y-5.963 E13.29899
G1 X82.092 Y-5.35 E13.32499
G1 X82.443 Y-4.598 E13.35675
G1 X82.682 Y-4.075 E13.37875
G1 X83.019 Y-3.32 E13.41039
G1 X83.238 Y-2.817 E13.43139
G1 X83.459 Y-2.301 E13.45287
G1 X83.679 Y-1.778 E13.47458
G1 X84.007 Y-.978 E13.50767
G1 X84.268 Y-.329 E13.53444
G1 X84.639 Y0.628 E13.57372
G1 X84.877 Y1.259 E13.59953
G1 X85.055 Y1.741 E13.6192
G1 X85.319 Y2.474 E13.64901
G1 X85.584 Y3.233 E13.67978
G1 X85.906 Y4.186 E13.71827
G1 X86.063 Y4.664 E13.73753
G1 X86.388 Y5.689 E13.77868
G1 X86.638 Y6.508 E13.81145
G1 X86.948 Y7.567 E13.85368
G1 X87.071 Y8.004 E13.87105
G1 X87.242 Y8.627 E13.89577
G1 X87.397 Y9.204 E13.91864
G1 X87.633 Y10.12 E13.95484
G1 X87.765 Y10.65 E13.97574
G1 X87.935 Y11.362 E14.00375
G1 X88.09 Y12.03 E14.03
G1 X88.275 Y12.864 E14.06269
G1 X88.39 Y13.403 E14.08378
G1 X88.548 Y14.173 E14.11386
G1 X88.74 Y15.166 E14.15257
G1 X88.934 Y16.232 E14.19403
G1 X89.058 Y16.969 E14.22264
G1 X89.112 Y17.306 E14.2357
G1 X89.207 Y17.959 E14.26095
G1 X89.255 Y18.562 E14.2841
G1 X89.222 Y19.166 E14.30725
G1 X89.11 Y19.76 E14.33038
G1 X88.921 Y20.334 E14.35351
G1 X88.657 Y20.879 E14.37668
G1 X88.325 Y21.383 E14.39978
G1 X87.928 Y21.84 E14.42295
G1 X87.475 Y22.24 E14.44607
G1 X86.973 Y22.577 E14.46921
G1 X86.431 Y22.845 E14.49235
G1 X85.858 Y23.039 E14.5155
G1 X85.33 Y23.151 E14.53616
G1 X84.941 Y23.216 E14.55125
G1 X68.701 Y25.709 E15.18003
G1 X68.014 Y25.804 E15.20657
G1 X67.631 Y25.84 E15.22129
G1 X66.664 Y25.892 E15.25835
G1 X63.898 Y26.078 E15.36444
G1 X61.217 Y26.336 E15.46752
G1 X58.544 Y26.669 E15.5706
G1 X55.893 Y27.076 E15.67325
G1 X53.215 Y27.564 E15.77742
G1 X50.587 Y28.121 E15.88023
G1 X48.06 Y28.729 E15.97969
G1 X46.89 Y29.027 E16.0259
G1 X46.524 Y29.105 E16.04022
G1 X45.846 Y29.219 E16.06653
G1 X26.699 Y32.159 E16.80786
G1 X25.999 Y32.255 E16.8349
G1 X25.235 Y32.295 E16.86418
G1 X24.196 Y32.262 E16.90396
G1 X23.57 Y32.233 E16.92795
G1 X20.897 Y32.183 E17.03026
G1 X18.187 Y32.21 E17.13397
G1 X15.477 Y32.314 E17.23776
G1 X12.774 Y32.494 E17.34143
G1 X10.105 Y32.748 E17.44403
G1 X7.45 Y33.076 E17.54641
G1 X4.736 Y33.49 E17.65148
G0 F2040 X4.689 Y33.143
G1 F1020 X2.047 Y33.622 E17.75423
G1 X-.624 Y34.186 E17.85871
G1 X-3.22 Y34.81 E17.96088
G1 X-5.865 Y35.526 E18.06575
G1 X-8.473 Y36.313 E18.17
G1 X-10.998 Y37.152 E18.27183
G1 X-12.215 Y37.594 E18.32138
G1 X-12.767 Y37.785 E18.34373
G1 X-13.362 Y37.943 E18.36729
G1 X-14.06 Y38.063 E18.39439
G1 X-33.272 Y41.014 E19.13825
G1 X-33.955 Y41.109 E19.16464
G1 X-34.312 Y41.143 E19.17837
G1 X-35.364 Y41.199 E19.21868
G1 X-38.055 Y41.382 E19.3219
G1 X-40.776 Y41.644 E19.42652
G1 X-43.475 Y41.981 E19.53061
G1 X-46.151 Y42.393 E19.63422
G1 X-48.818 Y42.88 E19.73798
G1 X-51.409 Y43.429 E19.83933
G1 X-53.891 Y44.027 E19.93704
G1 X-55.127 Y44.341 E19.98584
G1 X-55.541 Y44.427 E20.00202
G1 X-56.129 Y44.524 E20.02483
G1 X-72.195 Y46.99 E20.64687
G1 X-72.867 Y47.083 E20.67283
G1 X-73.446 Y47.123 E20.69504
G1 X-74.026 Y47.083 E20.71729
G1 X-74.595 Y46.964 E20.73954
G1 X-75.142 Y46.768 E20.76177
G1 X-75.657 Y46.499 E20.78401
G1 X-76.13 Y46.161 E20.80626
G1 X-76.552 Y45.762 E20.82848
G1 X-76.916 Y45.309 E20.85072
G1 X-77.214 Y44.81 E20.87296
G1 X-77.44 Y44.275 E20.89519
G1 X-77.597 Y43.688 E20.91844
G1 X-77.699 Y43.098 E20.94136
G1 X-77.846 Y42.059 E20.98152
G1 X-77.977 Y41.046 E21.0206
G1 X-78.068 Y40.271 E21.05047
G1 X-78.156 Y39.462 E21.08161
G1 X-78.208 Y38.946 E21.10146
G1 X-78.282 Y38.147 E21.13217
G1 X-78.336 Y37.502 E21.15694
G1 X-78.378 Y36.967 E21.17747
G1 X-78.422 Y36.333 E21.20179
G1 X-78.471 Y35.532 E21.23251
G1 X-78.515 Y34.672 E21.26546
G1 X-78.554 Y33.734 E21.30139
G1 X-78.578 Y32.962 E21.33095
G1 X-78.593 Y32.3 E21.35629
G1 X-78.605 Y31.281 E21.39529
G1 X-78.606 Y30.451 E21.42705
G1 X-78.6 Y29.671 E21.4569
G1 X-78.592 Y29.144 E21.47707
G1 X-78.565 Y28.083 E21.51769
G1 X-78.526 Y27.054 E21.5571
G1 X-78.498 Y26.458 E21.57993
G1 X-78.471 Y25.974 E21.59848
G1 X-78.428 Y25.279 E21.62513
G1 X-78.397 Y24.813 E21.643
G1 X-78.325 Y23.87 E21.6792
G1 X-78.286 Y23.406 E21.69702
G1 X-78.196 Y22.452 E21.73369
G1 X-78.092 Y21.458 E21.77193
G1 X-77.991 Y20.595 E21.80519
G1 X-77.905 Y19.913 E21.83149
G1 X-77.774 Y18.951 E21.86865
G1 X-77.63 Y17.969 E21.90663
G1 X-77.531 Y17.344 E21.93085
G1 X-77.373 Y16.4 E21.96748
G1 X-77.258 Y15.752 E21.99266
G1 X-77.155 Y15.192 E22.01445
G1 X-77.075 Y14.773 E22.03078
G1 X-76.884 Y13.814 E22.0682
G1 X-76.74 Y13.131 E22.09491
G1 X-76.543 Y12.232 E22.13013
G1 X-76.438 Y11.772 E22.14819
G1 X-76.249 Y10.975 E22.17954
G1 X-75.995 Y9.951 E22.21991
G1 X-75.702 Y8.835 E22.26407
G1 X-75.511 Y8.139 E22.29169
G1 X-75.29 Y7.365 E22.32249
G1 X-75.1 Y6.719 E22.34826
G1 X-74.946 Y6.207 E22.36872
G1 X-74.735 Y5.522 E22.39615
G1 X-74.533 Y4.892 E22.42147
G1 X-74.275 Y4.103 E22.45324
G1 X-74.106 Y3.603 E22.47344
G1 X-73.833 Y2.811 E22.5055
G1 X-73.499 Y1.882 E22.54328
G1 X-73.335 Y1.437 E22.56143
G1 X-72.998 Y0.544 E22.59795
G1 X-72.592 Y-.491 E22.6405
G1 X-72.289 Y-1.239 E22.67139
G1 X-72.082 Y-1.737 E22.69203
G1 X-71.665 Y-2.718 E22.73282
G1 X-71.246 Y-3.67 E22.77262
G1 X-70.874 Y-4.487 E22.80698
G1 X-70.505 Y-5.276 E22.84031
G1 X-70.309 Y-5.688 E22.85777
G1 X-69.946 Y-6.435 E22.88956
G1 X-69.62 Y-7.09 E22.91756
G1 X-69.369 Y-7.584 E22.93876
G1 X-68.162 Y-10.023 E23.04291
G1 X-67.033 Y-12.48 E23.14639
G1 X-65.969 Y-14.98 E23.25036
G1 X-64.963 Y-17.537 E23.35552
G1 X-64.065 Y-20.032 E23.457
G1 X-63.213 Y-22.624 E23.56141
G1 X-62.44 Y-25.219 E23.66504
G1 X-61.743 Y-27.826 E23.76831
G1 X-61.117 Y-30.464 E23.87207
G1 X-60.557 Y-33.156 E23.97729
G1 X-60.091 Y-35.785 E24.07947
G1 X-59.688 Y-38.488 E24.18406
G1 X-59.478 Y-40.162 E24.24862
G1 X-59.343 Y-41.319 E24.2932
G1 X-59.236 Y-41.89 E24.31544
G1 X-59.051 Y-42.441 E24.33768
G1 X-58.793 Y-42.961 E24.35989
G1 X-58.466 Y-43.442 E24.38215
G1 X-58.076 Y-43.872 E24.40437
G1 X-57.631 Y-44.246 E24.42661
G1 X-57.139 Y-44.554 E24.44883
G1 X-56.609 Y-44.793 E24.47108
G1 X-55.907 Y-44.985 E24.49893
G1 X-55.432 Y-45.07 E24.5174
G1 X40.806 Y-59.847 E28.24354
G1 X41.513 Y-59.946 E28.27086
G1 X42.093 Y-59.987 E28.29311
G1 X42.672 Y-59.948 E28.31532
G1 X43.241 Y-59.83 E28.33756
G1 X43.789 Y-59.634 E28.35983
G1 X44.304 Y-59.366 E28.38205
G1 X44.777 Y-59.029 E28.40428
G1 X45.2 Y-58.631 E28.4265
G1 X45.565 Y-58.178 E28.44877
G1 X45.931 Y-57.54 E28.47692
G1 X46.025 Y-57.337 E28.48548
G1 X46.997 Y-55.169 E28.5764
G1 X48.185 Y-52.709 E28.68095
G1 X49.425 Y-50.315 E28.78413
G1 X50.75 Y-47.926 E28.88867
G1 X52.123 Y-45.609 E28.99174
G1 X53.57 Y-43.314 E29.09557
G1 X55.08 Y-41.063 E29.1993
G1 X56.668 Y-38.838 E29.30391
G1 X58.283 Y-36.704 E29.40633
G1 X59.984 Y-34.583 E29.51038
G1 X61.718 Y-32.541 E29.6129
G1 X63.557 Y-30.497 E29.71812
G1 X65.535 Y-28.424 E29.82778
G1 X65.818 Y-28.136 E29.84323
G1 X66.497 Y-27.433 E29.88063
G1 X66.749 Y-27.169 E29.8946
G1 X67.222 Y-26.666 E29.92102
G1 X67.742 Y-26.103 E29.95035
G1 X68.372 Y-25.408 E29.98625
G1 X68.912 Y-24.798 E30.01743
G1 X69.608 Y-23.995 E30.05809
G1 X70.023 Y-23.506 E30.08264
G1 X70.571 Y-22.85 E30.11535
G1 X70.952 Y-22.384 E30.13839
G1 X71.29 Y-21.966 E30.15896
G1 X71.789 Y-21.338 E30.18966
G1 X72.333 Y-20.64 E30.22352
G1 X72.695 Y-20.167 E30.24632
G1 X73.099 Y-19.63 E30.27203
G1 X73.459 Y-19.146 E30.29512
G1 X73.773 Y-18.716 E30.31549
G1 X74.105 Y-18.255 E30.33724
G1 X74.613 Y-17.537 E30.37089
G1 X74.976 Y-17.015 E30.39523
G1 X75.425 Y-16.356 E30.42574
G1 X75.795 Y-15.803 E30.45121
G1 X76.286 Y-15.056 E30.48542
G1 X76.685 Y-14.433 E30.51373
G1 X77.131 Y-13.725 E30.54575
G1 X77.604 Y-12.956 E30.5803
G1 X78.116 Y-12.102 E30.61841
G1 X78.481 Y-11.478 E30.64607
G1 X78.906 Y-10.737 E30.67876
G1 X79.198 Y-10.215 E30.70165
G1 X79.59 Y-9.503 E30.73276
G1 X79.887 Y-8.954 E30.75665
G1 X80.373 Y-8.032 E30.79653
G1 X80.791 Y-7.215 E30.83165
G1 X81.202 Y-6.39 E30.86693
G1 X81.484 Y-5.812 E30.89154
G1 X81.775 Y-5.202 E30.9174
G1 X82.125 Y-4.453 E30.94904
G1 X82.362 Y-3.932 E30.97095
G1 X82.698 Y-3.18 E31.00247
G1 X82.916 Y-2.679 E31.02338
G1 X83.136 Y-2.165 E31.04477
G1 X83.355 Y-1.645 E31.06637
G1 X83.683 Y-.848 E31.09935
G1 X83.941 Y-.203 E31.12593
G1 X84.312 Y0.751 E31.16511
G1 X84.549 Y1.38 E31.19083
G1 X84.726 Y1.86 E31.21041
G1 X84.989 Y2.59 E31.2401
G1 X85.253 Y3.345 E31.27071
G1 X85.573 Y4.295 E31.30908
G1 X85.729 Y4.771 E31.32825
G1 X86.054 Y5.792 E31.36925
G1 X86.302 Y6.606 E31.40182
G1 X86.611 Y7.662 E31.44392
G1 X86.733 Y8.096 E31.46118
G1 X86.904 Y8.718 E31.48586
G1 X87.058 Y9.291 E31.50857
G1 X87.293 Y10.204 E31.54465
G1 X87.424 Y10.732 E31.56547
G1 X87.594 Y11.441 E31.59337
G1 X87.748 Y12.106 E31.61949
G1 X87.933 Y12.937 E31.65207
G1 X88.047 Y13.473 E31.67304
G1 X88.205 Y14.24 E31.70301
G1 X88.396 Y15.229 E31.74156
G1 X88.589 Y16.291 E31.78287
G1 X88.713 Y17.025 E31.81136
G1 X88.766 Y17.357 E31.82422
G1 X88.861 Y18.01 E31.84948
G1 X88.905 Y18.589 E31.8717
G1 X88.869 Y19.169 E31.89394
G1 X88.754 Y19.739 E31.91619
G1 X88.561 Y20.287 E31.93842
G1 X88.296 Y20.804 E31.96066
G1 X87.962 Y21.279 E31.98288
G1 X87.566 Y21.704 E32.00511
G1 X87.115 Y22.071 E32.02736
G1 X86.618 Y22.372 E32.0496
G1 X86.085 Y22.603 E32.07183
G1 X85.47 Y22.769 E32.09621
G1 X84.924 Y22.864 E32.11742
G1 X68.653 Y25.362 E32.7474
G1 X67.966 Y25.457 E32.77394
G1 X67.612 Y25.491 E32.78755
G1 X66.582 Y25.546 E32.82702
G1 X63.911 Y25.726 E32.92947
G1 X61.176 Y25.989 E33.03462
G1 X58.483 Y26.324 E33.13847
G1 X55.812 Y26.734 E33.24189
G1 X53.148 Y27.22 E33.34552
G1 X50.543 Y27.772 E33.44743
G1 X47.978 Y28.389 E33.54839
G1 X46.804 Y28.688 E33.59475
G1 X46.466 Y28.76 E33.60798
G1 X45.793 Y28.873 E33.63409
G1 X26.651 Y31.812 E34.37523
G1 X25.951 Y31.908 E34.40227
G1 X25.246 Y31.945 E34.42929
G1 X24.212 Y31.912 E34.46888
G1 X23.593 Y31.883 E34.49259
G1 X20.9 Y31.833 E34.59567
G1 X18.17 Y31.86 E34.70015
G1 X15.477 Y31.963 E34.80329
G1 X12.752 Y32.145 E34.9078
G1 X10.068 Y32.4 E35.01098
G1 X7.385 Y32.732 E35.11444
G1 X4.689 Y33.143 E35.21881
G0 F2040 X4.649 Y32.795
G1 F1020 X1.941 Y33.286 E35.32413
G1 X-.669 Y33.837 E35.42622
G1 X-3.325 Y34.475 E35.53075
