;FLAVOR:Marlin
;TIME:9639
;Filament used: 9.77721m
;Layer height: 0.2
;MINX:-30.093
;MINY:-84.911
;MINZ:0.26
;MAXX:63.329
;MAXY:84.18
;MAXZ:3.46
;Generated with Cura_SteamEngine 4.8.0
M82 ;absolute extrusion mode
;Gcode by Cura
G90
G28
M107
M109 R100
G30
M109 S215 U-55 X55 V-85 Y-85 W0.26 Z0.26
M82
G92 E0
G1 F200 E6
G92 E0
G1 F200 E-3.5
G0 Z0.15
G0 X10
G0 Z3
G1 F6000
G92 E0
G92 E0
G1 F3600 E-3.8
;LAYER_COUNT:17
;LAYER:0
M107
G0 F2040 X-25.358 Y1.249 Z0.26
;TYPE:SKIRT
G1 F3600 E0
G1 F1020 X-25.445 Y-1.464 E0.10388
G1 X-25.608 Y-4.17 E0.20762
G1 X-25.844 Y-6.83 E0.30982
G1 X-26.162 Y-9.534 E0.41401
G1 X-26.552 Y-12.205 E0.51732
G1 X-27.015 Y-14.848 E0.62
G1 X-27.554 Y-17.484 E0.72297
G1 X-27.769 Y-18.399 E0.75894
G1 X-27.978 Y-19.351 E0.79624
G1 X-28.079 Y-20.12 E0.82592
G1 X-28.113 Y-20.87 E0.85465
G1 X-28.76 Y-40.165 E1.59348
G1 X-28.773 Y-40.841 E1.61935
G1 X-28.764 Y-41.228 E1.63417
G1 X-28.698 Y-42.231 E1.67263
G1 X-28.558 Y-44.972 E1.77767
G1 X-28.495 Y-47.68 E1.88133
G1 X-28.51 Y-50.392 E1.98512
G1 X-28.6 Y-53.07 E2.08766
G1 X-28.767 Y-55.781 E2.19161
G1 X-29.007 Y-58.428 E2.29332
G1 X-29.31 Y-61.004 E2.39258
G1 X-29.467 Y-62.196 E2.4386
G1 X-29.507 Y-62.662 E2.45649
G1 X-29.536 Y-63.294 E2.48071
G1 X-30.08 Y-79.525 E3.10221
G1 X-30.093 Y-80.194 E3.12782
G1 X-30.065 Y-80.798 E3.15095
G1 X-29.957 Y-81.393 E3.1741
G1 X-29.772 Y-81.969 E3.19725
G1 X-29.513 Y-82.515 E3.22038
G1 X-29.183 Y-83.022 E3.24353
G1 X-28.79 Y-83.481 E3.26665
G1 X-28.34 Y-83.885 E3.28979
G1 X-27.84 Y-84.225 E3.31293
G1 X-27.3 Y-84.497 E3.33607
G1 X-26.729 Y-84.695 E3.3592
G1 X-26.136 Y-84.816 E3.38236
G1 X-25.597 Y-84.863 E3.40307
G1 X-25.103 Y-84.883 E3.42199
G1 X-24.528 Y-84.896 E3.444
G1 X-23.806 Y-84.906 E3.47163
G1 X-23.095 Y-84.911 E3.49884
G1 X-22.459 Y-84.911 E3.52318
G1 X-21.676 Y-84.905 E3.55315
G1 X-21.013 Y-84.893 E3.57853
G1 X-19.905 Y-84.862 E3.62095
G1 X-19.083 Y-84.829 E3.65243
G1 X-18.16 Y-84.783 E3.68779
G1 X-17.064 Y-84.716 E3.72982
G1 X-16.194 Y-84.652 E3.7632
G1 X-15.211 Y-84.568 E3.80096
G1 X-14.087 Y-84.458 E3.84418
G1 X-13.386 Y-84.382 E3.87116
G1 X-12.406 Y-84.266 E3.90893
G1 X-11.865 Y-84.197 E3.9298
G1 X-11.183 Y-84.105 E3.95614
G1 X-10.266 Y-83.972 E3.9916
G1 X-9.732 Y-83.89 E4.01227
G1 X-8.986 Y-83.769 E4.04119
G1 X-8.212 Y-83.637 E4.07124
G1 X-7.65 Y-83.536 E4.09309
G1 X-6.817 Y-83.38 E4.12553
G1 X-6.222 Y-83.263 E4.14873
G1 X-5.612 Y-83.139 E4.17255
G1 X-4.89 Y-82.984 E4.20081
G1 X-4.204 Y-82.832 E4.2277
G1 X-3.368 Y-82.638 E4.26055
G1 X-2.845 Y-82.513 E4.28113
G1 X-2.022 Y-82.308 E4.31358
G1 X-1.139 Y-82.079 E4.34849
G1 X-.291 Y-81.85 E4.38211
G1 X0.605 Y-81.596 E4.41775
G1 X1.157 Y-81.436 E4.43974
G1 X1.674 Y-81.281 E4.4604
G1 X2.655 Y-80.976 E4.49971
G1 X3.456 Y-80.718 E4.53192
G1 X4.088 Y-80.509 E4.55739
G1 X4.819 Y-80.259 E4.58696
G1 X5.764 Y-79.926 E4.6253
G1 X6.671 Y-79.593 E4.66228
G1 X7.417 Y-79.312 E4.69279
G1 X8.057 Y-79.064 E4.71905
G1 X8.622 Y-78.839 E4.74233
G1 X9.312 Y-78.559 E4.77083
G1 X9.948 Y-78.295 E4.79718
G1 X10.534 Y-78.047 E4.82153
G1 X11.267 Y-77.728 E4.85212
G1 X11.852 Y-77.466 E4.87665
G1 X12.541 Y-77.153 E4.90561
G1 X13.574 Y-76.669 E4.94927
G1 X14.33 Y-76.304 E4.9814
G1 X14.903 Y-76.02 E5.00587
G1 X15.697 Y-75.619 E5.03991
G1 X16.442 Y-75.232 E5.07204
G1 X17.274 Y-74.789 E5.10811
G1 X18.145 Y-74.313 E5.1461
G1 X18.628 Y-74.043 E5.16728
G1 X19.52 Y-73.535 E5.20656
G1 X20.072 Y-73.213 E5.23102
G1 X20.724 Y-72.825 E5.26005
G1 X21.351 Y-72.445 E5.28811
G1 X21.745 Y-72.202 E5.30582
G1 X22.248 Y-71.887 E5.32854
G1 X23.102 Y-71.34 E5.36735
G1 X23.848 Y-70.852 E5.40146
G1 X24.602 Y-70.354 E5.43604
G1 X26.882 Y-68.905 E5.53943
G1 X29.189 Y-67.529 E5.64223
G1 X31.548 Y-66.21 E5.74566
G1 X33.964 Y-64.947 E5.84999
G1 X36.387 Y-63.768 E5.95311
G1 X38.817 Y-62.669 E6.05518
G1 X41.341 Y-61.612 E6.1599
G1 X43.836 Y-60.648 E6.26226
G1 X46.423 Y-59.735 E6.36725
G1 X48.948 Y-58.921 E6.46877
G1 X51.547 Y-58.164 E6.57237
G1 X54.141 Y-57.489 E6.67495
G1 X55.141 Y-57.261 E6.7142
G1 X56.51 Y-56.931 E6.76809
G1 X57.087 Y-56.75 E6.79123
G1 X57.636 Y-56.496 E6.81438
G1 X58.146 Y-56.171 E6.83752
G1 X58.608 Y-55.781 E6.86066
G1 X59.016 Y-55.335 E6.8838
G1 X59.36 Y-54.838 E6.90693
G1 X59.637 Y-54.3 E6.93008
G1 X59.84 Y-53.731 E6.9532
G1 X59.966 Y-53.139 E6.97637
G1 X60.025 Y-52.442 E7.00314
G1 X63.314 Y45.614 E10.7578
G1 X63.329 Y46.358 E10.78628
G1 X63.301 Y46.962 E10.80942
G1 X63.193 Y47.557 E10.83256
G1 X63.008 Y48.133 E10.85572
G1 X62.748 Y48.679 E10.87886
G1 X62.419 Y49.186 E10.90199
G1 X62.025 Y49.645 E10.92514
G1 X61.575 Y50.049 E10.94828
G1 X61.075 Y50.389 E10.97142
G1 X60.535 Y50.661 E10.99456
G1 X60.06 Y50.831 E11.01387
G1 X59.556 Y50.981 E11.03399
G1 X56.991 Y51.783 E11.13684
G1 X54.437 Y52.662 E11.24021
G1 X51.891 Y53.619 E11.3443
G1 X49.402 Y54.636 E11.44719
G1 X46.94 Y55.724 E11.5502
G1 X44.491 Y56.891 E11.65402
G1 X42.103 Y58.113 E11.75668
G1 X39.73 Y59.411 E11.86019
G1 X37.396 Y60.778 E11.96371
G1 X35.111 Y62.204 E12.06678
G1 X32.84 Y63.711 E12.17109
G1 X30.67 Y65.241 E12.2727
G1 X28.627 Y66.766 E12.37026
G1 X28.172 Y67.113 E12.39216
G1 X27.594 Y67.547 E12.41982
G1 X27.117 Y67.899 E12.44251
G1 X26.426 Y68.4 E12.47517
G1 X25.605 Y68.981 E12.51366
G1 X24.867 Y69.491 E12.54799
G1 X24.147 Y69.978 E12.58126
G1 X23.379 Y70.485 E12.61648
G1 X22.593 Y70.993 E12.65229
G1 X21.968 Y71.386 E12.68055
G1 X21.401 Y71.737 E12.70607
G1 X20.573 Y72.239 E12.74312
G1 X19.986 Y72.587 E12.76924
G1 X19.282 Y72.995 E12.80038
G1 X18.728 Y73.311 E12.82479
G1 X17.875 Y73.787 E12.86217
G1 X17.096 Y74.209 E12.89607
G1 X16.218 Y74.673 E12.93408
G1 X15.52 Y75.032 E12.96412
G1 X14.588 Y75.5 E13.00403
G1 X13.738 Y75.914 E13.04021
G1 X12.987 Y76.27 E13.07202
G1 X12.009 Y76.719 E13.1132
G1 X11.219 Y77.072 E13.14631
G1 X10.464 Y77.399 E13.1778
G1 X9.818 Y77.673 E13.20465
G1 X9.261 Y77.904 E13.22773
G1 X8.492 Y78.216 E13.25949
G1 X7.806 Y78.486 E13.2877
G1 X7.131 Y78.745 E13.31537
G1 X6.639 Y78.929 E13.33547
G1 X5.747 Y79.256 E13.37183
G1 X5.092 Y79.488 E13.39842
G1 X4.476 Y79.701 E13.42337
G1 X3.936 Y79.883 E13.44517
G1 X3.002 Y80.189 E13.48279
G1 X2.549 Y80.333 E13.50098
G1 X1.811 Y80.562 E13.53055
G1 X1.024 Y80.797 E13.56198
G1 X0.505 Y80.948 E13.58267
G1 X-.224 Y81.154 E13.61166
G1 X-.821 Y81.317 E13.63534
G1 X-1.679 Y81.544 E13.66931
G1 X-2.252 Y81.691 E13.69195
G1 X-3.124 Y81.905 E13.72631
G1 X-4.192 Y82.153 E13.76827
G1 X-4.722 Y82.271 E13.78905
G1 X-5.507 Y82.439 E13.81977
G1 X-6.153 Y82.571 E13.845
G1 X-7.183 Y82.772 E13.88516
G1 X-7.899 Y82.905 E13.91303
G1 X-8.57 Y83.023 E13.9391
G1 X-9.114 Y83.114 E13.96021
G1 X-10.014 Y83.257 E13.99509
G1 X-10.586 Y83.343 E14.01722
G1 X-11.507 Y83.473 E14.05282
G1 X-12.38 Y83.586 E14.08651
G1 X-13.019 Y83.663 E14.11114
G1 X-14.096 Y83.782 E14.1526
G1 X-14.851 Y83.858 E14.18164
G1 X-15.457 Y83.912 E14.20493
G1 X-16.306 Y83.983 E14.23753
G1 X-17.104 Y84.041 E14.26815
G1 X-17.951 Y84.094 E14.30063
G1 X-18.817 Y84.141 E14.33382
G1 X-19.427 Y84.166 E14.35718
G1 X-20.058 Y84.18 E14.38134
G1 X-20.662 Y84.153 E14.40447
G1 X-21.257 Y84.047 E14.4276
G1 X-21.833 Y83.864 E14.45073
G1 X-22.38 Y83.606 E14.47388
G1 X-22.888 Y83.278 E14.49702
G1 X-23.348 Y82.886 E14.52015
G1 X-23.753 Y82.437 E14.54329
G1 X-24.095 Y81.938 E14.56644
G1 X-24.368 Y81.399 E14.58956
G1 X-24.568 Y80.828 E14.61272
G1 X-24.69 Y80.236 E14.63585
G1 X-24.737 Y79.71 E14.65606
G1 X-24.758 Y79.242 E14.67399
G1 X-25.305 Y62.893 E15.3
G1 X-25.317 Y62.188 E15.32699
G1 X-25.308 Y61.811 E15.34142
G1 X-25.245 Y60.841 E15.37862
G1 X-25.102 Y58.087 E15.48416
G1 X-25.04 Y55.388 E15.58747
G1 X-25.055 Y52.674 E15.69134
G1 X-25.144 Y50.003 E15.79361
G1 X-25.309 Y47.328 E15.89618
G1 X-25.557 Y44.58 E16.00177
G1 X-25.848 Y42.117 E16.09668
G1 X-26.011 Y40.874 E16.14466
G1 X-26.053 Y40.39 E16.16325
G1 X-26.08 Y39.79 E16.18624
G1 X-26.729 Y20.425 E16.92774
G1 X-26.742 Y19.745 E16.95377
G1 X-26.692 Y18.974 E16.98334
G1 X-26.535 Y17.942 E17.02329
G1 X-26.441 Y17.383 E17.04498
G1 X-26.07 Y14.705 E17.14844
G1 X-25.774 Y12.006 E17.25235
G1 X-25.557 Y9.339 E17.35475
G1 X-25.414 Y6.633 E17.45846
G1 X-25.347 Y3.923 E17.5622
G1 X-25.358 Y1.249 E17.66453
G0 F2040 X-25.008 Y1.237
G1 F1020 X-25.096 Y-1.497 E17.76921
G1 X-25.258 Y-4.187 E17.87235
G1 X-25.496 Y-6.867 E17.97531
G1 X-25.811 Y-9.551 E18.07873
G1 X-26.206 Y-12.252 E18.1832
G1 X-26.676 Y-14.938 E18.28755
G1 X-27.214 Y-17.566 E18.39021
G1 X-27.427 Y-18.474 E18.4259
G1 X-27.636 Y-19.426 E18.4632
G1 X-27.729 Y-20.137 E18.49064
G1 X-27.764 Y-20.881 E18.51915
G1 X-28.41 Y-40.172 E19.25782
G1 X-28.423 Y-40.848 E19.28369
G1 X-28.415 Y-41.205 E19.29736
G1 X-28.346 Y-42.259 E19.33778
G1 X-28.208 Y-44.946 E19.44075
G1 X-28.145 Y-47.674 E19.54517
G1 X-28.16 Y-50.37 E19.64835
G1 X-28.251 Y-53.104 E19.75304
G1 X-28.417 Y-55.785 E19.85583
G1 X-28.663 Y-58.502 E19.96024
G1 X-28.955 Y-60.988 E20.05603
G1 X-29.12 Y-62.242 E20.10443
G1 X-29.157 Y-62.679 E20.12122
G1 X-29.187 Y-63.305 E20.1452
G1 X-29.73 Y-79.532 E20.76655
G1 X-29.743 Y-80.201 E20.79216
G1 X-29.715 Y-80.781 E20.81438
G1 X-29.606 Y-81.352 E20.83662
G1 X-29.421 Y-81.903 E20.85887
G1 X-29.162 Y-82.423 E20.8811
G1 X-28.834 Y-82.902 E20.90332
G1 X-28.443 Y-83.332 E20.92556
G1 X-27.997 Y-83.705 E20.94781
G1 X-27.504 Y-84.012 E20.97003
G1 X-26.974 Y-84.25 E20.99227
G1 X-26.416 Y-84.412 E21.0145
G1 X-25.791 Y-84.499 E21.03865
G1 X-25.171 Y-84.531 E21.06241
G1 X-24.522 Y-84.546 E21.08726
G1 X-23.804 Y-84.556 E21.11474
G1 X-23.093 Y-84.561 E21.14195
G1 X-22.461 Y-84.561 E21.16613
G1 X-21.683 Y-84.555 E21.19591
G1 X-21.022 Y-84.543 E21.22121
G1 X-19.918 Y-84.512 E21.26347
G1 X-19.1 Y-84.48 E21.2948
G1 X-18.181 Y-84.434 E21.33002
G1 X-17.089 Y-84.367 E21.37189
G1 X-16.223 Y-84.303 E21.40512
G1 X-15.245 Y-84.22 E21.44268
G1 X-14.124 Y-84.11 E21.48579
G1 X-13.427 Y-84.034 E21.51262
G1 X-12.45 Y-83.919 E21.55026
G1 X-11.912 Y-83.851 E21.57102
G1 X-11.234 Y-83.758 E21.59721
G1 X-10.318 Y-83.626 E21.63262
G1 X-9.787 Y-83.545 E21.65318
G1 X-9.045 Y-83.424 E21.68195
G1 X-8.274 Y-83.293 E21.71188
G1 X-7.715 Y-83.192 E21.73362
G1 X-6.884 Y-83.036 E21.76598
G1 X-6.291 Y-82.92 E21.7891
G1 X-5.685 Y-82.796 E21.81277
G1 X-4.965 Y-82.642 E21.84095
G1 X-4.283 Y-82.491 E21.86768
G1 X-3.449 Y-82.298 E21.90044
G1 X-2.93 Y-82.174 E21.92086
G1 X-2.11 Y-81.969 E21.95321
G1 X-1.23 Y-81.741 E21.988
G1 X-.386 Y-81.513 E22.02146
G1 X0.507 Y-81.26 E22.05698
G1 X1.056 Y-81.1 E22.07886
G1 X1.57 Y-80.946 E22.09939
G1 X2.548 Y-80.643 E22.13858
G1 X3.347 Y-80.385 E22.17071
G1 X3.975 Y-80.178 E22.19601
G1 X4.703 Y-79.929 E22.22546
G1 X5.643 Y-79.598 E22.2636
G1 X6.548 Y-79.266 E22.30049
G1 X7.29 Y-78.986 E22.33084
G1 X7.928 Y-78.738 E22.35703
G1 X8.491 Y-78.515 E22.38021
G1 X9.178 Y-78.236 E22.40859
G1 X9.811 Y-77.972 E22.43483
G1 X10.394 Y-77.726 E22.45905
G1 X11.124 Y-77.408 E22.48952
G1 X11.707 Y-77.148 E22.51395
G1 X12.393 Y-76.836 E22.54279
G1 X13.422 Y-76.353 E22.58629
G1 X14.174 Y-75.99 E22.61825
G1 X14.745 Y-75.708 E22.64262
G1 X15.536 Y-75.308 E22.67654
G1 X16.278 Y-74.923 E22.70853
G1 X17.107 Y-74.482 E22.74447
G1 X17.975 Y-74.007 E22.78233
G1 X18.455 Y-73.739 E22.80337
G1 X19.343 Y-73.233 E22.84249
G1 X19.893 Y-72.912 E22.86686
G1 X20.543 Y-72.525 E22.89581
G1 X21.167 Y-72.147 E22.92373
G1 X21.56 Y-71.905 E22.94139
G1 X22.059 Y-71.592 E22.96393
G1 X22.91 Y-71.047 E23.00261
G1 X23.656 Y-70.56 E23.0367
G1 X24.423 Y-70.054 E23.07186
G1 X26.685 Y-68.615 E23.17446
G1 X29.024 Y-67.221 E23.27867
G1 X31.385 Y-65.901 E23.38218
G1 X33.805 Y-64.636 E23.48668
G1 X36.218 Y-63.461 E23.5894
G1 X38.709 Y-62.334 E23.69403
G1 X41.191 Y-61.295 E23.797
G1 X43.764 Y-60.301 E23.90256
G1 X46.265 Y-59.419 E24.00405
G1 X48.854 Y-58.585 E24.10814
G1 X51.429 Y-57.834 E24.21079
G1 X54.075 Y-57.145 E24.31543
G1 X55.059 Y-56.92 E24.35406
G1 X56.428 Y-56.59 E24.40795
G1 X56.982 Y-56.416 E24.43017
G1 X57.507 Y-56.167 E24.45241
G1 X57.993 Y-55.848 E24.47466
G1 X58.431 Y-55.466 E24.4969
G1 X58.811 Y-55.027 E24.51912
G1 X59.128 Y-54.54 E24.54136
G1 X59.376 Y-54.014 E24.56361
G1 X59.549 Y-53.459 E24.58586
G1 X59.655 Y-52.751 E24.61326
G1 X59.682 Y-52.294 E24.63078
G1 X62.966 Y45.686 E28.38253
G1 X62.979 Y46.365 E28.40852
G1 X62.95 Y46.945 E28.43074
G1 X62.842 Y47.516 E28.45298
G1 X62.657 Y48.067 E28.47522
G1 X62.397 Y48.587 E28.49747
G1 X62.069 Y49.066 E28.51969
G1 X61.678 Y49.496 E28.54193
G1 X61.232 Y49.869 E28.56418
G1 X60.739 Y50.176 E28.58641
G1 X59.96 Y50.495 E28.61862
G1 X59.49 Y50.635 E28.63739
G1 X56.884 Y51.45 E28.74189
G1 X54.319 Y52.332 E28.84569
G1 X51.759 Y53.295 E28.95036
G1 X49.257 Y54.317 E29.05379
G1 X46.789 Y55.408 E29.15706
G1 X44.337 Y56.576 E29.261
G1 X41.946 Y57.8 E29.36379
G1 X39.555 Y59.108 E29.46809
G1 X37.219 Y60.476 E29.57169
G1 X34.902 Y61.922 E29.67621
G1 X32.655 Y63.413 E29.77941
G1 X30.463 Y64.959 E29.88206
G1 X28.418 Y66.485 E29.97971
G1 X27.962 Y66.833 E30.00166
G1 X27.386 Y67.265 E30.02922
G1 X26.912 Y67.615 E30.05177
G1 X26.223 Y68.115 E30.08435
G1 X25.406 Y68.693 E30.12265
G1 X24.67 Y69.201 E30.15687
G1 X23.953 Y69.686 E30.19
G1 X23.19 Y70.191 E30.22501
G1 X22.406 Y70.697 E30.26072
G1 X21.784 Y71.089 E30.28886
G1 X21.22 Y71.438 E30.31424
G1 X20.394 Y71.938 E30.35119
G1 X19.81 Y72.284 E30.37717
G1 X19.109 Y72.691 E30.40819
G1 X18.558 Y73.005 E30.43246
G1 X17.708 Y73.479 E30.46971
G1 X16.932 Y73.9 E30.50349
G1 X16.058 Y74.362 E30.54132
G1 X15.363 Y74.72 E30.57124
G1 X14.435 Y75.185 E30.61097
G1 X13.588 Y75.597 E30.64701
G1 X12.84 Y75.952 E30.6787
G1 X11.866 Y76.4 E30.71973
G1 X11.08 Y76.751 E30.75267
G1 X10.327 Y77.077 E30.78407
G1 X9.684 Y77.35 E30.8108
G1 X9.13 Y77.58 E30.83376
G1 X8.363 Y77.89 E30.86542
G1 X7.68 Y78.159 E30.89351
G1 X7.008 Y78.417 E30.92106
G1 X6.519 Y78.601 E30.94105
G1 X5.63 Y78.926 E30.97728
G1 X4.977 Y79.157 E31.00379
G1 X4.364 Y79.37 E31.02862
G1 X3.827 Y79.551 E31.05031
G1 X2.896 Y79.856 E31.0878
G1 X2.446 Y79.999 E31.10587
G1 X1.711 Y80.226 E31.13531
G1 X0.926 Y80.461 E31.16667
G1 X0.41 Y80.611 E31.18723
G1 X-.317 Y80.816 E31.21614
G1 X-.911 Y80.979 E31.23971
G1 X-1.766 Y81.205 E31.27356
G1 X-2.336 Y81.351 E31.29607
G1 X-3.204 Y81.564 E31.33028
G1 X-4.267 Y81.811 E31.37204
G1 X-4.795 Y81.929 E31.39275
G1 X-5.577 Y82.096 E31.42335
G1 X-6.22 Y82.227 E31.44846
G1 X-7.246 Y82.428 E31.48847
G1 X-7.959 Y82.56 E31.51622
G1 X-8.628 Y82.678 E31.54222
G1 X-9.169 Y82.768 E31.56321
G1 X-10.066 Y82.911 E31.59797
G1 X-10.635 Y82.996 E31.61998
G1 X-11.552 Y83.126 E31.65543
G1 X-12.422 Y83.239 E31.689
G1 X-13.058 Y83.315 E31.71352
G1 X-14.131 Y83.434 E31.75483
G1 X-14.883 Y83.509 E31.78375
G1 X-15.486 Y83.563 E31.80692
G1 X-16.331 Y83.634 E31.83937
G1 X-17.126 Y83.692 E31.86988
G1 X-17.97 Y83.745 E31.90224
G1 X-18.832 Y83.791 E31.93528
G1 X-19.434 Y83.816 E31.95833
G1 X-20.065 Y83.83 E31.98249
G1 X-20.646 Y83.803 E32.00475
G1 X-21.217 Y83.696 E32.02698
G1 X-21.768 Y83.513 E32.0492
G1 X-22.289 Y83.255 E32.07145
G1 X-22.769 Y82.928 E32.09367
G1 X-23.2 Y82.539 E32.11589
G1 X-23.574 Y82.094 E32.13814
G1 X-23.883 Y81.602 E32.16037
G1 X-24.122 Y81.072 E32.18262
G1 X-24.285 Y80.514 E32.20487
G1 X-24.374 Y79.892 E32.22892
G1 X-24.407 Y79.265 E32.25294
G1 X-24.954 Y62.956 E32.87743
G1 X-24.967 Y62.182 E32.90706
G1 X-24.959 Y61.834 E32.92038
G1 X-24.892 Y60.81 E32.95965
G1 X-24.753 Y58.12 E33.06273
G1 X-24.69 Y55.383 E33.1675
G1 X-24.705 Y52.696 E33.27034
G1 X-24.795 Y49.971 E33.37468
G1 X-24.963 Y47.272 E33.47817
G1 X-25.205 Y44.581 E33.58157
G1 X-25.508 Y42.018 E33.68033
G1 X-25.664 Y40.828 E33.72626
G1 X-25.704 Y40.374 E33.7437
G1 X-25.731 Y39.779 E33.7665
G1 X-26.379 Y20.419 E34.50781
G1 X-26.392 Y19.739 E34.53384
G1 X-26.346 Y19.026 E34.56118
G1 X-26.19 Y18 E34.6009
G1 X-26.093 Y17.42 E34.6234
G1 X-25.723 Y14.752 E34.72648
G1 X-25.425 Y12.038 E34.83097
G1 X-25.207 Y9.352 E34.9341
G1 X-25.065 Y6.662 E35.03719
G1 X-24.997 Y3.929 E35.14181
G1 X-25.008 Y1.237 E35.24483
G0 F2040 X-24.658 Y1.224
G1 F1020 X-24.745 Y-1.493 E35.34887
G1 X-24.908 Y-4.201 E35.45269
G1 X-25.148 Y-6.907 E35.55665
G1 X-25.47 Y-9.643 E35.66208
G1 X-25.856 Y-12.289 E35.76441
G1 X-26.331 Y-15 E35.86974
G1 X-26.873 Y-17.647 E35.97314
G1 X-27.085 Y-18.549 E36.0086
