;FLAVOR:Marlin
;TIME:12879
;Filament used: 20.8303m
;Layer height: 0.3
;MINX:-54.521
;MINY:-54.443
;MINZ:0.26
;MAXX:54.528
;MAXY:54.442
;MAXZ:44.66
;Generated with Cura_SteamEngine 4.9.1
M82 ;absolute extrusion mode
;Gcode by Cura
G90
G28
M107
M109 R100
G30
M109 S215 U-55 X55 V-85 Y-85 W0.26 Z0.26
M82
G92 E0
G1 F200 E6
G92 E0
G1 F200 E-3.5
G0 Z0.15
G0 X10
G0 Z3
G1 F6000
G92 E0
G92 E0
G1 F3600 E-3.8
;LAYER_COUNT:149
;LAYER:0
M107
G0 F2040 X33.029 Y-43.281 Z0.26
;TYPE:SKIRT
G1 F3600 E0
G1 F1020 X35.484 Y-41.404 E0.11827
G1 X35.923 Y-41.026 E0.14044
G1 X36.309 Y-40.659 E0.16082
G1 X39.927 Y-37.116 E0.35461
G1 X40.313 Y-36.728 E0.37556
G1 X40.599 Y-36.412 E0.39187
G1 X41.38 Y-35.464 E0.43887
G1 X44.108 Y-32.024 E0.60689
G1 X44.575 Y-31.416 E0.63623
G1 X44.988 Y-30.804 E0.66448
G1 X47.802 Y-26.142 E0.87288
G1 X48.132 Y-25.579 E0.89785
G1 X48.329 Y-25.204 E0.91406
G1 X48.802 Y-24.19 E0.95688
G1 X50.826 Y-19.651 E1.14708
G1 X51.051 Y-19.126 E1.16894
G1 X51.198 Y-18.736 E1.18489
G1 X51.574 Y-17.573 E1.23166
G1 X52.851 Y-13.353 E1.40039
G1 X53.052 Y-12.652 E1.4283
G1 X53.216 Y-11.905 E1.45757
G1 X53.24 Y-11.775 E1.46263
G1 X54.132 Y-6.46 E1.66887
G1 X54.22 Y-5.891 E1.69091
G1 X54.265 Y-5.475 E1.70692
G1 X54.336 Y-4.318 E1.75128
G1 X54.493 Y-.565 E1.89503
G1 X54.528 Y1.069 E1.95758
G1 X54.514 Y1.566 E1.97661
G1 X54.471 Y2.187 E2.00043
G1 X54.089 Y6.92 E2.18215
G1 X54.025 Y7.597 E2.20817
G1 X53.91 Y8.333 E2.23668
G1 X53.883 Y8.47 E2.24202
G1 X52.769 Y13.687 E2.44618
G1 X52.636 Y14.269 E2.46902
G1 X52.526 Y14.668 E2.48486
G1 X52.151 Y15.814 E2.53101
G1 X50.605 Y20.248 E2.71071
G1 X50.411 Y20.782 E2.73246
G1 X50.248 Y21.173 E2.74867
G1 X49.728 Y22.273 E2.79523
G1 X47.625 Y26.51 E2.97625
G1 X47.362 Y27.024 E2.99835
G1 X47.15 Y27.394 E3.01467
G1 X46.491 Y28.429 E3.06163
G1 X44.009 Y32.176 E3.23363
G1 X43.671 Y32.671 E3.25657
G1 X43.418 Y33.008 E3.27269
G1 X42.594 Y34.002 E3.3221
G1 X39.612 Y37.456 E3.49673
G1 X39.119 Y38.01 E3.52511
G1 X38.634 Y38.494 E3.55134
G1 X38.522 Y38.598 E3.55718
G1 X36.807 Y40.131 E3.64522
G1 X36.525 Y40.381 E3.65964
G1 X35.434 Y41.359 E3.71571
G1 X34.531 Y42.18 E3.76241
G1 X34.011 Y42.638 E3.78893
G1 X33.518 Y43.024 E3.81289
G1 X33.392 Y43.115 E3.81884
G1 X29.096 Y46.1 E4.01904
G1 X28.601 Y46.433 E4.04187
G1 X28.248 Y46.648 E4.05769
G1 X27.187 Y47.229 E4.10398
G1 X22.955 Y49.444 E4.28678
G1 X22.427 Y49.71 E4.30941
G1 X22.053 Y49.878 E4.3251
G1 X20.997 Y50.296 E4.36856
G1 X16.714 Y51.885 E4.54339
G1 X16.068 Y52.114 E4.56961
G1 X15.459 Y52.295 E4.59393
G1 X14.724 Y52.475 E4.62289
G1 X10.186 Y53.539 E4.80126
G1 X9.469 Y53.697 E4.82936
G1 X8.813 Y53.799 E4.85477
G1 X3.477 Y54.365 E5.06012
G1 X2.849 Y54.423 E5.08426
G1 X2.43 Y54.442 E5.10031
G1 X1.183 Y54.441 E5.14803
G1 X-3.968 Y54.335 E5.3452
G1 X-4.535 Y54.316 E5.36691
G1 X-4.959 Y54.283 E5.38318
G1 X-6.257 Y54.117 E5.43326
G1 X-10.323 Y53.513 E5.59057
G1 X-10.991 Y53.405 E5.61647
G1 X-11.4 Y53.32 E5.63246
G1 X-12.462 Y53.046 E5.67443
G1 X-16.998 Y51.789 E5.85456
G1 X-17.638 Y51.602 E5.88008
G1 X-18.173 Y51.413 E5.90179
G1 X-18.678 Y51.204 E5.92271
G1 X-19.331 Y50.923 E5.94991
G1 X-21.77 Y49.91 E6.05098
G1 X-23.409 Y49.219 E6.11905
G1 X-23.971 Y48.972 E6.14255
G1 X-24.336 Y48.792 E6.15812
G1 X-25.356 Y48.229 E6.20271
G1 X-29.399 Y45.898 E6.38131
G1 X-29.883 Y45.61 E6.40286
G1 X-30.233 Y45.379 E6.41891
G1 X-31.224 Y44.658 E6.46581
G1 X-34.909 Y41.866 E6.64274
G1 X-35.441 Y41.451 E6.66856
G1 X-35.98 Y40.975 E6.69608
G1 X-36.08 Y40.88 E6.70136
G1 X-39.682 Y37.347 E6.89444
G1 X-40.175 Y36.871 E6.92067
G1 X-40.734 Y36.286 E6.95164
G1 X-41.033 Y35.927 E6.96952
G1 X-44.177 Y31.964 E7.16311
G1 X-44.585 Y31.433 E7.18873
G1 X-44.986 Y30.842 E7.21607
G1 X-45.064 Y30.717 E7.22171
G1 X-47.888 Y26.035 E7.43095
G1 X-48.169 Y25.555 E7.45224
G1 X-48.367 Y25.178 E7.46854
G1 X-48.892 Y24.051 E7.51611
G1 X-50.747 Y19.857 E7.69162
G1 X-50.993 Y19.279 E7.71566
G1 X-51.137 Y18.892 E7.73146
G1 X-51.464 Y17.877 E7.77227
G1 X-52.869 Y13.235 E7.95787
G1 X-53.021 Y12.703 E7.97905
G1 X-53.116 Y12.303 E7.99478
G1 X-53.357 Y11.032 E8.04429
G1 X-54.108 Y6.578 E8.21715
G1 X-54.198 Y5.993 E8.2398
G1 X-54.242 Y5.58 E8.25569
G1 X-54.314 Y4.409 E8.30059
G1 X-54.495 Y0.096 E8.46579
G1 X-54.521 Y-1.149 E8.51345
G1 X-54.475 Y-2.062 E8.54843
G1 X-54.069 Y-6.936 E8.7356
G1 X-54.005 Y-7.596 E8.76098
G1 X-53.945 Y-8.01 E8.77699
G1 X-53.63 Y-9.659 E8.84124
G1 X-52.871 Y-13.236 E8.98118
G1 X-52.67 Y-14.126 E9.01609
G1 X-52.523 Y-14.685 E9.03821
G1 X-52.447 Y-14.936 E9.04825
G1 X-52.122 Y-15.912 E9.08762
G1 X-50.645 Y-20.119 E9.25825
G1 X-50.433 Y-20.699 E9.28188
G1 X-50.273 Y-21.081 E9.29773
G1 X-49.823 Y-22.033 E9.33803
G1 X-47.626 Y-26.486 E9.52806
G1 X-47.32 Y-27.085 E9.5538
G1 X-46.961 Y-27.691 E9.58075
G1 X-46.899 Y-27.788 E9.58516
G1 X-43.921 Y-32.277 E9.79132
G1 X-43.596 Y-32.75 E9.81328
G1 X-43.351 Y-33.074 E9.82882
G1 X-42.58 Y-34.006 E9.87511
G1 X-39.54 Y-37.531 E10.05325
G1 X-39.142 Y-37.98 E10.07621
G1 X-38.848 Y-38.282 E10.09234
G1 X-37.938 Y-39.134 E10.14005
G1 X-34.67 Y-42.073 E10.30825
G1 X-34.138 Y-42.537 E10.33527
G1 X-33.622 Y-42.942 E10.36037
G1 X-32.914 Y-43.444 E10.39358
G1 X-29.121 Y-46.079 E10.57033
G1 X-28.621 Y-46.415 E10.59338
G1 X-28.271 Y-46.628 E10.60906
G1 X-27.175 Y-47.229 E10.6569
G1 X-22.97 Y-49.429 E10.83852
G1 X-22.309 Y-49.763 E10.86686
G1 X-21.834 Y-49.973 E10.88673
G1 X-21.387 Y-50.146 E10.90508
G1 X-16.74 Y-51.878 E11.09487
G1 X-16.2 Y-52.071 E11.11681
G1 X-15.599 Y-52.253 E11.14084
G1 X-15.451 Y-52.293 E11.14671
G1 X-14.547 Y-52.519 E11.18237
G1 X-10.187 Y-53.538 E11.35372
G1 X-9.449 Y-53.699 E11.38263
G1 X-8.671 Y-53.814 E11.41273
G1 X-8.59 Y-53.824 E11.41585
G1 X-3.419 Y-54.369 E11.61484
G1 X-2.821 Y-54.424 E11.63782
G1 X-2.398 Y-54.443 E11.65402
G1 X-1.178 Y-54.441 E11.70071
G1 X3.949 Y-54.337 E11.89696
G1 X4.542 Y-54.316 E11.91967
G1 X4.955 Y-54.283 E11.93552
G1 X6.161 Y-54.129 E11.98205
G1 X10.42 Y-53.498 E12.14682
G1 X11.026 Y-53.4 E12.17031
G1 X11.432 Y-53.316 E12.18618
G1 X12.54 Y-53.031 E12.22996
G1 X16.926 Y-51.815 E12.40414
G1 X17.5 Y-51.646 E12.42704
G1 X17.886 Y-51.513 E12.44267
G1 X19.072 Y-51.044 E12.49148
G1 X23.458 Y-49.202 E12.67353
G1 X23.97 Y-48.979 E12.6949
G1 X24.346 Y-48.794 E12.71094
G1 X25.43 Y-48.198 E12.75828
G1 X29.342 Y-45.938 E12.93117
G1 X29.836 Y-45.643 E12.95319
G1 X30.18 Y-45.415 E12.96899
G1 X31.174 Y-44.692 E13.01603
G1 X33.029 Y-43.281 E13.10522
G0 F2040 X32.814 Y-43.005
G1 F1020 X35.271 Y-41.126 E13.22359
G1 X35.688 Y-40.767 E13.24465
G1 X36.064 Y-40.409 E13.26452
G1 X39.679 Y-36.869 E13.45815
G1 X40.065 Y-36.481 E13.47909
G1 X40.329 Y-36.19 E13.49413
G1 X41.106 Y-35.246 E13.54092
G1 X43.831 Y-31.811 E13.70872
G1 X44.298 Y-31.203 E13.73806
G1 X44.693 Y-30.615 E13.76516
G1 X44.758 Y-30.512 E13.76983
G1 X47.5 Y-25.965 E13.97303
G1 X47.83 Y-25.402 E13.998
G1 X48.012 Y-25.055 E14.013
G1 X48.483 Y-24.048 E14.05554
G1 X50.504 Y-19.513 E14.24555
G1 X50.729 Y-18.988 E14.26741
G1 X50.865 Y-18.628 E14.28213
G1 X51.239 Y-17.472 E14.32863
G1 X52.514 Y-13.257 E14.49716
G1 X52.715 Y-12.556 E14.52506
G1 X52.873 Y-11.837 E14.55324
G1 X52.895 Y-11.717 E14.5579
G1 X53.786 Y-6.407 E14.76396
G1 X53.874 Y-5.838 E14.78599
G1 X53.916 Y-5.453 E14.80081
G1 X53.986 Y-4.304 E14.84487
G1 X54.143 Y-.557 E14.98839
G1 X54.178 Y1.077 E15.05093
G1 X54.165 Y1.542 E15.06874
G1 X54.122 Y2.159 E15.09241
G1 X53.74 Y6.887 E15.27393
G1 X53.676 Y7.564 E15.29996
G1 X53.566 Y8.271 E15.32734
G1 X53.541 Y8.397 E15.33226
G1 X52.428 Y13.609 E15.53621
G1 X52.295 Y14.191 E15.55906
G1 X52.193 Y14.56 E15.57371
G1 X51.821 Y15.699 E15.61957
G1 X50.276 Y20.129 E15.79912
G1 X50.082 Y20.663 E15.82086
G1 X49.932 Y21.024 E15.83582
G1 X49.415 Y22.117 E15.88209
G1 X47.313 Y26.351 E16.06299
G1 X47.05 Y26.865 E16.08509
G1 X46.855 Y27.206 E16.10012
G1 X46.199 Y28.236 E16.14686
G1 X43.72 Y31.979 E16.31867
G1 X43.382 Y32.474 E16.3416
G1 X43.148 Y32.785 E16.3565
G1 X42.329 Y33.773 E16.40561
G1 X39.35 Y37.224 E16.58008
G1 X38.857 Y37.778 E16.60846
G1 X38.392 Y38.241 E16.63357
G1 X38.288 Y38.337 E16.63899
G1 X36.576 Y39.869 E16.72691
G1 X36.268 Y40.141 E16.74263
G1 X35.225 Y41.076 E16.79624
G1 X34.3 Y41.918 E16.84411
G1 X33.78 Y42.376 E16.87063
G1 X33.309 Y42.744 E16.8935
G1 X33.193 Y42.828 E16.89898
G1 X28.9 Y45.81 E17.09902
G1 X28.405 Y46.143 E17.12185
G1 X28.08 Y46.341 E17.13641
G1 X27.025 Y46.919 E17.18245
G1 X22.798 Y49.131 E17.36503
G1 X22.27 Y49.397 E17.38765
G1 X21.924 Y49.552 E17.40216
G1 X20.782 Y50.003 E17.44915
G1 X16.597 Y51.555 E17.61997
G1 X15.951 Y51.784 E17.6462
G1 X15.376 Y51.955 E17.66915
G1 X14.644 Y52.134 E17.69799
G1 X10.11 Y53.197 E17.87621
G1 X9.393 Y53.355 E17.90431
G1 X8.769 Y53.452 E17.92847
G1 X3.44 Y54.017 E18.13356
G1 X2.817 Y54.074 E18.1575
G1 X2.43 Y54.092 E18.17232
G1 X1.19 Y54.091 E18.21978
G1 X-3.956 Y53.986 E18.41675
G1 X-4.523 Y53.967 E18.43847
G1 X-4.915 Y53.935 E18.45352
G1 X-6.206 Y53.77 E18.50332
G1 X-10.267 Y53.168 E18.66044
G1 X-10.935 Y53.06 E18.68633
G1 X-11.313 Y52.981 E18.70111
G1 X-12.369 Y52.709 E18.74284
G1 X-16.9 Y51.453 E18.92278
G1 X-17.54 Y51.266 E18.9483
G1 X-18.047 Y51.087 E18.96887
G1 X-18.539 Y50.883 E18.98926
G1 X-19.249 Y50.577 E19.01884
G1 X-21.634 Y49.588 E19.11765
G1 X-23.268 Y48.899 E19.18552
G1 X-23.83 Y48.652 E19.20901
G1 X-24.167 Y48.485 E19.2234
G1 X-25.181 Y47.926 E19.26771
G1 X-29.22 Y45.597 E19.44614
G1 X-29.704 Y45.309 E19.46769
G1 X-30.027 Y45.096 E19.4825
G1 X-31.013 Y44.379 E19.52916
G1 X-34.694 Y41.59 E19.7059
G1 X-35.226 Y41.175 E19.73172
G1 X-35.743 Y40.718 E19.75812
G1 X-39.41 Y37.123 E19.95465
G1 X-39.928 Y36.623 E19.9822
G1 X-40.466 Y36.062 E20.01195
G1 X-40.758 Y35.71 E20.02945
G1 X-43.899 Y31.751 E20.22285
G1 X-44.307 Y31.22 E20.24848
G1 X-44.692 Y30.652 E20.27474
G1 X-44.765 Y30.536 E20.27998
G1 X-47.586 Y25.859 E20.48901
G1 X-47.867 Y25.379 E20.51029
G1 X-48.05 Y25.03 E20.52537
G1 X-48.572 Y23.909 E20.5727
G1 X-50.425 Y19.72 E20.74799
G1 X-50.671 Y19.142 E20.77203
G1 X-50.804 Y18.784 E20.78665
G1 X-51.129 Y17.776 E20.82718
G1 X-52.532 Y13.139 E21.01258
G1 X-52.684 Y12.607 E21.03375
G1 X-52.772 Y12.237 E21.04831
G1 X-53.012 Y10.973 E21.09754
G1 X-53.762 Y6.524 E21.27021
G1 X-53.852 Y5.939 E21.29286
G1 X-53.893 Y5.558 E21.30752
G1 X-53.964 Y4.394 E21.35215
G1 X-54.145 Y0.088 E21.51709
G1 X-54.171 Y-1.157 E21.56474
G1 X-54.126 Y-2.037 E21.59846
G1 X-53.72 Y-6.902 E21.78529
G1 X-53.656 Y-7.562 E21.81067
G1 X-53.601 Y-7.944 E21.82544
G1 X-53.288 Y-9.586 E21.88941
G1 X-52.529 Y-13.159 E22.0292
G1 X-52.328 Y-14.049 E22.06411
G1 X-52.185 Y-14.594 E22.08568
G1 X-52.115 Y-14.825 E22.09491
G1 X-51.792 Y-15.796 E22.13407
G1 X-50.316 Y-19.998 E22.30452
G1 X-50.104 Y-20.578 E22.32815
G1 X-49.956 Y-20.932 E22.34283
G1 X-49.509 Y-21.878 E22.38287
G1 X-47.314 Y-26.327 E22.57273
G1 X-47.008 Y-26.926 E22.59847
G1 X-46.665 Y-27.505 E22.62422
G1 X-43.632 Y-32.079 E22.83426
G1 X-43.307 Y-32.552 E22.85622
G1 X-43.082 Y-32.851 E22.87054
G1 X-42.315 Y-33.777 E22.91655
G1 X-39.278 Y-37.299 E23.09453
G1 X-38.88 Y-37.748 E23.11749
G1 X-38.609 Y-38.026 E23.13235
G1 X-37.704 Y-38.874 E23.17981
G1 X-34.44 Y-41.809 E23.3478
G1 X-33.908 Y-42.273 E23.37481
G1 X-33.419 Y-42.657 E23.39861
G1 X-32.715 Y-43.157 E23.43165
G1 X-28.926 Y-45.789 E23.60821
G1 X-28.426 Y-46.125 E23.63126
G1 X-28.103 Y-46.321 E23.64572
G1 X-27.012 Y-46.919 E23.69333
G1 X-22.812 Y-49.117 E23.87474
G1 X-22.151 Y-49.451 E23.90308
G1 X-21.615 Y-49.684 E23.92545
G1 X-21.264 Y-49.818 E23.93983
G1 X-16.622 Y-51.549 E24.12943
G1 X-16.082 Y-51.742 E24.15137
G1 X-15.503 Y-51.916 E24.17451
G1 X-15.366 Y-51.953 E24.17994
G1 X-14.467 Y-52.178 E24.21541
G1 X-10.113 Y-53.196 E24.38652
G1 X-9.375 Y-53.357 E24.41543
G1 X-8.628 Y-53.467 E24.44433
G1 X-3.443 Y-54.015 E24.64386
G1 X-2.789 Y-54.075 E24.66899
G1 X-2.398 Y-54.093 E24.68397
G1 X-1.185 Y-54.091 E24.73039
G1 X3.937 Y-53.987 E24.92645
G1 X4.53 Y-53.966 E24.94916
G1 X4.911 Y-53.935 E24.96379
G1 X6.11 Y-53.783 E25.01004
G1 X10.364 Y-53.153 E25.17461
G1 X10.97 Y-53.055 E25.19811
G1 X11.345 Y-52.977 E25.21276
G1 X12.446 Y-52.694 E25.25627
G1 X16.827 Y-51.479 E25.43026
G1 X17.401 Y-51.31 E25.45316
G1 X17.758 Y-51.187 E25.46761
G1 X18.937 Y-50.722 E25.51611
G1 X23.318 Y-48.882 E25.69795
G1 X23.83 Y-48.659 E25.71933
G1 X24.178 Y-48.488 E25.73416
G1 X25.255 Y-47.895 E25.78122
G1 X29.162 Y-45.637 E25.95391
G1 X29.656 Y-45.342 E25.97593
G1 X29.975 Y-45.132 E25.99054
G1 X30.962 Y-44.413 E26.03728
G1 X32.814 Y-43.005 E26.12631
G0 F2040 X32.706 Y-42.646
G1 F1020 X35.058 Y-40.848 E26.23961
G1 X35.453 Y-40.508 E26.25955
G1 X35.819 Y-40.159 E26.2789
G1 X39.431 Y-36.622 E26.47237
G1 X39.817 Y-36.234 E26.49332
G1 X40.059 Y-35.967 E26.50711
G1 X40.832 Y-35.029 E26.55362
G1 X43.553 Y-31.597 E26.72123
G1 X44.02 Y-30.989 E26.75057
G1 X44.399 Y-30.426 E26.77655
G1 X47.173 Y-25.831 E26.98196
G1 X47.528 Y-25.226 E27.0088
G1 X47.695 Y-24.907 E27.02258
G1 X48.163 Y-23.905 E27.0649
G1 X50.183 Y-19.375 E27.25472
G1 X50.408 Y-18.85 E27.27658
G1 X50.532 Y-18.52 E27.29007
G1 X50.904 Y-17.371 E27.33629
G1 X52.178 Y-13.16 E27.50465
G1 X52.379 Y-12.459 E27.53256
G1 X52.529 Y-11.769 E27.55958
G1 X52.549 Y-11.659 E27.56386
G1 X53.44 Y-6.353 E27.76976
G1 X53.528 Y-5.784 E27.7918
G1 X53.567 Y-5.431 E27.80539
G1 X53.637 Y-4.289 E27.84918
G1 X53.793 Y-.55 E27.99239
G1 X53.828 Y1.084 E28.05494
G1 X53.816 Y1.518 E28.07155
G1 X53.773 Y2.131 E28.09507
G1 X53.392 Y6.854 E28.2764
G1 X53.328 Y7.531 E28.30243
G1 X53.221 Y8.208 E28.32866
G1 X53.199 Y8.324 E28.33317
G1 X52.087 Y13.531 E28.53694
G1 X51.954 Y14.113 E28.55978
G1 X51.86 Y14.451 E28.57321
G1 X51.49 Y15.583 E28.61879
G1 X49.947 Y20.009 E28.79817
G1 X49.753 Y20.543 E28.81991
G1 X49.615 Y20.874 E28.83363
G1 X49.101 Y21.962 E28.87968
G1 X47.002 Y26.191 E29.06036
G1 X46.739 Y26.705 E29.08246
G1 X46.559 Y27.018 E29.09628
G1 X45.908 Y28.043 E29.14275
G1 X43.431 Y31.781 E29.31435
G1 X43.093 Y32.276 E29.33729
G1 X42.878 Y32.562 E29.35099
G1 X42.064 Y33.545 E29.39983
G1 X39.089 Y36.991 E29.57405
G1 X38.596 Y37.545 E29.60243
G1 X38.15 Y37.989 E29.62652
G1 X38.055 Y38.076 E29.63145
G1 X36.344 Y39.607 E29.71931
G1 X36.036 Y39.879 E29.73504
G1 X34.967 Y40.837 E29.78997
G1 X34.068 Y41.655 E29.83649
G1 X33.548 Y42.113 E29.863
G1 X33.1 Y42.463 E29.88476
G1 X32.993 Y42.54 E29.88981
G1 X28.705 Y45.519 E30.08962
G1 X28.21 Y45.852 E30.11245
G1 X27.912 Y46.034 E30.12581
G1 X26.862 Y46.609 E30.17163
G1 X22.64 Y48.819 E30.354
G1 X22.112 Y49.085 E30.37662
G1 X21.795 Y49.227 E30.38992
G1 X20.66 Y49.675 E30.43661
G1 X16.48 Y51.225 E30.60722
G1 X15.834 Y51.454 E30.63345
G1 X15.292 Y51.615 E30.65509
G1 X14.564 Y51.794 E30.68378
G1 X10.035 Y52.855 E30.8618
G1 X9.318 Y53.013 E30.8899
G1 X8.725 Y53.104 E30.91285
G1 X3.35 Y53.674 E31.11971
G1 X2.785 Y53.726 E31.14142
G1 X2.43 Y53.742 E31.15502
G1 X1.197 Y53.741 E31.20221
G1 X-3.945 Y53.636 E31.39903
G1 X-4.512 Y53.617 E31.42074
G1 X-4.87 Y53.588 E31.43449
G1 X-6.154 Y53.424 E31.48402
G1 X-10.211 Y52.822 E31.64098
G1 X-10.879 Y52.714 E31.66688
G1 X-11.226 Y52.642 E31.68044
G1 X-12.275 Y52.371 E31.7219
G1 X-16.802 Y51.117 E31.90167
G1 X-17.442 Y50.93 E31.92719
G1 X-17.921 Y50.76 E31.94664
G1 X-18.401 Y50.562 E31.96651
G1 X-19.111 Y50.256 E31.9961
G1 X-21.498 Y49.265 E32.09501
G1 X-23.127 Y48.578 E32.16267
G1 X-23.689 Y48.331 E32.18616
G1 X-23.999 Y48.179 E32.19937
G1 X-25.007 Y47.623 E32.24343
G1 X-29.042 Y45.296 E32.42168
G1 X-29.526 Y45.008 E32.44324
G1 X-29.822 Y44.813 E32.4568
G1 X-30.802 Y44.1 E32.50318
G1 X-34.478 Y41.314 E32.6797
G1 X-35.01 Y40.899 E32.70552
G1 X-35.505 Y40.46 E32.73084
G1 X-35.589 Y40.38 E32.73528
G1 X-39.167 Y36.871 E32.92707
G1 X-39.681 Y36.375 E32.9544
G1 X-40.197 Y35.838 E32.9829
G1 X-40.484 Y35.492 E33.00011
G1 X-43.622 Y31.538 E33.19329
G1 X-44.03 Y31.007 E33.21891
G1 X-44.398 Y30.461 E33.24411
G1 X-44.465 Y30.355 E33.24891
G1 X-47.284 Y25.682 E33.45776
G1 X-47.565 Y25.202 E33.47905
G1 X-47.733 Y24.882 E33.49288
G1 X-48.252 Y23.768 E33.53991
G1 X-50.103 Y19.582 E33.71507
G1 X-50.349 Y19.004 E33.73911
G1 X-50.471 Y18.677 E33.75247
G1 X-50.794 Y17.674 E33.79279
G1 X-52.196 Y13.043 E33.97796
G1 X-52.348 Y12.511 E33.99914
