;FLAVOR:Marlin
;TIME:6341
;Filament used: 8.02477m
;Layer height: 0.3
;MINX:-66.953
;MINY:-73.875
;MINZ:0.26
;MAXX:42.143
;MAXY:25.39
;MAXZ:22.76
;Generated with Cura_SteamEngine 4.9.1
M82 ;absolute extrusion mode
;Gcode by Cura
G90
G28
M107
M109 R100
G30
M109 S215 U-55 X55 V-85 Y-85 W0.26 Z0.26
M82
G92 E0
G1 F200 E6
G92 E0
G1 F200 E-3.5
G0 Z0.15
G0 X10
G0 Z3
G1 F6000
G92 E0
G92 E0
G1 F3600 E-3.8
;LAYER_COUNT:76
;LAYER:0
M107
G0 F2040 X36.587 Y25.39 Z0.26
;TYPE:SKIRT
G1 F3600 E0
G1 F1020 X-61.761 Y25.39 E3.76373
G1 X-62.441 Y25.381 E3.78976
G1 X-63.043 Y25.333 E3.81287
G1 X-63.634 Y25.206 E3.836
G1 X-64.204 Y25.002 E3.85917
G1 X-64.741 Y24.725 E3.88229
G1 X-65.237 Y24.379 E3.90544
G1 X-65.683 Y23.971 E3.92857
G1 X-66.072 Y23.508 E3.95171
G1 X-66.396 Y22.997 E3.97487
G1 X-66.65 Y22.449 E3.99798
G1 X-66.829 Y21.871 E4.02114
G1 X-66.931 Y21.275 E4.04428
G1 X-66.953 Y20.671 E4.06741
G1 X-66.895 Y20.069 E4.09055
G1 X-66.759 Y19.48 E4.11369
G1 X-66.423 Y18.665 E4.14742
G1 X-65.913 Y17.703 E4.18909
G1 X-16.664 Y-71.08 E8.07451
G1 X-16.381 Y-71.574 E8.0963
G1 X-16.046 Y-72.078 E8.11946
G1 X-15.648 Y-72.533 E8.14259
G1 X-15.193 Y-72.932 E8.16575
G1 X-14.69 Y-73.267 E8.18888
G1 X-14.147 Y-73.533 E8.21202
G1 X-13.574 Y-73.725 E8.23515
G1 X-12.98 Y-73.839 E8.25829
G1 X-12.377 Y-73.875 E8.28141
G1 X-11.774 Y-73.83 E8.30455
G1 X-11.182 Y-73.707 E8.32769
G1 X-10.611 Y-73.506 E8.35086
G1 X-10.072 Y-73.232 E8.374
G1 X-9.574 Y-72.889 E8.39714
G1 X-9.126 Y-72.484 E8.42025
G1 X-8.734 Y-72.023 E8.44341
G1 X-8.453 Y-71.594 E8.46304
G1 X-8.009 Y-70.827 E8.49695
G1 X41.285 Y18.04 E12.38602
G1 X41.603 Y18.633 E12.41177
G1 X41.853 Y19.183 E12.43489
G1 X42.028 Y19.762 E12.45804
G1 X42.125 Y20.359 E12.48118
G1 X42.143 Y20.963 E12.50431
G1 X42.081 Y21.565 E12.52747
G1 X41.94 Y22.153 E12.55061
G1 X41.723 Y22.717 E12.57373
G1 X41.433 Y23.248 E12.59689
G1 X41.076 Y23.736 E12.62003
G1 X40.657 Y24.172 E12.64317
G1 X40.185 Y24.55 E12.66631
G1 X39.667 Y24.862 E12.68945
G1 X39.112 Y25.103 E12.71261
G1 X38.531 Y25.268 E12.73572
G1 X37.664 Y25.369 E12.76913
G1 X36.587 Y25.39 E12.81035
G0 F2040 X36.587 Y25.04
G1 F1020 X-61.756 Y25.04 E16.57389
G1 X-62.436 Y25.031 E16.59992
G1 X-63.015 Y24.983 E16.62215
G1 X-63.582 Y24.856 E16.64439
G1 X-64.126 Y24.653 E16.66661
G1 X-64.638 Y24.377 E16.68887
G1 X-65.106 Y24.034 E16.71107
G1 X-65.523 Y23.629 E16.73332
G1 X-65.881 Y23.171 E16.75556
G1 X-66.172 Y22.668 E16.7778
G1 X-66.392 Y22.131 E16.80001
G1 X-66.536 Y21.568 E16.82225
G1 X-66.601 Y20.99 E16.84451
G1 X-66.586 Y20.409 E16.86675
G1 X-66.492 Y19.836 E16.88897
G1 X-66.32 Y19.281 E16.91121
G1 X-66.114 Y18.829 E16.93022
G1 X-65.607 Y17.873 E16.97163
G1 X-16.36 Y-70.906 E20.85688
G1 X-16.077 Y-71.4 E20.87867
G1 X-15.754 Y-71.883 E20.9009
G1 X-15.368 Y-72.318 E20.92316
G1 X-14.926 Y-72.695 E20.94539
G1 X-14.437 Y-73.008 E20.96761
G1 X-13.909 Y-73.251 E20.98985
G1 X-13.353 Y-73.419 E21.01208
G1 X-12.779 Y-73.509 E21.03432
G1 X-12.198 Y-73.52 E21.05656
G1 X-11.621 Y-73.45 E21.0788
G1 X-11.059 Y-73.303 E21.10103
G1 X-10.523 Y-73.079 E21.12326
G1 X-10.022 Y-72.785 E21.14549
G1 X-9.566 Y-72.424 E21.16775
G1 X-9.165 Y-72.004 E21.18997
G1 X-8.755 Y-71.418 E21.21734
G1 X-8.315 Y-70.657 E21.25098
G1 X40.976 Y18.205 E25.13983
G1 X41.294 Y18.798 E25.16558
G1 X41.533 Y19.328 E25.18783
G1 X41.697 Y19.885 E25.21005
G1 X41.783 Y20.46 E25.2323
G1 X41.789 Y21.041 E25.25453
G1 X41.715 Y21.618 E25.2768
G1 X41.563 Y22.178 E25.299
G1 X41.336 Y22.713 E25.32124
G1 X41.037 Y23.211 E25.34347
G1 X40.673 Y23.664 E25.36571
G1 X40.25 Y24.062 E25.38794
G1 X39.776 Y24.399 E25.4102
G1 X39.261 Y24.667 E25.43241
G1 X38.713 Y24.863 E25.45469
G1 X38.145 Y24.981 E25.47689
G1 X37.657 Y25.019 E25.49562
G1 X36.587 Y25.04 E25.53658
G0 F2040 X36.587 Y24.69
G1 F1020 X-61.751 Y24.69 E29.29992
G1 X-62.431 Y24.681 E29.32595
G1 X-62.986 Y24.633 E29.34727
G1 X-63.528 Y24.507 E29.36856
G1 X-64.046 Y24.305 E29.38984
G1 X-64.53 Y24.03 E29.41114
G1 X-64.969 Y23.689 E29.43242
G1 X-65.356 Y23.288 E29.45374
G1 X-65.68 Y22.837 E29.475
G1 X-65.937 Y22.343 E29.49631
G1 X-66.121 Y21.818 E29.5176
G1 X-66.227 Y21.271 E29.53892
G1 X-66.254 Y20.716 E29.56018
G1 X-66.201 Y20.162 E29.58148
G1 X-66.069 Y19.621 E29.60279
G1 X-65.805 Y18.993 E29.62886
G1 X-65.301 Y18.042 E29.67005
G1 X-16.056 Y-70.732 E33.5551
G1 X-15.773 Y-71.226 E33.57688
G1 X-15.463 Y-71.688 E33.59818
G1 X-15.089 Y-72.1 E33.61947
G1 X-14.661 Y-72.455 E33.64075
G1 X-14.186 Y-72.745 E33.66205
G1 X-13.674 Y-72.963 E33.68335
G1 X-13.136 Y-73.107 E33.70466
G1 X-12.584 Y-73.171 E33.72593
G1 X-12.027 Y-73.156 E33.74725
G1 X-11.479 Y-73.061 E33.76853
G1 X-10.95 Y-72.889 E33.78982
G1 X-10.451 Y-72.643 E33.81111
G1 X-9.992 Y-72.328 E33.83242
G1 X-9.584 Y-71.95 E33.8537
G1 X-9.233 Y-71.518 E33.875
G1 X-9.058 Y-71.243 E33.88748
G1 X-8.621 Y-70.488 E33.92086
G1 X40.668 Y18.371 E37.80957
G1 X40.986 Y18.964 E37.83532
G1 X41.213 Y19.472 E37.85661
G1 X41.365 Y20.007 E37.8779
G1 X41.439 Y20.558 E37.89917
G1 X41.433 Y21.115 E37.92049
G1 X41.347 Y21.665 E37.94179
G1 X41.184 Y22.196 E37.96305
G1 X40.946 Y22.699 E37.98435
G1 X40.638 Y23.163 E38.00566
G1 X40.267 Y23.578 E38.02696
G1 X39.841 Y23.935 E38.04823
G1 X39.368 Y24.228 E38.06952
G1 X38.858 Y24.45 E38.09081
G1 X38.321 Y24.597 E38.11212
G1 X37.65 Y24.669 E38.13794
G1 X36.587 Y24.69 E38.17863
G0 F2040 X36.587 Y24.34
G1 F1020 X-61.747 Y24.34 E41.94183
G1 X-62.427 Y24.331 E41.96785
G1 X-62.955 Y24.284 E41.98814
G1 X-63.471 Y24.158 E42.00847
G1 X-63.962 Y23.956 E42.02879
G1 X-64.417 Y23.683 E42.04909
G1 X-64.825 Y23.345 E42.06937
G1 X-65.179 Y22.949 E42.08969
G1 X-65.469 Y22.505 E42.10999
G1 X-65.689 Y22.022 E42.1303
G1 X-65.834 Y21.511 E42.15063
G1 X-65.9 Y20.985 E42.17092
G1 X-65.887 Y20.454 E42.19124
G1 X-65.795 Y19.932 E42.21153
G1 X-65.625 Y19.429 E42.23185
G1 X-65.495 Y19.157 E42.24338
G1 X-64.995 Y18.212 E42.2843
G1 X-15.753 Y-70.558 E46.16915
G1 X-15.47 Y-71.052 E46.19094
G1 X-15.172 Y-71.492 E46.21128
G1 X-14.812 Y-71.881 E46.23156
G1 X-14.397 Y-72.212 E46.25188
G1 X-13.937 Y-72.477 E46.27219
G1 X-13.443 Y-72.671 E46.2925
G1 X-12.925 Y-72.787 E46.31282
G1 X-12.396 Y-72.825 E46.33311
G1 X-11.867 Y-72.783 E46.35342
G1 X-11.35 Y-72.662 E46.37374
G1 X-10.858 Y-72.464 E46.39404
G1 X-10.4 Y-72.195 E46.41437
G1 X-9.989 Y-71.861 E46.43463
G1 X-9.632 Y-71.468 E46.45495
G1 X-9.361 Y-71.067 E46.47347
G1 X-8.927 Y-70.318 E46.5066
G1 X40.36 Y18.536 E50.3951
G1 X40.678 Y19.129 E50.42085
G1 X40.892 Y19.614 E50.44114
G1 X41.032 Y20.126 E50.46145
G1 X41.093 Y20.653 E50.48176
G1 X41.074 Y21.184 E50.50209
G1 X40.976 Y21.705 E50.52238
G1 X40.801 Y22.206 E50.54269
G1 X40.553 Y22.675 E50.56299
G1 X40.237 Y23.101 E50.58329
G1 X39.86 Y23.475 E50.60361
G1 X39.432 Y23.789 E50.62393
G1 X38.962 Y24.034 E50.64421
G1 X38.46 Y24.206 E50.66452
G1 X37.937 Y24.301 E50.68486
G1 X37.643 Y24.319 E50.69613
G1 X36.587 Y24.34 E50.73655
G0 F2040 X36.587 Y23.99
G1 F1020 X-61.742 Y23.99 E54.49956
G1 X-62.422 Y23.981 E54.52558
G1 X-62.923 Y23.934 E54.54484
G1 X-63.411 Y23.809 E54.56412
G1 X-63.873 Y23.608 E54.5834
G1 X-64.297 Y23.337 E54.60266
G1 X-64.673 Y23.002 E54.62193
G1 X-64.992 Y22.612 E54.64121
G1 X-65.244 Y22.176 E54.66048
G1 X-65.425 Y21.706 E54.67976
G1 X-65.529 Y21.213 E54.69904
G1 X-65.554 Y20.71 E54.71831
G1 X-65.498 Y20.21 E54.73757
G1 X-65.365 Y19.724 E54.75685
G1 X-65.186 Y19.32 E54.77376
G1 X-64.688 Y18.382 E54.8144
G1 X-15.449 Y-70.384 E58.69907
G1 X-15.166 Y-70.878 E58.72085
G1 X-14.882 Y-71.294 E58.74013
G1 X-14.535 Y-71.66 E58.75943
G1 X-14.136 Y-71.966 E58.77867
G1 X-13.692 Y-72.205 E58.79797
G1 X-13.217 Y-72.371 E58.81723
G1 X-12.721 Y-72.46 E58.83651
G1 X-12.218 Y-72.469 E58.85577
G1 X-11.719 Y-72.399 E58.87505
G1 X-11.238 Y-72.25 E58.89432
G1 X-10.786 Y-72.028 E58.91359
G1 X-10.375 Y-71.737 E58.93286
G1 X-10.016 Y-71.384 E58.95213
G1 X-9.664 Y-70.892 E58.97528
G1 X-9.234 Y-70.148 E59.00817
G1 X40.051 Y18.702 E62.8965
G1 X40.369 Y19.295 E62.92225
G1 X40.571 Y19.756 E62.94151
G1 X40.698 Y20.243 E62.96077
G1 X40.746 Y20.745 E62.98007
G1 X40.714 Y21.247 E62.99932
G1 X40.603 Y21.738 E63.01858
G1 X40.415 Y22.206 E63.03788
G1 X40.157 Y22.638 E63.05714
G1 X39.833 Y23.023 E63.0764
G1 X39.452 Y23.353 E63.09569
G1 X39.024 Y23.618 E63.11495
G1 X38.559 Y23.812 E63.13423
G1 X38.07 Y23.931 E63.15349
G1 X37.636 Y23.969 E63.17017
G1 X36.587 Y23.99 E63.21032
G1 F3600 E59.41032
;MESH:support_tri_0_081.stl
G0 F2040 X36.587 Y21.48
G0 X36.587 Y20.445
G0 X-61.515 Y20.29
;TYPE:WALL-INNER
G1 F3600 E63.21032
G1 F1020 X-12.407 Y-68.242 E67.08472
G1 X36.701 Y20.29 E70.95912
G1 X-61.515 Y20.29 E74.7178
G0 F2040 X-62.067 Y20.615
;TYPE:WALL-OUTER
G1 F1020 X-12.407 Y-68.912 E78.63575
G1 X37.253 Y20.615 E82.55369
G1 X-62.067 Y20.615 E86.35462
G0 F2040 X-61.97 Y20.441
G0 X-61.726 Y20.415
G0 X-60.938 Y19.95
;TYPE:SKIN
G1 F1020 X-12.407 Y-67.541 E90.18348
G1 X36.124 Y19.95 E94.01233
G1 X-60.938 Y19.95 E97.72684
G0 F2040 X-60.572 Y19.613
G1 F1020 X-60.392 Y19.793 E97.73659
G0 F2040 X-59.897 Y19.793
G1 F1020 X-60.395 Y19.295 E97.76354
G0 F2040 X-60.218 Y18.977
G1 F1020 X-59.402 Y19.793 E97.8077
G0 F2040 X-58.907 Y19.793
G1 F1020 X-60.042 Y18.658 E97.86913
G0 F2040 X-59.865 Y18.34
G1 F1020 X-58.412 Y19.793 E97.94777
G0 F2040 X-57.917 Y19.793
G1 F1020 X-59.689 Y18.022 E98.04364
G0 F2040 X-59.512 Y17.703
G1 F1020 X-57.422 Y19.793 E98.15676
G0 F2040 X-56.927 Y19.793
G1 F1020 X-59.336 Y17.384 E98.28713
G0 F2040 X-59.159 Y17.066
G1 F1020 X-56.432 Y19.793 E98.43472
G0 F2040 X-55.937 Y19.793
G1 F1020 X-58.982 Y16.748 E98.59952
G0 F2040 X-58.805 Y16.43
G1 F1020 X-55.442 Y19.793 E98.78153
G0 F2040 X-54.947 Y19.793
G1 F1020 X-58.629 Y16.111 E98.98081
G0 F2040 X-58.452 Y15.793
G1 F1020 X-54.452 Y19.793 E99.19729
G0 F2040 X-53.957 Y19.793
G1 F1020 X-58.276 Y15.475 E99.43101
G0 F2040 X-58.099 Y15.156
G1 F1020 X-53.462 Y19.793 E99.68197
G0 F2040 X-52.967 Y19.793
G1 F1020 X-57.923 Y14.837 E99.9502
G0 F2040 X-57.746 Y14.519
G1 F1020 X-52.472 Y19.793 E100.23564
G0 F2040 X-51.978 Y19.793
G1 F1020 X-57.569 Y14.201 E100.53825
G0 F2040 X-57.393 Y13.883
G1 F1020 X-51.483 Y19.793 E100.85811
G0 F2040 X-50.988 Y19.793
G1 F1020 X-57.216 Y13.564 E101.19521
G0 F2040 X-57.04 Y13.246
G1 F1020 X-50.493 Y19.793 E101.54954
G0 F2040 X-49.998 Y19.793
G1 F1020 X-56.863 Y12.928 E101.92108
G0 F2040 X-56.686 Y12.609
G1 F1020 X-49.503 Y19.793 E102.30986
G0 F2040 X-49.008 Y19.793
G1 F1020 X-56.51 Y12.29 E102.7159
G0 F2040 X-56.333 Y11.972
G1 F1020 X-48.513 Y19.793 E103.13916
G0 F2040 X-48.018 Y19.793
G1 F1020 X-56.157 Y11.654 E103.57965
G0 F2040 X-55.98 Y11.336
G1 F1020 X-47.523 Y19.793 E104.03736
G0 F2040 X-47.028 Y19.793
G1 F1020 X-55.804 Y11.017 E104.51233
G0 F2040 X-55.627 Y10.699
G1 F1020 X-46.533 Y19.793 E105.0045
G0 F2040 X-46.038 Y19.793
G1 F1020 X-55.45 Y10.381 E105.51389
G0 F2040 X-55.273 Y10.062
G1 F1020 X-45.543 Y19.793 E106.04052
G0 F2040 X-45.048 Y19.793
G1 F1020 X-55.097 Y9.743 E106.58441
G0 F2040 X-54.92 Y9.425
G1 F1020 X-44.553 Y19.793 E107.14551
G0 F2040 X-44.058 Y19.793
G1 F1020 X-54.744 Y9.107 E107.72385
G0 F2040 X-54.567 Y8.789
G1 F1020 X-43.563 Y19.793 E108.31941
G0 F2040 X-43.068 Y19.793
G1 F1020 X-54.391 Y8.47 E108.93222
G0 F2040 X-54.214 Y8.152
G1 F1020 X-42.573 Y19.793 E109.56225
G0 F2040 X-42.078 Y19.793
G1 F1020 X-54.037 Y7.834 E110.20948
G0 F2040 X-53.861 Y7.515
G1 F1020 X-41.583 Y19.793 E110.87398
G0 F2040 X-41.088 Y19.793
G1 F1020 X-53.684 Y7.196 E111.55572
G0 F2040 X-53.508 Y6.878
G1 F1020 X-40.593 Y19.793 E112.2547
G0 F2040 X-40.098 Y19.793
G1 F1020 X-53.331 Y6.56 E112.97089
G0 F2040 X-53.154 Y6.242
G1 F1020 X-39.603 Y19.793 E113.70428
G0 F2040 X-39.108 Y19.793
G1 F1020 X-52.978 Y5.923 E114.45494
G0 F2040 X-52.801 Y5.605
G1 F1020 X-38.613 Y19.793 E115.22282
G0 F2040 X-38.118 Y19.793
G1 F1020 X-52.625 Y5.287 E116.00793
G0 F2040 X-52.448 Y4.968
G1 F1020 X-37.623 Y19.793 E116.81028
G0 F2040 X-37.128 Y19.793
G1 F1020 X-52.272 Y4.649 E117.62989
G0 F2040 X-52.095 Y4.331
G1 F1020 X-36.633 Y19.793 E118.46671
G0 F2040 X-36.138 Y19.793
G1 F1020 X-51.918 Y4.013 E119.32074
G0 F2040 X-51.741 Y3.695
G1 F1020 X-35.643 Y19.793 E120.19199
G0 F2040 X-35.148 Y19.793
G1 F1020 X-51.565 Y3.376 E121.0805
G0 F2040 X-51.388 Y3.058
G1 F1020 X-34.653 Y19.793 E121.98622
G0 F2040 X-34.158 Y19.793
G1 F1020 X-51.212 Y2.74 E122.90917
G0 F2040 X-51.035 Y2.421
G1 F1020 X-33.663 Y19.793 E123.84937
G0 F2040 X-33.168 Y19.793
G1 F1020 X-50.859 Y2.102 E124.80683
G0 F2040 X-50.682 Y1.784
G1 F1020 X-32.673 Y19.793 E125.7815
G0 F2040 X-32.179 Y19.793
G1 F1020 X-50.505 Y1.466 E126.77335
G0 F2040 X-50.329 Y1.148
G1 F1020 X-31.684 Y19.793 E127.78244
G0 F2040 X-31.189 Y19.793
G1 F1020 X-50.152 Y0.829 E128.80877
G0 F2040 X-49.976 Y0.511
G1 F1020 X-30.694 Y19.793 E129.85234
G0 F2040 X-30.199 Y19.793
G1 F1020 X-49.799 Y0.193 E130.91312
G0 F2040 X-49.622 Y-.125
G1 F1020 X-29.704 Y19.793 E131.9911
G0 F2040 X-29.209 Y19.793
G1 F1020 X-49.446 Y-.444 E133.08636
G0 F2040 X-49.269 Y-.762
G1 F1020 X-28.714 Y19.793 E134.19882
G0 F2040 X-28.219 Y19.793
G1 F1020 X-49.093 Y-1.08 E135.32852
G0 F2040 X-48.916 Y-1.398
G1 F1020 X-27.724 Y19.793 E136.47543
G0 F2040 X-27.229 Y19.793
G1 F1020 X-48.74 Y-1.717 E137.63961
G0 F2040 X-48.563 Y-2.035
G1 F1020 X-26.734 Y19.793 E138.82099
G0 F2040 X-26.239 Y19.793
G1 F1020 X-48.386 Y-2.353 E140.01959
G0 F2040 X-48.209 Y-2.672
G1 F1020 X-25.744 Y19.793 E141.23542
G0 F2040 X-25.249 Y19.793
G1 F1020 X-48.033 Y-2.991 E142.46852
G0 F2040 X-47.856 Y-3.309
G1 F1020 X-24.754 Y19.793 E143.71883
G0 F2040 X-24.259 Y19.793
G1 F1020 X-47.68 Y-3.627 E144.98638
G0 F2040 X-47.503 Y-3.945
G1 F1020 X-23.764 Y19.793 E146.27114
G0 F2040 X-23.269 Y19.793
G1 F1020 X-47.327 Y-4.264 E147.57316
G0 F2040 X-47.15 Y-4.582
G1 F1020 X-22.774 Y19.793 E148.89239
G0 F2040 X-22.279 Y19.793
G1 F1020 X-46.973 Y-4.9 E150.22884
G0 F2040 X-46.797 Y-5.219
G1 F1020 X-21.784 Y19.793 E151.58254
G0 F2040 X-21.289 Y19.793
G1 F1020 X-46.62 Y-5.538 E152.95349
G0 F2040 X-46.444 Y-5.856
G1 F1020 X-20.794 Y19.793 E154.34167
G0 F2040 X-20.299 Y19.793
G1 F1020 X-46.267 Y-6.174 E155.74707
G0 F2040 X-46.091 Y-6.493
G1 F1020 X-19.804 Y19.793 E157.16973
G0 F2040 X-19.309 Y19.793
G1 F1020 X-45.914 Y-6.811 E158.6096
G0 F2040 X-45.737 Y-7.129
G1 F1020 X-18.814 Y19.793 E160.06668
G0 F2040 X-18.319 Y19.793
G1 F1020 X-45.561 Y-7.447 E161.54099
G0 F2040 X-45.384 Y-7.766
G1 F1020 X-17.824 Y19.793 E163.03255
G0 F2040 X-17.329 Y19.793
G1 F1020 X-45.208 Y-8.085 E164.54137
G0 F2040 X-45.031 Y-8.403
G1 F1020 X-16.834 Y19.793 E166.0674
G0 F2040 X-16.339 Y19.793
G1 F1020 X-44.854 Y-8.721 E167.61064
G0 F2040 X-44.678 Y-9.04
G1 F1020 X-15.844 Y19.793 E169.17115
G0 F2040 X-15.349 Y19.793
G1 F1020 X-44.501 Y-9.358 E170.74886
G0 F2040 X-44.324 Y-9.676
G1 F1020 X-14.854 Y19.793 E172.34379
G0 F2040 X-14.359 Y19.793
G1 F1020 X-44.148 Y-9.994 E173.95595
G0 F2040 X-43.972 Y-10.313
G1 F1020 X-13.864 Y19.793 E175.58538
G0 F2040 X-13.369 Y19.793
G1 F1020 X-43.795 Y-10.632 E177.23205
G0 F2040 X-43.618 Y-10.95
G1 F1020 X-12.875 Y19.793 E178.8959
G0 F2040 X-12.38 Y19.793
G1 F1020 X-43.441 Y-11.268 E180.57696
G0 F2040 X-43.265 Y-11.587
G1 F1020 X-11.885 Y19.793 E182.27529
G0 F2040 X-11.39 Y19.793
G1 F1020 X-43.088 Y-11.905 E183.99082
G0 F2040 X-42.912 Y-12.223
G1 F1020 X-10.895 Y19.793 E185.7236
G0 F2040 X-10.4 Y19.793
G1 F1020 X-42.735 Y-12.541 E187.47358
G0 F2040 X-42.559 Y-12.86
G1 F1020 X-9.905 Y19.793 E189.24083
G0 F2040 X-9.41 Y19.793
G1 F1020 X-42.382 Y-13.179 E191.02532
G0 F2040 X-42.205 Y-13.497
G1 F1020 X-8.915 Y19.793 E192.82701
G0 F2040 X-8.42 Y19.793
G1 F1020 X-42.029 Y-13.815 E194.64595
G0 F2040 X-41.852 Y-14.134
G1 F1020 X-7.925 Y19.793 E196.48212
G0 F2040 X-7.43 Y19.793
G1 F1020 X-41.676 Y-14.452 E198.33553
G0 F2040 X-41.499 Y-14.77
G1 F1020 X-6.935 Y19.793 E200.20615
G0 F2040 X-6.44 Y19.793
G1 F1020 X-41.322 Y-15.088 E202.09398
G0 F2040 X-41.146 Y-15.407
G1 F1020 X-5.945 Y19.793 E203.99908
G0 F2040 X-5.45 Y19.793
G1 F1020 X-40.969 Y-15.726 E205.92141
G0 F2040 X-40.792 Y-16.044
G1 F1020 X-4.955 Y19.793 E207.86096
G0 F2040 X-4.46 Y19.793
G1 F1020 X-40.616 Y-16.362 E209.81774
G0 F2040 X-40.44 Y-16.681
G1 F1020 X-3.965 Y19.793 E211.79179
G0 F2040 X-3.47 Y19.793
