;FLAVOR:Marlin
;TIME:7891
;Filament used: 7.2507m
;Layer height: 0.2
;MINX:-67.003
;MINY:-25.916
;MINZ:0.26
;MAXX:42.111
;MAXY:71.094
;MAXZ:23.46
;Generated with Cura_SteamEngine 4.8.0
M82 ;absolute extrusion mode
;Gcode by Cura
G90
G28
M107
M109 R100
G30
M109 S215 U-55 X55 V-85 Y-85 W0.26 Z0.26
M82
G92 E0
G1 F200 E6
G92 E0
G1 F200 E-3.5
G0 Z0.15
G0 X10
G0 Z3
G1 F6000
G92 E0
G92 E0
G1 F3600 E-3.8
;LAYER_COUNT:117
;LAYER:0
M107
G0 F2040 X36.914 Y-25.916 Z0.26
;TYPE:SKIRT
G1 F3600 E0
G1 F1020 X37.604 Y-25.906 E0.02641
G1 X38.207 Y-25.857 E0.04956
G1 X38.798 Y-25.729 E0.0727
G1 X39.367 Y-25.525 E0.09584
G1 X39.904 Y-25.247 E0.11898
G1 X40.4 Y-24.9 E0.14214
G1 X40.845 Y-24.492 E0.16525
G1 X41.233 Y-24.028 E0.18839
G1 X41.557 Y-23.517 E0.21155
G1 X41.81 Y-22.968 E0.23468
G1 X41.989 Y-22.39 E0.25784
G1 X42.089 Y-21.794 E0.28097
G1 X42.111 Y-21.19 E0.3041
G1 X42.052 Y-20.588 E0.32725
G1 X41.915 Y-19.999 E0.35039
G1 X41.621 Y-19.267 E0.38058
G1 X41.295 Y-18.664 E0.40681
G1 X-8.155 Y68.264 E4.2341
G1 X-8.497 Y68.844 E4.25987
G1 X-8.838 Y69.343 E4.283
G1 X-9.242 Y69.793 E4.30614
G1 X-9.701 Y70.186 E4.32927
G1 X-10.209 Y70.515 E4.35243
G1 X-10.755 Y70.774 E4.37556
G1 X-11.331 Y70.959 E4.39871
G1 X-11.926 Y71.066 E4.42184
G1 X-12.53 Y71.094 E4.44498
G1 X-13.132 Y71.042 E4.46811
G1 X-13.722 Y70.911 E4.49124
G1 X-14.29 Y70.703 E4.51439
G1 X-14.826 Y70.422 E4.53755
G1 X-15.32 Y70.073 E4.56069
G1 X-15.763 Y69.662 E4.58382
G1 X-16.148 Y69.197 E4.60692
G1 X-16.365 Y68.867 E4.62204
G1 X-16.935 Y67.912 E4.6646
G1 X-66.111 Y-18.534 E8.47067
G1 X-66.436 Y-19.124 E8.49645
G1 X-66.692 Y-19.671 E8.51956
G1 X-66.874 Y-20.248 E8.54272
G1 X-66.978 Y-20.844 E8.56587
G1 X-67.003 Y-21.448 E8.58901
G1 X-66.947 Y-22.05 E8.61214
G1 X-66.813 Y-22.64 E8.6353
G1 X-66.602 Y-23.206 E8.65841
G1 X-66.318 Y-23.74 E8.68156
G1 X-65.967 Y-24.232 E8.70469
G1 X-65.553 Y-24.673 E8.72784
G1 X-65.085 Y-25.056 E8.75098
G1 X-64.571 Y-25.374 E8.77411
G1 X-64.019 Y-25.621 E8.79726
G1 X-63.439 Y-25.793 E8.82041
G1 X-62.6 Y-25.903 E8.85279
G1 X-61.943 Y-25.916 E8.87794
G1 X36.914 Y-25.916 E12.66115
G0 F2040 X36.909 Y-25.566
G1 F1020 X37.599 Y-25.556 E12.68756
G1 X38.178 Y-25.507 E12.70979
G1 X38.745 Y-25.38 E12.73203
G1 X39.289 Y-25.176 E12.75426
G1 X39.8 Y-24.899 E12.77651
G1 X40.268 Y-24.555 E12.79874
G1 X40.685 Y-24.15 E12.82098
G1 X41.042 Y-23.692 E12.84321
G1 X41.333 Y-23.189 E12.86544
G1 X41.552 Y-22.651 E12.88767
G1 X41.695 Y-22.087 E12.90994
G1 X41.759 Y-21.51 E12.93216
G1 X41.744 Y-20.929 E12.9544
G1 X41.649 Y-20.356 E12.97663
G1 X41.476 Y-19.801 E12.99888
G1 X41.263 Y-19.336 E13.01845
G1 X40.989 Y-18.834 E13.04034
G1 X-8.457 Y68.086 E16.86729
G1 X-8.799 Y68.666 E16.89305
G1 X-9.127 Y69.145 E16.91527
G1 X-9.519 Y69.574 E16.93751
G1 X-9.966 Y69.946 E16.95977
G1 X-10.459 Y70.253 E16.98199
G1 X-10.99 Y70.489 E17.00423
G1 X-11.548 Y70.65 E17.02645
G1 X-12.123 Y70.733 E17.04869
G1 X-12.704 Y70.737 E17.07092
G1 X-13.28 Y70.66 E17.09316
G1 X-13.84 Y70.506 E17.11539
G1 X-14.374 Y70.275 E17.13765
G1 X-14.871 Y69.974 E17.15989
G1 X-15.322 Y69.608 E17.18212
G1 X-15.718 Y69.183 E17.20435
G1 X-16.065 Y68.688 E17.22748
G1 X-16.585 Y67.818 E17.26627
G1 X-65.805 Y-18.702 E21.07564
G1 X-66.13 Y-19.292 E21.10142
G1 X-66.374 Y-19.819 E21.12364
G1 X-66.544 Y-20.375 E21.14589
G1 X-66.637 Y-20.949 E21.16815
G1 X-66.649 Y-21.53 E21.19039
G1 X-66.582 Y-22.107 E21.21262
G1 X-66.436 Y-22.669 E21.23484
G1 X-66.215 Y-23.206 E21.25706
G1 X-65.922 Y-23.708 E21.2793
G1 X-65.563 Y-24.165 E21.30155
G1 X-65.144 Y-24.568 E21.32379
G1 X-64.674 Y-24.91 E21.34604
G1 X-64.162 Y-25.184 E21.36826
G1 X-63.617 Y-25.385 E21.39049
G1 X-63.05 Y-25.51 E21.41271
G1 X-62.453 Y-25.558 E21.43563
G1 X-61.939 Y-25.566 E21.4553
G1 X36.909 Y-25.566 E25.23817
G0 F2040 X36.904 Y-25.216
G1 F1020 X37.594 Y-25.206 E25.26458
G1 X38.148 Y-25.158 E25.28586
G1 X38.69 Y-25.031 E25.30716
G1 X39.208 Y-24.828 E25.32846
G1 X39.692 Y-24.552 E25.34978
G1 X40.131 Y-24.211 E25.37105
G1 X40.517 Y-23.81 E25.39235
G1 X40.841 Y-23.357 E25.41367
G1 X41.097 Y-22.863 E25.43496
G1 X41.28 Y-22.338 E25.45624
G1 X41.386 Y-21.792 E25.47752
G1 X41.412 Y-21.236 E25.49882
G1 X41.358 Y-20.682 E25.52012
G1 X41.226 Y-20.142 E25.5414
G1 X40.996 Y-19.583 E25.56453
G1 X40.683 Y-19.003 E25.58975
G1 X-8.758 Y67.908 E29.41631
G1 X-9.1 Y68.488 E29.44208
G1 X-9.416 Y68.946 E29.46337
G1 X-9.795 Y69.354 E29.48468
G1 X-10.228 Y69.703 E29.50597
G1 X-10.707 Y69.987 E29.52728
G1 X-11.221 Y70.199 E29.54855
G1 X-11.761 Y70.335 E29.56987
G1 X-12.314 Y70.393 E29.59114
G1 X-12.87 Y70.371 E29.61244
G1 X-13.417 Y70.269 E29.63373
G1 X-13.944 Y70.09 E29.65503
G1 X-14.44 Y69.838 E29.67632
G1 X-14.894 Y69.517 E29.6976
G1 X-15.298 Y69.134 E29.71891
G1 X-15.764 Y68.508 E29.74877
G1 X-16.326 Y67.566 E29.79075
G1 X-65.498 Y-18.871 E33.59645
G1 X-65.823 Y-19.461 E33.62223
G1 X-66.056 Y-19.967 E33.64355
G1 X-66.214 Y-20.5 E33.66482
G1 X-66.294 Y-21.051 E33.68613
G1 X-66.294 Y-21.607 E33.70741
G1 X-66.215 Y-22.158 E33.72871
G1 X-66.057 Y-22.692 E33.75002
G1 X-65.825 Y-23.197 E33.77129
G1 X-65.523 Y-23.664 E33.79257
G1 X-65.157 Y-24.083 E33.81386
G1 X-64.734 Y-24.446 E33.83519
G1 X-64.264 Y-24.744 E33.85649
G1 X-63.757 Y-24.971 E33.87775
G1 X-63.222 Y-25.124 E33.89905
G1 X-62.573 Y-25.203 E33.92407
G1 X-61.934 Y-25.216 E33.94853
G1 X36.904 Y-25.216 E37.73101
G0 F2040 X36.899 Y-24.866
G1 F1020 X37.589 Y-24.856 E37.75742
G1 X38.118 Y-24.808 E37.77774
G1 X38.633 Y-24.682 E37.79803
G1 X39.124 Y-24.479 E37.81837
G1 X39.578 Y-24.206 E37.83864
G1 X39.987 Y-23.867 E37.85897
G1 X40.339 Y-23.47 E37.87928
G1 X40.629 Y-23.026 E37.89957
G1 X40.848 Y-22.542 E37.9199
G1 X40.993 Y-22.032 E37.94019
G1 X41.059 Y-21.505 E37.96052
G1 X41.045 Y-20.975 E37.98081
G1 X40.952 Y-20.452 E38.00114
G1 X40.684 Y-19.74 E38.03025
G1 X40.376 Y-19.173 E38.05494
G1 X-9.032 Y67.683 E41.87905
G1 X-9.402 Y68.31 E41.90691
G1 X-9.705 Y68.746 E41.92723
G1 X-10.07 Y69.131 E41.94753
G1 X-10.489 Y69.457 E41.96785
G1 X-10.952 Y69.716 E41.98815
G1 X-11.448 Y69.903 E42.00844
G1 X-11.967 Y70.013 E42.02874
G1 X-12.497 Y70.045 E42.04906
G1 X-13.026 Y69.996 E42.06939
G1 X-13.541 Y69.868 E42.0897
G1 X-14.031 Y69.665 E42.11
G1 X-14.485 Y69.39 E42.13031
G1 X-14.892 Y69.05 E42.1506
G1 X-15.244 Y68.653 E42.17091
G1 X-15.464 Y68.328 E42.18593
G1 X-16.022 Y67.393 E42.2276
G1 X-65.192 Y-19.04 E46.03313
G1 X-65.517 Y-19.63 E46.05891
G1 X-65.737 Y-20.113 E46.07922
G1 X-65.882 Y-20.623 E46.09951
G1 X-65.949 Y-21.15 E46.11984
G1 X-65.937 Y-21.68 E46.14013
G1 X-65.844 Y-22.203 E46.16045
G1 X-65.675 Y-22.706 E46.18076
G1 X-65.432 Y-23.177 E46.20104
G1 X-65.121 Y-23.607 E46.22135
G1 X-64.748 Y-23.985 E46.24168
G1 X-64.324 Y-24.304 E46.26198
G1 X-63.856 Y-24.554 E46.28229
G1 X-63.356 Y-24.732 E46.3026
G1 X-62.835 Y-24.833 E46.32291
G1 X-61.93 Y-24.866 E46.35756
G1 X36.899 Y-24.866 E50.1397
G0 F2040 X36.894 Y-24.516
G1 F1020 X37.584 Y-24.506 E50.16611
G1 X38.085 Y-24.458 E50.18537
G1 X38.573 Y-24.333 E50.20465
G1 X39.035 Y-24.131 E50.22395
G1 X39.458 Y-23.859 E50.24319
G1 X39.834 Y-23.524 E50.26247
G1 X40.152 Y-23.133 E50.28175
G1 X40.404 Y-22.697 E50.30103
G1 X40.584 Y-22.227 E50.32029
G1 X40.687 Y-21.734 E50.33956
G1 X40.711 Y-21.231 E50.35883
G1 X40.656 Y-20.731 E50.37808
G1 X40.522 Y-20.245 E50.39737
G1 X40.27 Y-19.703 E50.42025
G1 X40.053 Y-19.311 E50.4374
G1 X-9.361 Y67.553 E54.26188
G1 X-9.703 Y68.133 E54.28765
G1 X-9.992 Y68.545 E54.30691
G1 X-10.343 Y68.906 E54.32617
G1 X-10.747 Y69.207 E54.34546
G1 X-11.193 Y69.441 E54.36473
G1 X-11.671 Y69.601 E54.38402
G1 X-12.167 Y69.683 E54.40326
G1 X-12.671 Y69.686 E54.42255
G1 X-13.169 Y69.61 E54.44183
G1 X-13.648 Y69.455 E54.46109
G1 X-14.097 Y69.227 E54.48036
G1 X-14.504 Y68.931 E54.49962
G1 X-14.859 Y68.574 E54.51889
G1 X-15.163 Y68.149 E54.53889
G1 X-15.718 Y67.22 E54.5803
G1 X-64.885 Y-19.209 E58.38564
G1 X-65.21 Y-19.799 E58.41142
G1 X-65.417 Y-20.258 E58.43069
G1 X-65.549 Y-20.744 E58.44996
G1 X-65.603 Y-21.245 E58.46925
G1 X-65.577 Y-21.748 E58.48852
G1 X-65.471 Y-22.24 E58.50778
G1 X-65.289 Y-22.71 E58.52707
G1 X-65.035 Y-23.145 E58.54635
G1 X-64.716 Y-23.534 E58.5656
G1 X-64.339 Y-23.868 E58.58487
G1 X-63.913 Y-24.138 E58.60418
G1 X-63.451 Y-24.337 E58.62343
G1 X-62.963 Y-24.461 E58.6427
G1 X-62.413 Y-24.509 E58.66382
G1 X-61.926 Y-24.516 E58.68246
G1 X36.894 Y-24.516 E62.46426
G1 F3600 E58.66426
;MESH:support_tri_0_031.stl
G0 F2040 X36.894 Y-22.006
G0 X36.894 Y-20.971
G0 X-12.445 Y65.489
;TYPE:WALL-INNER
G1 F3600 E62.46426
G1 F1020 X-61.543 Y-20.816 E66.26417
G1 X36.653 Y-20.816 E70.02208
G1 X-12.445 Y65.489 E73.82199
G0 F2040 X-12.445 Y66.146
;TYPE:WALL-OUTER
G1 F1020 X-62.101 Y-21.141 E77.66512
G1 X37.211 Y-21.141 E81.46574
G1 X-12.445 Y66.146 E85.30887
G0 F2040 X-12.543 Y65.973
G0 X-12.456 Y65.925
G0 X-12.445 Y64.802
;TYPE:SKIN
G1 F1020 X-60.958 Y-20.476 E89.06355
G1 X36.068 Y-20.476 E92.77669
G1 X-12.445 Y64.802 E96.53137
G0 F2040 X-12.369 Y64.351
G1 F1020 X-12.718 Y64.002 E96.55025
G0 F2040 X-12.19 Y64.035
G1 F1020 X-13.371 Y62.854 E96.61417
G1 X-13.433 Y62.792
G0 F2040 X-14.024 Y61.706
G1 F1020 X-12.01 Y63.72 E96.72317
G0 F2040 X-11.831 Y63.404
G1 F1020 X-14.678 Y60.558 E96.87723
G1 X-14.74 Y60.496
G0 F2040 X-15.33 Y59.41
G1 F1020 X-11.651 Y63.089 E97.07634
G0 F2040 X-11.472 Y62.774
G1 F1020 X-15.984 Y58.262 E97.32054
G1 X-16.046 Y58.2
G0 F2040 X-16.637 Y57.113
G1 F1020 X-11.292 Y62.458 E97.60981
G0 F2040 X-11.113 Y62.142
G1 F1020 X-17.29 Y55.966 E97.94409
G1 X-17.352 Y55.904
G0 F2040 X-17.943 Y54.817
G1 F1020 X-10.933 Y61.827 E98.32348
G0 F2040 X-10.754 Y61.511
G1 F1020 X-18.596 Y53.669 E98.7479
G1 X-18.658 Y53.607
G0 F2040 X-19.25 Y52.521
G1 F1020 X-10.574 Y61.196 E99.21743
G0 F2040 X-10.395 Y60.881
G1 F1020 X-19.902 Y51.373 E99.73199
G1 X-19.964 Y51.311
G0 F2040 X-20.556 Y50.225
G1 F1020 X-10.216 Y60.565 E100.2916
G0 F2040 X-10.036 Y60.249
G1 F1020 X-21.209 Y49.076 E100.8963
G1 X-21.271 Y49.014
G0 F2040 X-21.862 Y47.929
G1 F1020 X-9.857 Y59.934 E101.54603
G0 F2040 X-9.677 Y59.619
G1 F1020 X-22.515 Y46.78 E102.24086
G1 X-22.577 Y46.718
G0 F2040 X-23.169 Y45.632
G1 F1020 X-9.497 Y59.303 E102.98078
G0 F2040 X-9.318 Y58.988
G1 F1020 X-23.821 Y44.484 E103.76573
G1 X-23.883 Y44.422
G0 F2040 X-24.475 Y43.336
G1 F1020 X-9.139 Y58.672 E104.59573
G0 F2040 X-8.959 Y58.356
G1 F1020 X-25.128 Y42.188 E105.47079
G1 X-25.19 Y42.126
G0 F2040 X-25.781 Y41.039
G1 F1020 X-8.78 Y58.041 E106.39094
G0 F2040 X-8.6 Y57.726
G1 F1020 X-26.434 Y39.892 E107.35614
G1 X-26.496 Y39.83
G0 F2040 X-27.087 Y38.743
G1 F1020 X-8.42 Y57.41 E108.36642
G0 F2040 X-8.241 Y57.095
G1 F1020 X-27.741 Y37.595 E109.42178
G1 X-27.803 Y37.533
G0 F2040 X-28.393 Y36.447
G1 F1020 X-8.062 Y56.779 E110.52215
G0 F2040 X-7.882 Y56.463
G1 F1020 X-29.047 Y35.299 E111.6676
G1 X-29.109 Y35.237
G0 F2040 X-29.7 Y34.151
G1 F1020 X-7.703 Y56.148 E112.8581
G0 F2040 X-7.523 Y55.833
G1 F1020 X-30.353 Y33.003 E114.09369
G1 X-30.415 Y32.941
G0 F2040 X-31.006 Y31.855
G1 F1020 X-7.344 Y55.517 E115.37431
G0 F2040 X-7.165 Y55.201
G1 F1020 X-31.659 Y30.706 E116.69998
G1 X-31.721 Y30.644
G0 F2040 X-32.313 Y29.558
G1 F1020 X-6.985 Y54.886 E118.07077
G0 F2040 X-6.805 Y54.57
G1 F1020 X-32.966 Y28.41 E119.48661
G1 X-33.028 Y28.348
G0 F2040 X-33.619 Y27.262
G1 F1020 X-6.626 Y54.255 E120.9475
G0 F2040 X-6.446 Y53.94
G1 F1020 X-34.272 Y26.114 E122.45348
G1 X-34.334 Y26.052
G0 F2040 X-34.925 Y24.966
G1 F1020 X-6.267 Y53.624 E124.00449
G0 F2040 X-6.088 Y53.308
G1 F1020 X-35.578 Y23.818 E125.60052
G1 X-35.64 Y23.756
G0 F2040 X-36.232 Y22.669
G1 F1020 X-5.908 Y52.993 E127.2417
G0 F2040 X-5.728 Y52.678
G1 F1020 X-36.884 Y21.522 E128.9279
G1 X-36.946 Y21.46
G0 F2040 X-37.538 Y20.373
G1 F1020 X-5.549 Y52.362 E130.65919
G0 F2040 X-5.369 Y52.047
G1 F1020 X-38.191 Y19.225 E132.43555
G1 X-38.253 Y19.163
G0 F2040 X-38.844 Y18.077
G1 F1020 X-5.19 Y51.731 E134.25695
G0 F2040 X-5.011 Y51.415
G1 F1020 X-39.497 Y16.929 E136.12338
G1 X-39.559 Y16.867
G0 F2040 X-40.15 Y15.781
G1 F1020 X-4.831 Y51.1 E138.03489
G0 F2040 X-4.652 Y50.785
G1 F1020 X-40.804 Y14.632 E139.99151
G1 X-40.866 Y14.57
G0 F2040 X-41.456 Y13.485
G1 F1020 X-4.472 Y50.469 E141.99313
G0 F2040 X-4.292 Y50.154
G1 F1020 X-42.11 Y12.336 E144.03989
G1 X-42.172 Y12.274
G0 F2040 X-42.763 Y11.188
G1 F1020 X-4.113 Y49.838 E146.13167
G0 F2040 X-3.934 Y49.522
G1 F1020 X-43.416 Y10.04 E148.26849
G1 X-43.478 Y9.978
G0 F2040 X-44.069 Y8.892
G1 F1020 X-3.754 Y49.207 E150.45039
G0 F2040 X-3.575 Y48.892
G1 F1020 X-44.723 Y7.744 E152.67737
G1 X-44.785 Y7.682
G0 F2040 X-45.375 Y6.596
G1 F1020 X-3.395 Y48.576 E154.94938
G0 F2040 X-3.215 Y48.261
G1 F1020 X-46.029 Y5.448 E157.2665
G1 X-46.091 Y5.386
G0 F2040 X-46.682 Y4.299
G1 F1020 X-3.037 Y47.945 E159.62865
G0 F2040 X-2.857 Y47.63
G1 F1020 X-47.335 Y3.151 E162.03589
G1 X-47.397 Y3.089
G0 F2040 X-47.988 Y2.003
G1 F1020 X-2.677 Y47.314 E164.48818
G0 F2040 X-2.498 Y46.999
G1 F1020 X-48.641 Y0.855 E166.98552
G1 X-48.703 Y0.793
G0 F2040 X-49.295 Y-.292
G1 F1020 X-2.318 Y46.683 E169.52792
G0 F2040 X-2.138 Y46.368
G1 F1020 X-49.947 Y-1.44 E172.11538
G1 X-50.009 Y-1.502
G0 F2040 X-50.601 Y-2.588
G1 F1020 X-1.96 Y46.052 E174.74786
G0 F2040 X-1.78 Y45.737
G1 F1020 X-51.254 Y-3.737 E177.42546
G1 X-51.316 Y-3.799
G0 F2040 X-51.907 Y-4.884
G1 F1020 X-1.6 Y45.421 E180.14809
G0 F2040 X-1.421 Y45.106
G1 F1020 X-52.56 Y-6.033 E182.91579
G1 X-52.622 Y-6.095
G0 F2040 X-53.214 Y-7.181
G1 F1020 X-1.241 Y44.79 E185.72858
G0 F2040 X-1.062 Y44.474
G1 F1020 X-53.866 Y-8.329 E188.58638
G1 X-53.928 Y-8.391
G0 F2040 X-54.52 Y-9.477
G1 F1020 X-.883 Y44.159 E191.48925
G0 F2040 X-.703 Y43.844
G1 F1020 X-55.173 Y-10.625 E194.43721
G1 X-55.235 Y-10.687
G0 F2040 X-55.826 Y-11.774
G1 F1020 X-.523 Y43.528 E197.43025
G0 F2040 X-.344 Y43.213
G1 F1020 X-56.479 Y-12.921 E200.46832
G1 X-56.541 Y-12.983
G0 F2040 X-57.132 Y-14.07
G1 F1020 X-.164 Y42.898 E203.5515
G0 F2040 X0.014 Y42.581
G1 F1020 X-57.786 Y-15.218 E206.67969
G1 X-57.848 Y-15.28
G0 F2040 X-58.438 Y-16.365
G1 F1020 X0.193 Y42.266 E209.85287
G0 F2040 X0.373 Y41.951
G1 F1020 X-59.092 Y-17.514 E213.07119
G1 X-59.154 Y-17.576
G0 F2040 X-59.745 Y-18.662
G1 F1020 X0.552 Y41.635 E216.33454
G0 F2040 X0.732 Y41.32
G1 F1020 X-60.398 Y-19.81 E219.64298
G0 F2040 X-60.411 Y-20.318
G1 F1020 X0.912 Y41.005 E222.96186
G0 F2040 X1.091 Y40.689
G1 F1020 X-59.916 Y-20.318 E226.26363
G0 F2040 X-59.421 Y-20.318
G1 F1020 X1.27 Y40.373 E229.54831
G0 F2040 X1.45 Y40.058
G1 F1020 X-58.926 Y-20.318 E232.81593
G0 F2040 X-58.431 Y-20.318
G1 F1020 X1.629 Y39.742 E236.06646
G0 F2040 X1.809 Y39.427
G1 F1020 X-57.936 Y-20.318 E239.29993
G0 F2040 X-57.441 Y-20.318
G1 F1020 X1.988 Y39.111 E242.51631
G0 F2040 X2.167 Y38.796
G1 F1020 X-56.946 Y-20.318 E245.7156
G0 F2040 X-56.451 Y-20.318
G1 F1020 X2.347 Y38.48 E248.89783
G0 F2040 X2.527 Y38.165
G1 F1020 X-55.956 Y-20.318 E252.063
G0 F2040 X-55.461 Y-20.318
G1 F1020 X2.706 Y37.85 E255.2111
G0 F2040 X2.886 Y37.534
G1 F1020 X-54.966 Y-20.318 E258.34212
G0 F2040 X-54.471 Y-20.318
G1 F1020 X3.065 Y37.218 E261.45604
G0 F2040 X3.244 Y36.903
G1 F1020 X-53.976 Y-20.318 E264.55289
G0 F2040 X-53.482 Y-20.318
G1 F1020 X3.424 Y36.587 E267.63269
G0 F2040 X3.604 Y36.272
G1 F1020 X-52.987 Y-20.318 E270.69544
G0 F2040 X-52.492 Y-20.318
G1 F1020 X3.783 Y35.957 E273.74111
G0 F2040 X3.963 Y35.641
G1 F1020 X-51.997 Y-20.318 E276.76971
G0 F2040 X-51.502 Y-20.318
G1 F1020 X4.142 Y35.325 E279.78121
G0 F2040 X4.321 Y35.01
G1 F1020 X-51.007 Y-20.318 E282.77563
G0 F2040 X-50.512 Y-20.318
G1 F1020 X4.501 Y34.694 E285.75298
G0 F2040 X4.681 Y34.379
G1 F1020 X-50.017 Y-20.318 E288.71328
G0 F2040 X-49.522 Y-20.318
G1 F1020 X4.86 Y34.064 E291.6565
G0 F2040 X5.039 Y33.748
G1 F1020 X-49.027 Y-20.318 E294.58262
G0 F2040 X-48.532 Y-20.318
G1 F1020 X5.219 Y33.432 E297.49167
G0 F2040 X5.398 Y33.117
G1 F1020 X-48.037 Y-20.318 E300.38364
G0 F2040 X-47.542 Y-20.318
G1 F1020 X5.578 Y32.801 E303.25853
G0 F2040 X5.757 Y32.486
G1 F1020 X-47.047 Y-20.318 E306.11635
G0 F2040 X-46.552 Y-20.318
G1 F1020 X5.937 Y32.171 E308.95712
G0 F2040 X6.116 Y31.855
G1 F1020 X-46.057 Y-20.318 E311.78079
G0 F2040 X-45.562 Y-20.318
G1 F1020 X6.296 Y31.539 E314.58739
G0 F2040 X6.475 Y31.224
