;FLAVOR:Marlin
;TIME:6193
;Filament used: 7.93953m
;Layer height: 0.3
;MINX:-67.012
;MINY:-26.011
;MINZ:0.26
;MAXX:42.102
;MAXY:70.61
;MAXZ:23.66
;Generated with Cura_SteamEngine 4.9.1
M82 ;absolute extrusion mode
;Gcode by Cura
G90
G28
M107
M109 R100
G30
M109 S215 U-55 X55 V-85 Y-85 W0.26 Z0.26
M82
G92 E0
G1 F200 E6
G92 E0
G1 F200 E-3.5
G0 Z0.15
G0 X10
G0 Z3
G1 F6000
G92 E0
G92 E0
G1 F3600 E-3.8
;LAYER_COUNT:79
;LAYER:0
M107
G0 F2040 X36.905 Y-26.011 Z0.26
;TYPE:SKIRT
G1 F3600 E0
G1 F1020 X37.595 Y-26.001 E0.02641
G1 X38.198 Y-25.952 E0.04956
G1 X38.789 Y-25.824 E0.0727
G1 X39.358 Y-25.62 E0.09584
G1 X39.895 Y-25.342 E0.11898
G1 X40.391 Y-24.995 E0.14214
G1 X40.836 Y-24.587 E0.16525
G1 X41.224 Y-24.123 E0.18839
G1 X41.548 Y-23.612 E0.21155
G1 X41.801 Y-23.063 E0.23468
G1 X41.98 Y-22.485 E0.25784
G1 X42.08 Y-21.889 E0.28097
G1 X42.102 Y-21.285 E0.3041
G1 X42.043 Y-20.683 E0.32725
G1 X41.906 Y-20.094 E0.35039
G1 X41.642 Y-19.422 E0.37802
G1 X41.512 Y-19.169 E0.3889
G1 X41.211 Y-18.628 E0.4126
G1 X-8.149 Y67.753 E4.22
G1 X-8.515 Y68.37 E4.24745
G1 X-8.857 Y68.869 E4.2706
G1 X-9.262 Y69.318 E4.29374
G1 X-9.723 Y69.709 E4.31688
G1 X-10.231 Y70.037 E4.34002
G1 X-10.778 Y70.295 E4.36316
G1 X-11.354 Y70.478 E4.38629
G1 X-11.95 Y70.584 E4.40946
G1 X-12.554 Y70.61 E4.43259
G1 X-13.156 Y70.556 E4.45573
G1 X-13.746 Y70.424 E4.47886
G1 X-14.313 Y70.214 E4.502
G1 X-14.848 Y69.932 E4.52515
G1 X-15.341 Y69.582 E4.54828
G1 X-15.783 Y69.17 E4.57141
G1 X-16.167 Y68.703 E4.59455
G1 X-16.378 Y68.381 E4.60928
G1 X-16.893 Y67.517 E4.64777
G1 X-66.093 Y-18.583 E8.4428
G1 X-66.439 Y-19.207 E8.4701
G1 X-66.697 Y-19.754 E8.49325
G1 X-66.88 Y-20.331 E8.51641
G1 X-66.986 Y-20.926 E8.53954
G1 X-67.012 Y-21.53 E8.56268
G1 X-66.958 Y-22.132 E8.58581
G1 X-66.826 Y-22.722 E8.60895
G1 X-66.616 Y-23.29 E8.63212
G1 X-66.334 Y-23.824 E8.65523
G1 X-65.984 Y-24.317 E8.67837
G1 X-65.571 Y-24.759 E8.70152
G1 X-65.104 Y-25.144 E8.72468
G1 X-64.591 Y-25.463 E8.7478
G1 X-64.04 Y-25.711 E8.77093
G1 X-63.461 Y-25.885 E8.79406
G1 X-62.649 Y-25.996 E8.82543
G1 X-62.43 Y-26.004 E8.83381
G1 X-61.869 Y-26.011 E8.85528
G1 X36.905 Y-26.011 E12.63532
G0 F2040 X36.9 Y-25.661
G1 F1020 X37.59 Y-25.651 E12.66173
G1 X38.169 Y-25.602 E12.68396
G1 X38.736 Y-25.475 E12.7062
G1 X39.28 Y-25.271 E12.72843
G1 X39.791 Y-24.994 E12.75068
G1 X40.259 Y-24.65 E12.77291
G1 X40.676 Y-24.245 E12.79515
G1 X41.033 Y-23.787 E12.81738
G1 X41.324 Y-23.284 E12.83962
G1 X41.543 Y-22.746 E12.86184
G1 X41.686 Y-22.182 E12.88411
G1 X41.75 Y-21.605 E12.90633
G1 X41.735 Y-21.024 E12.92857
G1 X41.64 Y-20.451 E12.9508
G1 X41.467 Y-19.896 E12.97305
G1 X41.205 Y-19.339 E12.9966
G1 X40.907 Y-18.802 E13.02011
G1 X-8.45 Y67.575 E16.82732
G1 X-8.816 Y68.192 E16.85477
G1 X-9.146 Y68.67 E16.877
G1 X-9.539 Y69.098 E16.89924
G1 X-9.987 Y69.468 E16.92147
G1 X-10.481 Y69.774 E16.94371
G1 X-11.012 Y70.009 E16.96593
G1 X-11.571 Y70.169 E16.98818
G1 X-12.146 Y70.25 E17.01041
G1 X-12.727 Y70.252 E17.03264
G1 X-13.303 Y70.174 E17.05489
G1 X-13.863 Y70.018 E17.07713
G1 X-14.396 Y69.786 E17.09938
G1 X-14.892 Y69.484 E17.1216
G1 X-15.342 Y69.116 E17.14385
G1 X-15.737 Y68.691 E17.16605
G1 X-16.078 Y68.202 E17.18887
G1 X-16.589 Y67.343 E17.22712
G1 X-65.787 Y-18.753 E21.02197
G1 X-66.133 Y-19.377 E21.04928
G1 X-66.379 Y-19.903 E21.0715
G1 X-66.551 Y-20.459 E21.09377
G1 X-66.645 Y-21.032 E21.116
G1 X-66.659 Y-21.613 E21.13824
G1 X-66.593 Y-22.19 E21.16046
G1 X-66.449 Y-22.753 E21.1827
G1 X-66.229 Y-23.291 E21.20495
G1 X-65.937 Y-23.793 E21.22717
G1 X-65.58 Y-24.251 E21.24939
G1 X-65.162 Y-24.655 E21.27164
G1 X-64.693 Y-24.999 E21.2939
G1 X-64.182 Y-25.274 E21.31611
G1 X-63.638 Y-25.477 E21.33833
G1 X-63.07 Y-25.603 E21.36059
G1 X-62.568 Y-25.65 E21.37989
G1 X-62.426 Y-25.654 E21.38533
G1 X-61.865 Y-25.661 E21.4068
G1 X36.9 Y-25.661 E25.18649
G0 F2040 X36.895 Y-25.311
G1 F1020 X37.585 Y-25.301 E25.21289
G1 X38.139 Y-25.253 E25.23418
G1 X38.681 Y-25.126 E25.25548
G1 X39.199 Y-24.923 E25.27677
G1 X39.683 Y-24.647 E25.29809
G1 X40.122 Y-24.306 E25.31937
G1 X40.508 Y-23.905 E25.34067
G1 X40.832 Y-23.452 E25.36198
G1 X41.088 Y-22.958 E25.38327
G1 X41.271 Y-22.433 E25.40455
G1 X41.377 Y-21.887 E25.42584
G1 X41.403 Y-21.331 E25.44714
G1 X41.349 Y-20.777 E25.46844
G1 X41.217 Y-20.237 E25.48971
G1 X41.013 Y-19.729 E25.51066
G1 X40.899 Y-19.509 E25.52015
G1 X40.603 Y-18.975 E25.54351
G1 X-8.751 Y67.396 E29.35047
G1 X-9.117 Y68.013 E29.37792
G1 X-9.435 Y68.47 E29.39923
G1 X-9.814 Y68.877 E29.42051
G1 X-10.248 Y69.225 E29.4418
G1 X-10.728 Y69.507 E29.4631
G1 X-11.243 Y69.718 E29.4844
G1 X-11.783 Y69.853 E29.5057
G1 X-12.336 Y69.909 E29.52698
G1 X-12.892 Y69.886 E29.54827
G1 X-13.439 Y69.783 E29.56957
G1 X-13.965 Y69.602 E29.59086
G1 X-14.46 Y69.349 E29.61214
G1 X-14.914 Y69.027 E29.63344
G1 X-15.317 Y68.643 E29.65474
G1 X-15.777 Y68.022 E29.68431
G1 X-16.285 Y67.17 E29.72228
G1 X-65.481 Y-18.923 E33.51699
G1 X-65.827 Y-19.547 E33.5443
G1 X-66.061 Y-20.052 E33.5656
G1 X-66.221 Y-20.585 E33.5869
G1 X-66.302 Y-21.135 E33.60817
G1 X-66.304 Y-21.692 E33.62949
G1 X-66.226 Y-22.242 E33.65075
G1 X-66.07 Y-22.777 E33.67207
G1 X-65.839 Y-23.283 E33.69336
G1 X-65.538 Y-23.751 E33.71465
G1 X-65.173 Y-24.171 E33.73595
G1 X-64.752 Y-24.534 E33.75722
G1 X-64.283 Y-24.834 E33.77853
G1 X-63.776 Y-25.063 E33.79982
G1 X-63.241 Y-25.217 E33.82112
G1 X-62.617 Y-25.297 E33.8452
G1 X-62.421 Y-25.304 E33.85271
G1 X-61.86 Y-25.311 E33.87418
G1 X36.895 Y-25.311 E37.65348
G0 F2040 X36.89 Y-24.961
G1 F1020 X37.58 Y-24.951 E37.67989
G1 X38.109 Y-24.903 E37.70022
G1 X38.624 Y-24.777 E37.72051
G1 X39.115 Y-24.574 E37.74084
G1 X39.569 Y-24.301 E37.76112
G1 X39.978 Y-23.962 E37.78145
G1 X40.33 Y-23.565 E37.80175
G1 X40.62 Y-23.121 E37.82205
G1 X40.839 Y-22.637 E37.84238
G1 X40.984 Y-22.127 E37.86267
G1 X41.05 Y-21.6 E37.88299
G1 X41.036 Y-21.07 E37.90328
G1 X40.943 Y-20.547 E37.92361
G1 X40.698 Y-19.882 E37.95073
G1 X40.593 Y-19.678 E37.95951
G1 X40.3 Y-19.149 E37.98266
G1 X-9.052 Y67.217 E41.78941
G1 X-9.418 Y67.834 E41.81686
G1 X-9.723 Y68.269 E41.83719
G1 X-10.089 Y68.653 E41.85749
G1 X-10.508 Y68.978 E41.87779
G1 X-10.972 Y69.236 E41.8981
G1 X-11.469 Y69.422 E41.91841
G1 X-11.989 Y69.531 E41.93875
G1 X-12.518 Y69.56 E41.95902
G1 X-13.047 Y69.51 E41.97936
G1 X-13.561 Y69.381 E41.99964
G1 X-14.051 Y69.176 E42.01996
G1 X-14.504 Y68.901 E42.04024
G1 X-14.911 Y68.56 E42.06056
G1 X-15.262 Y68.162 E42.08087
G1 X-15.477 Y67.843 E42.09559
G1 X-15.982 Y66.996 E42.13333
G1 X-65.175 Y-19.093 E45.92786
G1 X-65.521 Y-19.717 E45.95517
G1 X-65.742 Y-20.199 E45.97546
G1 X-65.889 Y-20.709 E45.99577
G1 X-65.958 Y-21.235 E46.01607
G1 X-65.947 Y-21.765 E46.03636
G1 X-65.856 Y-22.288 E46.05668
G1 X-65.688 Y-22.792 E46.07701
G1 X-65.446 Y-23.264 E46.09731
G1 X-65.136 Y-23.695 E46.11762
G1 X-64.765 Y-24.074 E46.13792
G1 X-64.341 Y-24.393 E46.15823
G1 X-63.874 Y-24.645 E46.17853
G1 X-63.374 Y-24.824 E46.19886
G1 X-62.601 Y-24.947 E46.22881
G1 X-62.417 Y-24.954 E46.23586
G1 X-61.856 Y-24.961 E46.25733
G1 X36.89 Y-24.961 E50.03629
G0 F2040 X36.885 Y-24.611
G1 F1020 X37.575 Y-24.601 E50.0627
G1 X38.076 Y-24.553 E50.08196
G1 X38.564 Y-24.428 E50.10124
G1 X39.026 Y-24.226 E50.12054
G1 X39.449 Y-23.954 E50.13978
G1 X39.825 Y-23.619 E50.15905
G1 X40.143 Y-23.228 E50.17834
G1 X40.395 Y-22.792 E50.19761
G1 X40.575 Y-22.322 E50.21687
G1 X40.678 Y-21.829 E50.23615
G1 X40.702 Y-21.326 E50.25542
G1 X40.647 Y-20.826 E50.27467
G1 X40.513 Y-20.34 E50.29396
G1 X40.287 Y-19.848 E50.31468
G1 X39.996 Y-19.323 E50.33765
G1 X-9.353 Y67.039 E54.14422
G1 X-9.719 Y67.656 E54.17167
G1 X-10.01 Y68.067 E54.19094
G1 X-10.362 Y68.427 E54.21021
G1 X-10.766 Y68.728 E54.22949
G1 X-11.213 Y68.96 E54.24876
G1 X-11.691 Y69.119 E54.26804
G1 X-12.188 Y69.2 E54.28731
G1 X-12.691 Y69.202 E54.30656
G1 X-13.189 Y69.124 E54.32585
G1 X-13.668 Y68.968 E54.34513
G1 X-14.116 Y68.739 E54.36439
G1 X-14.522 Y68.441 E54.38366
G1 X-14.877 Y68.084 E54.40293
G1 X-15.176 Y67.663 E54.42269
G1 X-15.678 Y66.822 E54.46017
G1 X-64.869 Y-19.262 E58.2545
G1 X-65.215 Y-19.886 E58.2818
G1 X-65.423 Y-20.345 E58.30109
G1 X-65.557 Y-20.83 E58.32034
G1 X-65.612 Y-21.331 E58.33963
G1 X-65.587 Y-21.834 E58.3589
G1 X-65.483 Y-22.327 E58.37819
G1 X-65.302 Y-22.797 E58.39746
G1 X-65.049 Y-23.232 E58.41672
G1 X-64.731 Y-23.622 E58.43598
G1 X-64.355 Y-23.957 E58.45525
G1 X-63.93 Y-24.228 E58.47454
G1 X-63.468 Y-24.429 E58.49382
G1 X-62.981 Y-24.554 E58.51306
G1 X-62.413 Y-24.604 E58.53488
G1 X-61.852 Y-24.611 E58.55635
G1 X36.885 Y-24.611 E62.33497
G1 F3600 E58.53497
;MESH:support_tri_0_016.stl
G0 F2040 X36.885 Y-22.101
G0 X36.885 Y-21.066
G0 X-61.549 Y-20.911
;TYPE:WALL-INNER
G1 F3600 E62.33497
G1 F1020 X36.641 Y-20.911 E66.09265
G1 X-12.454 Y65.006 E69.87961
G1 X-61.549 Y-20.911 E73.66656
G0 F2040 X-62.109 Y-21.236
;TYPE:WALL-OUTER
G1 F1020 X37.201 Y-21.236 E77.4671
G1 X-12.454 Y65.661 E81.29725
G1 X-62.109 Y-21.236 E85.1274
G0 F2040 X-61.909 Y-21.236
G0 X-61.764 Y-21.036
G0 X-60.963 Y-20.571
;TYPE:SKIN
G1 F1020 X36.055 Y-20.571 E88.84023
G1 X-12.454 Y64.321 E92.582
G1 X-60.963 Y-20.571 E96.32377
G0 F2040 X35.687 Y-20.244
G1 F1020 X35.518 Y-20.413 E96.33291
G0 F2040 X35.507 Y-19.929
G1 F1020 X35.023 Y-20.413 E96.35911
G0 F2040 X34.528 Y-20.413
G1 F1020 X35.327 Y-19.615 E96.40233
G0 F2040 X35.147 Y-19.299
G1 F1020 X34.033 Y-20.413 E96.46262
G0 F2040 X33.538 Y-20.413
G1 F1020 X34.967 Y-18.985 E96.53993
G0 F2040 X34.787 Y-18.669
G1 F1020 X33.043 Y-20.413 E96.63432
G0 F2040 X32.548 Y-20.413
G1 F1020 X34.607 Y-18.355 E96.74572
G0 F2040 X34.427 Y-18.039
G1 F1020 X32.053 Y-20.413 E96.87421
G0 F2040 X31.558 Y-20.413
G1 F1020 X34.247 Y-17.725 E97.01971
G0 F2040 X34.067 Y-17.409
G1 F1020 X31.063 Y-20.413 E97.18229
G0 F2040 X30.568 Y-20.413
G1 F1020 X33.887 Y-17.095 E97.3619
G0 F2040 X33.707 Y-16.779
G1 F1020 X30.073 Y-20.413 E97.55857
G0 F2040 X29.578 Y-20.413
G1 F1020 X33.527 Y-16.464 E97.7723
G0 F2040 X33.347 Y-16.15
G1 F1020 X29.084 Y-20.413 E98.00302
G0 F2040 X28.589 Y-20.413
G1 F1020 X33.167 Y-15.834 E98.25081
G0 F2040 X32.987 Y-15.52
G1 F1020 X28.094 Y-20.413 E98.51563
G0 F2040 X27.599 Y-20.413
G1 F1020 X32.807 Y-15.204 E98.79752
G0 F2040 X32.627 Y-14.89
G1 F1020 X27.104 Y-20.413 E99.09643
G0 F2040 X26.609 Y-20.413
G1 F1020 X32.447 Y-14.574 E99.41242
G0 F2040 X32.267 Y-14.26
G1 F1020 X26.114 Y-20.413 E99.74542
G0 F2040 X25.619 Y-20.413
G1 F1020 X32.087 Y-13.944 E100.09551
G0 F2040 X31.907 Y-13.63
G1 F1020 X25.124 Y-20.413 E100.46261
G0 F2040 X24.629 Y-20.413
G1 F1020 X31.727 Y-13.314 E100.84679
G0 F2040 X31.547 Y-13
G1 F1020 X24.134 Y-20.413 E101.24799
G0 F2040 X23.639 Y-20.413
G1 F1020 X31.367 Y-12.685 E101.66624
G0 F2040 X31.187 Y-12.37
G1 F1020 X23.144 Y-20.413 E102.10154
G0 F2040 X22.649 Y-20.413
G1 F1020 X31.007 Y-12.055 E102.55388
G0 F2040 X30.827 Y-11.74
G1 F1020 X22.154 Y-20.413 E103.02328
G0 F2040 X21.659 Y-20.413
G1 F1020 X30.647 Y-11.425 E103.50972
G0 F2040 X30.467 Y-11.11
G1 F1020 X21.164 Y-20.413 E104.01321
G0 F2040 X20.669 Y-20.413
G1 F1020 X30.287 Y-10.795 E104.53375
G0 F2040 X30.107 Y-10.48
G1 F1020 X20.174 Y-20.413 E105.07134
G0 F2040 X19.679 Y-20.413
G1 F1020 X29.927 Y-10.165 E105.62597
G0 F2040 X29.747 Y-9.849
G1 F1020 X19.184 Y-20.413 E106.19768
G0 F2040 X18.689 Y-20.413
G1 F1020 X29.567 Y-9.535 E106.78641
G0 F2040 X29.387 Y-9.22
G1 F1020 X18.194 Y-20.413 E107.39219
G0 F2040 X17.699 Y-20.413
G1 F1020 X29.207 Y-8.905 E108.01502
G0 F2040 X29.027 Y-8.59
G1 F1020 X17.204 Y-20.413 E108.65489
G0 F2040 X16.709 Y-20.413
G1 F1020 X28.847 Y-8.275 E109.31182
G0 F2040 X28.667 Y-7.96
G1 F1020 X16.214 Y-20.413 E109.98579
G0 F2040 X15.719 Y-20.413
G1 F1020 X28.487 Y-7.645 E110.67681
G0 F2040 X28.307 Y-7.33
G1 F1020 X15.224 Y-20.413 E111.38488
G0 F2040 X14.729 Y-20.413
G1 F1020 X28.128 Y-7.015 E112.11002
G0 F2040 X27.947 Y-6.7
G1 F1020 X14.234 Y-20.413 E112.85219
G0 F2040 X13.739 Y-20.413
G1 F1020 X27.768 Y-6.385 E113.61143
G0 F2040 X27.587 Y-6.07
G1 F1020 X13.244 Y-20.413 E114.38769
G0 F2040 X12.749 Y-20.413
G1 F1020 X27.407 Y-5.755 E115.181
G0 F2040 X27.227 Y-5.44
G1 F1020 X12.254 Y-20.413 E115.99136
G0 F2040 X11.759 Y-20.413
G1 F1020 X27.047 Y-5.125 E116.81876
G0 F2040 X26.867 Y-4.81
G1 F1020 X11.264 Y-20.413 E117.66322
G0 F2040 X10.769 Y-20.413
G1 F1020 X26.687 Y-4.495 E118.52472
G0 F2040 X26.508 Y-4.18
G1 F1020 X10.274 Y-20.413 E119.4033
G0 F2040 X9.779 Y-20.413
G1 F1020 X26.327 Y-3.865 E120.2989
G0 F2040 X26.148 Y-3.55
G1 F1020 X9.285 Y-20.413 E121.21154
G0 F2040 X8.79 Y-20.413
G1 F1020 X25.967 Y-3.235 E122.14121
G0 F2040 X25.788 Y-2.92
G1 F1020 X8.295 Y-20.413 E123.08796
G0 F2040 X7.8 Y-20.413
G1 F1020 X25.607 Y-2.605 E124.05172
G0 F2040 X25.427 Y-2.291
G1 F1020 X7.305 Y-20.413 E125.03251
G0 F2040 X6.81 Y-20.413
G1 F1020 X25.247 Y-1.975 E126.03037
G0 F2040 X25.067 Y-1.66
G1 F1020 X6.315 Y-20.413 E127.04528
G0 F2040 X5.82 Y-20.413
G1 F1020 X24.888 Y-1.345 E128.07726
G0 F2040 X24.707 Y-1.03
G1 F1020 X5.325 Y-20.413 E129.12627
G0 F2040 X4.83 Y-20.413
G1 F1020 X24.528 Y-.715 E130.19235
G0 F2040 X24.347 Y-.4
G1 F1020 X4.335 Y-20.413 E131.27545
G0 F2040 X3.84 Y-20.413
G1 F1020 X24.168 Y-0.085 E132.37563
G0 F2040 X23.987 Y0.229
G1 F1020 X3.345 Y-20.413 E133.4928
G0 F2040 X2.85 Y-20.413
G1 F1020 X23.808 Y0.544 E134.62704
G0 F2040 X23.627 Y0.859
G1 F1020 X2.355 Y-20.413 E135.77831
G0 F2040 X1.86 Y-20.413
G1 F1020 X23.448 Y1.174 E136.94666
G0 F2040 X23.268 Y1.489
G1 F1020 X1.365 Y-20.413 E138.13205
G0 F2040 X0.87 Y-20.413
G1 F1020 X23.087 Y1.803 E139.33443
G0 F2040 X22.908 Y2.119
G1 F1020 X0.375 Y-20.413 E140.55392
G0 F2040 X-.119 Y-20.413
G1 F1020 X22.727 Y2.433 E141.79037
G0 F2040 X22.548 Y2.749
G1 F1020 X-.614 Y-20.413 E143.04393
G0 F2040 X-1.109 Y-20.413
G1 F1020 X22.367 Y3.063 E144.31448
G0 F2040 X22.188 Y3.379
G1 F1020 X-1.604 Y-20.413 E145.60214
G0 F2040 X-2.099 Y-20.413
G1 F1020 X22.007 Y3.693 E146.90678
G0 F2040 X21.828 Y4.009
G1 F1020 X-2.594 Y-20.413 E148.22853
G0 F2040 X-3.089 Y-20.413
G1 F1020 X21.648 Y4.323 E149.5673
G0 F2040 X21.468 Y4.639
G1 F1020 X-3.584 Y-20.413 E150.92315
G0 F2040 X-4.079 Y-20.413
G1 F1020 X21.288 Y4.953 E152.29602
G0 F2040 X21.107 Y5.268
G1 F1020 X-4.574 Y-20.413 E153.68591
G0 F2040 X-5.069 Y-20.413
G1 F1020 X20.928 Y5.584 E155.0929
G0 F2040 X20.747 Y5.898
G1 F1020 X-5.564 Y-20.413 E156.51688
G0 F2040 X-6.059 Y-20.413
G1 F1020 X20.568 Y6.214 E157.95797
G0 F2040 X20.388 Y6.528
G1 F1020 X-6.554 Y-20.413 E159.41608
G0 F2040 X-7.049 Y-20.413
G1 F1020 X20.208 Y6.844 E160.89126
G0 F2040 X20.028 Y7.158
G1 F1020 X-7.544 Y-20.413 E162.38346
G0 F2040 X-8.039 Y-20.413
G1 F1020 X19.848 Y7.474 E163.89274
G0 F2040 X19.668 Y7.788
G1 F1020 X-8.534 Y-20.413 E165.41905
G0 F2040 X-9.029 Y-20.413
G1 F1020 X19.488 Y8.104 E166.96242
G0 F2040 X19.308 Y8.418
G1 F1020 X-9.524 Y-20.413 E168.52282
G0 F2040 X-10.018 Y-20.413
G1 F1020 X19.127 Y8.733 E170.10021
G0 F2040 X18.948 Y9.048
G1 F1020 X-10.513 Y-20.413 E171.69468
G0 F2040 X-11.008 Y-20.413
G1 F1020 X18.768 Y9.363 E173.30619
G0 F2040 X18.588 Y9.678
G1 F1020 X-11.503 Y-20.413 E174.93476
G0 F2040 X-11.998 Y-20.413
G1 F1020 X18.408 Y9.993 E176.58037
G0 F2040 X18.228 Y10.308
G1 F1020 X-12.493 Y-20.413 E178.24303
G0 F2040 X-12.988 Y-20.413
G1 F1020 X18.048 Y10.623 E179.92274
G0 F2040 X17.868 Y10.938
G1 F1020 X-13.483 Y-20.413 E181.61949
G0 F2040 X-13.978 Y-20.413
G1 F1020 X17.688 Y11.253 E183.3333
G0 F2040 X17.508 Y11.568
G1 F1020 X-14.473 Y-20.413 E185.06415
G0 F2040 X-14.968 Y-20.413
G1 F1020 X17.328 Y11.883 E186.81205
G0 F2040 X17.148 Y12.198
G1 F1020 X-15.463 Y-20.413 E188.577
G0 F2040 X-15.958 Y-20.413
G1 F1020 X16.968 Y12.513 E190.35899
G0 F2040 X16.788 Y12.828
G1 F1020 X-16.453 Y-20.413 E192.15804
G0 F2040 X-16.948 Y-20.413
G1 F1020 X16.608 Y13.143 E193.97413
G0 F2040 X16.428 Y13.458
G1 F1020 X-17.443 Y-20.413 E195.80728
G0 F2040 X-17.938 Y-20.413
G1 F1020 X16.248 Y13.773 E197.65747
G0 F2040 X16.068 Y14.088
G1 F1020 X-18.433 Y-20.413 E199.5247
G0 F2040 X-18.928 Y-20.413
G1 F1020 X15.888 Y14.403 E201.40899
G0 F2040 X15.708 Y14.718
G1 F1020 X-19.423 Y-20.413 E203.31032
G0 F2040 X-19.918 Y-20.413
G1 F1020 X15.528 Y15.033 E205.22871
G0 F2040 X15.348 Y15.348
