;FLAVOR:Marlin
;TIME:6240
;Filament used: 7.9436m
;Layer height: 0.3
;MINX:-54.558
;MINY:-47.306
;MINZ:0.26
;MAXX:54.556
;MAXY:49.315
;MAXZ:23.66
;Generated with Cura_SteamEngine 4.9.1
M82 ;absolute extrusion mode
;Gcode by Cura
G90
G28
M107
M109 R100
G30
M109 S215 U-55 X55 V-85 Y-85 W0.26 Z0.26
M82
G92 E0
G1 F200 E6
G92 E0
G1 F200 E-3.5
G0 Z0.15
G0 X10
G0 Z3
G1 F6000
G92 E0
G92 E0
G1 F3600 E-3.8
;LAYER_COUNT:79
;LAYER:0
M107
G0 F2040 X-4.439 Y46.222 Z0.26
;TYPE:SKIRT
G1 F3600 E0
G1 F1020 X-53.639 Y-39.878 E3.79503
G1 X-53.985 Y-40.502 E3.82233
G1 X-54.243 Y-41.049 E3.84548
G1 X-54.426 Y-41.626 E3.86864
G1 X-54.532 Y-42.221 E3.89177
G1 X-54.558 Y-42.825 E3.91491
G1 X-54.504 Y-43.427 E3.93804
G1 X-54.372 Y-44.017 E3.96118
G1 X-54.162 Y-44.585 E3.98435
G1 X-53.88 Y-45.119 E4.00746
G1 X-53.53 Y-45.612 E4.0306
G1 X-53.117 Y-46.054 E4.05375
G1 X-52.65 Y-46.439 E4.07691
G1 X-52.137 Y-46.758 E4.10003
G1 X-51.586 Y-47.006 E4.12315
G1 X-51.007 Y-47.18 E4.14629
G1 X-50.195 Y-47.291 E4.17765
G1 X-49.976 Y-47.299 E4.18604
G1 X-49.415 Y-47.306 E4.20751
G1 X49.359 Y-47.306 E7.98755
G1 X50.049 Y-47.296 E8.01395
G1 X50.652 Y-47.247 E8.03711
G1 X51.243 Y-47.119 E8.06025
G1 X51.812 Y-46.915 E8.08338
G1 X52.349 Y-46.637 E8.10652
G1 X52.845 Y-46.29 E8.12969
G1 X53.29 Y-45.882 E8.15279
G1 X53.678 Y-45.418 E8.17594
G1 X54.002 Y-44.907 E8.1991
G1 X54.255 Y-44.358 E8.22223
G1 X54.434 Y-43.78 E8.24539
G1 X54.534 Y-43.184 E8.26851
G1 X54.556 Y-42.58 E8.29164
G1 X54.497 Y-41.978 E8.31479
G1 X54.36 Y-41.389 E8.33793
G1 X54.096 Y-40.717 E8.36556
G1 X53.966 Y-40.464 E8.37645
G1 X53.665 Y-39.923 E8.40014
G1 X4.305 Y46.458 E12.20754
G1 X3.939 Y47.075 E12.235
G1 X3.597 Y47.574 E12.25815
G1 X3.192 Y48.023 E12.28129
G1 X2.731 Y48.414 E12.30442
G1 X2.223 Y48.742 E12.32756
G1 X1.676 Y49 E12.35071
G1 X1.1 Y49.183 E12.37384
G1 X0.504 Y49.289 E12.397
G1 X-.1 Y49.315 E12.42014
G1 X-.702 Y49.261 E12.44327
G1 X-1.292 Y49.129 E12.46641
G1 X-1.859 Y48.919 E12.48955
G1 X-2.394 Y48.637 E12.51269
G1 X-2.887 Y48.287 E12.53583
G1 X-3.329 Y47.875 E12.55895
G1 X-3.713 Y47.408 E12.58209
G1 X-3.924 Y47.086 E12.59682
G1 X-4.439 Y46.222 E12.63532
G0 F2040 X-4.135 Y46.048
G1 F1020 X-53.333 Y-40.048 E16.43017
G1 X-53.679 Y-40.672 E16.45748
G1 X-53.925 Y-41.198 E16.4797
G1 X-54.097 Y-41.754 E16.50197
G1 X-54.191 Y-42.327 E16.5242
G1 X-54.205 Y-42.908 E16.54644
G1 X-54.139 Y-43.485 E16.56866
G1 X-53.995 Y-44.048 E16.5909
G1 X-53.775 Y-44.586 E16.61315
G1 X-53.483 Y-45.088 E16.63537
G1 X-53.126 Y-45.546 E16.65759
G1 X-52.708 Y-45.95 E16.67984
G1 X-52.239 Y-46.294 E16.7021
G1 X-51.728 Y-46.569 E16.72431
G1 X-51.184 Y-46.772 E16.74653
G1 X-50.616 Y-46.898 E16.76879
G1 X-50.114 Y-46.945 E16.78809
G1 X-49.972 Y-46.949 E16.79353
G1 X-49.411 Y-46.956 E16.815
G1 X49.354 Y-46.956 E20.59469
G1 X50.044 Y-46.946 E20.62109
G1 X50.623 Y-46.897 E20.64333
G1 X51.19 Y-46.77 E20.66557
G1 X51.734 Y-46.566 E20.6878
G1 X52.245 Y-46.289 E20.71005
G1 X52.713 Y-45.945 E20.73227
G1 X53.13 Y-45.54 E20.75452
G1 X53.487 Y-45.082 E20.77674
G1 X53.778 Y-44.579 E20.79898
G1 X53.997 Y-44.041 E20.82121
G1 X54.14 Y-43.477 E20.84348
G1 X54.204 Y-42.9 E20.8657
G1 X54.189 Y-42.319 E20.88794
G1 X54.094 Y-41.746 E20.91017
G1 X53.921 Y-41.191 E20.93241
G1 X53.659 Y-40.634 E20.95597
G1 X53.361 Y-40.097 E20.97947
G1 X4.004 Y46.28 E24.78668
G1 X3.638 Y46.897 E24.81414
G1 X3.308 Y47.375 E24.83637
G1 X2.915 Y47.803 E24.8586
G1 X2.467 Y48.173 E24.88084
G1 X1.973 Y48.479 E24.90308
G1 X1.442 Y48.714 E24.9253
G1 X0.883 Y48.874 E24.94755
G1 X0.308 Y48.955 E24.96977
G1 X-.273 Y48.957 E24.99201
G1 X-.849 Y48.879 E25.01425
G1 X-1.409 Y48.723 E25.0365
G1 X-1.942 Y48.491 E25.05875
G1 X-2.438 Y48.189 E25.08097
G1 X-2.888 Y47.821 E25.10322
G1 X-3.283 Y47.396 E25.12542
G1 X-3.624 Y46.907 E25.14824
G1 X-4.135 Y46.048 E25.18649
G0 F2040 X-3.831 Y45.875
G1 F1020 X-53.027 Y-40.218 E28.9812
G1 X-53.373 Y-40.842 E29.00851
G1 X-53.607 Y-41.347 E29.02981
G1 X-53.767 Y-41.88 E29.05111
G1 X-53.848 Y-42.43 E29.07238
G1 X-53.85 Y-42.987 E29.0937
G1 X-53.772 Y-43.537 E29.11496
G1 X-53.616 Y-44.072 E29.13628
G1 X-53.385 Y-44.578 E29.15757
G1 X-53.084 Y-45.046 E29.17887
G1 X-52.719 Y-45.466 E29.20016
G1 X-52.298 Y-45.829 E29.22143
G1 X-51.829 Y-46.129 E29.24274
G1 X-51.322 Y-46.358 E29.26403
G1 X-50.787 Y-46.512 E29.28534
G1 X-50.163 Y-46.592 E29.30941
G1 X-49.967 Y-46.599 E29.31692
G1 X-49.406 Y-46.606 E29.33839
G1 X49.349 Y-46.606 E33.11769
G1 X50.039 Y-46.596 E33.1441
G1 X50.593 Y-46.548 E33.16538
G1 X51.135 Y-46.421 E33.18669
G1 X51.653 Y-46.218 E33.20798
G1 X52.137 Y-45.942 E33.2293
G1 X52.576 Y-45.601 E33.25057
G1 X52.962 Y-45.2 E33.27187
G1 X53.286 Y-44.747 E33.29319
G1 X53.542 Y-44.253 E33.31448
G1 X53.725 Y-43.728 E33.33576
G1 X53.831 Y-43.182 E33.35704
G1 X53.857 Y-42.626 E33.37835
G1 X53.803 Y-42.072 E33.39965
G1 X53.671 Y-41.532 E33.42092
G1 X53.467 Y-41.024 E33.44187
G1 X53.353 Y-40.804 E33.45135
G1 X53.057 Y-40.27 E33.47472
G1 X3.703 Y46.101 E37.28167
G1 X3.337 Y46.718 E37.30913
G1 X3.019 Y47.175 E37.33043
G1 X2.64 Y47.582 E37.35172
G1 X2.206 Y47.93 E37.37301
G1 X1.726 Y48.212 E37.39431
G1 X1.211 Y48.423 E37.41561
G1 X0.671 Y48.558 E37.43691
G1 X0.118 Y48.614 E37.45818
G1 X-.438 Y48.591 E37.47948
G1 X-.985 Y48.488 E37.50078
G1 X-1.511 Y48.307 E37.52207
G1 X-2.006 Y48.054 E37.54334
G1 X-2.46 Y47.732 E37.56464
G1 X-2.863 Y47.348 E37.58595
G1 X-3.323 Y46.727 E37.61552
G1 X-3.831 Y45.875 E37.65348
G0 F2040 X-3.528 Y45.701
G1 F1020 X-52.721 Y-40.388 E41.44801
G1 X-53.067 Y-41.012 E41.47532
G1 X-53.288 Y-41.494 E41.49561
G1 X-53.435 Y-42.004 E41.51592
G1 X-53.504 Y-42.53 E41.53622
G1 X-53.493 Y-43.06 E41.55651
G1 X-53.402 Y-43.583 E41.57683
G1 X-53.234 Y-44.087 E41.59716
G1 X-52.992 Y-44.559 E41.61746
G1 X-52.682 Y-44.99 E41.63777
G1 X-52.311 Y-45.369 E41.65807
G1 X-51.887 Y-45.688 E41.67838
G1 X-51.42 Y-45.94 E41.69868
G1 X-50.92 Y-46.119 E41.71901
G1 X-50.147 Y-46.242 E41.74896
G1 X-49.963 Y-46.249 E41.75601
G1 X-49.402 Y-46.256 E41.77748
G1 X49.344 Y-46.256 E45.55644
G1 X50.034 Y-46.246 E45.58285
G1 X50.563 Y-46.198 E45.60318
G1 X51.078 Y-46.072 E45.62347
G1 X51.569 Y-45.869 E45.6438
G1 X52.023 Y-45.596 E45.66408
G1 X52.432 Y-45.257 E45.68441
G1 X52.784 Y-44.86 E45.70471
G1 X53.074 Y-44.416 E45.72501
G1 X53.293 Y-43.932 E45.74534
G1 X53.438 Y-43.422 E45.76563
G1 X53.504 Y-42.895 E45.78595
G1 X53.49 Y-42.365 E45.80624
G1 X53.397 Y-41.842 E45.82657
G1 X53.152 Y-41.177 E45.85369
G1 X53.047 Y-40.973 E45.86247
G1 X52.754 Y-40.444 E45.88562
G1 X3.402 Y45.922 E49.69237
G1 X3.036 Y46.539 E49.71982
G1 X2.731 Y46.974 E49.74015
G1 X2.365 Y47.358 E49.76045
G1 X1.946 Y47.683 E49.78075
G1 X1.482 Y47.941 E49.80106
G1 X0.985 Y48.127 E49.82137
G1 X0.465 Y48.236 E49.84171
G1 X-0.064 Y48.265 E49.86198
G1 X-.593 Y48.215 E49.88231
G1 X-1.107 Y48.086 E49.9026
G1 X-1.597 Y47.881 E49.92292
G1 X-2.05 Y47.606 E49.9432
G1 X-2.457 Y47.265 E49.96352
G1 X-2.808 Y46.867 E49.98383
G1 X-3.023 Y46.548 E49.99855
G1 X-3.528 Y45.701 E50.03629
G0 F2040 X-3.224 Y45.527
G1 F1020 X-52.415 Y-40.557 E53.83062
G1 X-52.761 Y-41.181 E53.85792
G1 X-52.969 Y-41.64 E53.87721
G1 X-53.103 Y-42.125 E53.89646
G1 X-53.158 Y-42.626 E53.91575
G1 X-53.133 Y-43.129 E53.93502
G1 X-53.029 Y-43.622 E53.95431
G1 X-52.848 Y-44.092 E53.97358
G1 X-52.595 Y-44.527 E53.99284
G1 X-52.277 Y-44.917 E54.0121
G1 X-51.901 Y-45.252 E54.03137
G1 X-51.476 Y-45.523 E54.05066
G1 X-51.014 Y-45.724 E54.06994
G1 X-50.527 Y-45.849 E54.08918
G1 X-49.959 Y-45.899 E54.111
G1 X-49.398 Y-45.906 E54.13247
G1 X49.339 Y-45.906 E57.91109
G1 X50.029 Y-45.896 E57.9375
G1 X50.53 Y-45.848 E57.95676
G1 X51.018 Y-45.723 E57.97604
G1 X51.48 Y-45.521 E57.99533
G1 X51.903 Y-45.249 E58.01458
G1 X52.279 Y-44.914 E58.03385
G1 X52.597 Y-44.523 E58.05314
G1 X52.849 Y-44.087 E58.07241
G1 X53.029 Y-43.617 E58.09167
G1 X53.132 Y-43.124 E58.11095
G1 X53.156 Y-42.621 E58.13022
G1 X53.101 Y-42.121 E58.14947
G1 X52.967 Y-41.635 E58.16876
G1 X52.741 Y-41.143 E58.18948
G1 X52.45 Y-40.618 E58.21245
G1 X3.101 Y45.744 E62.01901
G1 X2.735 Y46.361 E62.04647
G1 X2.444 Y46.772 E62.06574
G1 X2.092 Y47.132 E62.08501
G1 X1.688 Y47.433 E62.10429
G1 X1.241 Y47.665 E62.12356
G1 X0.763 Y47.824 E62.14284
G1 X0.266 Y47.905 E62.16211
G1 X-.237 Y47.907 E62.18136
G1 X-.735 Y47.829 E62.20065
G1 X-1.214 Y47.673 E62.21993
G1 X-1.662 Y47.444 E62.23919
G1 X-2.068 Y47.146 E62.25846
G1 X-2.423 Y46.789 E62.27773
G1 X-2.722 Y46.368 E62.29749
G1 X-3.224 Y45.527 E62.33497
G1 F3600 E58.53497
;MESH:support_tri_0_011.stl
G0 F2040 X-.944 Y44.455
G0 X-.186 Y44.021
G0 X0.00 Y43.711
;TYPE:WALL-INNER
G1 F3600 E62.33497
G1 F1020 X-49.095 Y-42.206 E66.12192
G1 X49.095 Y-42.206 E69.87961
G1 X0.00 Y43.711 E73.66656
G0 F2040 X0.00 Y44.366
;TYPE:WALL-OUTER
G1 F1020 X-49.655 Y-42.531 E77.49671
G1 X49.655 Y-42.531 E81.29725
G1 X0.00 Y44.366 E85.1274
G0 F2040 X-0.099 Y44.193
G0 X-0.011 Y44.144
G0 X0.00 Y43.026
;TYPE:SKIN
G1 F1020 X-48.509 Y-41.866 E88.86917
G1 X48.509 Y-41.866 E92.582
G1 X0.00 Y43.026 E96.32377
G0 F2040 X0.051 Y42.619
G1 F1020 X-.187 Y42.38 E96.33668
G0 F2040 X0.231 Y42.304
G1 F1020 X-.847 Y41.225 E96.39505
G1 X-.909 Y41.163
G0 F2040 X-1.507 Y40.07
G1 F1020 X0.411 Y41.989 E96.49888
G0 F2040 X0.591 Y41.674
G1 F1020 X-2.167 Y38.915 E96.64817
G1 X-2.229 Y38.853
G0 F2040 X-2.827 Y37.76
G1 F1020 X0.771 Y41.359 E96.84293
G0 F2040 X0.951 Y41.044
G1 F1020 X-3.487 Y36.605 E97.08314
G1 X-3.549 Y36.543
G0 F2040 X-4.147 Y35.45
G1 F1020 X1.131 Y40.729 E97.36882
G0 F2040 X1.31 Y40.413
G1 F1020 X-4.806 Y34.296 E97.69986
G1 X-4.868 Y34.234
G0 F2040 X-5.466 Y33.141
G1 F1020 X1.491 Y40.099 E98.0764
G0 F2040 X1.671 Y39.784
G1 F1020 X-6.127 Y31.985 E98.49847
G1 X-6.189 Y31.923
G0 F2040 X-6.786 Y30.831
G1 F1020 X1.851 Y39.469 E98.96594
G0 F2040 X2.031 Y39.154
G1 F1020 X-7.446 Y29.676 E99.47888
G1 X-7.508 Y29.614
G0 F2040 X-8.106 Y28.521
G1 F1020 X2.211 Y38.839 E100.03727
G0 F2040 X2.391 Y38.524
G1 F1020 X-8.766 Y27.366 E100.64113
G1 X-8.828 Y27.304
G0 F2040 X-9.426 Y26.211
G1 F1020 X2.571 Y38.209 E101.29045
G0 F2040 X2.751 Y37.894
G1 F1020 X-10.086 Y25.057 E101.98521
G1 X-10.148 Y24.995
G0 F2040 X-10.746 Y23.901
G1 F1020 X2.93 Y37.579 E102.72542
G0 F2040 X3.111 Y37.264
G1 F1020 X-11.406 Y22.746 E103.51113
G1 X-11.468 Y22.684
G0 F2040 X-12.066 Y21.592
G1 F1020 X3.29 Y36.949 E104.34224
G0 F2040 X3.471 Y36.634
G1 F1020 X-12.725 Y20.437 E105.21882
G1 X-12.787 Y20.375
G0 F2040 X-13.386 Y19.282
G1 F1020 X3.651 Y36.319 E106.14088
G0 F2040 X3.831 Y36.004
G1 F1020 X-14.045 Y18.127 E107.10838
G1 X-14.107 Y18.065
G0 F2040 X-14.705 Y16.972
G1 F1020 X4.011 Y35.689 E108.12134
G0 F2040 X4.191 Y35.374
G1 F1020 X-15.366 Y15.817 E109.17979
G1 X-15.428 Y15.755
G0 F2040 X-16.025 Y14.662
G1 F1020 X4.371 Y35.059 E110.28367
G0 F2040 X4.55 Y34.744
G1 F1020 X-16.685 Y13.507 E111.43299
G1 X-16.747 Y13.445
G0 F2040 X-17.345 Y12.353
G1 F1020 X4.731 Y34.429 E112.62777
G0 F2040 X4.91 Y34.114
G1 F1020 X-18.005 Y11.197 E113.86802
G1 X-18.067 Y11.135
G0 F2040 X-18.665 Y10.043
G1 F1020 X5.091 Y33.799 E115.15372
G0 F2040 X5.27 Y33.484
G1 F1020 X-19.325 Y8.888 E116.48486
G1 X-19.387 Y8.826
G0 F2040 X-19.985 Y7.732
G1 F1020 X5.451 Y33.169 E117.86152
G0 F2040 X5.63 Y32.854
G1 F1020 X-20.645 Y6.578 E119.28358
G1 X-20.707 Y6.516
G0 F2040 X-21.305 Y5.423
G1 F1020 X5.811 Y32.539 E120.75113
G0 F2040 X5.991 Y32.224
G1 F1020 X-21.964 Y4.268 E122.26412
G1 X-22.026 Y4.206
G0 F2040 X-22.625 Y3.113
G1 F1020 X6.17 Y31.909 E123.82257
G0 F2040 X6.351 Y31.594
G1 F1020 X-23.285 Y1.958 E125.42651
G1 X-23.347 Y1.896
G0 F2040 X-23.944 Y0.803
G1 F1020 X6.53 Y31.279 E127.07585
G0 F2040 X6.711 Y30.964
G1 F1020 X-24.604 Y-.35 E128.77064
G1 X-24.666 Y-.412
G0 F2040 X-25.264 Y-1.506
G1 F1020 X6.89 Y30.649 E130.51088
G0 F2040 X7.071 Y30.334
G1 F1020 X-25.924 Y-2.66 E132.29658
G1 X-25.986 Y-2.722
G0 F2040 X-26.584 Y-3.815
G1 F1020 X7.25 Y30.019 E134.12772
G0 F2040 X7.43 Y29.704
G1 F1020 X-27.244 Y-4.97 E136.00432
G1 X-27.306 Y-5.032
G0 F2040 X-27.904 Y-6.125
G1 F1020 X7.61 Y29.389 E137.92639
G0 F2040 X7.79 Y29.074
G1 F1020 X-28.564 Y-7.28 E139.89391
G1 X-28.626 Y-7.342
G0 F2040 X-29.224 Y-8.435
G1 F1020 X7.971 Y28.76 E141.90695
G0 F2040 X8.15 Y28.444
G1 F1020 X-29.884 Y-9.59 E143.9654
G1 X-29.946 Y-9.652
G0 F2040 X-30.544 Y-10.745
G1 F1020 X8.331 Y28.13 E146.06936
G0 F2040 X8.51 Y27.814
G1 F1020 X-31.203 Y-11.899 E148.21868
G1 X-31.265 Y-11.961
G0 F2040 X-31.864 Y-13.055
G1 F1020 X8.691 Y27.5 E150.41357
G0 F2040 X8.87 Y27.184
G1 F1020 X-32.524 Y-14.21 E152.65387
G1 X-32.586 Y-14.272
G0 F2040 X-33.183 Y-15.364
G1 F1020 X9.05 Y26.87 E154.9396
G0 F2040 X9.23 Y26.554
G1 F1020 X-33.843 Y-16.519 E157.27076
G1 X-33.905 Y-16.581
G0 F2040 X-34.503 Y-17.674
G1 F1020 X9.41 Y26.24 E159.64742
G0 F2040 X9.59 Y25.924
G1 F1020 X-35.163 Y-18.829 E162.06951
G1 X-35.225 Y-18.891
G0 F2040 X-35.823 Y-19.984
G1 F1020 X9.77 Y25.609 E164.53706
G0 F2040 X9.95 Y25.294
G1 F1020 X-36.483 Y-21.138 E167.05004
G1 X-36.545 Y-21.2
G0 F2040 X-37.143 Y-22.294
G1 F1020 X10.13 Y24.979 E169.60852
G0 F2040 X10.311 Y24.665
G1 F1020 X-37.803 Y-23.449 E172.21251
G1 X-37.865 Y-23.511
G0 F2040 X-38.463 Y-24.603
G1 F1020 X10.49 Y24.349 E174.86188
G0 F2040 X10.67 Y24.035
G1 F1020 X-39.123 Y-25.759 E177.55677
G1 X-39.185 Y-25.821
G0 F2040 X-39.783 Y-26.913
G1 F1020 X10.85 Y23.719 E180.29707
G0 F2040 X11.03 Y23.405
G1 F1020 X-40.442 Y-28.068 E183.08282
G1 X-40.504 Y-28.13
G0 F2040 X-41.102 Y-29.223
G1 F1020 X11.21 Y23.089 E185.91401
G0 F2040 X11.39 Y22.775
G1 F1020 X-41.763 Y-30.378 E188.79072
G1 X-41.825 Y-30.44
G0 F2040 X-42.422 Y-31.533
G1 F1020 X11.57 Y22.459 E191.71284
G0 F2040 X11.75 Y22.145
G1 F1020 X-43.082 Y-32.688 E194.68044
G1 X-43.144 Y-32.75
G0 F2040 X-43.743 Y-33.843
G1 F1020 X11.93 Y21.829 E197.69351
G0 F2040 X12.11 Y21.515
G1 F1020 X-44.402 Y-34.998 E200.75204
G1 X-44.464 Y-35.06
G0 F2040 X-45.062 Y-36.152
G1 F1020 X12.29 Y21.199 E203.85597
G0 F2040 X12.47 Y20.885
G1 F1020 X-45.722 Y-37.307 E207.0054
G1 X-45.784 Y-37.369
G0 F2040 X-46.382 Y-38.463
G1 F1020 X12.65 Y20.57 E210.20031
G0 F2040 X12.83 Y20.255
G1 F1020 X-47.042 Y-39.617 E213.44066
G1 X-47.104 Y-39.679
G0 F2040 X-47.702 Y-40.772
G1 F1020 X13.01 Y19.94 E216.72647
G0 F2040 X13.19 Y19.625
G1 F1020 X-48.144 Y-41.709 E220.04595
G0 F2040 X-47.649 Y-41.709
G1 F1020 X13.37 Y19.31 E223.34837
G0 F2040 X13.55 Y18.995
G1 F1020 X-47.154 Y-41.709 E226.63375
G0 F2040 X-46.659 Y-41.709
G1 F1020 X13.73 Y18.68 E229.90208
G0 F2040 X13.91 Y18.364
G1 F1020 X-46.164 Y-41.709 E233.15334
G0 F2040 X-45.669 Y-41.709
G1 F1020 X14.09 Y18.05 E236.38757
G0 F2040 X14.27 Y17.734
G1 F1020 X-45.174 Y-41.709 E239.60473
G0 F2040 X-44.679 Y-41.709
G1 F1020 X14.45 Y17.42 E242.80486
G0 F2040 X14.63 Y17.105
G1 F1020 X-44.184 Y-41.709 E245.98795
G0 F2040 X-43.689 Y-41.709
G1 F1020 X14.81 Y16.79 E249.15399
G0 F2040 X14.99 Y16.475
G1 F1020 X-43.194 Y-41.709 E252.30298
G0 F2040 X-42.699 Y-41.709
G1 F1020 X15.17 Y16.16 E255.43493
G0 F2040 X15.35 Y15.845
G1 F1020 X-42.204 Y-41.709 E258.54982
G0 F2040 X-41.709 Y-41.709
G1 F1020 X15.53 Y15.53 E261.64767
G0 F2040 X15.71 Y15.215
G1 F1020 X-41.214 Y-41.709 E264.72847
G0 F2040 X-40.719 Y-41.709
G1 F1020 X15.89 Y14.9 E267.79222
G0 F2040 X16.07 Y14.585
G1 F1020 X-40.224 Y-41.709 E270.83893
G0 F2040 X-39.729 Y-41.709
G1 F1020 X16.25 Y14.27 E273.86858
G0 F2040 X16.43 Y13.955
G1 F1020 X-39.234 Y-41.709 E276.88119
G0 F2040 X-38.739 Y-41.709
G1 F1020 X16.609 Y13.64 E279.87672
G0 F2040 X16.79 Y13.325
G1 F1020 X-38.244 Y-41.709 E282.85523
G0 F2040 X-37.749 Y-41.709
G1 F1020 X16.97 Y13.01 E285.81669
G0 F2040 X17.15 Y12.695
G1 F1020 X-37.254 Y-41.709 E288.7611
G0 F2040 X-36.759 Y-41.709
G1 F1020 X17.33 Y12.38 E291.68847
G0 F2040 X17.51 Y12.065
G1 F1020 X-36.264 Y-41.709 E294.59879
G0 F2040 X-35.769 Y-41.709
G1 F1020 X17.69 Y11.75 E297.49206
G0 F2040 X17.87 Y11.435
G1 F1020 X-35.274 Y-41.709 E300.36828
G0 F2040 X-34.779 Y-41.709
G1 F1020 X18.05 Y11.12 E303.22745
G0 F2040 X18.229 Y10.805
G1 F1020 X-34.284 Y-41.709 E306.06955
G0 F2040 X-33.789 Y-41.709
G1 F1020 X18.41 Y10.49 E308.89462
G0 F2040 X18.589 Y10.175
G1 F1020 X-33.294 Y-41.709 E311.70263
G0 F2040 X-32.799 Y-41.709
G1 F1020 X18.77 Y9.86 E314.49361
