;FLAVOR:Marlin
;TIME:7430
;Filament used: 7.05117m
;Layer height: 0.2
;MINX:-42.051
;MINY:-75.795
;MINZ:0.26
;MAXX:67.054
;MAXY:24.987
;MAXZ:13.06
;Generated with Cura_SteamEngine 4.8.0
M82 ;absolute extrusion mode
;Gcode by Cura
G90
G28
M107
M109 R100
G30
M109 S215 U-55 X55 V-85 Y-85 W0.26 Z0.26
M82
G92 E0
G1 F200 E6
G92 E0
G1 F200 E-3.5
G0 Z0.15
G0 X10
G0 Z3
G1 F6000
G92 E0
G92 E0
G1 F3600 E-3.8
;LAYER_COUNT:65
;LAYER:0
M107
G0 F2040 X-36.853 Y24.987 Z0.26
;TYPE:SKIRT
G1 F3600 E0
G1 F1020 X-37.538 Y24.978 E0.02622
G1 X-38.141 Y24.93 E0.04937
G1 X-38.732 Y24.803 E0.0725
G1 X-39.301 Y24.599 E0.09563
G1 X-39.839 Y24.322 E0.11879
G1 X-40.335 Y23.976 E0.14193
G1 X-40.781 Y23.568 E0.16507
G1 X-41.17 Y23.105 E0.18821
G1 X-41.494 Y22.595 E0.21133
G1 X-41.748 Y22.046 E0.23448
G1 X-41.927 Y21.469 E0.2576
G1 X-42.029 Y20.872 E0.28078
G1 X-42.051 Y20.268 E0.30391
G1 X-41.993 Y19.666 E0.32705
G1 X-41.857 Y19.077 E0.35019
G1 X-41.53 Y18.279 E0.38319
G1 X-41.069 Y17.401 E0.42114
G1 X8.17 Y-72.855 E4.35577
G1 X8.515 Y-73.467 E4.38265
G1 X8.846 Y-73.973 E4.40579
G1 X9.241 Y-74.43 E4.42891
G1 X9.692 Y-74.832 E4.45203
G1 X10.193 Y-75.171 E4.47518
G1 X10.735 Y-75.441 E4.49835
G1 X11.307 Y-75.637 E4.52149
G1 X11.899 Y-75.755 E4.54459
G1 X12.503 Y-75.795 E4.56776
G1 X13.106 Y-75.755 E4.59089
G1 X13.699 Y-75.635 E4.61404
G1 X14.271 Y-75.439 E4.63718
G1 X14.811 Y-75.168 E4.6603
G1 X15.312 Y-74.829 E4.68345
G1 X15.763 Y-74.427 E4.70657
G1 X16.158 Y-73.968 E4.72975
G1 X16.439 Y-73.547 E4.74912
G1 X16.743 Y-73.014 E4.7726
G1 X66.184 Y17.612 E8.72336
G1 X66.525 Y18.255 E8.75121
G1 X66.772 Y18.806 E8.77432
G1 X66.945 Y19.386 E8.79748
G1 X67.039 Y19.983 E8.82061
G1 X67.054 Y20.587 E8.84373
G1 X66.989 Y21.189 E8.8669
G1 X66.846 Y21.776 E8.89003
G1 X66.626 Y22.339 E8.91316
G1 X66.334 Y22.869 E8.93632
G1 X65.974 Y23.355 E8.95946
G1 X65.554 Y23.789 E8.98257
G1 X65.08 Y24.165 E9.00573
G1 X64.56 Y24.474 E9.02888
G1 X64.005 Y24.713 E9.052
G1 X63.422 Y24.876 E9.07517
G1 X62.559 Y24.972 E9.1084
G1 X61.638 Y24.987 E9.14365
G1 X-36.853 Y24.987 E12.91285
G0 F2040 X-36.849 Y24.637
G1 F1020 X-37.534 Y24.628 E12.93907
G1 X-38.113 Y24.58 E12.9613
G1 X-38.68 Y24.454 E12.98353
G1 X-39.224 Y24.25 E13.00577
G1 X-39.735 Y23.974 E13.02799
G1 X-40.204 Y23.631 E13.05023
G1 X-40.621 Y23.226 E13.07248
G1 X-40.979 Y22.768 E13.09472
G1 X-41.27 Y22.266 E13.11693
G1 X-41.49 Y21.728 E13.13917
G1 X-41.634 Y21.165 E13.16141
G1 X-41.699 Y20.588 E13.18363
G1 X-41.684 Y20.007 E13.20587
G1 X-41.59 Y19.433 E13.22813
G1 X-41.418 Y18.878 E13.25037
G1 X-41.22 Y18.442 E13.26869
G1 X-40.762 Y17.569 E13.30642
G1 X8.475 Y-72.683 E17.24088
G1 X8.82 Y-73.295 E17.26776
G1 X9.139 Y-73.78 E17.28998
G1 X9.522 Y-74.217 E17.31222
G1 X9.961 Y-74.597 E17.33444
G1 X10.449 Y-74.914 E17.35671
G1 X10.975 Y-75.16 E17.37893
G1 X11.53 Y-75.332 E17.40116
G1 X12.103 Y-75.426 E17.42339
G1 X12.684 Y-75.441 E17.44563
G1 X13.261 Y-75.376 E17.46785
G1 X13.824 Y-75.232 E17.49009
G1 X14.362 Y-75.012 E17.51233
G1 X14.865 Y-74.721 E17.53457
G1 X15.323 Y-74.363 E17.55682
G1 X15.728 Y-73.946 E17.57906
G1 X16.137 Y-73.369 E17.60613
G1 X16.438 Y-72.843 E17.62932
G1 X65.875 Y17.776 E21.57977
G1 X66.216 Y18.419 E21.60763
G1 X66.452 Y18.949 E21.62983
G1 X66.613 Y19.508 E21.65209
G1 X66.696 Y20.083 E21.67432
G1 X66.7 Y20.664 E21.69656
G1 X66.623 Y21.24 E21.7188
G1 X66.469 Y21.8 E21.74102
G1 X66.239 Y22.333 E21.76324
G1 X65.938 Y22.83 E21.78548
G1 X65.571 Y23.281 E21.80773
G1 X65.147 Y23.678 E21.82996
G1 X64.671 Y24.012 E21.85221
G1 X64.155 Y24.278 E21.87443
G1 X63.607 Y24.471 E21.89666
G1 X63.037 Y24.586 E21.91891
G1 X62.553 Y24.622 E21.93749
G1 X61.638 Y24.637 E21.97251
G1 X-36.849 Y24.637 E25.74156
G0 F2040 X-36.844 Y24.287
G1 F1020 X-37.529 Y24.278 E25.76778
G1 X-38.083 Y24.23 E25.78906
G1 X-38.625 Y24.104 E25.81035
G1 X-39.144 Y23.902 E25.83167
G1 X-39.627 Y23.627 E25.85294
G1 X-40.067 Y23.286 E25.87424
G1 X-40.453 Y22.886 E25.89551
G1 X-40.778 Y22.434 E25.91682
G1 X-41.035 Y21.94 E25.93813
G1 X-41.219 Y21.415 E25.95942
G1 X-41.325 Y20.869 E25.9807
G1 X-41.352 Y20.313 E26.00201
G1 X-41.299 Y19.759 E26.0233
G1 X-41.168 Y19.219 E26.04457
G1 X-40.91 Y18.604 E26.07009
G1 X-40.455 Y17.736 E26.1076
G1 X8.779 Y-72.511 E30.04183
G1 X9.124 Y-73.123 E30.06871
G1 X9.432 Y-73.587 E30.09003
G1 X9.802 Y-74.002 E30.11131
G1 X10.229 Y-74.359 E30.1326
G1 X10.702 Y-74.652 E30.1539
G1 X11.212 Y-74.875 E30.1752
G1 X11.748 Y-75.021 E30.19646
G1 X12.301 Y-75.09 E30.21779
G1 X12.857 Y-75.079 E30.23907
G1 X13.406 Y-74.988 E30.26037
G1 X13.936 Y-74.819 E30.28165
G1 X14.437 Y-74.576 E30.30296
G1 X14.898 Y-74.264 E30.32427
G1 X15.309 Y-73.89 E30.34553
G1 X15.662 Y-73.46 E30.36682
G1 X15.956 Y-72.986 E30.38817
G1 X16.157 Y-72.629 E30.40385
G1 X65.565 Y17.939 E34.35205
G1 X65.906 Y18.582 E34.37991
G1 X66.131 Y19.092 E34.40124
G1 X66.281 Y19.627 E34.4225
G1 X66.352 Y20.179 E34.4438
G1 X66.343 Y20.736 E34.46512
G1 X66.255 Y21.285 E34.4864
G1 X66.089 Y21.816 E34.50769
G1 X65.849 Y22.318 E34.52898
G1 X65.539 Y22.78 E34.55027
G1 X65.167 Y23.193 E34.57155
G1 X64.738 Y23.549 E34.59288
G1 X64.264 Y23.839 E34.61415
G1 X63.753 Y24.059 E34.63544
G1 X63.215 Y24.203 E34.65675
G1 X62.547 Y24.272 E34.68245
G1 X61.638 Y24.287 E34.71724
G1 X-36.844 Y24.287 E38.4861
G0 F2040 X-36.839 Y23.937
G1 F1020 X-37.524 Y23.928 E38.51232
G1 X-38.053 Y23.881 E38.53264
G1 X-38.568 Y23.755 E38.55293
G1 X-39.059 Y23.553 E38.57325
G1 X-39.514 Y23.28 E38.59356
G1 X-39.923 Y22.942 E38.61386
G1 X-40.277 Y22.546 E38.63419
G1 X-40.567 Y22.102 E38.65449
G1 X-40.787 Y21.619 E38.6748
G1 X-40.932 Y21.108 E38.69512
G1 X-40.998 Y20.582 E38.71541
G1 X-40.985 Y20.052 E38.7357
G1 X-40.893 Y19.529 E38.75602
G1 X-40.723 Y19.026 E38.77634
G1 X-40.6 Y18.767 E38.78731
G1 X-40.147 Y17.904 E38.82462
G1 X9.084 Y-72.339 E42.75866
G1 X9.429 Y-72.951 E42.78554
G1 X9.724 Y-73.392 E42.80585
G1 X10.082 Y-73.784 E42.82616
G1 X10.494 Y-74.118 E42.84646
G1 X10.952 Y-74.387 E42.86679
G1 X11.445 Y-74.583 E42.88709
G1 X11.961 Y-74.704 E42.90737
G1 X12.491 Y-74.745 E42.92772
G1 X13.02 Y-74.706 E42.94802
G1 X13.537 Y-74.589 E42.9683
G1 X14.031 Y-74.395 E42.98861
G1 X14.491 Y-74.129 E43.00895
G1 X14.905 Y-73.797 E43.02926
G1 X15.264 Y-73.407 E43.04954
G1 X15.613 Y-72.881 E43.0737
G1 X15.849 Y-72.461 E43.09214
G1 X65.256 Y18.103 E47.04019
G1 X65.597 Y18.746 E47.06804
G1 X65.81 Y19.233 E47.08838
G1 X65.947 Y19.745 E47.10867
G1 X66.006 Y20.273 E47.129
G1 X65.985 Y20.803 E47.1493
G1 X65.884 Y21.324 E47.16961
G1 X65.707 Y21.824 E47.18991
G1 X65.456 Y22.292 E47.21023
G1 X65.138 Y22.717 E47.23054
G1 X64.76 Y23.089 E47.25084
G1 X64.33 Y23.4 E47.27115
G1 X63.859 Y23.644 E47.29145
G1 X63.356 Y23.813 E47.31176
G1 X62.833 Y23.906 E47.33208
G1 X62.541 Y23.923 E47.34328
G1 X61.696 Y23.937 E47.37562
G1 X-36.839 Y23.937 E51.14651
G0 F2040 X-36.835 Y23.587
G1 F1020 X-37.52 Y23.578 E51.17272
G1 X-38.021 Y23.531 E51.19198
G1 X-38.509 Y23.406 E51.21126
G1 X-38.971 Y23.205 E51.23054
G1 X-39.395 Y22.934 E51.2498
G1 X-39.771 Y22.599 E51.26907
G1 X-40.089 Y22.209 E51.28833
G1 X-40.342 Y21.773 E51.30762
G1 X-40.523 Y21.303 E51.32689
G1 X-40.627 Y20.81 E51.34618
G1 X-40.652 Y20.307 E51.36545
G1 X-40.597 Y19.807 E51.3847
G1 X-40.463 Y19.321 E51.40399
G1 X-40.29 Y18.929 E51.42039
G1 X-39.84 Y18.071 E51.45747
G1 X9.389 Y-72.167 E55.3913
G1 X9.734 Y-72.779 E55.41819
G1 X10.016 Y-73.197 E55.43749
G1 X10.359 Y-73.565 E55.45674
G1 X10.757 Y-73.874 E55.47602
G1 X11.198 Y-74.116 E55.49527
G1 X11.673 Y-74.285 E55.51457
G1 X12.168 Y-74.378 E55.53384
G1 X12.671 Y-74.39 E55.5531
G1 X13.17 Y-74.323 E55.57237
G1 X13.653 Y-74.178 E55.59166
G1 X14.106 Y-73.959 E55.61092
G1 X14.519 Y-73.671 E55.63019
G1 X14.881 Y-73.321 E55.64946
G1 X15.233 Y-72.835 E55.67242
G1 X15.523 Y-72.328 E55.69478
G1 X64.947 Y18.267 E59.64418
G1 X65.288 Y18.91 E59.67203
G1 X65.488 Y19.373 E59.69134
G1 X65.612 Y19.861 E59.7106
G1 X65.658 Y20.362 E59.72986
G1 X65.624 Y20.865 E59.74915
G1 X65.51 Y21.355 E59.7684
G1 X65.321 Y21.822 E59.78768
G1 X65.06 Y22.253 E59.80697
G1 X64.734 Y22.637 E59.82624
G1 X64.352 Y22.965 E59.84551
G1 X63.923 Y23.228 E59.86477
G1 X63.457 Y23.42 E59.88406
G1 X62.967 Y23.536 E59.90333
G1 X62.536 Y23.573 E59.91988
G1 X61.691 Y23.587 E59.95223
G1 X-36.835 Y23.587 E63.72277
G1 F3600 E59.92277
;MESH:support_tri_0_107.stl
G0 F2040 X-36.835 Y21.077
G0 X-36.835 Y20.042
G0 X61.616 Y19.887
;TYPE:WALL-INNER
G1 F3600 E63.72277
G1 F1020 X-36.616 Y19.887 E67.48206
G1 X12.5 Y-70.143 E71.40684
G1 X61.616 Y19.887 E75.33162
G0 F2040 X62.163 Y20.212
;TYPE:WALL-OUTER
G1 F1020 X-37.163 Y20.212 E79.13277
G1 X12.5 Y-70.821 E83.10127
G1 X62.163 Y20.212 E87.06977
G0 F2040 X61.963 Y20.212
G0 X61.826 Y20.011
G0 X61.043 Y19.547
;TYPE:SKIN
G1 F1020 X-36.043 Y19.547 E90.78521
G1 X12.5 Y-69.432 E94.66418
G1 X61.043 Y19.547 E98.54314
G0 F2040 X-35.698 Y19.243
G1 F1020 X-35.552 Y19.389 E98.55104
G0 F2040 X-35.523 Y18.923
G1 F1020 X-35.057 Y19.389 E98.57626
G0 F2040 X-34.562 Y19.389
G1 F1020 X-35.348 Y18.603 E98.6188
G0 F2040 X-35.174 Y18.282
G1 F1020 X-34.067 Y19.389 E98.67872
G0 F2040 X-33.572 Y19.389
G1 F1020 X-34.999 Y17.962 E98.75595
G0 F2040 X-34.825 Y17.642
G1 F1020 X-33.077 Y19.389 E98.85052
G0 F2040 X-32.582 Y19.389
G1 F1020 X-34.65 Y17.321 E98.96245
G0 F2040 X-34.475 Y17.001
G1 F1020 X-32.087 Y19.389 E99.09169
G0 F2040 X-31.592 Y19.389
G1 F1020 X-34.301 Y16.681 E99.23828
G0 F2040 X-34.125 Y16.361
G1 F1020 X-31.097 Y19.389 E99.40216
G0 F2040 X-30.602 Y19.389
G1 F1020 X-33.951 Y16.041 E99.58338
G0 F2040 X-33.776 Y15.721
G1 F1020 X-30.107 Y19.389 E99.78192
G0 F2040 X-29.612 Y19.389
G1 F1020 X-33.601 Y15.4 E99.99781
G0 F2040 X-33.427 Y15.08
G1 F1020 X-29.117 Y19.389 E100.23105
G0 F2040 X-28.622 Y19.389
G1 F1020 X-33.252 Y14.76 E100.4816
G0 F2040 X-33.077 Y14.439
G1 F1020 X-28.128 Y19.389 E100.74948
G0 F2040 X-27.633 Y19.389
G1 F1020 X-32.903 Y14.119 E101.0347
G0 F2040 X-32.728 Y13.799
G1 F1020 X-27.138 Y19.389 E101.33723
G0 F2040 X-26.643 Y19.389
G1 F1020 X-32.553 Y13.478 E101.65712
G0 F2040 X-32.379 Y13.158
G1 F1020 X-26.148 Y19.389 E101.99435
G0 F2040 X-25.653 Y19.389
G1 F1020 X-32.204 Y12.838 E102.3489
G0 F2040 X-32.029 Y12.518
G1 F1020 X-25.158 Y19.389 E102.72076
G0 F2040 X-24.663 Y19.389
G1 F1020 X-31.854 Y12.198 E103.10995
G0 F2040 X-31.679 Y11.877
G1 F1020 X-24.168 Y19.389 E103.51648
G0 F2040 X-23.673 Y19.389
G1 F1020 X-31.505 Y11.557 E103.94036
G0 F2040 X-31.33 Y11.237
G1 F1020 X-23.178 Y19.389 E104.38156
G0 F2040 X-22.683 Y19.389
G1 F1020 X-31.155 Y10.917 E104.84007
G0 F2040 X-30.981 Y10.596
G1 F1020 X-22.188 Y19.389 E105.31596
G0 F2040 X-21.693 Y19.389
G1 F1020 X-30.806 Y10.276 E105.80917
G0 F2040 X-30.631 Y9.956
G1 F1020 X-21.198 Y19.389 E106.31969
G0 F2040 X-20.703 Y19.389
G1 F1020 X-30.457 Y9.635 E106.84759
G0 F2040 X-30.282 Y9.315
G1 F1020 X-20.208 Y19.389 E107.39281
G0 F2040 X-19.713 Y19.389
G1 F1020 X-30.107 Y8.995 E107.95535
G0 F2040 X-29.932 Y8.675
G1 F1020 X-19.218 Y19.389 E108.5352
G0 F2040 X-18.723 Y19.389
G1 F1020 X-29.757 Y8.355 E109.13238
G0 F2040 X-29.583 Y8.034
G1 F1020 X-18.228 Y19.389 E109.74692
G0 F2040 X-17.733 Y19.389
G1 F1020 X-29.408 Y7.714 E110.37879
G0 F2040 X-29.233 Y7.394
G1 F1020 X-17.238 Y19.389 E111.02797
G0 F2040 X-16.743 Y19.389
G1 F1020 X-29.059 Y7.073 E111.69453
G0 F2040 X-28.884 Y6.753
G1 F1020 X-16.248 Y19.389 E112.37841
G0 F2040 X-15.753 Y19.389
G1 F1020 X-28.709 Y6.433 E113.0796
G0 F2040 X-28.535 Y6.112
G1 F1020 X-15.258 Y19.389 E113.79817
G0 F2040 X-14.763 Y19.389
G1 F1020 X-28.36 Y5.792 E114.53406
G0 F2040 X-28.185 Y5.473
G1 F1020 X-14.268 Y19.389 E115.28724
G0 F2040 X-13.773 Y19.389
G1 F1020 X-28.01 Y5.152 E116.05776
G0 F2040 X-27.835 Y4.832
G1 F1020 X-13.278 Y19.389 E116.8456
G0 F2040 X-12.783 Y19.389
G1 F1020 X-27.661 Y4.512 E117.65079
G0 F2040 X-27.486 Y4.191
G1 F1020 X-12.288 Y19.389 E118.47333
G0 F2040 X-11.793 Y19.389
G1 F1020 X-27.311 Y3.871 E119.31318
G0 F2040 X-27.137 Y3.551
G1 F1020 X-11.298 Y19.389 E120.17038
G0 F2040 X-10.803 Y19.389
G1 F1020 X-26.962 Y3.23 E121.04493
G0 F2040 X-26.788 Y2.91
G1 F1020 X-10.308 Y19.389 E121.93682
G0 F2040 X-9.813 Y19.389
G1 F1020 X-26.613 Y2.59 E122.84603
G0 F2040 X-26.438 Y2.269
G1 F1020 X-9.318 Y19.389 E123.77259
G0 F2040 X-8.823 Y19.389
G1 F1020 X-26.264 Y1.949 E124.71649
G0 F2040 X-26.088 Y1.629
G1 F1020 X-8.329 Y19.389 E125.67766
G0 F2040 X-7.834 Y19.389
G1 F1020 X-25.914 Y1.309 E126.65617
G0 F2040 X-25.739 Y0.989
G1 F1020 X-7.339 Y19.389 E127.652
G0 F2040 X-6.844 Y19.389
G1 F1020 X-25.564 Y0.668 E128.66518
G0 F2040 X-25.39 Y0.348
G1 F1020 X-6.349 Y19.389 E129.6957
G0 F2040 X-5.854 Y19.389
G1 F1020 X-25.215 Y0.028 E130.74354
G0 F2040 X-25.04 Y-.292
G1 F1020 X-5.359 Y19.389 E131.8087
G0 F2040 X-4.864 Y19.389
G1 F1020 X-24.866 Y-.612 E132.89121
G0 F2040 X-24.691 Y-.932
G1 F1020 X-4.369 Y19.389 E133.99103
G0 F2040 X-3.874 Y19.389
G1 F1020 X-24.516 Y-1.252 E135.10818
G0 F2040 X-24.342 Y-1.573
G1 F1020 X-3.379 Y19.389 E136.2427
G0 F2040 X-2.884 Y19.389
G1 F1020 X-24.166 Y-1.892 E137.39448
G0 F2040 X-23.992 Y-2.213
G1 F1020 X-2.389 Y19.389 E138.56363
G0 F2040 X-1.894 Y19.389
G1 F1020 X-23.817 Y-2.533 E139.75011
G0 F2040 X-23.642 Y-2.853
G1 F1020 X-1.399 Y19.389 E140.9539
G0 F2040 X-.904 Y19.389
G1 F1020 X-23.468 Y-3.174 E142.17506
G0 F2040 X-23.293 Y-3.494
G1 F1020 X-.409 Y19.389 E143.41355
G0 F2040 X0.085 Y19.389
G1 F1020 X-23.118 Y-3.814 E144.66932
G0 F2040 X-22.944 Y-4.135
G1 F1020 X0.58 Y19.389 E145.94247
G0 F2040 X1.075 Y19.389
G1 F1020 X-22.769 Y-4.455 E147.23294
G0 F2040 X-22.594 Y-4.775
G1 F1020 X1.57 Y19.389 E148.54073
G0 F2040 X2.065 Y19.389
G1 F1020 X-22.42 Y-5.096 E149.86589
G0 F2040 X-22.245 Y-5.416
G1 F1020 X2.56 Y19.389 E151.20837
G0 F2040 X3.055 Y19.389
G1 F1020 X-22.07 Y-5.736 E152.56816
G0 F2040 X-21.895 Y-6.056
G1 F1020 X3.55 Y19.389 E153.94528
G0 F2040 X4.045 Y19.389
G1 F1020 X-21.72 Y-6.376 E155.33971
G0 F2040 X-21.546 Y-6.697
G1 F1020 X4.54 Y19.389 E156.75152
G0 F2040 X5.035 Y19.389
G1 F1020 X-21.371 Y-7.017 E158.18065
G0 F2040 X-21.196 Y-7.337
G1 F1020 X5.53 Y19.389 E159.62709
G0 F2040 X6.025 Y19.389
G1 F1020 X-21.022 Y-7.657 E161.09088
G0 F2040 X-20.847 Y-7.978
G1 F1020 X6.52 Y19.389 E162.57202
G0 F2040 X7.015 Y19.389
G1 F1020 X-20.672 Y-8.298 E164.07048
G0 F2040 X-20.498 Y-8.618
G1 F1020 X7.51 Y19.389 E165.58628
G0 F2040 X8.005 Y19.389
G1 F1020 X-20.323 Y-8.939 E167.11942
G0 F2040 X-20.148 Y-9.258
G1 F1020 X8.5 Y19.389 E168.66986
G0 F2040 X8.995 Y19.389
G1 F1020 X-19.973 Y-9.579 E170.23765
G0 F2040 X-19.798 Y-9.899
G1 F1020 X9.49 Y19.389 E171.82275
G0 F2040 X9.985 Y19.389
G1 F1020 X-19.624 Y-10.219 E173.4252
G0 F2040 X-19.449 Y-10.54
G1 F1020 X10.48 Y19.389 E175.045
G0 F2040 X10.975 Y19.389
G1 F1020 X-19.275 Y-10.86 E176.68214
G0 F2040 X-19.1 Y-11.18
G1 F1020 X11.469 Y19.389 E178.33657
G0 F2040 X11.964 Y19.389
G1 F1020 X-18.925 Y-11.501 E180.00835
G0 F2040 X-18.751 Y-11.821
G1 F1020 X12.459 Y19.389 E181.69748
G0 F2040 X12.954 Y19.389
G1 F1020 X-18.576 Y-12.141 E183.40392
G0 F2040 X-18.401 Y-12.462
G1 F1020 X13.449 Y19.389 E185.12771
G0 F2040 X13.944 Y19.389
G1 F1020 X-18.226 Y-12.781 E186.86879
G0 F2040 X-18.051 Y-13.101
G1 F1020 X14.439 Y19.389 E188.62719
G0 F2040 X14.934 Y19.389
G1 F1020 X-17.877 Y-13.422 E190.40296
G0 F2040 X-17.702 Y-13.742
G1 F1020 X15.429 Y19.389 E192.19606
G0 F2040 X15.924 Y19.389
G1 F1020 X-17.527 Y-14.062 E194.00647
G0 F2040 X-17.353 Y-14.383
G1 F1020 X16.419 Y19.389 E195.83425
G0 F2040 X16.914 Y19.389
G1 F1020 X-17.178 Y-14.703 E197.67935
G0 F2040 X-17.003 Y-15.023
G1 F1020 X17.409 Y19.389 E199.54177
G0 F2040 X17.904 Y19.389
G1 F1020 X-16.829 Y-15.344 E201.42157
G0 F2040 X-16.654 Y-15.664
G1 F1020 X18.399 Y19.389 E203.31868
G0 F2040 X18.894 Y19.389
G1 F1020 X-16.479 Y-15.984 E205.23311
G0 F2040 X-16.305 Y-16.305
G1 F1020 X19.389 Y19.389 E207.16492
G0 F2040 X19.884 Y19.389
G1 F1020 X-16.129 Y-16.624 E209.11399
G0 F2040 X-15.955 Y-16.945
G1 F1020 X20.379 Y19.389 E211.08043
G0 F2040 X20.874 Y19.389
G1 F1020 X-15.78 Y-17.265 E213.06419
G0 F2040 X-15.605 Y-17.585
G1 F1020 X21.369 Y19.389 E215.06527
G0 F2040 X21.864 Y19.389
G1 F1020 X-15.431 Y-17.906 E217.08372
G0 F2040 X-15.256 Y-18.226
G1 F1020 X22.359 Y19.389 E219.1195
