;FLAVOR:Marlin
;TIME:7991
;Filament used: 7.38172m
;Layer height: 0.2
;MINX:-66.942
;MINY:-25.047
;MINZ:0.26
;MAXX:42.163
;MAXY:75.734
;MAXZ:22.66
;Generated with Cura_SteamEngine 4.8.0
M82 ;absolute extrusion mode
;Gcode by Cura
G90
G28
M107
M109 R100
G30
M109 S215 U-55 X55 V-85 Y-85 W0.26 Z0.26
M82
G92 E0
G1 F200 E6
G92 E0
G1 F200 E-3.5
G0 Z0.15
G0 X10
G0 Z3
G1 F6000
G92 E0
G92 E0
G1 F3600 E-3.8
;LAYER_COUNT:113
;LAYER:0
M107
G0 F2040 X36.971 Y-25.047 Z0.26
;TYPE:SKIRT
G1 F3600 E0
G1 F1020 X37.657 Y-25.037 E0.02626
G1 X38.259 Y-24.988 E0.04937
G1 X38.85 Y-24.86 E0.07251
G1 X39.419 Y-24.655 E0.09566
G1 X39.956 Y-24.377 E0.1188
G1 X40.452 Y-24.031 E0.14194
G1 X40.898 Y-23.623 E0.16508
G1 X41.286 Y-23.159 E0.18822
G1 X41.609 Y-22.648 E0.21136
G1 X41.862 Y-22.099 E0.23449
G1 X42.041 Y-21.521 E0.25765
G1 X42.142 Y-20.925 E0.28078
G1 X42.163 Y-20.321 E0.30391
G1 X42.104 Y-19.719 E0.32706
G1 X41.967 Y-19.13 E0.3502
G1 X41.643 Y-18.34 E0.38288
G1 X41.237 Y-17.566 E0.41633
G1 X-8.055 Y72.786 E4.35515
G1 X-8.403 Y73.404 E4.38229
G1 X-8.733 Y73.91 E4.40541
G1 X-9.128 Y74.368 E4.42855
G1 X-9.58 Y74.77 E4.4517
G1 X-10.081 Y75.109 E4.47485
G1 X-10.622 Y75.379 E4.49799
G1 X-11.193 Y75.575 E4.5211
G1 X-11.786 Y75.694 E4.54424
G1 X-12.39 Y75.734 E4.56741
G1 X-12.993 Y75.694 E4.59053
G1 X-13.586 Y75.575 E4.61368
G1 X-14.158 Y75.378 E4.63683
G1 X-14.699 Y75.108 E4.65997
G1 X-15.199 Y74.769 E4.68309
G1 X-15.651 Y74.367 E4.70624
G1 X-16.045 Y73.909 E4.72936
G1 X-16.331 Y73.481 E4.74906
G1 X-16.653 Y72.915 E4.77398
G1 X-66.114 Y-17.748 E8.72635
G1 X-66.417 Y-18.322 E8.75119
G1 X-66.663 Y-18.874 E8.77431
G1 X-66.835 Y-19.454 E8.79747
G1 X-66.928 Y-20.052 E8.82063
G1 X-66.942 Y-20.656 E8.84375
G1 X-66.876 Y-21.257 E8.86689
G1 X-66.731 Y-21.844 E8.89002
G1 X-66.51 Y-22.407 E8.91317
G1 X-66.217 Y-22.936 E8.93631
G1 X-65.856 Y-23.422 E8.95948
G1 X-65.435 Y-23.855 E8.98259
G1 X-64.96 Y-24.23 E9.00575
G1 X-64.44 Y-24.538 E9.02888
G1 X-63.884 Y-24.775 E9.05201
G1 X-63.302 Y-24.937 E9.07513
G1 X-62.447 Y-25.032 E9.10805
G1 X-61.527 Y-25.047 E9.14327
G1 X36.971 Y-25.047 E12.91274
G0 F2040 X36.966 Y-24.697
G1 F1020 X37.652 Y-24.687 E12.93899
G1 X38.231 Y-24.638 E12.96123
G1 X38.797 Y-24.511 E12.98343
G1 X39.342 Y-24.307 E13.0057
G1 X39.852 Y-24.03 E13.02791
G1 X40.321 Y-23.686 E13.05017
G1 X40.737 Y-23.281 E13.07239
G1 X41.094 Y-22.822 E13.09464
G1 X41.385 Y-22.319 E13.11688
G1 X41.604 Y-21.781 E13.13911
G1 X41.747 Y-21.218 E13.16134
G1 X41.811 Y-20.641 E13.18356
G1 X41.796 Y-20.06 E13.2058
G1 X41.701 Y-19.487 E13.22803
G1 X41.528 Y-18.932 E13.25027
G1 X41.333 Y-18.503 E13.26831
G1 X40.93 Y-17.734 E13.30153
G1 X-8.36 Y72.614 E17.24018
G1 X-8.708 Y73.232 E17.26733
G1 X-9.027 Y73.718 E17.28957
G1 X-9.41 Y74.155 E17.31181
G1 X-9.849 Y74.535 E17.33403
G1 X-10.336 Y74.852 E17.35627
G1 X-10.862 Y75.098 E17.37849
G1 X-11.417 Y75.271 E17.40074
G1 X-11.99 Y75.365 E17.42296
G1 X-12.571 Y75.38 E17.4452
G1 X-13.148 Y75.315 E17.46743
G1 X-13.711 Y75.172 E17.48966
G1 X-14.25 Y74.952 E17.51193
G1 X-14.752 Y74.661 E17.53414
G1 X-15.21 Y74.304 E17.55636
G1 X-15.615 Y73.887 E17.57861
G1 X-16.03 Y73.303 E17.60603
G1 X-16.347 Y72.745 E17.63059
G1 X-65.804 Y-17.912 E21.58268
G1 X-66.107 Y-18.486 E21.60752
G1 X-66.343 Y-19.017 E21.62976
G1 X-66.503 Y-19.575 E21.65197
G1 X-66.585 Y-20.151 E21.67424
G1 X-66.587 Y-20.732 E21.69647
G1 X-66.51 Y-21.308 E21.71871
G1 X-66.354 Y-21.867 E21.74092
G1 X-66.123 Y-22.4 E21.76315
G1 X-65.821 Y-22.897 E21.78541
G1 X-65.454 Y-23.347 E21.80763
G1 X-65.028 Y-23.743 E21.82989
G1 X-64.552 Y-24.076 E21.85212
G1 X-64.035 Y-24.341 E21.87435
G1 X-63.487 Y-24.533 E21.89657
G1 X-62.917 Y-24.648 E21.91883
G1 X-62.441 Y-24.682 E21.93709
G1 X-61.527 Y-24.697 E21.97207
G1 X36.966 Y-24.697 E25.74135
G0 F2040 X36.96 Y-24.347
G1 F1020 X37.646 Y-24.337 E25.76761
G1 X38.201 Y-24.289 E25.78893
G1 X38.743 Y-24.162 E25.81023
G1 X39.261 Y-23.958 E25.83154
G1 X39.744 Y-23.683 E25.85281
G1 X40.183 Y-23.341 E25.8741
G1 X40.569 Y-22.94 E25.89541
G1 X40.893 Y-22.488 E25.91669
G1 X41.149 Y-21.994 E25.93798
G1 X41.332 Y-21.469 E25.95926
G1 X41.438 Y-20.922 E25.98058
G1 X41.464 Y-20.367 E26.00184
G1 X41.41 Y-19.813 E26.02315
G1 X41.278 Y-19.272 E26.04446
G1 X41.023 Y-18.665 E26.06965
G1 X40.623 Y-17.901 E26.10266
G1 X-8.665 Y72.442 E30.0411
G1 X-9.013 Y73.06 E30.06824
G1 X-9.32 Y73.524 E30.08954
G1 X-9.69 Y73.94 E30.11084
G1 X-10.116 Y74.297 E30.13211
G1 X-10.589 Y74.591 E30.15343
G1 X-11.099 Y74.813 E30.17471
G1 X-11.636 Y74.96 E30.19602
G1 X-12.188 Y75.029 E30.21731
G1 X-12.744 Y75.018 E30.23859
G1 X-13.293 Y74.927 E30.25989
G1 X-13.823 Y74.759 E30.28116
G1 X-14.324 Y74.516 E30.30247
G1 X-14.785 Y74.204 E30.32378
G1 X-15.197 Y73.83 E30.34507
G1 X-15.55 Y73.4 E30.36636
G1 X-15.824 Y72.962 E30.38613
G1 X-16.06 Y72.542 E30.40457
G1 X-65.495 Y-18.075 E34.35492
G1 X-65.798 Y-18.649 E34.37975
G1 X-66.022 Y-19.158 E34.40104
G1 X-66.17 Y-19.695 E34.42235
G1 X-66.24 Y-20.247 E34.44365
G1 X-66.231 Y-20.803 E34.46493
G1 X-66.141 Y-21.352 E34.48622
G1 X-65.974 Y-21.883 E34.50752
G1 X-65.733 Y-22.384 E34.5288
G1 X-65.423 Y-22.846 E34.55009
G1 X-65.049 Y-23.259 E34.57141
G1 X-64.62 Y-23.613 E34.5927
G1 X-64.145 Y-23.903 E34.614
G1 X-63.634 Y-24.122 E34.63527
G1 X-63.096 Y-24.265 E34.65658
G1 X-62.435 Y-24.332 E34.682
G1 X-61.527 Y-24.347 E34.71675
G1 X36.96 Y-24.347 E38.4858
G0 F2040 X36.955 Y-23.997
G1 F1020 X37.641 Y-23.987 E38.51206
G1 X38.17 Y-23.939 E38.53239
G1 X38.685 Y-23.813 E38.55268
G1 X39.176 Y-23.61 E38.57301
G1 X39.63 Y-23.336 E38.5933
G1 X40.039 Y-22.998 E38.61361
G1 X40.392 Y-22.601 E38.63394
G1 X40.681 Y-22.156 E38.65425
G1 X40.9 Y-21.673 E38.67454
G1 X41.045 Y-21.163 E38.69483
G1 X41.111 Y-20.636 E38.71516
G1 X41.097 Y-20.106 E38.73545
G1 X41.004 Y-19.583 E38.75578
G1 X40.833 Y-19.081 E38.77607
G1 X40.713 Y-18.827 E38.78682
G1 X40.315 Y-18.069 E38.81959
G1 X-8.969 Y72.271 E42.75786
G1 X-9.317 Y72.889 E42.785
G1 X-9.612 Y73.33 E42.80531
G1 X-9.969 Y73.722 E42.8256
G1 X-10.382 Y74.057 E42.84595
G1 X-10.839 Y74.325 E42.86622
G1 X-11.332 Y74.522 E42.88654
G1 X-11.849 Y74.642 E42.90685
G1 X-12.378 Y74.684 E42.92716
G1 X-12.907 Y74.646 E42.94746
G1 X-13.425 Y74.528 E42.96779
G1 X-13.919 Y74.335 E42.98808
G1 X-14.378 Y74.069 E43.00839
G1 X-14.792 Y73.738 E43.02867
G1 X-15.152 Y73.348 E43.04898
G1 X-15.522 Y72.785 E43.07477
G1 X-15.752 Y72.374 E43.09279
G1 X-65.185 Y-18.238 E47.04293
G1 X-65.488 Y-18.812 E47.06777
G1 X-65.7 Y-19.299 E47.0881
G1 X-65.836 Y-19.812 E47.10841
G1 X-65.894 Y-20.339 E47.1287
G1 X-65.872 Y-20.87 E47.14903
G1 X-65.77 Y-21.39 E47.16931
G1 X-65.592 Y-21.89 E47.18962
G1 X-65.34 Y-22.358 E47.20997
G1 X-65.022 Y-22.782 E47.23025
G1 X-64.643 Y-23.153 E47.25055
G1 X-64.212 Y-23.464 E47.27089
G1 X-63.74 Y-23.706 E47.29118
G1 X-63.237 Y-23.875 E47.31149
G1 X-62.714 Y-23.966 E47.33181
G1 X-62.429 Y-23.983 E47.34273
G1 X-61.585 Y-23.997 E47.37504
G1 X36.955 Y-23.997 E51.14612
G0 F2040 X36.95 Y-23.647
G1 F1020 X37.636 Y-23.637 E51.17237
G1 X38.138 Y-23.589 E51.19167
G1 X38.625 Y-23.463 E51.21092
G1 X39.087 Y-23.262 E51.2302
G1 X39.511 Y-22.99 E51.24948
G1 X39.886 Y-22.655 E51.26872
G1 X40.204 Y-22.264 E51.28801
G1 X40.456 Y-21.828 E51.30728
G1 X40.636 Y-21.358 E51.32654
G1 X40.739 Y-20.865 E51.34582
G1 X40.763 Y-20.362 E51.36509
G1 X40.708 Y-19.861 E51.38438
G1 X40.573 Y-19.376 E51.40365
G1 X40.403 Y-18.99 E51.41979
G1 X40.008 Y-18.236 E51.45236
G1 X-9.274 Y72.099 E55.39043
G1 X-9.622 Y72.717 E55.41757
G1 X-9.904 Y73.135 E55.43687
G1 X-10.247 Y73.503 E55.45612
G1 X-10.645 Y73.812 E55.4754
G1 X-11.086 Y74.054 E55.49465
G1 X-11.56 Y74.224 E55.51392
G1 X-12.055 Y74.316 E55.53319
G1 X-12.559 Y74.329 E55.55249
G1 X-13.058 Y74.263 E55.57175
G1 X-13.54 Y74.118 E55.59101
G1 X-13.994 Y73.899 E55.6103
G1 X-14.407 Y73.611 E55.62957
G1 X-14.769 Y73.261 E55.64884
G1 X-15.125 Y72.77 E55.67205
G1 X-15.43 Y72.233 E55.69568
G1 X-64.876 Y-18.402 E59.64684
G1 X-65.179 Y-18.976 E59.67168
G1 X-65.378 Y-19.438 E59.69093
G1 X-65.501 Y-19.927 E59.71022
G1 X-65.546 Y-20.428 E59.72947
G1 X-65.511 Y-20.931 E59.74877
G1 X-65.396 Y-21.421 E59.76803
G1 X-65.206 Y-21.887 E59.78729
G1 X-64.944 Y-22.318 E59.80659
G1 X-64.618 Y-22.701 E59.82584
G1 X-64.235 Y-23.028 E59.84511
G1 X-63.805 Y-23.291 E59.8644
G1 X-63.339 Y-23.482 E59.88368
G1 X-62.849 Y-23.597 E59.90294
G1 X-62.424 Y-23.633 E59.91926
G1 X-61.58 Y-23.647 E59.95156
G1 X36.95 Y-23.647 E63.72226
G1 F3600 E59.92226
;MESH:support_tri_0_066.stl
G0 F2040 X36.95 Y-21.137
G0 X36.95 Y-20.102
G0 X-12.389 Y70.082
;TYPE:WALL-INNER
G1 F3600 E63.72226
G1 F1020 X-61.505 Y-19.947 E67.647
G1 X36.727 Y-19.947 E71.4063
G1 X-12.389 Y70.082 E75.33104
G0 F2040 X-12.389 Y70.76
;TYPE:WALL-OUTER
G1 F1020 X-62.052 Y-20.272 E79.29951
G1 X37.274 Y-20.272 E83.10067
G1 X-12.389 Y70.76 E87.06913
G0 F2040 X-12.484 Y70.585
G0 X-12.396 Y70.538
G0 X-12.389 Y69.371
;TYPE:SKIN
G1 F1020 X-60.932 Y-19.607 E90.94806
G1 X36.154 Y-19.607 E94.6635
G1 X-12.389 Y69.371 E98.54243
G0 F2040 X-12.298 Y68.877
G1 F1020 X-12.695 Y68.48 E98.56392
G0 F2040 X-12.123 Y68.557
G1 F1020 X-13.29 Y67.39 E98.62708
G1 X-13.352 Y67.328
G0 F2040 X-13.884 Y66.301
G1 F1020 X-11.948 Y68.237 E98.73186
G0 F2040 X-11.774 Y67.916
G1 F1020 X-14.478 Y65.212 E98.8782
G1 X-14.54 Y65.15
G0 F2040 X-15.072 Y64.123
G1 F1020 X-11.599 Y67.596 E99.06616
G0 F2040 X-11.424 Y67.276
G1 F1020 X-15.666 Y63.034 E99.29575
G1 X-15.728 Y62.972
G0 F2040 X-16.26 Y61.945
G1 F1020 X-11.25 Y66.955 E99.5669
G0 F2040 X-11.075 Y66.635
G1 F1020 X-16.855 Y60.855 E99.87972
G1 X-16.917 Y60.793
G0 F2040 X-17.449 Y59.766
G1 F1020 X-10.9 Y66.315 E100.23416
G0 F2040 X-10.725 Y65.995
G1 F1020 X-18.043 Y58.677 E100.63022
G1 X-18.105 Y58.615
G0 F2040 X-18.637 Y57.588
G1 F1020 X-10.55 Y65.675 E101.06789
G0 F2040 X-10.376 Y65.355
G1 F1020 X-19.231 Y56.499 E101.54717
G1 X-19.293 Y56.437
G0 F2040 X-19.825 Y55.41
G1 F1020 X-10.201 Y65.034 E102.06803
G0 F2040 X-10.026 Y64.714
G1 F1020 X-20.42 Y54.32 E102.63057
G1 X-20.482 Y54.258
G0 F2040 X-21.014 Y53.231
G1 F1020 X-9.852 Y64.394 E103.23469
G0 F2040 X-9.677 Y64.073
G1 F1020 X-21.608 Y52.142 E103.88041
G1 X-21.67 Y52.08
G0 F2040 X-22.203 Y51.053
G1 F1020 X-9.502 Y63.753 E104.56778
G0 F2040 X-9.328 Y63.433
G1 F1020 X-22.797 Y49.964 E105.29674
G1 X-22.859 Y49.902
G0 F2040 X-23.391 Y48.875
G1 F1020 X-9.153 Y63.112 E106.06729
G0 F2040 X-8.978 Y62.792
G1 F1020 X-23.985 Y47.785 E106.87949
G1 X-24.047 Y47.723
G0 F2040 X-24.579 Y46.696
G1 F1020 X-8.804 Y62.472 E107.73328
G0 F2040 X-8.628 Y62.152
G1 F1020 X-25.173 Y45.607 E108.62872
G1 X-25.235 Y45.545
G0 F2040 X-25.768 Y44.518
G1 F1020 X-8.454 Y61.832 E109.56577
G0 F2040 X-8.279 Y61.511
G1 F1020 X-26.362 Y43.429 E110.54442
G1 X-26.424 Y43.367
G0 F2040 X-26.956 Y42.34
G1 F1020 X-8.104 Y61.191 E111.56469
G0 F2040 X-7.93 Y60.871
G1 F1020 X-27.551 Y41.25 E112.6266
G1 X-27.613 Y41.188
G0 F2040 X-28.144 Y40.161
G1 F1020 X-7.755 Y60.55 E113.73008
G0 F2040 X-7.58 Y60.23
G1 F1020 X-28.738 Y39.072 E114.87518
G1 X-28.8 Y39.01
G0 F2040 X-29.333 Y37.982
G1 F1020 X-7.406 Y59.91 E116.06192
G0 F2040 X-7.231 Y59.59
G1 F1020 X-29.927 Y36.894 E117.29026
G1 X-29.989 Y36.832
G0 F2040 X-30.521 Y35.805
G1 F1020 X-7.056 Y59.269 E118.56019
G0 F2040 X-6.882 Y58.949
G1 F1020 X-31.116 Y34.715 E119.87176
G1 X-31.178 Y34.653
G0 F2040 X-31.71 Y33.626
G1 F1020 X-6.706 Y58.629 E121.22498
G0 F2040 X-6.532 Y58.309
G1 F1020 X-32.304 Y32.537 E122.6198
G1 X-32.366 Y32.475
G0 F2040 X-32.898 Y31.447
G1 F1020 X-6.357 Y57.989 E124.05626
G0 F2040 X-6.182 Y57.668
G1 F1020 X-33.492 Y30.358 E125.53431
G1 X-33.554 Y30.296
G0 F2040 X-34.086 Y29.269
G1 F1020 X-6.008 Y57.348 E127.05395
G0 F2040 X-5.833 Y57.028
G1 F1020 X-34.681 Y28.18 E128.61524
G1 X-34.743 Y28.118
G0 F2040 X-35.275 Y27.091
G1 F1020 X-5.658 Y56.707 E130.21813
G0 F2040 X-5.484 Y56.387
G1 F1020 X-35.869 Y26.002 E131.8626
G1 X-35.931 Y25.94
G0 F2040 X-36.464 Y24.912
G1 F1020 X-5.309 Y56.067 E133.54875
G0 F2040 X-5.135 Y55.746
G1 F1020 X-37.058 Y23.823 E135.27646
G1 X-37.12 Y23.761
G0 F2040 X-37.652 Y22.734
G1 F1020 X-4.96 Y55.426 E137.0458
G0 F2040 X-4.784 Y55.106
G1 F1020 X-38.246 Y21.645 E138.85678
G1 X-38.308 Y21.583
G0 F2040 X-38.84 Y20.556
G1 F1020 X-4.61 Y54.786 E140.70935
G0 F2040 X-4.435 Y54.466
G1 F1020 X-39.434 Y19.467 E142.60354
G1 X-39.496 Y19.405
G0 F2040 X-40.029 Y18.377
G1 F1020 X-4.261 Y54.145 E144.53935
G0 F2040 X-4.086 Y53.825
G1 F1020 X-40.623 Y17.288 E146.51678
G1 X-40.685 Y17.226
G0 F2040 X-41.217 Y16.199
G1 F1020 X-3.911 Y53.505 E148.53582
G0 F2040 X-3.737 Y53.185
G1 F1020 X-41.811 Y15.11 E150.59646
G1 X-41.873 Y15.048
G0 F2040 X-42.405 Y14.021
G1 F1020 X-3.562 Y52.864 E152.6987
G0 F2040 X-3.387 Y52.544
G1 F1020 X-42.999 Y12.932 E154.84255
G1 X-43.061 Y12.87
G0 F2040 X-43.594 Y11.842
G1 F1020 X-3.213 Y52.224 E157.02805
G0 F2040 X-3.038 Y51.903
G1 F1020 X-44.188 Y10.753 E159.25514
G1 X-44.25 Y10.691
G0 F2040 X-44.782 Y9.664
G1 F1020 X-2.863 Y51.583 E161.52385
G0 F2040 X-2.688 Y51.263
G1 F1020 X-45.377 Y8.575 E163.8342
G1 X-45.439 Y8.513
G0 F2040 X-45.971 Y7.486
G1 F1020 X-2.513 Y50.943 E166.18618
G0 F2040 X-2.339 Y50.623
G1 F1020 X-46.565 Y6.397 E168.57975
G1 X-46.627 Y6.335
G0 F2040 X-47.159 Y5.307
G1 F1020 X-2.164 Y50.302 E171.01493
G0 F2040 X-1.989 Y49.982
G1 F1020 X-47.753 Y4.218 E173.49174
G1 X-47.815 Y4.156
G0 F2040 X-48.347 Y3.129
G1 F1020 X-1.815 Y49.662 E176.01014
G0 F2040 X-1.64 Y49.341
G1 F1020 X-48.942 Y2.04 E178.57015
G1 X-49.004 Y1.978
G0 F2040 X-49.536 Y0.951
G1 F1020 X-1.465 Y49.021 E181.17179
G0 F2040 X-1.291 Y48.701
G1 F1020 X-50.13 Y-.137 E183.81499
G1 X-50.192 Y-.199
G0 F2040 X-50.725 Y-1.227
G1 F1020 X-1.116 Y48.38 E186.49984
G0 F2040 X-.941 Y48.06
G1 F1020 X-51.318 Y-2.316 E189.22628
G1 X-51.38 Y-2.378
G0 F2040 X-51.912 Y-3.405
G1 F1020 X-.766 Y47.741 E191.99437
G0 F2040 X-.591 Y47.42
G1 F1020 X-52.507 Y-4.495 E194.8041
G1 X-52.569 Y-4.557
G0 F2040 X-53.101 Y-5.584
G1 F1020 X-.417 Y47.1 E197.65543
G0 F2040 X-.242 Y46.78
G1 F1020 X-53.695 Y-6.672 E200.54834
G1 X-53.757 Y-6.734
G0 F2040 X-54.29 Y-7.762
G1 F1020 X-0.067 Y46.459 E203.48291
G0 F2040 X0.106 Y46.139
G1 F1020 X-54.884 Y-8.851 E206.45904
G1 X-54.946 Y-8.913
G0 F2040 X-55.478 Y-9.94
G1 F1020 X0.281 Y45.819 E209.47678
G0 F2040 X0.456 Y45.498
G1 F1020 X-56.072 Y-11.03 E212.53615
G1 X-56.134 Y-11.092
G0 F2040 X-56.666 Y-12.119
G1 F1020 X0.63 Y45.178 E215.63711
G0 F2040 X0.805 Y44.858
G1 F1020 X-57.26 Y-13.208 E218.77969
G1 X-57.322 Y-13.27
G0 F2040 X-57.855 Y-14.297
G1 F1020 X0.98 Y44.537 E221.96389
G0 F2040 X1.154 Y44.217
G1 F1020 X-58.449 Y-15.386 E225.18968
G1 X-58.511 Y-15.448
G0 F2040 X-59.043 Y-16.475
G1 F1020 X1.33 Y43.897 E228.45712
G0 F2040 X1.504 Y43.577
G1 F1020 X-59.638 Y-17.565 E231.7662
G1 X-59.7 Y-17.627
G0 F2040 X-60.232 Y-18.654
G1 F1020 X1.679 Y43.257 E235.1169
G0 F2040 X1.854 Y42.936
G1 F1020 X-60.532 Y-19.449 E238.49328
G0 F2040 X-60.037 Y-19.449
G1 F1020 X2.028 Y42.616 E241.85232
G0 F2040 X2.203 Y42.296
G1 F1020 X-59.542 Y-19.449 E245.19404
G0 F2040 X-59.047 Y-19.449
G1 F1020 X2.378 Y41.975 E248.51841
G0 F2040 X2.552 Y41.655
G1 F1020 X-58.552 Y-19.449 E251.82544
G0 F2040 X-58.057 Y-19.449
G1 F1020 X2.727 Y41.335 E255.11514
G0 F2040 X2.901 Y41.015
G1 F1020 X-57.562 Y-19.449 E258.38751
G0 F2040 X-57.067 Y-19.449
G1 F1020 X3.076 Y40.694 E261.64252
G0 F2040 X3.251 Y40.375
G1 F1020 X-56.572 Y-19.449 E264.88025
G0 F2040 X-56.077 Y-19.449
G1 F1020 X3.426 Y40.054 E268.10062
G0 F2040 X3.601 Y39.734
G1 F1020 X-55.582 Y-19.449 E271.30368
G0 F2040 X-55.087 Y-19.449
G1 F1020 X3.775 Y39.414 E274.4894
G0 F2040 X3.95 Y39.093
G1 F1020 X-54.592 Y-19.449 E277.65776
G0 F2040 X-54.097 Y-19.449
G1 F1020 X4.125 Y38.773 E280.80881
G0 F2040 X4.299 Y38.453
G1 F1020 X-53.602 Y-19.449 E283.94252
G0 F2040 X-53.107 Y-19.449
G1 F1020 X4.474 Y38.132 E287.05887
G0 F2040 X4.649 Y37.812
G1 F1020 X-52.612 Y-19.449 E290.15791
G0 F2040 X-52.118 Y-19.449
G1 F1020 X4.823 Y37.492 E293.23963
G0 F2040 X4.998 Y37.171
G1 F1020 X-51.623 Y-19.449 E296.304
G0 F2040 X-51.128 Y-19.449
G1 F1020 X5.173 Y36.852 E299.35109
G0 F2040 X5.348 Y36.531
G1 F1020 X-50.633 Y-19.449 E302.38082
G0 F2040 X-50.138 Y-19.449
G1 F1020 X5.523 Y36.211 E305.39324
