;FLAVOR:Marlin
;TIME:7350
;Filament used: 7.04721m
;Layer height: 0.2
;MINX:-64.38
;MINY:-73.934
;MINZ:0.26
;MAXX:49.132
;MAXY:22.972
;MAXZ:13.06
;Generated with Cura_SteamEngine 4.8.0
M82 ;absolute extrusion mode
;Gcode by Cura
G90
G28
M107
M109 R100
G30
M109 S215 U-55 X55 V-85 Y-85 W0.26 Z0.26
M82
G92 E0
G1 F200 E6
G92 E0
G1 F200 E-3.5
G0 Z0.15
G0 X10
G0 Z3
G1 F6000
G92 E0
G92 E0
G1 F3600 E-3.8
;LAYER_COUNT:65
;LAYER:0
M107
G0 F2040 X43.717 Y22.972 Z0.26
;TYPE:SKIRT
G1 F3600 E0
G1 F1020 X-59.183 Y22.972 E3.93793
G1 X-59.873 Y22.962 E3.96434
G1 X-60.476 Y22.913 E3.98749
G1 X-61.067 Y22.785 E4.01064
G1 X-61.636 Y22.581 E4.03377
G1 X-62.173 Y22.303 E4.05691
G1 X-62.669 Y21.956 E4.08008
G1 X-63.114 Y21.548 E4.10318
G1 X-63.502 Y21.084 E4.12633
G1 X-63.826 Y20.573 E4.14948
G1 X-64.079 Y20.024 E4.17262
G1 X-64.258 Y19.446 E4.19577
G1 X-64.358 Y18.85 E4.2189
G1 X-64.38 Y18.246 E4.24203
G1 X-64.321 Y17.644 E4.26518
G1 X-64.184 Y17.055 E4.28832
G1 X-63.97 Y16.49 E4.31144
G1 X-63.732 Y16.037 E4.33103
G1 X-63.399 Y15.498 E4.35527
G1 X-7.465 Y-71.388 E8.30979
G1 X-7.135 Y-71.888 E8.33272
G1 X-6.77 Y-72.37 E8.35586
G1 X-6.344 Y-72.799 E8.37899
G1 X-5.865 Y-73.168 E8.40213
G1 X-5.341 Y-73.471 E8.4253
G1 X-4.783 Y-73.702 E8.44841
G1 X-4.198 Y-73.857 E8.47157
G1 X-3.599 Y-73.934 E8.49468
G1 X-2.994 Y-73.932 E8.51783
G1 X-2.395 Y-73.849 E8.54098
G1 X-1.812 Y-73.688 E8.56412
G1 X-1.256 Y-73.452 E8.58724
G1 X-.735 Y-73.145 E8.61038
G1 X-.259 Y-72.771 E8.63355
G1 X0.163 Y-72.338 E8.65669
G1 X0.66 Y-71.63 E8.68979
G1 X1.104 Y-70.847 E8.72424
G1 X48.265 Y15.601 E12.49285
G1 X48.605 Y16.244 E12.52068
G1 X48.852 Y16.796 E12.54383
G1 X49.024 Y17.376 E12.56698
G1 X49.118 Y17.974 E12.59014
G1 X49.132 Y18.578 E12.61326
G1 X49.066 Y19.179 E12.6364
G1 X48.922 Y19.766 E12.65953
G1 X48.701 Y20.329 E12.68268
G1 X48.409 Y20.858 E12.7058
G1 X48.049 Y21.344 E12.72895
G1 X47.628 Y21.778 E12.75209
G1 X47.153 Y22.153 E12.77525
G1 X46.633 Y22.462 E12.7984
G1 X46.077 Y22.699 E12.82153
G1 X45.495 Y22.862 E12.84466
G1 X44.637 Y22.957 E12.87769
G1 X43.717 Y22.972 E12.91291
G0 F2040 X43.717 Y22.622
G1 F1020 X-59.178 Y22.622 E16.85065
G1 X-59.868 Y22.612 E16.87706
G1 X-60.447 Y22.563 E16.89929
G1 X-61.014 Y22.436 E16.92153
G1 X-61.558 Y22.232 E16.94376
G1 X-62.069 Y21.955 E16.96601
G1 X-62.537 Y21.611 E16.98824
G1 X-62.954 Y21.206 E17.01048
G1 X-63.311 Y20.748 E17.03271
G1 X-63.602 Y20.245 E17.05495
G1 X-63.821 Y19.707 E17.07717
G1 X-63.964 Y19.143 E17.09944
G1 X-64.028 Y18.566 E17.12166
G1 X-64.013 Y17.985 E17.1439
G1 X-63.918 Y17.412 E17.16613
G1 X-63.745 Y16.857 E17.18838
G1 X-63.432 Y16.217 E17.21564
G1 X-63.103 Y15.684 E17.23961
G1 X-7.173 Y-71.195 E21.19382
G1 X-6.843 Y-71.695 E21.21675
G1 X-6.491 Y-72.157 E21.23898
G1 X-6.078 Y-72.566 E21.26122
G1 X-5.613 Y-72.915 E21.28347
G1 X-5.105 Y-73.196 E21.30569
G1 X-4.563 Y-73.405 E21.32792
G1 X-3.997 Y-73.538 E21.35017
G1 X-3.418 Y-73.592 E21.37242
G1 X-2.838 Y-73.566 E21.39464
G1 X-2.267 Y-73.46 E21.41687
G1 X-1.715 Y-73.278 E21.43911
G1 X-1.194 Y-73.021 E21.46134
G1 X-.713 Y-72.695 E21.48358
G1 X-.281 Y-72.306 E21.50583
G1 X0.093 Y-71.862 E21.52804
G1 X0.355 Y-71.457 E21.5465
G1 X0.797 Y-70.679 E21.58075
G1 X47.956 Y15.765 E25.34918
G1 X48.296 Y16.408 E25.37702
G1 X48.532 Y16.939 E25.39926
G1 X48.692 Y17.498 E25.42151
G1 X48.775 Y18.073 E25.44374
G1 X48.777 Y18.654 E25.46598
G1 X48.7 Y19.23 E25.48822
G1 X48.545 Y19.79 E25.51045
G1 X48.314 Y20.323 E25.53268
G1 X48.013 Y20.819 E25.55489
G1 X47.646 Y21.27 E25.57714
G1 X47.221 Y21.666 E25.59937
G1 X46.745 Y22 E25.62162
G1 X46.228 Y22.265 E25.64386
G1 X45.68 Y22.457 E25.66608
G1 X45.11 Y22.572 E25.68833
G1 X44.631 Y22.607 E25.70671
G1 X43.717 Y22.622 E25.74169
G0 F2040 X43.717 Y22.272
G1 F1020 X-59.173 Y22.272 E29.67924
G1 X-59.863 Y22.262 E29.70565
G1 X-60.417 Y22.214 E29.72693
G1 X-60.959 Y22.087 E29.74824
G1 X-61.477 Y21.884 E29.76953
G1 X-61.961 Y21.608 E29.79085
G1 X-62.4 Y21.267 E29.81213
G1 X-62.786 Y20.866 E29.83343
G1 X-63.11 Y20.413 E29.85474
G1 X-63.366 Y19.919 E29.87603
G1 X-63.549 Y19.394 E29.89731
G1 X-63.655 Y18.848 E29.91859
G1 X-63.681 Y18.292 E29.9399
G1 X-63.627 Y17.738 E29.9612
G1 X-63.495 Y17.198 E29.98247
G1 X-63.287 Y16.682 E30.00376
G1 X-62.998 Y16.176 E30.02606
G1 X-62.785 Y15.837 E30.04138
G1 X-6.881 Y-71.003 E33.9938
G1 X-6.551 Y-71.503 E34.01673
G1 X-6.212 Y-71.944 E34.03802
G1 X-5.813 Y-72.332 E34.05931
G1 X-5.363 Y-72.659 E34.0806
G1 X-4.871 Y-72.918 E34.10188
G1 X-4.346 Y-73.104 E34.1232
G1 X-3.801 Y-73.213 E34.14447
G1 X-3.245 Y-73.242 E34.16577
G1 X-2.691 Y-73.192 E34.18706
G1 X-2.15 Y-73.063 E34.20834
G1 X-1.632 Y-72.858 E34.22966
G1 X-1.15 Y-72.58 E34.25096
G1 X-.712 Y-72.237 E34.27225
G1 X-.328 Y-71.834 E34.29355
G1 X0.051 Y-71.284 E34.31911
G1 X0.49 Y-70.512 E34.3531
G1 X47.647 Y15.929 E38.1214
G1 X47.987 Y16.572 E38.14924
G1 X48.211 Y17.081 E38.17052
G1 X48.36 Y17.617 E38.19181
G1 X48.43 Y18.169 E38.2131
G1 X48.421 Y18.725 E38.23438
G1 X48.332 Y19.275 E38.2557
G1 X48.165 Y19.806 E38.27701
G1 X47.925 Y20.307 E38.29827
G1 X47.614 Y20.769 E38.31958
G1 X47.241 Y21.182 E38.34088
G1 X46.813 Y21.537 E38.36216
G1 X46.338 Y21.827 E38.38346
G1 X45.826 Y22.046 E38.40477
G1 X45.289 Y22.189 E38.42603
G1 X44.625 Y22.257 E38.45158
G1 X43.717 Y22.272 E38.48633
G0 F2040 X43.775 Y21.922
G1 F1020 X-59.168 Y21.922 E42.42591
G1 X-59.858 Y21.912 E42.45232
G1 X-60.387 Y21.864 E42.47265
G1 X-60.902 Y21.738 E42.49294
G1 X-61.393 Y21.535 E42.51327
G1 X-61.847 Y21.262 E42.53354
G1 X-62.256 Y20.923 E42.55387
G1 X-62.608 Y20.526 E42.57418
G1 X-62.898 Y20.082 E42.59447
G1 X-63.117 Y19.598 E42.6148
G1 X-63.262 Y19.088 E42.63509
G1 X-63.328 Y18.561 E42.65542
G1 X-63.314 Y18.031 E42.67571
G1 X-63.221 Y17.508 E42.69604
G1 X-63.05 Y17.006 E42.71633
G1 X-62.743 Y16.429 E42.74135
G1 X-62.491 Y16.027 E42.7595
G1 X-6.589 Y-70.81 E46.71178
G1 X-6.259 Y-71.31 E46.73471
G1 X-5.934 Y-71.729 E46.755
G1 X-5.55 Y-72.095 E46.7753
G1 X-5.115 Y-72.4 E46.79564
G1 X-4.64 Y-72.635 E46.81592
G1 X-4.134 Y-72.797 E46.83625
G1 X-3.61 Y-72.881 E46.85656
G1 X-3.08 Y-72.885 E46.87684
G1 X-2.554 Y-72.81 E46.89718
G1 X-2.046 Y-72.656 E46.91749
G1 X-1.567 Y-72.428 E46.93779
G1 X-1.128 Y-72.131 E46.95808
G1 X-.738 Y-71.771 E46.97839
G1 X-.406 Y-71.356 E46.99873
G1 X-.253 Y-71.111 E47.00978
G1 X0.182 Y-70.344 E47.04352
G1 X47.337 Y16.092 E50.81162
G1 X47.677 Y16.735 E50.83946
G1 X47.889 Y17.222 E50.85978
G1 X48.026 Y17.734 E50.88007
G1 X48.084 Y18.262 E50.90039
G1 X48.062 Y18.792 E50.92069
G1 X47.961 Y19.313 E50.941
G1 X47.783 Y19.813 E50.96131
G1 X47.532 Y20.28 E50.9816
G1 X47.213 Y20.705 E51.00194
G1 X46.835 Y21.077 E51.02224
G1 X46.405 Y21.388 E51.04255
G1 X45.933 Y21.63 E51.06285
G1 X45.43 Y21.799 E51.08315
G1 X44.907 Y21.891 E51.10347
G1 X44.619 Y21.908 E51.11452
G1 X43.775 Y21.922 E51.14682
G0 F2040 X43.77 Y21.572
G1 F1020 X-59.163 Y21.572 E55.08602
G1 X-59.853 Y21.562 E55.11242
G1 X-60.354 Y21.514 E55.13169
G1 X-60.842 Y21.389 E55.15096
G1 X-61.304 Y21.187 E55.17026
G1 X-61.727 Y20.915 E55.18951
G1 X-62.103 Y20.58 E55.20878
G1 X-62.421 Y20.189 E55.22807
G1 X-62.673 Y19.753 E55.24734
G1 X-62.853 Y19.283 E55.2666
G1 X-62.956 Y18.79 E55.28587
G1 X-62.98 Y18.287 E55.30514
G1 X-62.925 Y17.787 E55.32439
G1 X-62.791 Y17.301 E55.34369
G1 X-62.531 Y16.756 E55.3668
G1 X-62.214 Y16.244 E55.38984
G1 X-6.317 Y-70.587 E59.34182
G1 X-5.967 Y-71.117 E59.36613
G1 X-5.657 Y-71.514 E59.38541
G1 X-5.288 Y-71.857 E59.40469
G1 X-4.87 Y-72.137 E59.42394
G1 X-4.413 Y-72.348 E59.4432
G1 X-3.928 Y-72.484 E59.46248
G1 X-3.427 Y-72.541 E59.48178
G1 X-2.924 Y-72.519 E59.50105
G1 X-2.431 Y-72.417 E59.52031
G1 X-1.96 Y-72.238 E59.53959
G1 X-1.523 Y-71.988 E59.55886
G1 X-1.132 Y-71.671 E59.57813
G1 X-.795 Y-71.297 E59.59739
G1 X-.557 Y-70.938 E59.61387
G1 X-.125 Y-70.177 E59.64736
G1 X47.028 Y16.256 E63.41532
G1 X47.368 Y16.899 E63.44316
G1 X47.567 Y17.361 E63.46241
G1 X47.691 Y17.849 E63.48168
G1 X47.736 Y18.351 E63.50097
G1 X47.701 Y18.853 E63.52022
G1 X47.587 Y19.344 E63.53951
G1 X47.397 Y19.81 E63.55877
G1 X47.136 Y20.241 E63.57806
G1 X46.81 Y20.625 E63.59733
G1 X46.427 Y20.952 E63.6166
G1 X45.997 Y21.215 E63.63589
G1 X45.532 Y21.406 E63.65513
G1 X45.041 Y21.521 E63.67443
G1 X44.614 Y21.558 E63.69083
G1 X43.77 Y21.572 E63.72314
G1 F3600 E59.92314
;MESH:support_tri_0_069.stl
G0 F2040 X43.77 Y19.062
G0 X43.77 Y18.027
G0 X43.695 Y17.872
;TYPE:WALL-INNER
G1 F3600 E63.72314
G1 F1020 X-58.862 Y17.872 E67.64795
G1 X-3.35 Y-68.361 E71.57271
G1 X43.695 Y17.872 E75.33197
G0 F2040 X44.242 Y18.197
;TYPE:WALL-OUTER
G1 F1020 X-59.458 Y18.197 E79.30052
G1 X-3.327 Y-68.997 E83.26903
G1 X44.242 Y18.197 E87.07018
G0 F2040 X44.042 Y18.197
G0 X43.905 Y17.996
G0 X43.122 Y17.532
;TYPE:SKIN
G1 F1020 X-58.238 Y17.532 E90.94918
G1 X-3.375 Y-67.695 E94.82813
G1 X43.122 Y17.532 E98.54355
G0 F2040 X-3.445 Y-67.296
G1 F1020 X-3.21 Y-67.062 E98.55624
G0 F2040 X-3.638 Y-66.995
G1 F1020 X-2.615 Y-65.972 E98.6116
G1 X-2.553 Y-65.91
G0 F2040 X-2.021 Y-64.883
G1 F1020 X-3.832 Y-66.694 E98.70962
G0 F2040 X-4.026 Y-66.393
G1 F1020 X-1.427 Y-63.794 E98.85028
G1 X-1.365 Y-63.732
G0 F2040 X-.832 Y-62.704
G1 F1020 X-4.22 Y-66.092 E99.03364
G0 F2040 X-4.414 Y-65.791
G1 F1020 X-.239 Y-61.615 E99.25962
G1 X-.177 Y-61.553
G0 F2040 X0.355 Y-60.526
G1 F1020 X-4.608 Y-65.49 E99.52826
G0 F2040 X-4.801 Y-65.188
G1 F1020 X0.949 Y-59.437 E99.83948
G1 X1.011 Y-59.375
G0 F2040 X1.543 Y-58.348
G1 F1020 X-4.995 Y-64.887 E100.19335
G0 F2040 X-5.189 Y-64.586
G1 F1020 X2.138 Y-57.258 E100.58993
G1 X2.2 Y-57.196
G0 F2040 X2.732 Y-56.169
G1 F1020 X-5.383 Y-64.285 E101.02915
G0 F2040 X-5.576 Y-63.983
G1 F1020 X3.326 Y-55.08 E101.51096
G1 X3.388 Y-55.018
G0 F2040 X3.92 Y-53.991
G1 F1020 X-5.771 Y-63.683 E102.03548
G0 F2040 X-5.965 Y-63.382
G1 F1020 X4.514 Y-52.902 E102.60264
G1 X4.576 Y-52.84
G0 F2040 X5.109 Y-51.812
G1 F1020 X-6.158 Y-63.08 E103.21245
G0 F2040 X-6.352 Y-62.779
G1 F1020 X5.703 Y-50.723 E103.86491
G1 X5.765 Y-50.661
G0 F2040 X6.298 Y-49.633
G1 F1020 X-6.546 Y-62.478 E104.56007
G0 F2040 X-6.74 Y-62.177
G1 F1020 X6.892 Y-48.545 E105.29785
G1 X6.954 Y-48.483
G0 F2040 X7.486 Y-47.455
G1 F1020 X-6.933 Y-61.876 E106.07828
G0 F2040 X-7.128 Y-61.575
G1 F1020 X8.08 Y-46.366 E106.90139
G1 X8.142 Y-46.304
G0 F2040 X8.674 Y-45.277
G1 F1020 X-7.322 Y-61.274 E107.76714
G0 F2040 X-7.515 Y-60.973
G1 F1020 X9.269 Y-44.187 E108.67556
G1 X9.331 Y-44.125
G0 F2040 X9.863 Y-43.098
G1 F1020 X-7.709 Y-60.671 E109.62661
G0 F2040 X-7.903 Y-60.37
G1 F1020 X10.458 Y-42.009 E110.62033
G1 X10.52 Y-41.947
G0 F2040 X11.052 Y-40.92
G1 F1020 X-8.097 Y-60.069 E111.6567
G0 F2040 X-8.29 Y-59.768
G1 F1020 X11.646 Y-39.831 E112.73569
G1 X11.708 Y-39.769
G0 F2040 X12.24 Y-38.741
G1 F1020 X-8.484 Y-59.466 E113.85732
G0 F2040 X-8.679 Y-59.166
G1 F1020 X12.834 Y-37.652 E115.02166
G1 X12.896 Y-37.59
G0 F2040 X13.429 Y-36.563
G1 F1020 X-8.872 Y-58.865 E116.22865
G0 F2040 X-9.066 Y-58.563
G1 F1020 X14.023 Y-35.474 E117.47825
G1 X14.085 Y-35.412
G0 F2040 X14.617 Y-34.385
G1 F1020 X-9.26 Y-58.262 E118.77051
G0 F2040 X-9.454 Y-57.961
G1 F1020 X15.211 Y-33.295 E120.10543
G1 X15.273 Y-33.233
G0 F2040 X15.805 Y-32.206
G1 F1020 X-9.647 Y-57.66 E121.48298
G0 F2040 X-9.841 Y-57.359
G1 F1020 X16.4 Y-31.116 E122.90323
G1 X16.462 Y-31.054
G0 F2040 X16.994 Y-30.027
G1 F1020 X-10.035 Y-57.058 E124.36613
G0 F2040 X-10.229 Y-56.757
G1 F1020 X17.588 Y-28.939 E125.87165
G1 X17.65 Y-28.877
G0 F2040 X18.183 Y-27.849
G1 F1020 X-10.423 Y-56.456 E127.41987
G0 F2040 X-10.617 Y-56.154
G1 F1020 X18.777 Y-26.76 E129.01071
G1 X18.839 Y-26.698
G0 F2040 X19.371 Y-25.67
G1 F1020 X-10.81 Y-55.853 E130.6442
G0 F2040 X-11.004 Y-55.552
G1 F1020 X19.965 Y-24.581 E132.32034
G1 X20.027 Y-24.519
G0 F2040 X20.559 Y-23.492
G1 F1020 X-11.198 Y-55.251 E134.03912
G0 F2040 X-11.392 Y-54.95
G1 F1020 X21.154 Y-22.403 E135.80058
G1 X21.216 Y-22.341
G0 F2040 X21.748 Y-21.314
G1 F1020 X-11.586 Y-54.649 E137.60468
G0 F2040 X-11.78 Y-54.348
G1 F1020 X22.343 Y-20.224 E139.45149
G1 X22.405 Y-20.162
G0 F2040 X22.937 Y-19.135
G1 F1020 X-11.974 Y-54.046 E141.34092
G0 F2040 X-12.167 Y-53.745
G1 F1020 X23.531 Y-18.046 E143.27297
G1 X23.593 Y-17.984
G0 F2040 X24.125 Y-16.957
G1 F1020 X-12.361 Y-53.444 E145.24766
G0 F2040 X-12.555 Y-53.143
G1 F1020 X24.719 Y-15.868 E147.26501
G1 X24.781 Y-15.806
G0 F2040 X25.314 Y-14.778
G1 F1020 X-12.749 Y-52.842 E149.32505
G0 F2040 X-12.943 Y-52.541
G1 F1020 X25.908 Y-13.689 E151.42774
G1 X25.97 Y-13.627
G0 F2040 X26.503 Y-12.599
G1 F1020 X-13.137 Y-52.24 E153.57314
G0 F2040 X-13.331 Y-51.939
G1 F1020 X27.097 Y-11.51 E155.76118
G1 X27.159 Y-11.448
G0 F2040 X27.691 Y-10.422
G1 F1020 X-13.524 Y-51.637 E157.99179
G0 F2040 X-13.718 Y-51.336
G1 F1020 X28.285 Y-9.332 E160.26507
G1 X28.347 Y-9.27
G0 F2040 X28.879 Y-8.243
G1 F1020 X-13.912 Y-51.035 E162.581
G0 F2040 X-14.106 Y-50.734
G1 F1020 X29.474 Y-7.153 E164.93963
G1 X29.536 Y-7.091
G0 F2040 X30.068 Y-6.064
G1 F1020 X-14.3 Y-50.433 E167.34091
G0 F2040 X-14.494 Y-50.132
G1 F1020 X30.662 Y-4.975 E169.78484
G1 X30.724 Y-4.913
G0 F2040 X31.256 Y-3.886
G1 F1020 X-14.688 Y-49.831 E172.27142
G0 F2040 X-14.881 Y-49.53
G1 F1020 X31.85 Y-2.797 E174.80061
G1 X31.912 Y-2.735
G0 F2040 X32.445 Y-1.707
G1 F1020 X-15.075 Y-49.228 E177.37248
G0 F2040 X-15.269 Y-48.927
G1 F1020 X33.039 Y-.618 E179.987
G1 X33.101 Y-.556
G0 F2040 X33.633 Y0.47
G1 F1020 X-15.463 Y-48.626 E182.64414
G0 F2040 X-15.657 Y-48.325
G1 F1020 X34.228 Y1.559 E185.34395
G1 X34.29 Y1.621
G0 F2040 X34.822 Y2.648
G1 F1020 X-15.851 Y-48.024 E188.08641
G0 F2040 X-16.044 Y-47.723
G1 F1020 X35.416 Y3.738 E190.87152
G1 X35.478 Y3.8
G0 F2040 X36.01 Y4.827
G1 F1020 X-16.238 Y-47.422 E193.69927
G0 F2040 X-16.432 Y-47.12
G1 F1020 X36.604 Y5.916 E196.56965
G1 X36.666 Y5.978
G0 F2040 X37.199 Y7.006
G1 F1020 X-16.626 Y-46.819 E199.48273
G0 F2040 X-16.819 Y-46.518
G1 F1020 X37.793 Y8.094 E202.4384
G1 X37.855 Y8.156
G0 F2040 X38.388 Y9.184
G1 F1020 X-17.013 Y-46.217 E205.43677
G0 F2040 X-17.208 Y-45.916
G1 F1020 X38.982 Y10.273 E208.47782
G1 X39.044 Y10.335
G0 F2040 X39.576 Y11.362
G1 F1020 X-17.401 Y-45.615 E211.56148
G0 F2040 X-17.595 Y-45.314
G1 F1020 X40.17 Y12.452 E214.68783
G1 X40.232 Y12.514
G0 F2040 X40.764 Y13.541
G1 F1020 X-17.789 Y-45.013 E217.85682
G0 F2040 X-17.983 Y-44.711
G1 F1020 X41.359 Y14.63 E221.06845
G1 X41.421 Y14.692
G0 F2040 X41.953 Y15.719
G1 F1020 X-18.176 Y-44.41 E224.32271
G0 F2040 X-18.37 Y-44.109
G1 F1020 X42.547 Y16.808 E227.61962
G0 F2040 X42.618 Y17.375
G1 F1020 X-18.565 Y-43.808 E230.93092
G0 F2040 X-18.758 Y-43.507
G1 F1020 X42.123 Y17.375 E234.2259
G0 F2040 X41.628 Y17.375
G1 F1020 X-18.952 Y-43.206 E237.5046
G0 F2040 X-19.146 Y-42.905
G1 F1020 X41.133 Y17.375 E240.767
G0 F2040 X40.638 Y17.375
G1 F1020 X-19.34 Y-42.603 E244.01309
G0 F2040 X-19.533 Y-42.302
G1 F1020 X40.143 Y17.375 E247.24286
G0 F2040 X39.648 Y17.375
G1 F1020 X-19.727 Y-42.001 E250.45633
G0 F2040 X-19.922 Y-41.7
G1 F1020 X39.153 Y17.375 E253.65355
G0 F2040 X38.658 Y17.375
G1 F1020 X-20.115 Y-41.399 E256.83444
G0 F2040 X-20.309 Y-41.098
G1 F1020 X38.163 Y17.375 E259.99905
G0 F2040 X37.668 Y17.375
G1 F1020 X-20.503 Y-40.797 E263.14737
G0 F2040 X-20.697 Y-40.496
G1 F1020 X37.174 Y17.375 E266.27942
G0 F2040 X36.679 Y17.375
G1 F1020 X-20.89 Y-40.194 E269.39513
G0 F2040 X-21.084 Y-39.893
G1 F1020 X36.184 Y17.375 E272.49454
G0 F2040 X35.689 Y17.375
G1 F1020 X-21.278 Y-39.592 E275.57767
G0 F2040 X-21.472 Y-39.291
G1 F1020 X35.194 Y17.375 E278.64451
G0 F2040 X34.699 Y17.375
G1 F1020 X-21.666 Y-38.99 E281.69505
G0 F2040 X-21.86 Y-38.689
G1 F1020 X34.204 Y17.375 E284.72931
G0 F2040 X33.709 Y17.375
G1 F1020 X-22.053 Y-38.388 E287.74724
G0 F2040 X-22.247 Y-38.086
G1 F1020 X33.214 Y17.375 E290.74886
G0 F2040 X32.719 Y17.375
G1 F1020 X-22.441 Y-37.785 E293.73419
G0 F2040 X-22.635 Y-37.484
G1 F1020 X32.224 Y17.375 E296.70323
G0 F2040 X31.729 Y17.375
G1 F1020 X-22.829 Y-37.183 E299.65598
G0 F2040 X-23.023 Y-36.882
G1 F1020 X31.234 Y17.375 E302.59244
G0 F2040 X30.739 Y17.375
G1 F1020 X-23.217 Y-36.581 E305.51261
G0 F2040 X-23.41 Y-36.28
G1 F1020 X30.244 Y17.375 E308.41646
G0 F2040 X29.749 Y17.375
