;FLAVOR:Marlin
;TIME:6221
;Filament used: 7.94471m
;Layer height: 0.3
;MINX:-41.833
;MINY:-70.073
;MINZ:0.26
;MAXX:68.049
;MAXY:25.881
;MAXZ:23.66
;Generated with Cura_SteamEngine 4.9.1
M82 ;absolute extrusion mode
;Gcode by Cura
G90
G28
M107
M109 R100
G30
M109 S215 U-55 X55 V-85 Y-85 W0.26 Z0.26
M82
G92 E0
G1 F200 E6
G92 E0
G1 F200 E-3.5
G0 Z0.15
G0 X10
G0 Z3
G1 F6000
G92 E0
G92 E0
G1 F3600 E-3.8
;LAYER_COUNT:79
;LAYER:0
M107
G0 F2040 X-40.731 Y18.139 Z0.26
;TYPE:SKIRT
G1 F3600 E0
G1 F1020 X9.632 Y-67.324 E3.79628
G1 X9.965 Y-67.873 E3.82085
G1 X10.312 Y-68.368 E3.84399
G1 X10.722 Y-68.813 E3.86714
G1 X11.186 Y-69.2 E3.89027
G1 X11.698 Y-69.523 E3.91343
G1 X12.247 Y-69.775 E3.93655
G1 X12.825 Y-69.952 E3.95969
G1 X13.421 Y-70.052 E3.98281
G1 X14.026 Y-70.073 E4.00598
G1 X14.627 Y-70.013 E4.02909
G1 X15.216 Y-69.875 E4.05225
G1 X15.781 Y-69.66 E4.07538
G1 X16.313 Y-69.372 E4.09853
G1 X16.803 Y-69.017 E4.12169
G1 X17.241 Y-68.601 E4.14481
G1 X17.723 Y-67.978 E4.17495
G1 X17.85 Y-67.774 E4.18415
G1 X18.131 Y-67.296 E4.20537
G1 X67.129 Y18.451 E7.98483
G1 X67.477 Y19.079 E8.0123
G1 X67.734 Y19.626 E8.03543
G1 X67.917 Y20.202 E8.05856
G1 X68.023 Y20.797 E8.08169
G1 X68.049 Y21.401 E8.10483
G1 X67.995 Y22.004 E8.128
G1 X67.862 Y22.593 E8.1511
G1 X67.653 Y23.161 E8.17427
G1 X67.37 Y23.695 E8.19739
G1 X67.02 Y24.188 E8.22053
G1 X66.608 Y24.63 E8.24366
G1 X66.141 Y25.014 E8.26679
G1 X65.627 Y25.333 E8.28995
G1 X65.076 Y25.582 E8.31309
G1 X64.496 Y25.756 E8.33626
G1 X63.689 Y25.866 E8.36743
G1 X63.468 Y25.874 E8.37589
G1 X62.907 Y25.881 E8.39736
G1 X-36.646 Y25.881 E12.20721
G1 X-37.327 Y25.871 E12.23327
G1 X-37.93 Y25.822 E12.25642
G1 X-38.521 Y25.694 E12.27957
G1 X-39.09 Y25.489 E12.30271
G1 X-39.627 Y25.211 E12.32585
G1 X-40.122 Y24.865 E12.34897
G1 X-40.568 Y24.456 E12.37212
G1 X-40.956 Y23.992 E12.39527
G1 X-41.279 Y23.481 E12.41841
G1 X-41.532 Y22.932 E12.44154
G1 X-41.711 Y22.355 E12.46466
G1 X-41.812 Y21.758 E12.48783
G1 X-41.833 Y21.154 E12.51096
G1 X-41.774 Y20.552 E12.53411
G1 X-41.637 Y19.964 E12.55721
G1 X-41.423 Y19.398 E12.58037
G1 X-41.244 Y19.046 E12.59548
G1 X-40.731 Y18.139 E12.63536
G0 F2040 X-40.429 Y18.317
G1 F1020 X9.932 Y-67.142 E16.43147
G1 X10.265 Y-67.691 E16.45604
G1 X10.599 Y-68.166 E16.47827
G1 X10.996 Y-68.591 E16.50052
G1 X11.447 Y-68.957 E16.52275
G1 X11.945 Y-69.257 E16.545
G1 X12.478 Y-69.487 E16.56722
G1 X13.039 Y-69.641 E16.58948
G1 X13.615 Y-69.717 E16.61171
G1 X14.196 Y-69.713 E16.63395
G1 X14.771 Y-69.629 E16.65619
G1 X15.329 Y-69.468 E16.67841
G1 X15.859 Y-69.231 E16.70063
G1 X16.352 Y-68.924 E16.72286
G1 X16.799 Y-68.552 E16.74511
G1 X17.19 Y-68.122 E16.76735
G1 X17.548 Y-67.596 E16.7917
G1 X17.855 Y-67.073 E16.81491
G1 X66.823 Y18.62 E20.59201
G1 X67.171 Y19.248 E20.61949
G1 X67.417 Y19.775 E20.64174
G1 X67.588 Y20.33 E20.66397
G1 X67.682 Y20.903 E20.68619
G1 X67.696 Y21.484 E20.70843
G1 X67.63 Y22.061 E20.73066
G1 X67.486 Y22.624 E20.7529
G1 X67.266 Y23.162 E20.77514
G1 X66.974 Y23.664 E20.79737
G1 X66.616 Y24.122 E20.81961
G1 X66.198 Y24.526 E20.84186
G1 X65.73 Y24.869 E20.86406
G1 X65.218 Y25.145 E20.88632
G1 X64.673 Y25.347 E20.90857
G1 X64.106 Y25.474 E20.9308
G1 X63.464 Y25.524 E20.95545
G1 X62.903 Y25.531 E20.97692
G1 X-36.641 Y25.531 E24.78642
G1 X-37.322 Y25.521 E24.81248
G1 X-37.901 Y25.472 E24.83472
G1 X-38.468 Y25.345 E24.85696
G1 X-39.012 Y25.141 E24.87919
G1 X-39.523 Y24.864 E24.90144
G1 X-39.991 Y24.52 E24.92366
G1 X-40.407 Y24.115 E24.94588
G1 X-40.764 Y23.656 E24.96814
G1 X-41.055 Y23.153 E24.99037
G1 X-41.274 Y22.615 E25.0126
G1 X-41.417 Y22.052 E25.03483
G1 X-41.481 Y21.474 E25.05709
G1 X-41.466 Y20.893 E25.07933
G1 X-41.371 Y20.32 E25.10156
G1 X-41.198 Y19.765 E25.12381
G1 X-40.939 Y19.218 E25.14697
G1 X-40.429 Y18.317 E25.18659
G0 F2040 X-40.127 Y18.495
G1 F1020 X10.231 Y-66.961 E28.98254
G1 X10.564 Y-67.51 E29.00712
G1 X10.886 Y-67.963 E29.02839
G1 X11.269 Y-68.366 E29.04966
G1 X11.707 Y-68.71 E29.07098
G1 X12.189 Y-68.988 E29.09227
G1 X12.706 Y-69.194 E29.11357
G1 X13.247 Y-69.323 E29.13485
G1 X13.801 Y-69.374 E29.15614
G1 X14.357 Y-69.345 E29.17745
G1 X14.903 Y-69.237 E29.19875
G1 X15.427 Y-69.051 E29.22003
G1 X15.92 Y-68.793 E29.24132
G1 X16.37 Y-68.466 E29.26261
G1 X16.77 Y-68.079 E29.28391
G1 X17.134 Y-67.599 E29.30696
G1 X17.247 Y-67.419 E29.3151
G1 X17.551 Y-66.9 E29.33812
G1 X66.516 Y18.79 E33.11506
G1 X66.864 Y19.418 E33.14253
G1 X67.098 Y19.923 E33.16383
G1 X67.258 Y20.456 E33.18513
G1 X67.339 Y21.006 E33.20641
G1 X67.341 Y21.563 E33.22772
G1 X67.263 Y22.113 E33.24898
G1 X67.107 Y22.648 E33.27031
G1 X66.876 Y23.154 E33.2916
G1 X66.575 Y23.622 E33.31289
G1 X66.209 Y24.042 E33.33421
G1 X65.788 Y24.405 E33.35548
G1 X65.319 Y24.704 E33.37677
G1 X64.812 Y24.933 E33.39806
G1 X64.277 Y25.087 E33.41936
G1 X63.656 Y25.167 E33.44333
G1 X63.459 Y25.174 E33.45087
G1 X62.898 Y25.181 E33.47234
G1 X-36.636 Y25.181 E37.28146
G1 X-37.317 Y25.171 E37.30752
G1 X-37.871 Y25.122 E37.32881
G1 X-38.413 Y24.996 E37.3501
G1 X-38.931 Y24.792 E37.37141
G1 X-39.414 Y24.517 E37.39268
G1 X-39.854 Y24.175 E37.41401
G1 X-40.239 Y23.774 E37.43528
G1 X-40.563 Y23.322 E37.45656
G1 X-40.819 Y22.828 E37.47786
G1 X-41.002 Y22.302 E37.49917
G1 X-41.108 Y21.756 E37.52045
G1 X-41.134 Y21.2 E37.54175
G1 X-41.08 Y20.646 E37.56306
G1 X-40.948 Y20.106 E37.58433
G1 X-40.634 Y19.39 E37.61425
G1 X-40.127 Y18.495 E37.65362
G0 F2040 X-39.826 Y18.672
G1 F1020 X10.53 Y-66.779 E41.44937
G1 X10.863 Y-67.328 E41.47394
G1 X11.172 Y-67.76 E41.49426
G1 X11.542 Y-68.14 E41.51456
G1 X11.964 Y-68.461 E41.53485
G1 X12.431 Y-68.715 E41.5552
G1 X12.929 Y-68.895 E41.57546
G1 X13.45 Y-68.999 E41.59579
G1 X13.98 Y-69.023 E41.6161
G1 X14.508 Y-68.968 E41.63641
G1 X15.021 Y-68.834 E41.6567
G1 X15.509 Y-68.625 E41.67702
G1 X15.959 Y-68.344 E41.69732
G1 X16.363 Y-67.999 E41.71765
G1 X16.84 Y-67.409 E41.74669
G1 X16.945 Y-67.241 E41.75427
G1 X17.248 Y-66.726 E41.77714
G1 X66.21 Y18.959 E45.55386
G1 X66.558 Y19.587 E45.58133
G1 X66.78 Y20.07 E45.60168
G1 X66.926 Y20.58 E45.62198
G1 X66.995 Y21.106 E45.64228
G1 X66.984 Y21.636 E45.66257
G1 X66.893 Y22.159 E45.68288
G1 X66.724 Y22.662 E45.70319
G1 X66.482 Y23.135 E45.72352
G1 X66.172 Y23.565 E45.74381
G1 X65.801 Y23.945 E45.76413
G1 X65.377 Y24.264 E45.78444
G1 X64.91 Y24.516 E45.80475
G1 X64.41 Y24.695 E45.82507
G1 X63.64 Y24.817 E45.85491
G1 X63.455 Y24.824 E45.86199
G1 X62.894 Y24.831 E45.88346
G1 X-36.631 Y24.831 E49.69224
G1 X-37.312 Y24.821 E49.7183
G1 X-37.84 Y24.773 E49.73859
G1 X-38.356 Y24.646 E49.75893
G1 X-38.846 Y24.444 E49.77921
G1 X-39.301 Y24.17 E49.79954
G1 X-39.709 Y23.831 E49.81984
G1 X-40.062 Y23.435 E49.84014
G1 X-40.351 Y22.99 E49.86044
G1 X-40.571 Y22.507 E49.88076
G1 X-40.715 Y21.996 E49.90107
G1 X-40.781 Y21.47 E49.92136
G1 X-40.767 Y20.939 E49.94169
G1 X-40.674 Y20.417 E49.96198
G1 X-40.503 Y19.914 E49.98231
G1 X-40.329 Y19.563 E49.9973
G1 X-39.826 Y18.672 E50.03646
G0 F2040 X-39.524 Y18.85
G1 F1020 X10.829 Y-66.598 E53.83205
G1 X11.162 Y-67.147 E53.85663
G1 X11.457 Y-67.555 E53.87589
G1 X11.812 Y-67.912 E53.89516
G1 X12.22 Y-68.208 E53.91445
G1 X12.669 Y-68.436 E53.93372
G1 X13.148 Y-68.59 E53.95298
G1 X13.646 Y-68.667 E53.97226
G1 X14.149 Y-68.663 E53.99151
G1 X14.646 Y-68.58 E54.0108
G1 X15.123 Y-68.42 E54.03005
G1 X15.569 Y-68.186 E54.04933
G1 X15.973 Y-67.885 E54.06861
G1 X16.324 Y-67.524 E54.08787
G1 X16.643 Y-67.064 E54.1093
G1 X16.944 Y-66.552 E54.13203
G1 X65.904 Y19.129 E57.90857
G1 X66.252 Y19.757 E57.93605
G1 X66.461 Y20.216 E57.95535
G1 X66.594 Y20.701 E57.9746
G1 X66.649 Y21.202 E57.99389
G1 X66.624 Y21.705 E58.01316
G1 X66.519 Y22.197 E58.03241
G1 X66.339 Y22.667 E58.05167
G1 X66.086 Y23.103 E58.07096
G1 X65.767 Y23.493 E58.09025
G1 X65.391 Y23.828 E58.10952
G1 X64.967 Y24.099 E58.12877
G1 X64.505 Y24.299 E58.14804
G1 X64.017 Y24.424 E58.16732
G1 X63.451 Y24.474 E58.18906
G1 X62.89 Y24.481 E58.21054
G1 X-36.626 Y24.481 E62.01896
G1 X-37.307 Y24.471 E62.04503
G1 X-37.808 Y24.423 E62.06429
G1 X-38.296 Y24.297 E62.08358
G1 X-38.757 Y24.096 E62.10282
G1 X-39.181 Y23.824 E62.1221
G1 X-39.556 Y23.488 E62.14137
G1 X-39.874 Y23.098 E62.16063
G1 X-40.126 Y22.662 E62.1799
G1 X-40.306 Y22.191 E62.1992
G1 X-40.409 Y21.699 E62.21843
G1 X-40.433 Y21.196 E62.23771
G1 X-40.378 Y20.695 E62.25699
G1 X-40.243 Y20.21 E62.27626
G1 X-40.025 Y19.735 E62.29626
G1 X-39.524 Y18.85 E62.33518
G1 F3600 E58.53518
;MESH:support_tri_0_029.stl
G0 F2040 X-37.483 Y20.33
G0 X-36.728 Y20.774
G0 X-36.367 Y20.781
;TYPE:WALL-INNER
G1 F3600 E62.33518
G1 F1020 X13.871 Y-64.472 E66.12211
G1 X62.587 Y20.781 E69.8798
G1 X-36.367 Y20.781 E73.66672
G0 F2040 X-36.936 Y21.106
;TYPE:WALL-OUTER
G1 F1020 X13.875 Y-65.119 E77.49683
G1 X63.147 Y21.106 E81.29738
G1 X-36.936 Y21.106 E85.12751
G0 F2040 X-36.835 Y20.934
G0 X-36.749 Y20.985
G0 X-35.771 Y20.441
;TYPE:SKIN
G1 F1020 X13.867 Y-63.794 E88.86922
G1 X62.001 Y20.441 E92.58203
G1 X-35.771 Y20.441 E96.32372
G0 F2040 X-35.368 Y20.068
G1 F1020 X-35.153 Y20.284 E96.33538
G0 F2040 X-34.658 Y20.284
G1 F1020 X-35.184 Y19.757 E96.36388
G0 F2040 X-35.001 Y19.445
G1 F1020 X-34.163 Y20.284 E96.40926
G0 F2040 X-33.668 Y20.284
G1 F1020 X-34.817 Y19.134 E96.47147
G0 F2040 X-34.634 Y18.823
G1 F1020 X-33.173 Y20.284 E96.55054
G0 F2040 X-32.678 Y20.284
G1 F1020 X-34.45 Y18.511 E96.64647
G0 F2040 X-34.267 Y18.2
G1 F1020 X-32.183 Y20.284 E96.75926
G0 F2040 X-31.688 Y20.284
G1 F1020 X-34.083 Y17.888 E96.88891
G0 F2040 X-33.9 Y17.577
G1 F1020 X-31.193 Y20.284 E97.03542
G0 F2040 X-30.698 Y20.284
G1 F1020 X-33.716 Y17.265 E97.19878
G0 F2040 X-33.533 Y16.954
G1 F1020 X-30.203 Y20.284 E97.37901
G0 F2040 X-29.708 Y20.284
G1 F1020 X-33.349 Y16.642 E97.57609
G0 F2040 X-33.166 Y16.331
G1 F1020 X-29.213 Y20.284 E97.79003
G0 F2040 X-28.718 Y20.284
G1 F1020 X-32.982 Y16.019 E98.02083
G0 F2040 X-32.799 Y15.708
G1 F1020 X-28.223 Y20.284 E98.26849
G0 F2040 X-27.728 Y20.284
G1 F1020 X-32.615 Y15.397 E98.53298
G0 F2040 X-32.432 Y15.085
G1 F1020 X-27.233 Y20.284 E98.81436
G0 F2040 X-26.738 Y20.284
G1 F1020 X-32.248 Y14.774 E99.11256
G0 F2040 X-32.065 Y14.462
G1 F1020 X-26.243 Y20.284 E99.42766
G0 F2040 X-25.748 Y20.284
G1 F1020 X-31.881 Y14.151 E99.75958
G0 F2040 X-31.698 Y13.839
G1 F1020 X-25.253 Y20.284 E100.1084
G0 F2040 X-24.758 Y20.284
G1 F1020 X-31.514 Y13.528 E100.47404
G0 F2040 X-31.331 Y13.216
G1 F1020 X-24.263 Y20.284 E100.85657
G0 F2040 X-23.768 Y20.284
G1 F1020 X-31.147 Y12.905 E101.25593
G0 F2040 X-30.963 Y12.594
G1 F1020 X-23.273 Y20.284 E101.67212
G0 F2040 X-22.778 Y20.284
G1 F1020 X-30.78 Y12.282 E102.1052
G0 F2040 X-30.596 Y11.971
G1 F1020 X-22.283 Y20.284 E102.55511
G0 F2040 X-21.788 Y20.284
G1 F1020 X-30.413 Y11.659 E103.02191
G0 F2040 X-30.229 Y11.348
G1 F1020 X-21.293 Y20.284 E103.50553
G0 F2040 X-20.798 Y20.284
G1 F1020 X-30.046 Y11.036 E104.00605
G0 F2040 X-29.862 Y10.725
G1 F1020 X-20.303 Y20.284 E104.52339
G0 F2040 X-19.808 Y20.284
G1 F1020 X-29.679 Y10.413 E105.05762
G0 F2040 X-29.495 Y10.102
G1 F1020 X-19.313 Y20.284 E105.60869
G0 F2040 X-18.818 Y20.284
G1 F1020 X-29.312 Y9.79 E106.17664
G0 F2040 X-29.128 Y9.479
G1 F1020 X-18.323 Y20.284 E106.76142
G0 F2040 X-17.828 Y20.284
G1 F1020 X-28.944 Y9.168 E107.36303
G0 F2040 X-28.761 Y8.856
G1 F1020 X-17.334 Y20.284 E107.9815
G0 F2040 X-16.839 Y20.284
G1 F1020 X-28.577 Y8.545 E108.6168
G0 F2040 X-28.394 Y8.233
G1 F1020 X-16.344 Y20.284 E109.26899
G0 F2040 X-15.849 Y20.284
G1 F1020 X-28.21 Y7.922 E109.93801
G0 F2040 X-28.027 Y7.61
G1 F1020 X-15.354 Y20.284 E110.62392
G0 F2040 X-14.859 Y20.284
G1 F1020 X-27.843 Y7.299 E111.32665
G0 F2040 X-27.66 Y6.987
G1 F1020 X-14.364 Y20.284 E112.04628
G0 F2040 X-13.869 Y20.284
G1 F1020 X-27.476 Y6.676 E112.78273
G0 F2040 X-27.293 Y6.364
G1 F1020 X-13.374 Y20.284 E113.53607
G0 F2040 X-12.879 Y20.284
G1 F1020 X-27.109 Y6.053 E114.30625
G0 F2040 X-26.925 Y5.742
G1 F1020 X-12.384 Y20.284 E115.09325
G0 F2040 X-11.889 Y20.284
G1 F1020 X-26.742 Y5.43 E115.89714
G0 F2040 X-26.558 Y5.119
G1 F1020 X-11.394 Y20.284 E116.71786
G0 F2040 X-10.899 Y20.284
G1 F1020 X-26.375 Y4.807 E117.55547
G0 F2040 X-26.191 Y4.496
G1 F1020 X-10.404 Y20.284 E118.40991
G0 F2040 X-9.909 Y20.284
G1 F1020 X-26.008 Y4.184 E119.28124
G0 F2040 X-25.824 Y3.873
G1 F1020 X-9.414 Y20.284 E120.16939
G0 F2040 X-8.919 Y20.284
G1 F1020 X-25.641 Y3.561 E121.07444
G0 F2040 X-25.457 Y3.25
G1 F1020 X-8.424 Y20.284 E121.99631
G0 F2040 X-7.929 Y20.284
G1 F1020 X-25.274 Y2.938 E122.93507
G0 F2040 X-25.09 Y2.627
G1 F1020 X-7.434 Y20.284 E123.89066
G0 F2040 X-6.939 Y20.284
G1 F1020 X-24.907 Y2.316 E124.86311
G0 F2040 X-24.723 Y2.004
G1 F1020 X-6.444 Y20.284 E125.85242
G0 F2040 X-5.949 Y20.284
G1 F1020 X-24.54 Y1.693 E126.85859
G0 F2040 X-24.357 Y1.381
G1 F1020 X-5.454 Y20.284 E127.88165
G0 F2040 X-4.959 Y20.284
G1 F1020 X-24.173 Y1.07 E128.92153
G0 F2040 X-23.99 Y0.758
G1 F1020 X-4.464 Y20.284 E129.97831
G0 F2040 X-3.969 Y20.284
G1 F1020 X-23.806 Y0.447 E131.05191
G0 F2040 X-23.623 Y0.135
G1 F1020 X-3.474 Y20.284 E132.1424
G0 F2040 X-2.979 Y20.284
G1 F1020 X-23.439 Y-.175 E133.24969
G0 F2040 X-23.256 Y-.487
G1 F1020 X-2.484 Y20.284 E134.37387
G0 F2040 X-1.989 Y20.284
G1 F1020 X-23.072 Y-.798 E135.51488
G0 F2040 X-22.888 Y-1.109
G1 F1020 X-1.494 Y20.284 E136.67273
G0 F2040 X-.999 Y20.284
G1 F1020 X-22.705 Y-1.421 E137.84746
G0 F2040 X-22.521 Y-1.732
G1 F1020 X-.504 Y20.284 E139.03902
G0 F2040 X-0.009 Y20.284
G1 F1020 X-22.338 Y-2.044 E140.24747
G0 F2040 X-22.154 Y-2.355
G1 F1020 X0.485 Y20.284 E141.47272
G0 F2040 X0.98 Y20.284
G1 F1020 X-21.971 Y-2.667 E142.71485
G0 F2040 X-21.787 Y-2.978
G1 F1020 X1.475 Y20.284 E143.97382
G0 F2040 X1.969 Y20.284
G1 F1020 X-21.604 Y-3.29 E145.24965
G0 F2040 X-21.42 Y-3.601
G1 F1020 X2.464 Y20.284 E146.54231
G0 F2040 X2.959 Y20.284
G1 F1020 X-21.236 Y-3.912 E147.8518
G0 F2040 X-21.053 Y-4.224
G1 F1020 X3.454 Y20.284 E149.17818
G0 F2040 X3.949 Y20.284
G1 F1020 X-20.869 Y-4.535 E150.52139
G0 F2040 X-20.686 Y-4.847
G1 F1020 X4.444 Y20.284 E151.88148
G0 F2040 X4.939 Y20.284
G1 F1020 X-20.502 Y-5.158 E153.25841
G0 F2040 X-20.319 Y-5.47
G1 F1020 X5.434 Y20.284 E154.65222
G0 F2040 X5.929 Y20.284
G1 F1020 X-20.135 Y-5.781 E156.06287
G0 F2040 X-19.952 Y-6.093
G1 F1020 X6.424 Y20.284 E157.4904
G0 F2040 X6.919 Y20.284
G1 F1020 X-19.768 Y-6.404 E158.93476
G0 F2040 X-19.585 Y-6.716
G1 F1020 X7.414 Y20.284 E160.396
G0 F2040 X7.909 Y20.284
G1 F1020 X-19.401 Y-7.027 E161.87408
G0 F2040 X-19.217 Y-7.338
G1 F1020 X8.404 Y20.284 E163.36899
G0 F2040 X8.899 Y20.284
G1 F1020 X-19.034 Y-7.65 E164.88079
G0 F2040 X-18.85 Y-7.961
G1 F1020 X9.394 Y20.284 E166.40942
G0 F2040 X9.889 Y20.284
G1 F1020 X-18.667 Y-8.273 E167.95493
G0 F2040 X-18.483 Y-8.584
G1 F1020 X10.384 Y20.284 E169.51728
G0 F2040 X10.879 Y20.284
G1 F1020 X-18.3 Y-8.896 E171.09651
G0 F2040 X-18.116 Y-9.207
G1 F1020 X11.374 Y20.284 E172.69257
G0 F2040 X11.869 Y20.284
G1 F1020 X-17.933 Y-9.519 E174.30552
G0 F2040 X-17.749 Y-9.83
G1 F1020 X12.364 Y20.284 E175.9353
G0 F2040 X12.859 Y20.284
G1 F1020 X-17.566 Y-10.142 E177.58197
G0 F2040 X-17.382 Y-10.453
G1 F1020 X13.354 Y20.284 E179.24547
G0 F2040 X13.849 Y20.284
G1 F1020 X-17.198 Y-10.764 E180.9258
G0 F2040 X-17.015 Y-11.076
G1 F1020 X14.344 Y20.284 E182.62302
G0 F2040 X14.839 Y20.284
G1 F1020 X-16.831 Y-11.387 E184.33706
G0 F2040 X-16.648 Y-11.699
G1 F1020 X15.334 Y20.284 E186.068
G0 F2040 X15.829 Y20.284
G1 F1020 X-16.464 Y-12.01 E187.81576
G0 F2040 X-16.281 Y-12.322
G1 F1020 X16.324 Y20.284 E189.58041
G0 F2040 X16.819 Y20.284
G1 F1020 X-16.097 Y-12.633 E191.3619
G0 F2040 X-15.914 Y-12.945
G1 F1020 X17.314 Y20.284 E193.16027
G0 F2040 X17.809 Y20.284
G1 F1020 X-15.731 Y-13.256 E194.97549
G0 F2040 X-15.547 Y-13.567
G1 F1020 X18.304 Y20.284 E196.80755
G0 F2040 X18.799 Y20.284
G1 F1020 X-15.364 Y-13.879 E198.6565
G0 F2040 X-15.18 Y-14.19
G1 F1020 X19.294 Y20.284 E200.52227
G0 F2040 X19.789 Y20.284
G1 F1020 X-14.997 Y-14.502 E202.40494
G0 F2040 X-14.813 Y-14.813
G1 F1020 X20.284 Y20.284 E204.30443
G0 F2040 X20.779 Y20.284
G1 F1020 X-14.63 Y-15.125 E206.22081
G0 F2040 X-14.446 Y-15.436
G1 F1020 X21.274 Y20.284 E208.15402
G0 F2040 X21.768 Y20.284
G1 F1020 X-14.263 Y-15.747 E210.10407
