;FLAVOR:Marlin
;TIME:7915
;Filament used: 7.25289m
;Layer height: 0.2
;MINX:-67.002
;MINY:-25.917
;MINZ:0.26
;MAXX:42.112
;MAXY:71.093
;MAXZ:23.46
;Generated with Cura_SteamEngine 4.8.0
M82 ;absolute extrusion mode
;Gcode by Cura
G90
G28
M107
M109 R100
G30
M109 S215 U-55 X55 V-85 Y-85 W0.26 Z0.26
M82
G92 E0
G1 F200 E6
G92 E0
G1 F200 E-3.5
G0 Z0.15
G0 X10
G0 Z3
G1 F6000
G92 E0
G92 E0
G1 F3600 E-3.8
;LAYER_COUNT:117
;LAYER:0
M107
G0 F2040 X36.915 Y-25.917 Z0.26
;TYPE:SKIRT
G1 F3600 E0
G1 F1020 X37.605 Y-25.907 E0.02641
G1 X38.208 Y-25.858 E0.04956
G1 X38.799 Y-25.73 E0.0727
G1 X39.368 Y-25.526 E0.09584
G1 X39.905 Y-25.248 E0.11898
G1 X40.401 Y-24.901 E0.14214
G1 X40.846 Y-24.493 E0.16525
G1 X41.234 Y-24.029 E0.18839
G1 X41.558 Y-23.518 E0.21155
G1 X41.811 Y-22.969 E0.23468
G1 X41.99 Y-22.391 E0.25784
G1 X42.09 Y-21.795 E0.28097
G1 X42.112 Y-21.191 E0.3041
G1 X42.053 Y-20.589 E0.32725
G1 X41.916 Y-20 E0.35039
G1 X41.622 Y-19.268 E0.38058
G1 X41.296 Y-18.665 E0.40681
G1 X-8.154 Y68.263 E4.2341
G1 X-8.496 Y68.843 E4.25987
G1 X-8.837 Y69.342 E4.283
G1 X-9.241 Y69.792 E4.30614
G1 X-9.7 Y70.185 E4.32927
G1 X-10.208 Y70.514 E4.35243
G1 X-10.754 Y70.773 E4.37556
G1 X-11.33 Y70.958 E4.39871
G1 X-11.925 Y71.065 E4.42184
G1 X-12.529 Y71.093 E4.44498
G1 X-13.131 Y71.041 E4.46811
G1 X-13.721 Y70.91 E4.49124
G1 X-14.289 Y70.702 E4.51439
G1 X-14.825 Y70.421 E4.53755
G1 X-15.319 Y70.072 E4.56069
G1 X-15.762 Y69.661 E4.58382
G1 X-16.147 Y69.196 E4.60692
G1 X-16.364 Y68.866 E4.62204
G1 X-16.934 Y67.911 E4.6646
G1 X-66.11 Y-18.535 E8.47067
G1 X-66.435 Y-19.125 E8.49645
G1 X-66.691 Y-19.672 E8.51956
G1 X-66.873 Y-20.249 E8.54272
G1 X-66.977 Y-20.845 E8.56587
G1 X-67.002 Y-21.449 E8.58901
G1 X-66.946 Y-22.051 E8.61214
G1 X-66.812 Y-22.641 E8.6353
G1 X-66.601 Y-23.207 E8.65841
G1 X-66.317 Y-23.741 E8.68156
G1 X-65.966 Y-24.233 E8.70469
G1 X-65.552 Y-24.674 E8.72784
G1 X-65.084 Y-25.057 E8.75098
G1 X-64.57 Y-25.375 E8.77411
G1 X-64.018 Y-25.622 E8.79726
G1 X-63.438 Y-25.794 E8.82041
G1 X-62.599 Y-25.904 E8.85279
G1 X-61.942 Y-25.917 E8.87794
G1 X36.915 Y-25.917 E12.66115
G0 F2040 X36.91 Y-25.567
G1 F1020 X37.6 Y-25.557 E12.68756
G1 X38.179 Y-25.508 E12.70979
G1 X38.746 Y-25.381 E12.73203
G1 X39.29 Y-25.177 E12.75426
G1 X39.801 Y-24.9 E12.77651
G1 X40.269 Y-24.556 E12.79874
G1 X40.686 Y-24.151 E12.82098
G1 X41.043 Y-23.693 E12.84321
G1 X41.334 Y-23.19 E12.86544
G1 X41.553 Y-22.652 E12.88767
G1 X41.696 Y-22.088 E12.90994
G1 X41.76 Y-21.511 E12.93216
G1 X41.745 Y-20.93 E12.9544
G1 X41.65 Y-20.357 E12.97663
G1 X41.477 Y-19.802 E12.99888
G1 X41.264 Y-19.337 E13.01845
G1 X40.99 Y-18.835 E13.04034
G1 X-8.456 Y68.085 E16.86729
G1 X-8.798 Y68.665 E16.89305
G1 X-9.126 Y69.144 E16.91527
G1 X-9.518 Y69.573 E16.93751
G1 X-9.965 Y69.945 E16.95977
G1 X-10.458 Y70.252 E16.98199
G1 X-10.989 Y70.488 E17.00423
G1 X-11.547 Y70.649 E17.02645
G1 X-12.122 Y70.732 E17.04869
G1 X-12.703 Y70.736 E17.07092
G1 X-13.279 Y70.659 E17.09316
G1 X-13.839 Y70.505 E17.11539
G1 X-14.373 Y70.274 E17.13765
G1 X-14.87 Y69.973 E17.15989
G1 X-15.321 Y69.607 E17.18212
G1 X-15.717 Y69.182 E17.20435
G1 X-16.064 Y68.687 E17.22748
G1 X-16.584 Y67.817 E17.26627
G1 X-65.804 Y-18.703 E21.07564
G1 X-66.129 Y-19.293 E21.10142
G1 X-66.373 Y-19.82 E21.12364
G1 X-66.543 Y-20.376 E21.14589
G1 X-66.636 Y-20.95 E21.16815
G1 X-66.648 Y-21.531 E21.19039
G1 X-66.581 Y-22.108 E21.21262
G1 X-66.435 Y-22.67 E21.23484
G1 X-66.214 Y-23.207 E21.25706
G1 X-65.921 Y-23.709 E21.2793
G1 X-65.562 Y-24.166 E21.30155
G1 X-65.143 Y-24.569 E21.32379
G1 X-64.673 Y-24.911 E21.34604
G1 X-64.161 Y-25.185 E21.36826
G1 X-63.616 Y-25.386 E21.39049
G1 X-63.049 Y-25.511 E21.41271
G1 X-62.452 Y-25.559 E21.43563
G1 X-61.938 Y-25.567 E21.4553
G1 X36.91 Y-25.567 E25.23817
G0 F2040 X36.905 Y-25.217
G1 F1020 X37.595 Y-25.207 E25.26458
G1 X38.149 Y-25.159 E25.28586
G1 X38.691 Y-25.032 E25.30716
G1 X39.209 Y-24.829 E25.32846
G1 X39.693 Y-24.553 E25.34978
G1 X40.132 Y-24.212 E25.37105
G1 X40.518 Y-23.811 E25.39235
G1 X40.842 Y-23.358 E25.41367
G1 X41.098 Y-22.864 E25.43496
G1 X41.281 Y-22.339 E25.45624
G1 X41.387 Y-21.793 E25.47752
G1 X41.413 Y-21.237 E25.49882
G1 X41.359 Y-20.683 E25.52012
G1 X41.227 Y-20.143 E25.5414
G1 X40.997 Y-19.584 E25.56453
G1 X40.684 Y-19.004 E25.58975
G1 X-8.757 Y67.907 E29.41631
G1 X-9.099 Y68.487 E29.44208
G1 X-9.415 Y68.945 E29.46337
G1 X-9.794 Y69.353 E29.48468
G1 X-10.227 Y69.702 E29.50597
G1 X-10.706 Y69.986 E29.52728
G1 X-11.22 Y70.198 E29.54855
G1 X-11.76 Y70.334 E29.56987
G1 X-12.313 Y70.392 E29.59114
G1 X-12.869 Y70.37 E29.61244
G1 X-13.416 Y70.268 E29.63373
G1 X-13.943 Y70.089 E29.65503
G1 X-14.439 Y69.837 E29.67632
G1 X-14.893 Y69.516 E29.6976
G1 X-15.297 Y69.133 E29.71891
G1 X-15.763 Y68.507 E29.74877
G1 X-16.325 Y67.565 E29.79075
G1 X-65.497 Y-18.872 E33.59645
G1 X-65.822 Y-19.462 E33.62223
G1 X-66.055 Y-19.968 E33.64355
G1 X-66.213 Y-20.501 E33.66482
G1 X-66.293 Y-21.052 E33.68613
G1 X-66.293 Y-21.608 E33.70741
G1 X-66.214 Y-22.159 E33.72871
G1 X-66.056 Y-22.693 E33.75002
G1 X-65.824 Y-23.198 E33.77129
G1 X-65.522 Y-23.665 E33.79257
G1 X-65.156 Y-24.084 E33.81386
G1 X-64.733 Y-24.447 E33.83519
G1 X-64.263 Y-24.745 E33.85649
G1 X-63.756 Y-24.972 E33.87775
G1 X-63.221 Y-25.125 E33.89905
G1 X-62.572 Y-25.204 E33.92407
G1 X-61.933 Y-25.217 E33.94853
G1 X36.905 Y-25.217 E37.73101
G0 F2040 X36.9 Y-24.867
G1 F1020 X37.59 Y-24.857 E37.75742
G1 X38.119 Y-24.809 E37.77774
G1 X38.634 Y-24.683 E37.79803
G1 X39.125 Y-24.48 E37.81837
G1 X39.579 Y-24.207 E37.83864
G1 X39.988 Y-23.868 E37.85897
G1 X40.34 Y-23.471 E37.87928
G1 X40.63 Y-23.027 E37.89957
G1 X40.849 Y-22.543 E37.9199
G1 X40.994 Y-22.033 E37.94019
G1 X41.06 Y-21.506 E37.96052
G1 X41.046 Y-20.976 E37.98081
G1 X40.953 Y-20.453 E38.00114
G1 X40.685 Y-19.741 E38.03025
G1 X40.377 Y-19.174 E38.05494
G1 X-9.031 Y67.682 E41.87905
G1 X-9.401 Y68.309 E41.90691
G1 X-9.704 Y68.745 E41.92723
G1 X-10.069 Y69.13 E41.94753
G1 X-10.488 Y69.456 E41.96785
G1 X-10.951 Y69.715 E41.98815
G1 X-11.447 Y69.902 E42.00844
G1 X-11.966 Y70.012 E42.02874
G1 X-12.496 Y70.044 E42.04906
G1 X-13.025 Y69.995 E42.06939
G1 X-13.54 Y69.867 E42.0897
G1 X-14.03 Y69.664 E42.11
G1 X-14.484 Y69.389 E42.13031
G1 X-14.891 Y69.049 E42.1506
G1 X-15.243 Y68.652 E42.17091
G1 X-15.463 Y68.327 E42.18593
G1 X-16.021 Y67.392 E42.2276
G1 X-65.191 Y-19.041 E46.03313
G1 X-65.516 Y-19.631 E46.05891
G1 X-65.736 Y-20.114 E46.07922
G1 X-65.881 Y-20.624 E46.09951
G1 X-65.948 Y-21.151 E46.11984
G1 X-65.936 Y-21.681 E46.14013
G1 X-65.843 Y-22.204 E46.16045
G1 X-65.674 Y-22.707 E46.18076
G1 X-65.431 Y-23.178 E46.20104
G1 X-65.12 Y-23.608 E46.22135
G1 X-64.747 Y-23.986 E46.24168
G1 X-64.323 Y-24.305 E46.26198
G1 X-63.855 Y-24.555 E46.28229
G1 X-63.355 Y-24.733 E46.3026
G1 X-62.834 Y-24.834 E46.32291
G1 X-61.929 Y-24.867 E46.35756
G1 X36.9 Y-24.867 E50.1397
G0 F2040 X36.895 Y-24.517
G1 F1020 X37.585 Y-24.507 E50.16611
G1 X38.086 Y-24.459 E50.18537
G1 X38.574 Y-24.334 E50.20465
G1 X39.036 Y-24.132 E50.22395
G1 X39.459 Y-23.86 E50.24319
G1 X39.835 Y-23.525 E50.26247
G1 X40.153 Y-23.134 E50.28175
G1 X40.405 Y-22.698 E50.30103
G1 X40.585 Y-22.228 E50.32029
G1 X40.688 Y-21.735 E50.33956
G1 X40.712 Y-21.232 E50.35883
G1 X40.657 Y-20.732 E50.37808
G1 X40.523 Y-20.246 E50.39737
G1 X40.271 Y-19.704 E50.42025
G1 X40.054 Y-19.312 E50.4374
G1 X-9.36 Y67.552 E54.26188
G1 X-9.702 Y68.132 E54.28765
G1 X-9.991 Y68.544 E54.30691
G1 X-10.342 Y68.905 E54.32617
G1 X-10.746 Y69.206 E54.34546
G1 X-11.192 Y69.44 E54.36473
G1 X-11.67 Y69.6 E54.38402
G1 X-12.166 Y69.682 E54.40326
G1 X-12.67 Y69.685 E54.42255
G1 X-13.168 Y69.609 E54.44183
G1 X-13.647 Y69.454 E54.46109
G1 X-14.096 Y69.226 E54.48036
G1 X-14.503 Y68.93 E54.49962
G1 X-14.858 Y68.573 E54.51889
G1 X-15.162 Y68.148 E54.53889
G1 X-15.717 Y67.219 E54.5803
G1 X-64.884 Y-19.21 E58.38564
G1 X-65.209 Y-19.8 E58.41142
G1 X-65.416 Y-20.259 E58.43069
G1 X-65.548 Y-20.745 E58.44996
G1 X-65.602 Y-21.246 E58.46925
G1 X-65.576 Y-21.749 E58.48852
G1 X-65.47 Y-22.241 E58.50778
G1 X-65.288 Y-22.711 E58.52707
G1 X-65.034 Y-23.146 E58.54635
G1 X-64.715 Y-23.535 E58.5656
G1 X-64.338 Y-23.869 E58.58487
G1 X-63.912 Y-24.139 E58.60418
G1 X-63.45 Y-24.338 E58.62343
G1 X-62.962 Y-24.462 E58.6427
G1 X-62.412 Y-24.51 E58.66382
G1 X-61.925 Y-24.517 E58.68246
G1 X36.895 Y-24.517 E62.46426
G1 F3600 E58.66426
;MESH:support_tri_0_012.stl
G0 F2040 X36.895 Y-22.007
G0 X36.895 Y-20.972
G0 X-12.444 Y65.488
;TYPE:WALL-INNER
G1 F3600 E62.46426
G1 F1020 X-61.542 Y-20.817 E66.26417
G1 X36.654 Y-20.817 E70.02208
G1 X-12.444 Y65.488 E73.82199
G0 F2040 X-12.444 Y66.145
;TYPE:WALL-OUTER
G1 F1020 X-62.1 Y-21.142 E77.66512
G1 X37.212 Y-21.142 E81.46574
G1 X-12.444 Y66.145 E85.30887
G0 F2040 X-12.542 Y65.972
G0 X-12.455 Y65.924
G0 X-12.444 Y64.801
;TYPE:SKIN
G1 F1020 X-60.957 Y-20.477 E89.06355
G1 X36.069 Y-20.477 E92.77669
G1 X-12.444 Y64.801 E96.53137
G0 F2040 X-12.369 Y64.351
G1 F1020 X-12.713 Y64.008 E96.54996
G0 F2040 X-12.189 Y64.036
G1 F1020 X-13.366 Y62.859 E96.61366
G1 X-13.428 Y62.797
G0 F2040 X-14.019 Y61.711
G1 F1020 X-12.01 Y63.72 E96.72239
G0 F2040 X-11.83 Y63.405
G1 F1020 X-14.672 Y60.563 E96.8762
G1 X-14.734 Y60.501
G0 F2040 X-15.325 Y59.415
G1 F1020 X-11.651 Y63.089 E97.07504
G0 F2040 X-11.472 Y62.774
G1 F1020 X-15.979 Y58.267 E97.31897
G1 X-16.041 Y58.205
G0 F2040 X-16.632 Y57.118
G1 F1020 X-11.292 Y62.458 E97.60797
G0 F2040 X-11.112 Y62.143
G1 F1020 X-17.285 Y55.971 E97.94204
G1 X-17.347 Y55.909
G0 F2040 X-17.938 Y54.822
G1 F1020 X-10.933 Y61.828 E98.32118
G0 F2040 X-10.753 Y61.512
G1 F1020 X-18.591 Y53.674 E98.74539
G1 X-18.653 Y53.612
G0 F2040 X-19.244 Y52.526
G1 F1020 X-10.574 Y61.196 E99.21462
G0 F2040 X-10.395 Y60.881
G1 F1020 X-19.897 Y51.378 E99.72891
G1 X-19.959 Y51.316
G0 F2040 X-20.551 Y50.23
G1 F1020 X-10.215 Y60.565 E100.28828
G0 F2040 X-10.035 Y60.25
G1 F1020 X-21.204 Y49.082 E100.89273
G1 X-21.266 Y49.02
G0 F2040 X-21.857 Y47.934
G1 F1020 X-9.856 Y59.935 E101.54224
G0 F2040 X-9.677 Y59.619
G1 F1020 X-22.51 Y46.785 E102.2368
G1 X-22.572 Y46.723
G0 F2040 X-23.163 Y45.638
G1 F1020 X-9.497 Y59.303 E102.9764
G0 F2040 X-9.318 Y58.988
G1 F1020 X-23.816 Y44.489 E103.76108
G1 X-23.878 Y44.427
G0 F2040 X-24.47 Y43.341
G1 F1020 X-9.138 Y58.672 E104.59084
G0 F2040 X-8.959 Y58.357
G1 F1020 X-25.123 Y42.193 E105.46565
G1 X-25.185 Y42.131
G0 F2040 X-25.776 Y41.045
G1 F1020 X-8.779 Y58.042 E106.38555
G0 F2040 X-8.6 Y57.726
G1 F1020 X-26.429 Y39.897 E107.35048
G1 X-26.491 Y39.835
G0 F2040 X-27.082 Y38.748
G1 F1020 X-8.42 Y57.41 E108.36049
G0 F2040 X-8.241 Y57.095
G1 F1020 X-27.735 Y37.601 E109.41553
G1 X-27.797 Y37.539
G0 F2040 X-28.388 Y36.452
G1 F1020 X-8.061 Y56.779 E110.51565
G0 F2040 X-7.882 Y56.464
G1 F1020 X-29.042 Y35.304 E111.66086
G1 X-29.104 Y35.242
G0 F2040 X-29.694 Y34.156
G1 F1020 X-7.702 Y56.149 E112.85112
G0 F2040 X-7.523 Y55.833
G1 F1020 X-30.348 Y33.008 E114.08644
G1 X-30.41 Y32.946
G0 F2040 X-31.001 Y31.86
G1 F1020 X-7.344 Y55.517 E115.36679
G0 F2040 X-7.164 Y55.202
G1 F1020 X-31.655 Y30.711 E116.69227
G1 X-31.717 Y30.649
G0 F2040 X-32.307 Y29.564
G1 F1020 X-6.984 Y54.887 E118.06278
G0 F2040 X-6.805 Y54.571
G1 F1020 X-32.961 Y28.415 E119.47838
G1 X-33.023 Y28.353
G0 F2040 X-33.614 Y27.267
G1 F1020 X-6.626 Y54.255 E120.93901
G0 F2040 X-6.446 Y53.94
G1 F1020 X-34.267 Y26.119 E122.44471
G1 X-34.329 Y26.057
G0 F2040 X-34.92 Y24.971
G1 F1020 X-6.267 Y53.624 E123.99545
G0 F2040 X-6.087 Y53.309
G1 F1020 X-35.573 Y23.823 E125.59127
G1 X-35.635 Y23.761
G0 F2040 X-36.226 Y22.675
G1 F1020 X-5.907 Y52.994 E127.23217
G0 F2040 X-5.728 Y52.678
G1 F1020 X-36.879 Y21.527 E128.9181
G1 X-36.941 Y21.465
G0 F2040 X-37.533 Y20.378
G1 F1020 X-5.549 Y52.362 E130.64912
G0 F2040 X-5.369 Y52.047
G1 F1020 X-38.185 Y19.231 E132.42516
G1 X-38.247 Y19.169
G0 F2040 X-38.839 Y18.082
G1 F1020 X-5.19 Y51.731 E134.24629
G0 F2040 X-5.01 Y51.416
G1 F1020 X-39.492 Y16.934 E136.1125
G1 X-39.554 Y16.872
G0 F2040 X-40.145 Y15.786
G1 F1020 X-4.83 Y51.101 E138.02379
G0 F2040 X-4.651 Y50.785
G1 F1020 X-40.798 Y14.638 E139.98011
G1 X-40.86 Y14.576
G0 F2040 X-41.452 Y13.49
G1 F1020 X-4.472 Y50.469 E141.98149
G0 F2040 X-4.292 Y50.154
G1 F1020 X-42.105 Y12.341 E144.02798
G1 X-42.167 Y12.279
G0 F2040 X-42.758 Y11.194
G1 F1020 X-4.113 Y49.839 E146.1195
G0 F2040 X-3.933 Y49.523
G1 F1020 X-43.411 Y10.045 E148.2561
G1 X-43.473 Y9.983
G0 F2040 X-44.064 Y8.897
G1 F1020 X-3.754 Y49.208 E150.43775
G0 F2040 X-3.575 Y48.892
G1 F1020 X-44.717 Y7.749 E152.66444
G1 X-44.779 Y7.687
G0 F2040 X-45.37 Y6.601
G1 F1020 X-3.395 Y48.576 E154.93618
G0 F2040 X-3.215 Y48.261
G1 F1020 X-46.024 Y5.453 E157.25303
G1 X-46.086 Y5.391
G0 F2040 X-46.677 Y4.304
G1 F1020 X-3.036 Y47.946 E159.61496
G0 F2040 X-2.856 Y47.63
G1 F1020 X-47.33 Y3.157 E162.02192
G1 X-47.392 Y3.095
G0 F2040 X-47.983 Y2.008
G1 F1020 X-2.677 Y47.315 E164.47397
G0 F2040 X-2.498 Y46.999
G1 F1020 X-48.636 Y0.86 E166.97104
G1 X-48.698 Y0.798
G0 F2040 X-49.289 Y-.287
G1 F1020 X-2.318 Y46.683 E169.51315
G0 F2040 X-2.138 Y46.368
G1 F1020 X-49.942 Y-1.435 E172.10033
G1 X-50.004 Y-1.497
G0 F2040 X-50.596 Y-2.583
G1 F1020 X-1.959 Y46.053 E174.7326
G0 F2040 X-1.779 Y45.737
G1 F1020 X-51.248 Y-3.731 E177.4099
G1 X-51.31 Y-3.793
G0 F2040 X-51.902 Y-4.879
G1 F1020 X-1.6 Y45.422 E180.13228
G0 F2040 X-1.421 Y45.106
G1 F1020 X-52.555 Y-6.028 E182.89972
G1 X-52.617 Y-6.09
G0 F2040 X-53.208 Y-7.175
G1 F1020 X-1.241 Y44.79 E185.71219
G0 F2040 X-1.062 Y44.475
G1 F1020 X-53.861 Y-8.324 E188.56973
G1 X-53.923 Y-8.386
G0 F2040 X-54.515 Y-9.472
G1 F1020 X-.882 Y44.16 E191.47239
G0 F2040 X-.702 Y43.844
G1 F1020 X-55.168 Y-10.62 E194.42011
G1 X-55.23 Y-10.682
G0 F2040 X-55.821 Y-11.768
G1 F1020 X-.523 Y43.528 E197.41285
G0 F2040 X-.344 Y43.213
G1 F1020 X-56.474 Y-12.916 E200.45065
G1 X-56.536 Y-12.978
G0 F2040 X-57.127 Y-14.065
G1 F1020 X-.164 Y42.898 E203.53356
G0 F2040 X0.014 Y42.582
G1 F1020 X-57.78 Y-15.212 E206.66145
G1 X-57.842 Y-15.274
G0 F2040 X-58.433 Y-16.361
G1 F1020 X0.194 Y42.267 E209.83444
G0 F2040 X0.374 Y41.951
G1 F1020 X-59.087 Y-17.509 E213.05252
G1 X-59.149 Y-17.571
G0 F2040 X-59.739 Y-18.657
G1 F1020 X0.552 Y41.635 E216.31557
G0 F2040 X0.732 Y41.32
G1 F1020 X-60.393 Y-19.805 E219.62374
G0 F2040 X-60.413 Y-20.32
G1 F1020 X0.912 Y41.005 E222.94272
G0 F2040 X1.091 Y40.689
G1 F1020 X-59.918 Y-20.32 E226.24461
G0 F2040 X-59.423 Y-20.32
G1 F1020 X1.271 Y40.374 E229.52945
G0 F2040 X1.45 Y40.059
G1 F1020 X-58.928 Y-20.32 E232.79721
G0 F2040 X-58.433 Y-20.32
G1 F1020 X1.629 Y39.742 E236.04784
G0 F2040 X1.809 Y39.427
G1 F1020 X-57.938 Y-20.32 E239.28142
G0 F2040 X-57.443 Y-20.32
G1 F1020 X1.989 Y39.112 E242.49796
G0 F2040 X2.168 Y38.796
G1 F1020 X-56.948 Y-20.32 E245.69739
G0 F2040 X-56.453 Y-20.32
G1 F1020 X2.348 Y38.481 E248.87978
G0 F2040 X2.527 Y38.165
G1 F1020 X-55.958 Y-20.32 E252.04506
G0 F2040 X-55.463 Y-20.32
G1 F1020 X2.706 Y37.85 E255.19327
G0 F2040 X2.886 Y37.534
G1 F1020 X-54.968 Y-20.32 E258.3244
G0 F2040 X-54.473 Y-20.32
G1 F1020 X3.066 Y37.219 E261.43848
G0 F2040 X3.245 Y36.903
G1 F1020 X-53.978 Y-20.32 E264.53546
G0 F2040 X-53.483 Y-20.32
G1 F1020 X3.425 Y36.588 E267.6154
G0 F2040 X3.604 Y36.272
G1 F1020 X-52.988 Y-20.32 E270.67823
G0 F2040 X-52.493 Y-20.32
G1 F1020 X3.783 Y35.957 E273.72398
G0 F2040 X3.963 Y35.641
G1 F1020 X-51.998 Y-20.32 E276.75267
G0 F2040 X-51.503 Y-20.32
G1 F1020 X4.142 Y35.326 E279.76427
G0 F2040 X4.322 Y35.01
G1 F1020 X-51.008 Y-20.32 E282.7588
G0 F2040 X-50.513 Y-20.32
G1 F1020 X4.502 Y34.695 E285.73628
G0 F2040 X4.681 Y34.379
G1 F1020 X-50.018 Y-20.32 E288.69666
G0 F2040 X-49.523 Y-20.32
G1 F1020 X4.86 Y34.064 E291.63997
G0 F2040 X5.04 Y33.748
G1 F1020 X-49.028 Y-20.32 E294.5662
G0 F2040 X-48.533 Y-20.32
G1 F1020 X5.219 Y33.433 E297.47535
G0 F2040 X5.399 Y33.118
G1 F1020 X-48.038 Y-20.32 E300.36746
G0 F2040 X-47.543 Y-20.32
G1 F1020 X5.578 Y32.801 E303.24243
G0 F2040 X5.757 Y32.486
G1 F1020 X-47.048 Y-20.32 E306.10033
G0 F2040 X-46.553 Y-20.32
G1 F1020 X5.937 Y32.171 E308.94118
G0 F2040 X6.117 Y31.855
G1 F1020 X-46.058 Y-20.32 E311.76496
G0 F2040 X-45.563 Y-20.32
G1 F1020 X6.296 Y31.54 E314.57166
G0 F2040 X6.476 Y31.225
