;FLAVOR:Marlin
;TIME:7967
;Filament used: 7.34727m
;Layer height: 0.2
;MINX:-41.788
;MINY:-24.214
;MINZ:0.26
;MAXX:68.444
;MAXY:74.328
;MAXZ:22.86
;Generated with Cura_SteamEngine 4.8.0
M82 ;absolute extrusion mode
;Gcode by Cura
G90
G28
M107
M109 R100
G30
M109 S215 U-55 X55 V-85 Y-85 W0.26 Z0.26
M82
G92 E0
G1 F200 E6
G92 E0
G1 F200 E-3.5
G0 Z0.15
G0 X10
G0 Z3
G1 F6000
G92 E0
G92 E0
G1 F3600 E-3.8
;LAYER_COUNT:114
;LAYER:0
M107
G0 F2040 X-36.797 Y-24.214 Z0.26
;TYPE:SKIRT
G1 F3600 E0
G1 F1020 X63.247 Y-24.214 E3.82864
G1 X63.937 Y-24.204 E3.85504
G1 X64.54 Y-24.155 E3.8782
G1 X65.131 Y-24.027 E3.90134
G1 X65.7 Y-23.823 E3.92447
G1 X66.237 Y-23.545 E3.94761
G1 X66.733 Y-23.198 E3.97078
G1 X67.178 Y-22.79 E3.99388
G1 X67.566 Y-22.326 E4.01703
G1 X67.89 Y-21.815 E4.04019
G1 X68.143 Y-21.266 E4.06332
G1 X68.322 Y-20.688 E4.08648
G1 X68.422 Y-20.092 E4.1096
G1 X68.444 Y-19.488 E4.13273
G1 X68.385 Y-18.886 E4.15588
G1 X68.248 Y-18.297 E4.17902
G1 X67.995 Y-17.648 E4.20568
G1 X67.721 Y-17.101 E4.22909
G1 X21.018 Y71.33 E8.05628
G1 X20.683 Y71.944 E8.08305
G1 X20.359 Y72.455 E8.1062
G1 X19.971 Y72.918 E8.12932
G1 X19.524 Y73.326 E8.15248
G1 X19.028 Y73.672 E8.17562
G1 X18.491 Y73.949 E8.19875
G1 X17.922 Y74.153 E8.22188
G1 X17.33 Y74.28 E8.24505
G1 X16.728 Y74.328 E8.26816
G1 X16.124 Y74.296 E8.29131
G1 X15.53 Y74.184 E8.31444
G1 X14.955 Y73.996 E8.33759
G1 X14.411 Y73.733 E8.36072
G1 X13.905 Y73.4 E8.3839
G1 X13.449 Y73.004 E8.40701
G1 X12.888 Y72.331 E8.44054
G1 X12.505 Y71.735 E8.46765
G1 X-40.806 Y-16.708 E12.41966
G1 X-41.166 Y-17.326 E12.44703
G1 X-41.435 Y-17.868 E12.47019
G1 X-41.631 Y-18.44 E12.49333
G1 X-41.749 Y-19.033 E12.51647
G1 X-41.788 Y-19.636 E12.53959
G1 X-41.747 Y-20.239 E12.56272
G1 X-41.627 Y-20.832 E12.58587
G1 X-41.43 Y-21.404 E12.60903
G1 X-41.159 Y-21.944 E12.63215
G1 X-40.819 Y-22.444 E12.65529
G1 X-40.416 Y-22.895 E12.67843
G1 X-39.958 Y-23.289 E12.70155
G1 X-39.451 Y-23.619 E12.72471
G1 X-38.905 Y-23.88 E12.74787
G1 X-38.33 Y-24.066 E12.77099
G1 X-37.735 Y-24.174 E12.79414
G1 X-37.177 Y-24.208 E12.81553
G1 X-36.797 Y-24.214 E12.83007
G0 F2040 X-36.793 Y-23.864
G1 F1020 X63.242 Y-23.864 E16.65836
G1 X63.932 Y-23.854 E16.68477
G1 X64.511 Y-23.805 E16.70701
G1 X65.078 Y-23.678 E16.72925
G1 X65.622 Y-23.474 E16.75148
G1 X66.133 Y-23.197 E16.77373
G1 X66.601 Y-22.853 E16.79595
G1 X67.018 Y-22.448 E16.8182
G1 X67.375 Y-21.99 E16.84042
G1 X67.666 Y-21.487 E16.86266
G1 X67.885 Y-20.949 E16.88489
G1 X68.028 Y-20.385 E16.90716
G1 X68.092 Y-19.808 E16.92938
G1 X68.077 Y-19.227 E16.95162
G1 X67.982 Y-18.654 E16.97384
G1 X67.809 Y-18.099 E16.99609
G1 X67.593 Y-17.62 E17.0162
G1 X67.391 Y-17.225 E17.03318
G1 X20.711 Y71.163 E20.8585
G1 X20.376 Y71.777 E20.88526
G1 X20.063 Y72.266 E20.90748
G1 X19.686 Y72.708 E20.92972
G1 X19.252 Y73.095 E20.95197
G1 X18.769 Y73.418 E20.97421
G1 X18.247 Y73.672 E20.99642
G1 X17.694 Y73.851 E21.01867
G1 X17.122 Y73.953 E21.0409
G1 X16.541 Y73.976 E21.06315
G1 X15.963 Y73.919 E21.08538
G1 X15.398 Y73.783 E21.10762
G1 X14.857 Y73.571 E21.12986
G1 X14.351 Y73.286 E21.15208
G1 X13.888 Y72.935 E21.17432
G1 X13.478 Y72.524 E21.19653
G1 X13.074 Y71.983 E21.22237
G1 X12.803 Y71.552 E21.24186
G1 X-40.504 Y-16.884 E25.19356
G1 X-40.864 Y-17.502 E25.22093
G1 X-41.121 Y-18.023 E25.24316
G1 X-41.304 Y-18.575 E25.26541
G1 X-41.41 Y-19.146 E25.28764
G1 X-41.437 Y-19.726 E25.30986
G1 X-41.384 Y-20.305 E25.33211
G1 X-41.251 Y-20.871 E25.35436
G1 X-41.043 Y-21.413 E25.37658
G1 X-40.762 Y-21.922 E25.39883
G1 X-40.414 Y-22.387 E25.42105
G1 X-40.005 Y-22.8 E25.4433
G1 X-39.544 Y-23.153 E25.46552
G1 X-39.038 Y-23.439 E25.48776
G1 X-38.498 Y-23.654 E25.51001
G1 X-37.934 Y-23.792 E25.53223
G1 X-37.362 Y-23.851 E25.55423
G1 X-36.793 Y-23.864 E25.57601
G0 F2040 X-36.789 Y-23.514
G1 F1020 X63.237 Y-23.514 E29.40396
G1 X63.927 Y-23.504 E29.43037
G1 X64.481 Y-23.456 E29.45165
G1 X65.023 Y-23.329 E29.47295
G1 X65.541 Y-23.126 E29.49425
G1 X66.025 Y-22.85 E29.51557
G1 X66.464 Y-22.509 E29.53684
G1 X66.85 Y-22.108 E29.55814
G1 X67.174 Y-21.655 E29.57946
G1 X67.43 Y-21.161 E29.60075
G1 X67.613 Y-20.636 E29.62203
G1 X67.719 Y-20.09 E29.64331
G1 X67.745 Y-19.534 E29.66461
G1 X67.691 Y-18.98 E29.68591
G1 X67.559 Y-18.44 E29.70719
G1 X67.364 Y-17.951 E29.72734
G1 X67.099 Y-17.421 E29.75001
G1 X20.404 Y70.995 E33.57655
G1 X20.069 Y71.609 E33.60331
G1 X19.768 Y72.077 E33.62461
G1 X19.403 Y72.497 E33.6459
G1 X18.982 Y72.861 E33.6672
G1 X18.513 Y73.16 E33.68849
G1 X18.006 Y73.389 E33.70978
G1 X17.471 Y73.544 E33.73109
G1 X16.92 Y73.62 E33.75238
G1 X16.364 Y73.616 E33.77366
G1 X15.813 Y73.533 E33.79498
G1 X15.281 Y73.372 E33.81625
G1 X14.777 Y73.136 E33.83755
G1 X14.312 Y72.83 E33.85885
G1 X13.895 Y72.461 E33.88016
G1 X13.466 Y71.937 E33.90608
G1 X13.102 Y71.369 E33.9319
G1 X-40.172 Y-17.011 E37.88111
G1 X-40.561 Y-17.679 E37.91069
G1 X-40.806 Y-18.178 E37.93196
G1 X-40.977 Y-18.708 E37.95328
G1 X-41.07 Y-19.256 E37.97455
G1 X-41.084 Y-19.813 E37.99587
G1 X-41.017 Y-20.365 E38.01715
G1 X-40.873 Y-20.902 E38.03843
G1 X-40.653 Y-21.413 E38.05972
G1 X-40.362 Y-21.888 E38.08104
G1 X-40.006 Y-22.315 E38.10231
G1 X-39.592 Y-22.688 E38.12364
G1 X-39.13 Y-22.997 E38.14491
G1 X-38.628 Y-23.237 E38.1662
G1 X-38.096 Y-23.402 E38.18752
G1 X-37.35 Y-23.502 E38.21632
G1 X-36.789 Y-23.514 E38.2378
G0 F2040 X-36.785 Y-23.164
G1 F1020 X63.232 Y-23.164 E42.0654
G1 X63.922 Y-23.154 E42.09181
G1 X64.451 Y-23.106 E42.11214
G1 X64.966 Y-22.98 E42.13243
G1 X65.457 Y-22.777 E42.15276
G1 X65.911 Y-22.504 E42.17303
G1 X66.32 Y-22.165 E42.19336
G1 X66.672 Y-21.768 E42.21367
G1 X66.962 Y-21.324 E42.23396
G1 X67.181 Y-20.84 E42.25429
G1 X67.326 Y-20.33 E42.27458
G1 X67.392 Y-19.803 E42.29491
G1 X67.378 Y-19.273 E42.3152
G1 X67.285 Y-18.75 E42.33553
G1 X67.048 Y-18.102 E42.36193
G1 X66.788 Y-17.582 E42.38418
G1 X20.096 Y70.827 E46.21043
G1 X19.761 Y71.441 E46.23719
G1 X19.473 Y71.887 E46.25751
G1 X19.121 Y72.284 E46.27782
G1 X18.713 Y72.623 E46.29812
G1 X18.259 Y72.898 E46.31843
G1 X17.769 Y73.101 E46.33873
G1 X17.254 Y73.229 E46.35904
G1 X16.725 Y73.278 E46.37937
G1 X16.196 Y73.246 E46.39965
G1 X15.677 Y73.136 E46.41995
G1 X15.18 Y72.949 E46.44027
G1 X14.717 Y72.69 E46.46058
G1 X14.298 Y72.364 E46.48089
G1 X13.933 Y71.978 E46.50122
G1 X13.561 Y71.448 E46.526
G1 X13.384 Y71.16 E46.53894
G1 X-39.899 Y-17.237 E50.48889
G1 X-40.259 Y-17.855 E50.51626
G1 X-40.491 Y-18.332 E50.53656
G1 X-40.648 Y-18.839 E50.55687
G1 X-40.728 Y-19.363 E50.57715
G1 X-40.728 Y-19.894 E50.59747
G1 X-40.648 Y-20.419 E50.6178
G1 X-40.491 Y-20.925 E50.63807
G1 X-40.259 Y-21.403 E50.65841
G1 X-39.958 Y-21.84 E50.67871
G1 X-39.595 Y-22.227 E50.69902
G1 X-39.178 Y-22.555 E50.71932
G1 X-38.717 Y-22.817 E50.73962
G1 X-38.221 Y-23.007 E50.75994
G1 X-37.703 Y-23.12 E50.78023
G1 X-37.14 Y-23.159 E50.80183
G1 X-36.785 Y-23.164 E50.81542
G0 F2040 X-36.781 Y-22.814
G1 F1020 X63.227 Y-22.814 E54.64267
G1 X63.917 Y-22.804 E54.66908
G1 X64.418 Y-22.756 E54.68834
G1 X64.906 Y-22.631 E54.70762
G1 X65.368 Y-22.429 E54.72692
G1 X65.791 Y-22.157 E54.74616
G1 X66.167 Y-21.822 E54.76544
G1 X66.485 Y-21.431 E54.78472
G1 X66.737 Y-20.995 E54.804
G1 X66.917 Y-20.525 E54.82326
G1 X67.02 Y-20.032 E54.84253
G1 X67.044 Y-19.529 E54.8618
G1 X66.989 Y-19.029 E54.88105
G1 X66.855 Y-18.543 E54.90035
G1 X66.647 Y-18.075 E54.91995
G1 X66.463 Y-17.715 E54.93542
G1 X19.789 Y70.66 E58.76019
G1 X19.454 Y71.274 E58.78696
G1 X19.179 Y71.695 E58.8062
G1 X18.84 Y72.068 E58.82549
G1 X18.447 Y72.382 E58.84474
G1 X18.009 Y72.631 E58.86402
G1 X17.537 Y72.807 E58.8833
G1 X17.043 Y72.906 E58.90258
G1 X16.54 Y72.925 E58.92184
G1 X16.04 Y72.865 E58.94112
G1 X15.555 Y72.727 E58.96041
G1 X15.099 Y72.514 E58.97967
G1 X14.682 Y72.231 E58.99896
G1 X14.316 Y71.886 E59.01821
G1 X13.941 Y71.391 E59.04197
G1 X13.684 Y70.979 E59.06056
G1 X-39.596 Y-17.413 E63.01028
G1 X-39.956 Y-18.031 E63.03765
G1 X-40.175 Y-18.485 E63.05694
G1 X-40.318 Y-18.967 E63.07618
G1 X-40.384 Y-19.467 E63.09548
G1 X-40.37 Y-19.97 E63.11474
G1 X-40.276 Y-20.465 E63.13402
G1 X-40.105 Y-20.939 E63.15331
G1 X-39.862 Y-21.379 E63.17254
G1 X-39.552 Y-21.776 E63.19182
G1 X-39.183 Y-22.119 E63.2111
G1 X-38.764 Y-22.399 E63.23038
G1 X-38.307 Y-22.61 E63.24965
G1 X-37.822 Y-22.745 E63.26891
G1 X-37.325 Y-22.802 E63.28806
G1 X-36.781 Y-22.814 E63.30888
G1 F3600 E59.50888
;MESH:support_tri_0_085.stl
G0 F2040 X-36.577 Y-20.304
G0 X-36.577 Y-19.251
G0 X16.635 Y68.71
;TYPE:WALL-INNER
G1 F3600 E63.30888
G1 F1020 X-36.302 Y-19.114 E67.23321
G1 X63.017 Y-19.114 E71.0341
G1 X16.635 Y68.71 E74.83501
G0 F2040 X16.654 Y69.37
;TYPE:WALL-OUTER
G1 F1020 X-36.877 Y-19.439 E78.80336
G1 X63.556 Y-19.439 E82.64688
G1 X16.654 Y69.37 E86.49041
G0 F2040 X16.551 Y69.199
G0 X16.637 Y69.148
G0 X16.615 Y68.019
;TYPE:SKIN
G1 F1020 X-35.7 Y-18.774 E90.36866
G1 X62.452 Y-18.774 E94.12489
G1 X16.615 Y68.019 E97.88117
G0 F2040 X16.644 Y67.626
G1 F1020 X16.438 Y67.42 E97.89232
G0 F2040 X16.815 Y67.303
G1 F1020 X15.687 Y66.174 E97.95339
G1 X15.625 Y66.112
G0 F2040 X14.936 Y64.928
G1 F1020 X16.986 Y66.978 E98.06434
G0 F2040 X17.157 Y66.654
G1 F1020 X14.185 Y63.682 E98.22519
G1 X14.123 Y63.62
G0 F2040 X13.434 Y62.436
G1 F1020 X17.328 Y66.33 E98.43594
G0 F2040 X17.499 Y66.007
G1 F1020 X12.682 Y61.19 E98.69664
G1 X12.62 Y61.128
G0 F2040 X11.931 Y59.944
G1 F1020 X17.67 Y65.683 E99.00724
G0 F2040 X17.841 Y65.359
G1 F1020 X11.18 Y58.698 E99.36774
G1 X11.118 Y58.636
G0 F2040 X10.429 Y57.452
G1 F1020 X18.012 Y65.035 E99.77815
G0 F2040 X18.183 Y64.711
G1 F1020 X9.678 Y56.206 E100.23845
G1 X9.616 Y56.144
G0 F2040 X8.927 Y54.96
G1 F1020 X18.355 Y64.387 E100.74868
G0 F2040 X18.526 Y64.063
G1 F1020 X8.176 Y53.714 E101.3088
G1 X8.114 Y53.652
G0 F2040 X7.426 Y52.468
G1 F1020 X18.697 Y63.74 E101.91883
G0 F2040 X18.868 Y63.416
G1 F1020 X6.675 Y51.222 E102.57876
G1 X6.613 Y51.16
G0 F2040 X5.924 Y49.976
G1 F1020 X19.038 Y63.091 E103.28853
G0 F2040 X19.209 Y62.767
G1 F1020 X5.172 Y48.73 E104.04823
G1 X5.11 Y48.668
G0 F2040 X4.421 Y47.484
G1 F1020 X19.381 Y62.443 E104.85786
G0 F2040 X19.552 Y62.12
G1 F1020 X3.67 Y46.238 E105.71741
G1 X3.608 Y46.176
G0 F2040 X2.919 Y44.992
G1 F1020 X19.723 Y61.796 E106.62687
G0 F2040 X19.894 Y61.472
G1 F1020 X2.168 Y43.746 E107.58622
G1 X2.106 Y43.684
G0 F2040 X1.417 Y42.5
G1 F1020 X20.065 Y61.148 E108.59548
G0 F2040 X20.236 Y60.824
G1 F1020 X0.666 Y41.254 E109.65463
G1 X0.604 Y41.192
G0 F2040 X-0.084 Y40.008
G1 F1020 X20.407 Y60.5 E110.76366
G0 F2040 X20.578 Y60.176
G1 F1020 X-.835 Y38.762 E111.92258
G1 X-.897 Y38.7
G0 F2040 X-1.586 Y37.516
G1 F1020 X20.75 Y59.853 E113.13146
G0 F2040 X20.921 Y59.529
G1 F1020 X-2.337 Y36.27 E114.39024
G1 X-2.399 Y36.208
G0 F2040 X-3.088 Y35.024
G1 F1020 X21.091 Y59.204 E115.69887
G0 F2040 X21.262 Y58.88
G1 F1020 X-3.839 Y33.778 E117.05739
G1 X-3.901 Y33.716
G0 F2040 X-4.59 Y32.532
G1 F1020 X21.433 Y58.556 E118.46582
G0 F2040 X21.604 Y58.233
G1 F1020 X-5.341 Y31.286 E119.92417
G1 X-5.403 Y31.224
G0 F2040 X-6.092 Y30.04
G1 F1020 X21.776 Y57.909 E121.43245
G0 F2040 X21.947 Y57.585
G1 F1020 X-6.843 Y28.794 E122.99063
G1 X-6.905 Y28.732
G0 F2040 X-7.594 Y27.548
G1 F1020 X22.118 Y57.261 E124.5987
G0 F2040 X22.289 Y56.937
G1 F1020 X-8.345 Y26.302 E126.25668
G1 X-8.407 Y26.24
G0 F2040 X-9.096 Y25.057
G1 F1020 X22.46 Y56.613 E127.96453
G0 F2040 X22.631 Y56.289
G1 F1020 X-9.847 Y23.81 E129.72231
G1 X-9.909 Y23.748
G0 F2040 X-10.598 Y22.564
G1 F1020 X22.802 Y55.966 E131.53002
G0 F2040 X22.973 Y55.642
G1 F1020 X-11.349 Y21.318 E133.38762
G1 X-11.411 Y21.256
G0 F2040 X-12.1 Y20.072
G1 F1020 X23.145 Y55.318 E135.29515
G0 F2040 X23.315 Y54.993
G1 F1020 X-12.851 Y18.826 E137.25253
G1 X-12.913 Y18.764
G0 F2040 X-13.602 Y17.58
G1 F1020 X23.486 Y54.669 E139.2598
G0 F2040 X23.657 Y54.346
G1 F1020 X-14.353 Y16.334 E141.31701
G1 X-14.415 Y16.272
G0 F2040 X-15.104 Y15.088
G1 F1020 X23.828 Y54.022 E143.42411
G0 F2040 X23.999 Y53.698
G1 F1020 X-15.855 Y13.843 E145.58109
G1 X-15.917 Y13.781
G0 F2040 X-16.607 Y12.596
G1 F1020 X24.171 Y53.374 E147.78805
G0 F2040 X24.342 Y53.05
G1 F1020 X-17.358 Y11.35 E150.0449
G1 X-17.42 Y11.288
G0 F2040 X-18.109 Y10.104
G1 F1020 X24.513 Y52.726 E152.35166
G0 F2040 X24.684 Y52.402
G1 F1020 X-18.859 Y8.858 E154.70829
G1 X-18.921 Y8.796
G0 F2040 X-19.61 Y7.612
G1 F1020 X24.855 Y52.079 E157.11485
G0 F2040 X25.026 Y51.755
G1 F1020 X-20.361 Y6.366 E159.5713
G1 X-20.423 Y6.304
G0 F2040 X-21.112 Y5.12
G1 F1020 X25.197 Y51.431 E162.07766
G0 F2040 X25.368 Y51.106
G1 F1020 X-21.863 Y3.874 E164.63389
G1 X-21.925 Y3.812
G0 F2040 X-22.614 Y2.629
G1 F1020 X25.539 Y50.782 E167.23999
G0 F2040 X25.71 Y50.459
G1 F1020 X-23.365 Y1.383 E169.89602
G1 X-23.427 Y1.321
G0 F2040 X-24.117 Y0.136
G1 F1020 X25.881 Y50.135 E172.602
G0 F2040 X26.052 Y49.811
G1 F1020 X-24.868 Y-1.109 E175.35786
G1 X-24.93 Y-1.171
G0 F2040 X-25.619 Y-2.355
G1 F1020 X26.223 Y49.487 E178.16361
G0 F2040 X26.394 Y49.163
G1 F1020 X-26.37 Y-3.601 E181.01927
G1 X-26.432 Y-3.663
G0 F2040 X-27.121 Y-4.847
G1 F1020 X26.566 Y48.839 E183.92485
G0 F2040 X26.737 Y48.516
G1 F1020 X-27.872 Y-6.093 E186.88036
G1 X-27.934 Y-6.155
G0 F2040 X-28.622 Y-7.339
G1 F1020 X26.908 Y48.192 E189.88574
G0 F2040 X27.079 Y47.868
G1 F1020 X-29.373 Y-8.584 E192.94099
G1 X-29.435 Y-8.646
G0 F2040 X-30.124 Y-9.83
G1 F1020 X27.25 Y47.544 E196.04615
G0 F2040 X27.42 Y47.219
G1 F1020 X-30.875 Y-11.076 E199.20115
G1 X-30.937 Y-11.138
G0 F2040 X-31.627 Y-12.323
G1 F1020 X27.592 Y46.896 E202.40615
G0 F2040 X27.763 Y46.572
G1 F1020 X-32.378 Y-13.569 E205.66106
G1 X-32.44 Y-13.631
G0 F2040 X-33.129 Y-14.815
G1 F1020 X27.934 Y46.248 E208.96587
G0 F2040 X28.105 Y45.924
G1 F1020 X-33.88 Y-16.061 E212.32058
G1 X-33.942 Y-16.123
G0 F2040 X-34.631 Y-17.307
G1 F1020 X28.276 Y45.6 E215.72518
G0 F2040 X28.447 Y45.276
G1 F1020 X-35.382 Y-18.553 E219.17969
G0 F2040 X-34.95 Y-18.616
G1 F1020 X28.618 Y44.952 E222.62007
G0 F2040 X28.789 Y44.629
G1 F1020 X-34.455 Y-18.616 E226.04294
G0 F2040 X-33.96 Y-18.616
G1 F1020 X28.96 Y44.305 E229.44828
G0 F2040 X29.132 Y43.981
G1 F1020 X-33.465 Y-18.616 E232.83611
G0 F2040 X-32.97 Y-18.616
G1 F1020 X29.303 Y43.657 E236.2064
G0 F2040 X29.473 Y43.332
G1 F1020 X-32.476 Y-18.616 E239.55914
G0 F2040 X-31.981 Y-18.616
G1 F1020 X29.644 Y43.009 E242.89436
G0 F2040 X29.815 Y42.685
G1 F1020 X-31.486 Y-18.616 E246.21205
G0 F2040 X-30.991 Y-18.616
G1 F1020 X29.986 Y42.361 E249.5122
G0 F2040 X30.158 Y42.037
G1 F1020 X-30.496 Y-18.616 E252.79485
G0 F2040 X-30.001 Y-18.616
G1 F1020 X30.329 Y41.713 E256.05995
G0 F2040 X30.5 Y41.389
G1 F1020 X-29.506 Y-18.616 E259.30753
G0 F2040 X-29.011 Y-18.616
G1 F1020 X30.671 Y41.065 E262.53757
G0 F2040 X30.842 Y40.742
G1 F1020 X-28.516 Y-18.616 E265.7501
G0 F2040 X-28.021 Y-18.616
G1 F1020 X31.013 Y40.418 E268.94509
G0 F2040 X31.184 Y40.094
G1 F1020 X-27.526 Y-18.616 E272.12255
G0 F2040 X-27.031 Y-18.616
G1 F1020 X31.355 Y39.77 E275.28248
G0 F2040 X31.527 Y39.446
G1 F1020 X-26.536 Y-18.616 E278.42489
G0 F2040 X-26.041 Y-18.616
G1 F1020 X31.697 Y39.122 E281.54975
G0 F2040 X31.868 Y38.798
G1 F1020 X-25.546 Y-18.616 E284.65707
G0 F2040 X-25.051 Y-18.616
G1 F1020 X32.039 Y38.474 E287.74685
G0 F2040 X32.21 Y38.15
G1 F1020 X-24.556 Y-18.616 E290.8191
G0 F2040 X-24.061 Y-18.616
G1 F1020 X32.381 Y37.826 E293.87381
G0 F2040 X32.553 Y37.502
G1 F1020 X-23.566 Y-18.616 E296.91102
G0 F2040 X-23.071 Y-18.616
G1 F1020 X32.724 Y37.178 E299.93069
G0 F2040 X32.895 Y36.855
G1 F1020 X-22.576 Y-18.616 E302.93285
G0 F2040 X-22.081 Y-18.616
G1 F1020 X33.066 Y36.531 E305.91747
G0 F2040 X33.237 Y36.207
G1 F1020 X-21.586 Y-18.616 E308.88456
G0 F2040 X-21.091 Y-18.616
G1 F1020 X33.408 Y35.883 E311.83412
G0 F2040 X33.579 Y35.559
G1 F1020 X-20.596 Y-18.616 E314.76614
G0 F2040 X-20.101 Y-18.616
G1 F1020 X33.75 Y35.235 E317.68062
G0 F2040 X33.921 Y34.911
G1 F1020 X-19.606 Y-18.616 E320.57757
G0 F2040 X-19.111 Y-18.616
G1 F1020 X34.092 Y34.587 E323.45699
G0 F2040 X34.263 Y34.263
G1 F1020 X-18.616 Y-18.616 E326.31887
G0 F2040 X-18.121 Y-18.616
G1 F1020 X34.434 Y33.939 E329.16321
G0 F2040 X34.605 Y33.615
G1 F1020 X-17.626 Y-18.616 E331.99002
G0 F2040 X-17.131 Y-18.616
G1 F1020 X34.776 Y33.292 E334.79932
