;FLAVOR:Marlin
;TIME:6305
;Filament used: 8.02491m
;Layer height: 0.3
;MINX:-54.55
;MINY:-45.934
;MINZ:0.26
;MAXX:54.545
;MAXY:53.331
;MAXZ:22.76
;Generated with Cura_SteamEngine 4.9.1
M82 ;absolute extrusion mode
;Gcode by Cura
G90
G28
M107
M109 R100
G30
M109 S215 U-55 X55 V-85 Y-85 W0.26 Z0.26
M82
G92 E0
G1 F200 E6
G92 E0
G1 F200 E-3.5
G0 Z0.15
G0 X10
G0 Z3
G1 F6000
G92 E0
G92 E0
G1 F3600 E-3.8
;LAYER_COUNT:76
;LAYER:0
M107
G0 F2040 X-4.424 Y50.237 Z0.26
;TYPE:SKIRT
G1 F3600 E0
G1 F1020 X-53.704 Y-38.607 E3.88804
G1 X-54.01 Y-39.178 E3.91283
G1 X-54.26 Y-39.729 E3.93598
G1 X-54.435 Y-40.307 E3.95909
G1 X-54.532 Y-40.904 E3.98224
G1 X-54.55 Y-41.509 E4.0054
G1 X-54.488 Y-42.11 E4.02853
G1 X-54.346 Y-42.698 E4.05168
G1 X-54.129 Y-43.262 E4.0748
G1 X-53.839 Y-43.793 E4.09796
G1 X-53.482 Y-44.281 E4.1211
G1 X-53.063 Y-44.717 E4.14424
G1 X-52.591 Y-45.094 E4.16735
G1 X-52.073 Y-45.406 E4.1905
G1 X-51.518 Y-45.647 E4.21365
G1 X-50.937 Y-45.812 E4.23677
G1 X-50.071 Y-45.913 E4.27013
G1 X-48.994 Y-45.934 E4.31136
G1 X49.36 Y-45.934 E8.07532
G1 X50.039 Y-45.924 E8.1013
G1 X50.642 Y-45.875 E8.12446
G1 X51.233 Y-45.747 E8.1476
G1 X51.802 Y-45.542 E8.17074
G1 X52.339 Y-45.264 E8.19389
G1 X52.835 Y-44.918 E8.21703
G1 X53.28 Y-44.509 E8.24016
G1 X53.668 Y-44.045 E8.26331
G1 X53.991 Y-43.534 E8.28644
G1 X54.244 Y-42.985 E8.30958
G1 X54.423 Y-42.407 E8.33273
G1 X54.524 Y-41.811 E8.35587
G1 X54.545 Y-41.207 E8.37899
G1 X54.486 Y-40.605 E8.40214
G1 X54.349 Y-40.016 E8.42528
G1 X54.017 Y-39.211 E8.45861
G1 X53.518 Y-38.269 E8.4994
G1 X4.3 Y50.459 E12.38241
G1 X3.976 Y51.026 E12.4074
G1 X3.642 Y51.53 E12.43054
G1 X3.245 Y51.985 E12.45365
G1 X2.79 Y52.385 E12.47683
G1 X2.288 Y52.72 E12.49993
G1 X1.745 Y52.987 E12.52308
G1 X1.172 Y53.179 E12.54621
G1 X0.578 Y53.295 E12.56937
G1 X-0.025 Y53.331 E12.59249
G1 X-.628 Y53.287 E12.61563
G1 X-1.22 Y53.164 E12.63877
G1 X-1.791 Y52.964 E12.66192
G1 X-2.33 Y52.691 E12.68504
G1 X-2.829 Y52.348 E12.70822
G1 X-3.278 Y51.943 E12.73136
G1 X-3.67 Y51.483 E12.75448
G1 X-3.956 Y51.047 E12.77444
G1 X-4.424 Y50.237 E12.81024
G0 F2040 X-4.118 Y50.067
G1 F1020 X-53.396 Y-38.772 E16.69807
G1 X-53.702 Y-39.343 E16.72286
G1 X-53.941 Y-39.873 E16.74511
G1 X-54.104 Y-40.431 E16.76736
G1 X-54.19 Y-41.005 E16.78957
G1 X-54.196 Y-41.586 E16.81181
G1 X-54.122 Y-42.163 E16.83407
G1 X-53.97 Y-42.723 E16.85628
G1 X-53.742 Y-43.258 E16.87853
G1 X-53.443 Y-43.756 E16.90076
G1 X-53.079 Y-44.209 E16.923
G1 X-52.656 Y-44.607 E16.94523
G1 X-52.182 Y-44.944 E16.96748
G1 X-51.667 Y-45.212 E16.9897
G1 X-51.119 Y-45.407 E17.01196
G1 X-50.55 Y-45.525 E17.0342
G1 X-50.064 Y-45.563 E17.05286
G1 X-48.994 Y-45.584 E17.09381
G1 X49.355 Y-45.584 E20.85758
G1 X50.034 Y-45.574 E20.88357
G1 X50.613 Y-45.525 E20.90581
G1 X51.18 Y-45.398 E20.92804
G1 X51.724 Y-45.194 E20.95028
G1 X52.235 Y-44.917 E20.97252
G1 X52.703 Y-44.573 E20.99475
G1 X53.12 Y-44.167 E21.01702
G1 X53.476 Y-43.709 E21.03922
G1 X53.767 Y-43.206 E21.06146
G1 X53.986 Y-42.668 E21.08369
G1 X54.129 Y-42.104 E21.10596
G1 X54.193 Y-41.527 E21.12817
G1 X54.178 Y-40.946 E21.15042
G1 X54.083 Y-40.373 E21.17264
G1 X53.91 Y-39.818 E21.19489
G1 X53.707 Y-39.375 E21.21354
G1 X53.212 Y-38.439 E21.25406
G1 X3.996 Y50.285 E25.13689
G1 X3.672 Y50.852 E25.16188
G1 X3.35 Y51.336 E25.18413
G1 X2.964 Y51.77 E25.20636
G1 X2.523 Y52.148 E25.22859
G1 X2.034 Y52.462 E25.25083
G1 X1.506 Y52.705 E25.27307
G1 X0.95 Y52.874 E25.29531
G1 X0.376 Y52.965 E25.31755
G1 X-.205 Y52.976 E25.33979
G1 X-.782 Y52.907 E25.36203
G1 X-1.344 Y52.76 E25.38426
G1 X-1.88 Y52.538 E25.40646
G1 X-2.381 Y52.243 E25.42871
G1 X-2.837 Y51.883 E25.45095
G1 X-3.239 Y51.464 E25.47317
G1 X-3.653 Y50.872 E25.50081
G1 X-4.118 Y50.067 E25.53639
G0 F2040 X-3.812 Y49.898
G1 F1020 X-53.061 Y-38.888 E29.42191
G1 X-53.393 Y-39.509 E29.44886
G1 X-53.62 Y-40.017 E29.47015
G1 X-53.772 Y-40.552 E29.49144
G1 X-53.846 Y-41.104 E29.51275
G1 X-53.84 Y-41.66 E29.53403
G1 X-53.754 Y-42.21 E29.55533
G1 X-53.59 Y-42.741 E29.5766
G1 X-53.352 Y-43.244 E29.5979
G1 X-53.045 Y-43.708 E29.61919
G1 X-52.674 Y-44.123 E29.64049
G1 X-52.247 Y-44.48 E29.66179
G1 X-51.774 Y-44.773 E29.68308
G1 X-51.264 Y-44.995 E29.70437
G1 X-50.727 Y-45.141 E29.72567
G1 X-50.057 Y-45.213 E29.75146
G1 X-48.994 Y-45.234 E29.79214
G1 X49.35 Y-45.234 E33.55572
G1 X50.029 Y-45.224 E33.58171
G1 X50.583 Y-45.175 E33.60299
G1 X51.125 Y-45.048 E33.6243
G1 X51.643 Y-44.845 E33.64559
G1 X52.127 Y-44.57 E33.66689
G1 X52.566 Y-44.228 E33.68819
G1 X52.951 Y-43.827 E33.70946
G1 X53.275 Y-43.375 E33.73075
G1 X53.531 Y-42.881 E33.75204
G1 X53.714 Y-42.355 E33.77335
G1 X53.82 Y-41.809 E33.79464
G1 X53.846 Y-41.253 E33.81594
G1 X53.792 Y-40.699 E33.83724
G1 X53.66 Y-40.159 E33.85851
G1 X53.398 Y-39.538 E33.88431
G1 X52.906 Y-38.608 E33.92457
G1 X3.692 Y50.112 E37.80723
G1 X3.368 Y50.679 E37.83222
G1 X3.058 Y51.141 E37.85352
G1 X2.685 Y51.553 E37.87479
G1 X2.257 Y51.909 E37.89609
G1 X1.782 Y52.199 E37.91739
G1 X1.271 Y52.418 E37.93866
G1 X0.733 Y52.562 E37.95998
G1 X0.181 Y52.627 E37.98125
G1 X-.375 Y52.612 E38.00253
G1 X-.924 Y52.518 E38.02385
G1 X-1.453 Y52.347 E38.04513
G1 X-1.952 Y52.101 E38.06642
G1 X-2.411 Y51.786 E38.08772
G1 X-2.82 Y51.409 E38.10901
G1 X-3.171 Y50.977 E38.13031
G1 X-3.35 Y50.697 E38.14303
G1 X-3.812 Y49.898 E38.17835
G0 F2040 X-3.506 Y49.728
G1 F1020 X-52.779 Y-39.103 E42.06582
G1 X-53.085 Y-39.674 E42.09061
G1 X-53.3 Y-40.159 E42.11091
G1 X-53.439 Y-40.671 E42.13122
G1 X-53.5 Y-41.198 E42.15152
G1 X-53.481 Y-41.729 E42.17185
G1 X-53.383 Y-42.25 E42.19214
G1 X-53.208 Y-42.751 E42.21245
G1 X-52.959 Y-43.22 E42.23277
G1 X-52.643 Y-43.646 E42.25307
G1 X-52.267 Y-44.02 E42.27337
G1 X-51.838 Y-44.333 E42.29369
G1 X-51.368 Y-44.579 E42.31399
G1 X-50.866 Y-44.75 E42.33429
G1 X-50.343 Y-44.845 E42.35463
G1 X-50.05 Y-44.863 E42.36586
G1 X-48.994 Y-44.884 E42.40628
G1 X49.345 Y-44.884 E46.16967
G1 X50.024 Y-44.874 E46.19566
G1 X50.552 Y-44.826 E46.21595
G1 X51.068 Y-44.699 E46.23628
G1 X51.558 Y-44.497 E46.25657
G1 X52.013 Y-44.223 E46.27689
G1 X52.421 Y-43.884 E46.29719
G1 X52.774 Y-43.488 E46.31749
G1 X53.063 Y-43.043 E46.3378
G1 X53.283 Y-42.56 E46.35811
G1 X53.427 Y-42.049 E46.37843
G1 X53.493 Y-41.522 E46.39875
G1 X53.479 Y-40.992 E46.41904
G1 X53.386 Y-40.47 E46.43934
G1 X53.215 Y-39.967 E46.45967
G1 X53.089 Y-39.702 E46.4709
G1 X52.6 Y-38.778 E46.5109
G1 X3.389 Y49.938 E50.39338
G1 X3.065 Y50.505 E50.41837
G1 X2.767 Y50.945 E50.4387
G1 X2.408 Y51.335 E50.45899
G1 X1.993 Y51.666 E50.4793
G1 X1.534 Y51.932 E50.49961
G1 X1.04 Y52.125 E50.5199
G1 X0.522 Y52.243 E50.54024
G1 X-0.007 Y52.281 E50.56053
G1 X-.536 Y52.239 E50.58084
G1 X-1.053 Y52.119 E50.60115
G1 X-1.546 Y51.922 E50.62147
G1 X-2.003 Y51.654 E50.64174
G1 X-2.416 Y51.319 E50.66209
G1 X-2.773 Y50.927 E50.68239
G1 X-3.047 Y50.521 E50.70113
G1 X-3.506 Y49.728 E50.73619
G0 F2040 X-3.199 Y49.558
G1 F1020 X-52.47 Y-39.268 E54.62346
G1 X-52.776 Y-39.839 E54.64825
G1 X-52.978 Y-40.301 E54.66755
G1 X-53.105 Y-40.788 E54.68681
G1 X-53.153 Y-41.289 E54.70607
G1 X-53.121 Y-41.792 E54.72536
G1 X-53.009 Y-42.283 E54.74463
G1 X-52.822 Y-42.751 E54.76392
G1 X-52.563 Y-43.182 E54.78316
G1 X-52.239 Y-43.568 E54.80245
G1 X-51.858 Y-43.897 E54.82171
G1 X-51.43 Y-44.163 E54.841
G1 X-50.965 Y-44.357 E54.86028
G1 X-50.476 Y-44.475 E54.87953
G1 X-50.043 Y-44.513 E54.89617
G1 X-48.994 Y-44.534 E54.93632
G1 X49.34 Y-44.534 E58.69951
G1 X50.019 Y-44.524 E58.7255
G1 X50.52 Y-44.476 E58.74476
G1 X51.008 Y-44.35 E58.76405
G1 X51.469 Y-44.149 E58.7833
G1 X51.893 Y-43.877 E58.80257
G1 X52.269 Y-43.541 E58.82187
G1 X52.586 Y-43.151 E58.84111
G1 X52.838 Y-42.715 E58.86038
G1 X53.018 Y-42.244 E58.87967
G1 X53.121 Y-41.751 E58.89895
G1 X53.145 Y-41.248 E58.91822
G1 X53.09 Y-40.748 E58.93747
G1 X52.955 Y-40.263 E58.95674
G1 X52.779 Y-39.866 E58.97335
G1 X52.293 Y-38.948 E59.01311
G1 X3.085 Y49.764 E62.89539
G1 X2.761 Y50.331 E62.92038
G1 X2.477 Y50.747 E62.93965
G1 X2.131 Y51.113 E62.95893
G1 X1.732 Y51.42 E62.9782
G1 X1.289 Y51.66 E62.99748
G1 X0.813 Y51.826 E63.01677
G1 X0.318 Y51.915 E63.03602
G1 X-.186 Y51.925 E63.05531
G1 X-.684 Y51.855 E63.07455
G1 X-1.166 Y51.708 E63.09384
G1 X-1.618 Y51.486 E63.11311
G1 X-2.029 Y51.195 E63.13238
G1 X-2.389 Y50.843 E63.15165
G1 X-2.744 Y50.346 E63.17502
G1 X-3.199 Y49.558 E63.20985
G1 F3600 E59.40985
;MESH:support_tri_0_094.stl
G0 F2040 X-.952 Y48.431
G0 X-.189 Y48.007
G0 X0.00 Y47.698
;TYPE:WALL-INNER
G1 F3600 E63.20985
G1 F1020 X-49.108 Y-40.834 E67.08425
G1 X49.108 Y-40.834 E70.84293
G1 X0.00 Y47.698 E74.71733
G0 F2040 X0.00 Y48.368
;TYPE:WALL-OUTER
G1 F1020 X-49.66 Y-41.159 E78.63528
G1 X49.66 Y-41.159 E82.4362
G1 X0.00 Y48.368 E86.35415
G0 F2040 X-0.097 Y48.194
G0 X-0.009 Y48.146
G0 X0.00 Y46.997
;TYPE:SKIN
G1 F1020 X-48.531 Y-40.494 E90.183
G1 X48.531 Y-40.494 E93.89752
G1 X0.00 Y46.997 E97.72637
G0 F2040 X0.052 Y46.579
G1 F1020 X-.182 Y46.345 E97.73904
G0 F2040 X0.229 Y46.261
G1 F1020 X-.799 Y45.233 E97.79467
G1 X-.861 Y45.171
G0 F2040 X-1.415 Y44.122
G1 F1020 X0.405 Y45.943 E97.8932
G0 F2040 X0.582 Y45.625
G1 F1020 X-2.032 Y43.01 E98.0347
G1 X-2.094 Y42.948
G0 F2040 X-2.648 Y41.898
G1 F1020 X0.758 Y45.306 E98.21909
G0 F2040 X0.935 Y44.988
G1 F1020 X-3.265 Y40.787 E98.44643
G1 X-3.327 Y40.725
G0 F2040 X-3.882 Y39.675
G1 F1020 X1.112 Y44.67 E98.71674
G0 F2040 X1.289 Y44.351
G1 F1020 X-4.498 Y38.564 E99.02994
G1 X-4.56 Y38.502
G0 F2040 X-5.115 Y37.452
G1 F1020 X1.465 Y44.032 E99.38605
G0 F2040 X1.641 Y43.714
G1 F1020 X-5.731 Y36.341 E99.78506
G1 X-5.793 Y36.279
G0 F2040 X-6.347 Y35.23
G1 F1020 X1.818 Y43.396 E100.22699
G0 F2040 X1.995 Y43.078
G1 F1020 X-6.964 Y34.118 E100.71189
G1 X-7.026 Y34.056
G0 F2040 X-7.58 Y33.007
G1 F1020 X2.171 Y42.759 E101.23965
G0 F2040 X2.348 Y42.441
G1 F1020 X-8.197 Y31.895 E101.81039
G1 X-8.259 Y31.833
G0 F2040 X-8.814 Y30.783
G1 F1020 X2.525 Y42.123 E102.4241
G0 F2040 X2.701 Y41.804
G1 F1020 X-9.43 Y29.672 E103.08067
G1 X-9.492 Y29.61
G0 F2040 X-10.047 Y28.56
G1 F1020 X2.877 Y41.485 E103.78016
G0 F2040 X3.054 Y41.167
G1 F1020 X-10.663 Y27.449 E104.52257
G1 X-10.725 Y27.387
G0 F2040 X-11.28 Y26.337
G1 F1020 X3.231 Y40.849 E105.30795
G0 F2040 X3.408 Y40.531
G1 F1020 X-11.897 Y25.226 E106.13628
G1 X-11.959 Y25.164
G0 F2040 X-12.513 Y24.114
G1 F1020 X3.584 Y40.212 E107.00749
G0 F2040 X3.761 Y39.894
G1 F1020 X-13.13 Y23.002 E107.92168
G1 X-13.192 Y22.94
G0 F2040 X-13.746 Y21.891
G1 F1020 X3.937 Y39.576 E108.87876
G0 F2040 X4.114 Y39.257
G1 F1020 X-14.363 Y20.779 E109.87879
G1 X-14.425 Y20.717
G0 F2040 X-14.98 Y19.668
G1 F1020 X4.29 Y38.938 E110.92171
G0 F2040 X4.467 Y38.62
G1 F1020 X-15.595 Y18.557 E112.00751
G1 X-15.657 Y18.495
G0 F2040 X-16.212 Y17.445
G1 F1020 X4.644 Y38.302 E113.13629
G0 F2040 X4.821 Y37.984
G1 F1020 X-16.829 Y16.334 E114.30802
G1 X-16.891 Y16.272
G0 F2040 X-17.445 Y15.222
G1 F1020 X4.997 Y37.665 E115.52264
G0 F2040 X5.173 Y37.347
G1 F1020 X-18.062 Y14.111 E116.78017
G1 X-18.124 Y14.049
G0 F2040 X-18.678 Y12.999
G1 F1020 X5.35 Y37.029 E118.08065
G0 F2040 X5.527 Y36.71
G1 F1020 X-19.295 Y11.887 E119.42408
G1 X-19.357 Y11.825
G0 F2040 X-19.912 Y10.776
G1 F1020 X5.703 Y36.391 E120.81039
G0 F2040 X5.88 Y36.073
G1 F1020 X-20.528 Y9.664 E122.23965
G1 X-20.59 Y9.602
G0 F2040 X-21.145 Y8.553
G1 F1020 X6.057 Y35.755 E123.71186
G0 F2040 X6.233 Y35.437
G1 F1020 X-21.761 Y7.441 E125.22699
G1 X-21.823 Y7.379
G0 F2040 X-22.378 Y6.33
G1 F1020 X6.409 Y35.118 E126.785
G0 F2040 X6.586 Y34.8
G1 F1020 X-22.995 Y5.218 E128.38599
G1 X-23.057 Y5.156
G0 F2040 X-23.611 Y4.106
G1 F1020 X6.763 Y34.482 E130.02993
G0 F2040 X6.94 Y34.163
G1 F1020 X-24.228 Y2.995 E131.71678
G1 X-24.29 Y2.933
G0 F2040 X-24.844 Y1.884
G1 F1020 X7.116 Y33.844 E133.44649
G0 F2040 X7.293 Y33.526
G1 F1020 X-25.46 Y0.772 E135.21915
G1 X-25.522 Y0.71
G0 F2040 X-26.077 Y-.338
G1 F1020 X7.469 Y33.208 E137.03471
G0 F2040 X7.646 Y32.89
G1 F1020 X-26.693 Y-1.45 E138.8932
G1 X-26.755 Y-1.512
G0 F2040 X-27.31 Y-2.561
G1 F1020 X7.822 Y32.571 E140.79459
G0 F2040 X7.999 Y32.253
G1 F1020 X-27.927 Y-3.673 E142.73895
G1 X-27.989 Y-3.735
G0 F2040 X-28.543 Y-4.784
G1 F1020 X8.176 Y31.935 E144.72623
G0 F2040 X8.353 Y31.616
G1 F1020 X-29.16 Y-5.896 E146.75646
G1 X-29.222 Y-5.958
G0 F2040 X-29.776 Y-7.008
G1 F1020 X8.529 Y31.297 E148.82957
G0 F2040 X8.705 Y30.979
G1 F1020 X-30.393 Y-8.119 E150.94561
G1 X-30.455 Y-8.181
G0 F2040 X-31.01 Y-9.231
G1 F1020 X8.882 Y30.661 E153.10461
G0 F2040 X9.058 Y30.342
G1 F1020 X-31.626 Y-10.342 E155.30648
G1 X-31.688 Y-10.404
G0 F2040 X-32.243 Y-11.454
G1 F1020 X9.235 Y30.024 E157.55132
G0 F2040 X9.412 Y29.706
G1 F1020 X-32.859 Y-12.565 E159.83908
G1 X-32.921 Y-12.627
G0 F2040 X-33.476 Y-13.677
G1 F1020 X9.589 Y29.388 E162.16982
G0 F2040 X9.765 Y29.069
G1 F1020 X-34.092 Y-14.788 E164.54341
G1 X-34.154 Y-14.85
G0 F2040 X-34.709 Y-15.9
G1 F1020 X9.941 Y28.75 E166.95993
G0 F2040 X10.118 Y28.432
G1 F1020 X-35.325 Y-17.011 E169.41936
G1 X-35.387 Y-17.073
G0 F2040 X-35.942 Y-18.123
G1 F1020 X10.295 Y28.114 E171.92177
G0 F2040 X10.471 Y27.795
G1 F1020 X-36.558 Y-19.234 E174.46704
G1 X-36.62 Y-19.296
G0 F2040 X-37.175 Y-20.346
G1 F1020 X10.648 Y27.477 E177.05528
G0 F2040 X10.825 Y27.159
G1 F1020 X-37.792 Y-21.457 E179.68646
G1 X-37.854 Y-21.519
G0 F2040 X-38.408 Y-22.569
G1 F1020 X11.001 Y26.841 E182.36057
G0 F2040 X11.177 Y26.522
G1 F1020 X-39.025 Y-23.681 E185.07759
G1 X-39.087 Y-23.743
G0 F2040 X-39.641 Y-24.792
G1 F1020 X11.354 Y26.203 E187.83751
G0 F2040 X11.531 Y25.885
G1 F1020 X-40.258 Y-25.904 E190.64039
G1 X-40.32 Y-25.966
G0 F2040 X-40.875 Y-27.015
G1 F1020 X11.708 Y25.567 E193.48623
G0 F2040 X11.884 Y25.248
G1 F1020 X-41.491 Y-28.127 E196.37495
G1 X-41.553 Y-28.189
G0 F2040 X-42.108 Y-29.238
G1 F1020 X12.061 Y24.93 E199.30662
G0 F2040 X12.237 Y24.612
G1 F1020 X-42.724 Y-30.35 E202.2812
G1 X-42.786 Y-30.412
G0 F2040 X-43.34 Y-31.461
G1 F1020 X12.414 Y24.294 E205.29871
G0 F2040 X12.59 Y23.975
G1 F1020 X-43.957 Y-32.572 E208.3591
G1 X-44.019 Y-32.634
G0 F2040 X-44.573 Y-33.684
G1 F1020 X12.767 Y23.656 E211.46242
G0 F2040 X12.944 Y23.338
G1 F1020 X-45.19 Y-34.796 E214.6087
G1 X-45.252 Y-34.858
G0 F2040 X-45.807 Y-35.907
G1 F1020 X13.121 Y23.02 E217.79794
G0 F2040 X13.297 Y22.701
G1 F1020 X-46.423 Y-37.019 E221.03006
G1 X-46.485 Y-37.081
G0 F2040 X-47.04 Y-38.13
G1 F1020 X13.473 Y22.383 E224.3051
G0 F2040 X13.65 Y22.065
G1 F1020 X-47.656 Y-39.242 E227.62308
G1 X-47.718 Y-39.304
G0 F2040 X-47.762 Y-40.337
G1 F1020 X14.003 Y21.428 E230.96588
G0 F2040 X13.827 Y21.747
G1 F1020 X-48.257 Y-40.337 E234.32595
G1 X-48.319 Y-40.399
G0 F2040 X-47.267 Y-40.337
G1 F1020 X14.18 Y21.109 E237.65151
G0 F2040 X14.357 Y20.791
G1 F1020 X-46.772 Y-40.337 E240.95987
G0 F2040 X-46.277 Y-40.337
G1 F1020 X14.533 Y20.473 E244.25098
G0 F2040 X14.709 Y20.154
G1 F1020 X-45.782 Y-40.337 E247.52483
G0 F2040 X-45.287 Y-40.337
G1 F1020 X14.886 Y19.836 E250.78147
G0 F2040 X15.063 Y19.518
G1 F1020 X-44.792 Y-40.337 E254.0209
G0 F2040 X-44.297 Y-40.337
G1 F1020 X15.24 Y19.2 E257.24312
G0 F2040 X15.416 Y18.881
G1 F1020 X-43.802 Y-40.337 E260.44807
G0 F2040 X-43.307 Y-40.337
G1 F1020 X15.593 Y18.562 E263.63579
G0 F2040 X15.769 Y18.244
G1 F1020 X-42.812 Y-40.337 E266.80626
G0 F2040 X-42.317 Y-40.337
G1 F1020 X15.946 Y17.926 E269.95953
G0 F2040 X16.122 Y17.607
G1 F1020 X-41.822 Y-40.337 E273.09554
G0 F2040 X-41.327 Y-40.337
G1 F1020 X16.299 Y17.289 E276.21433
G0 F2040 X16.476 Y16.971
G1 F1020 X-40.832 Y-40.337 E279.31591
G0 F2040 X-40.337 Y-40.337
G1 F1020 X16.653 Y16.653 E282.40028
G0 F2040 X16.829 Y16.334
G1 F1020 X-39.842 Y-40.337 E285.46739
G0 F2040 X-39.347 Y-40.337
G1 F1020 X17.005 Y16.015 E288.51723
G0 F2040 X17.182 Y15.697
G1 F1020 X-38.852 Y-40.337 E291.54986
G0 F2040 X-38.357 Y-40.337
G1 F1020 X17.359 Y15.379 E294.56528
G0 F2040 X17.535 Y15.06
G1 F1020 X-37.862 Y-40.337 E297.56344
G0 F2040 X-37.367 Y-40.337
G1 F1020 X17.712 Y14.742 E300.54438
G0 F2040 X17.889 Y14.424
G1 F1020 X-36.872 Y-40.337 E303.50812
G0 F2040 X-36.377 Y-40.337
G1 F1020 X18.065 Y14.106 E306.45462
G0 F2040 X18.241 Y13.787
G1 F1020 X-35.882 Y-40.337 E309.38385
G0 F2040 X-35.387 Y-40.337
G1 F1020 X18.418 Y13.468 E312.29584
