;FLAVOR:Marlin
;TIME:15083
;Filament used: 22.1799m
;Layer height: 0.3
;MINX:-95.232
;MINY:-10.325
;MINZ:0.26
;MAXX:95.35
;MAXY:10.3
;MAXZ:204.56
;Generated with Cura_SteamEngine 4.9.1
M82 ;absolute extrusion mode
;Gcode by Cura
G90
G28
M107
M109 R100
G30
M109 S215 U-55 X55 V-85 Y-85 W0.26 Z0.26
M82
G92 E0
G1 F200 E6
G92 E0
G1 F200 E-3.5
G0 Z0.15
G0 X10
G0 Z3
G1 F6000
G92 E0
G92 E0
G1 F3600 E-3.8
;LAYER_COUNT:682
;LAYER:0
M107
G0 F2040 X-58.795 Y10.299 Z0.26
;TYPE:SKIRT
G1 F3600 E0
G1 F1020 X-59.505 Y10.288 E0.02717
G1 X-60.144 Y10.234 E0.05172
G1 X-61.444 Y10.029 E0.10208
G1 X-61.78 Y9.972 E0.11512
G1 X-64.476 Y9.59 E0.21933
G1 X-67.14 Y9.288 E0.32193
G1 X-69.84 Y9.06 E0.42563
G1 X-72.52 Y8.91 E0.52835
G1 X-75.703 Y8.843 E0.65019
G1 X-75.817 Y8.833 E0.65457
G1 X-77.439 Y8.81 E0.71665
G1 X-78.82 Y8.8 E0.7695
G1 X-89.912 Y8.8 E1.19398
G1 X-90.614 Y8.79 E1.22085
G1 X-91.217 Y8.741 E1.24401
G1 X-91.808 Y8.613 E1.26715
G1 X-92.377 Y8.409 E1.29028
G1 X-92.914 Y8.131 E1.31342
G1 X-93.41 Y7.785 E1.33656
G1 X-93.848 Y7.387 E1.35921
G1 X-94.252 Y6.936 E1.38238
G1 X-94.592 Y6.436 E1.40552
G1 X-94.863 Y5.896 E1.42865
G1 X-95.06 Y5.325 E1.45176
G1 X-95.181 Y4.732 E1.47492
G1 X-95.225 Y4.122 E1.49833
G1 X-95.232 Y3.596 E1.51846
G1 X-95.231 Y-5.017 E1.84808
G1 X-95.221 Y-5.685 E1.87364
G1 X-95.173 Y-6.288 E1.89679
G1 X-95.044 Y-6.879 E1.91994
G1 X-94.84 Y-7.448 E1.94307
G1 X-94.562 Y-7.985 E1.96622
G1 X-94.215 Y-8.48 E1.98935
G1 X-93.784 Y-8.95 E2.01375
G1 X-93.329 Y-9.348 E2.03689
G1 X-92.826 Y-9.683 E2.06002
G1 X-92.283 Y-9.949 E2.08316
G1 X-91.709 Y-10.14 E2.10631
G1 X-91.115 Y-10.255 E2.12946
G1 X-90.555 Y-10.292 E2.15094
G1 X-90.048 Y-10.3 E2.17034
G1 X-79.077 Y-10.3 E2.5902
G1 X-77.842 Y-10.317 E2.63747
G1 X-76.74 Y-10.325 E2.67964
G1 X-73.623 Y-10.325 E2.79893
G1 X-72.563 Y-10.31 E2.8395
G1 X-71.181 Y-10.3 E2.89239
G1 X90.03 Y-10.3 E9.06185
G1 X90.732 Y-10.29 E9.08872
G1 X91.335 Y-10.241 E9.11187
G1 X91.926 Y-10.113 E9.13502
G1 X92.495 Y-9.909 E9.15815
G1 X93.032 Y-9.631 E9.18129
G1 X93.528 Y-9.285 E9.20443
G1 X93.902 Y-8.95 E9.22365
G1 X94 Y-8.852 E9.22895
G1 X94.398 Y-8.397 E9.25209
G1 X94.733 Y-7.894 E9.27522
G1 X94.999 Y-7.351 E9.29835
G1 X95.19 Y-6.777 E9.32151
G1 X95.305 Y-6.183 E9.34466
G1 X95.342 Y-5.623 E9.36614
G1 X95.35 Y-5.15 E9.38424
G1 X95.35 Y4.958 E9.77107
G1 X95.34 Y5.68 E9.7987
G1 X95.291 Y6.283 E9.82186
G1 X95.164 Y6.874 E9.84499
G1 X94.96 Y7.443 E9.86812
G1 X94.682 Y7.981 E9.8913
G1 X94.336 Y8.476 E9.91441
G1 X94 Y8.852 E9.93371
G1 X93.902 Y8.95 E9.93901
G1 X93.447 Y9.348 E9.96215
G1 X92.944 Y9.683 E9.98527
G1 X92.401 Y9.949 E10.00841
G1 X91.827 Y10.14 E10.03156
G1 X91.233 Y10.255 E10.05472
G1 X90.673 Y10.292 E10.0762
G1 X90.166 Y10.3 E10.0956
G1 X-58.795 Y10.299 E15.79627
G0 F2040 X-58.789 Y9.949
G1 F1020 X-59.499 Y9.938 E15.82344
G1 X-60.089 Y9.888 E15.8461
G1 X-61.385 Y9.684 E15.89631
G1 X-61.742 Y9.623 E15.91017
G1 X-64.422 Y9.243 E16.01376
G1 X-67.106 Y8.94 E16.11713
G1 X-69.827 Y8.71 E16.22163
G1 X-72.494 Y8.561 E16.32385
G1 X-75.695 Y8.493 E16.44638
G1 X-75.806 Y8.483 E16.45065
G1 X-77.434 Y8.46 E16.51295
G1 X-78.818 Y8.45 E16.56592
G1 X-89.907 Y8.45 E16.99029
G1 X-90.609 Y8.44 E17.01716
G1 X-91.188 Y8.391 E17.0394
G1 X-91.755 Y8.264 E17.06163
G1 X-92.299 Y8.06 E17.08387
G1 X-92.81 Y7.784 E17.10609
G1 X-93.279 Y7.44 E17.12835
G1 X-93.604 Y7.137 E17.14536
G1 X-93.99 Y6.703 E17.16758
G1 X-94.313 Y6.22 E17.18982
G1 X-94.566 Y5.697 E17.21206
G1 X-94.746 Y5.145 E17.23427
G1 X-94.848 Y4.573 E17.25651
G1 X-94.878 Y3.997 E17.27858
G1 X-94.882 Y3.593 E17.29404
G1 X-94.882 Y-5.012 E17.62335
G1 X-94.872 Y-5.68 E17.64892
G1 X-94.823 Y-6.259 E17.67116
G1 X-94.695 Y-6.826 E17.6934
G1 X-94.491 Y-7.37 E17.71564
G1 X-94.214 Y-7.881 E17.73788
G1 X-93.87 Y-8.349 E17.76011
G1 X-93.537 Y-8.703 E17.77871
G1 X-93.098 Y-9.084 E17.80095
G1 X-92.612 Y-9.402 E17.82318
G1 X-92.087 Y-9.65 E17.8454
G1 X-91.532 Y-9.824 E17.86766
G1 X-90.692 Y-9.938 E17.9001
G1 X-90.044 Y-9.95 E17.9249
G1 X-79.072 Y-9.95 E18.3448
G1 X-77.84 Y-9.967 E18.39195
G1 X-76.738 Y-9.975 E18.43412
G1 X-73.628 Y-9.975 E18.55314
G1 X-72.568 Y-9.96 E18.59371
G1 X-71.183 Y-9.95 E18.64672
G1 X90.025 Y-9.95 E24.81607
G1 X90.727 Y-9.94 E24.84294
G1 X91.306 Y-9.891 E24.86517
G1 X91.873 Y-9.764 E24.88741
G1 X92.417 Y-9.56 E24.90965
G1 X92.928 Y-9.284 E24.93187
G1 X93.397 Y-8.94 E24.95413
G1 X93.753 Y-8.605 E24.97284
G1 X94.134 Y-8.166 E24.99508
G1 X94.452 Y-7.68 E25.01731
G1 X94.7 Y-7.155 E25.03953
G1 X94.874 Y-6.6 E25.06179
G1 X94.988 Y-5.76 E25.09423
G1 X95 Y-5.146 E25.11773
G1 X95 Y4.954 E25.50425
G1 X94.99 Y5.676 E25.53189
G1 X94.942 Y6.255 E25.55412
G1 X94.815 Y6.822 E25.57636
G1 X94.611 Y7.366 E25.59859
G1 X94.335 Y7.877 E25.62082
G1 X93.991 Y8.345 E25.64305
G1 X93.655 Y8.703 E25.66184
G1 X93.216 Y9.084 E25.68408
G1 X92.73 Y9.402 E25.70631
G1 X92.205 Y9.65 E25.72853
G1 X91.65 Y9.824 E25.75079
G1 X90.81 Y9.938 E25.78323
G1 X90.162 Y9.95 E25.80803
G1 X-58.789 Y9.949 E31.50831
G0 F2040 X-58.784 Y9.6
G1 F1020 X-59.494 Y9.589 E31.53549
G1 X-60.035 Y9.542 E31.55627
G1 X-61.327 Y9.339 E31.60632
G1 X-61.674 Y9.28 E31.61979
G1 X-64.408 Y8.892 E31.72547
G1 X-67.071 Y8.591 E31.82803
G1 X-69.777 Y8.362 E31.93196
G1 X-72.495 Y8.21 E32.03614
G1 X-75.688 Y8.143 E32.15836
G1 X-75.793 Y8.133 E32.16239
G1 X-77.429 Y8.11 E32.22501
G1 X-78.815 Y8.1 E32.27805
G1 X-89.902 Y8.1 E32.70235
G1 X-90.604 Y8.09 E32.72921
G1 X-91.159 Y8.042 E32.75053
G1 X-91.7 Y7.915 E32.7718
G1 X-92.218 Y7.712 E32.79309
G1 X-92.702 Y7.437 E32.81439
G1 X-93.261 Y6.983 E32.84195
G1 X-93.359 Y6.887 E32.8472
G1 X-93.727 Y6.47 E32.86849
G1 X-94.032 Y6.005 E32.88977
G1 X-94.267 Y5.501 E32.91105
G1 X-94.428 Y4.968 E32.93236
G1 X-94.519 Y4.261 E32.95964
G1 X-94.532 Y3.589 E32.98536
G1 X-94.532 Y-5.007 E33.31432
G1 X-94.522 Y-5.675 E33.33989
G1 X-94.473 Y-6.229 E33.36118
G1 X-94.346 Y-6.771 E33.38248
G1 X-94.143 Y-7.289 E33.40377
G1 X-93.867 Y-7.772 E33.42506
G1 X-93.387 Y-8.357 E33.45402
G1 X-93.289 Y-8.455 E33.45932
G1 X-92.868 Y-8.819 E33.48062
G1 X-92.4 Y-9.119 E33.5019
G1 X-91.893 Y-9.349 E33.5232
G1 X-91.359 Y-9.504 E33.54448
G1 X-90.68 Y-9.588 E33.57066
G1 X-90.039 Y-9.6 E33.5952
G1 X-79.067 Y-9.6 E34.01509
G1 X-77.837 Y-9.617 E34.06217
G1 X-76.735 Y-9.625 E34.10434
G1 X-73.633 Y-9.625 E34.22305
G1 X-72.573 Y-9.61 E34.26362
G1 X-71.186 Y-9.6 E34.31671
G1 X90.02 Y-9.6 E40.48598
G1 X90.722 Y-9.59 E40.51285
G1 X91.277 Y-9.542 E40.53417
G1 X91.818 Y-9.415 E40.55544
G1 X92.336 Y-9.212 E40.57673
G1 X92.82 Y-8.937 E40.59803
G1 X93.407 Y-8.455 E40.6271
G1 X93.505 Y-8.357 E40.6324
G1 X93.869 Y-7.936 E40.6537
G1 X94.169 Y-7.468 E40.67497
G1 X94.399 Y-6.961 E40.69628
G1 X94.554 Y-6.427 E40.71756
G1 X94.638 Y-5.748 E40.74374
G1 X94.65 Y-5.141 E40.76698
G1 X94.65 Y4.949 E41.15312
G1 X94.64 Y5.671 E41.18075
G1 X94.592 Y6.225 E41.20203
G1 X94.465 Y6.767 E41.22333
G1 X94.263 Y7.285 E41.24461
G1 X93.988 Y7.769 E41.26591
G1 X93.505 Y8.357 E41.29504
G1 X93.407 Y8.455 E41.30034
G1 X92.986 Y8.819 E41.32164
G1 X92.518 Y9.119 E41.34291
G1 X92.011 Y9.349 E41.36422
G1 X91.477 Y9.504 E41.3855
G1 X90.798 Y9.588 E41.41168
G1 X90.157 Y9.6 E41.43622
G1 X-58.784 Y9.6 E47.13612
G0 F2040 X-58.779 Y9.25
G1 F1020 X-59.489 Y9.239 E47.16329
G1 X-59.981 Y9.196 E47.18219
G1 X-61.268 Y8.994 E47.23205
G1 X-61.635 Y8.931 E47.2463
G1 X-64.319 Y8.551 E47.35004
G1 X-67.073 Y8.24 E47.4561
G1 X-69.764 Y8.012 E47.55945
G1 X-72.469 Y7.861 E47.66313
G1 X-75.68 Y7.793 E47.78604
G1 X-75.781 Y7.783 E47.78993
G1 X-77.424 Y7.76 E47.85281
G1 X-78.813 Y7.75 E47.90597
G1 X-89.897 Y7.75 E48.33015
G1 X-90.599 Y7.74 E48.35702
G1 X-91.128 Y7.692 E48.37734
G1 X-91.643 Y7.566 E48.39763
G1 X-92.134 Y7.364 E48.41795
G1 X-92.588 Y7.09 E48.43825
G1 X-93.016 Y6.733 E48.45958
G1 X-93.114 Y6.637 E48.46483
G1 X-93.464 Y6.238 E48.48514
G1 X-93.75 Y5.791 E48.50545
G1 X-93.966 Y5.307 E48.52573
G1 X-94.107 Y4.795 E48.54605
G1 X-94.17 Y4.248 E48.56712
G1 X-94.182 Y3.586 E48.59246
G1 X-94.182 Y-5.002 E48.92112
G1 X-94.172 Y-5.67 E48.94669
G1 X-94.124 Y-6.198 E48.96698
G1 X-93.997 Y-6.714 E48.98731
G1 X-93.795 Y-7.204 E49.0076
G1 X-93.521 Y-7.659 E49.02792
G1 X-93.14 Y-8.11 E49.05052
G1 X-93.042 Y-8.208 E49.05582
G1 X-92.639 Y-8.553 E49.07612
G1 X-92.189 Y-8.835 E49.09645
G1 X-91.702 Y-9.046 E49.11676
G1 X-91.189 Y-9.181 E49.13706
G1 X-90.668 Y-9.238 E49.15712
G1 X-90.035 Y-9.25 E49.18135
G1 X-79.062 Y-9.25 E49.60128
G1 X-77.835 Y-9.267 E49.64824
G1 X-76.733 Y-9.275 E49.69041
G1 X-73.638 Y-9.275 E49.80886
G1 X-72.578 Y-9.26 E49.84943
G1 X-71.188 Y-9.25 E49.90262
G1 X90.015 Y-9.25 E56.07178
G1 X90.717 Y-9.24 E56.09865
G1 X91.246 Y-9.192 E56.11898
G1 X91.761 Y-9.066 E56.13927
G1 X92.252 Y-8.864 E56.15959
G1 X92.706 Y-8.59 E56.17988
G1 X93.16 Y-8.208 E56.20259
G1 X93.258 Y-8.11 E56.20789
G1 X93.603 Y-7.707 E56.22819
G1 X93.885 Y-7.257 E56.24852
G1 X94.096 Y-6.77 E56.26883
G1 X94.231 Y-6.257 E56.28913
G1 X94.288 Y-5.736 E56.30919
G1 X94.3 Y-5.136 E56.33215
G1 X94.3 Y4.944 E56.71791
G1 X94.29 Y5.666 E56.74554
G1 X94.242 Y6.194 E56.76583
G1 X94.116 Y6.71 E56.78616
G1 X93.914 Y7.201 E56.80648
G1 X93.641 Y7.655 E56.82675
G1 X93.258 Y8.11 E56.84951
G1 X93.16 Y8.208 E56.85482
G1 X92.757 Y8.553 E56.87512
G1 X92.307 Y8.835 E56.89544
G1 X91.82 Y9.046 E56.91575
G1 X91.307 Y9.181 E56.93605
G1 X90.786 Y9.238 E56.95611
G1 X90.153 Y9.25 E56.98034
G1 X-58.779 Y9.25 E62.6799
G0 F2040 X-58.773 Y8.9
G1 F1020 X-59.483 Y8.889 E62.70707
G1 X-59.926 Y8.851 E62.72409
G1 X-61.209 Y8.649 E62.77379
G1 X-61.562 Y8.589 E62.78749
G1 X-64.3 Y8.201 E62.89332
G1 X-67.007 Y7.895 E62.99758
G1 X-69.749 Y7.663 E63.10289
G1 X-72.47 Y7.511 E63.20718
G1 X-75.673 Y7.443 E63.32979
G1 X-75.77 Y7.433 E63.33352
G1 X-77.419 Y7.41 E63.39663
G1 X-78.81 Y7.4 E63.44986
G1 X-89.892 Y7.4 E63.87397
G1 X-90.594 Y7.39 E63.90084
G1 X-91.096 Y7.343 E63.92013
G1 X-91.583 Y7.217 E63.93938
G1 X-92.045 Y7.016 E63.95866
G1 X-92.469 Y6.744 E63.97794
G1 X-92.869 Y6.387 E63.99846
G1 X-93.199 Y6.007 E64.01772
G1 X-93.466 Y5.58 E64.03699
G1 X-93.661 Y5.116 E64.05625
G1 X-93.781 Y4.627 E64.07552
G1 X-93.826 Y4.071 E64.09687
G1 X-93.832 Y3.582 E64.11559
G1 X-93.832 Y-4.997 E64.4439
G1 X-93.822 Y-5.665 E64.46947
G1 X-93.774 Y-6.166 E64.48873
G1 X-93.648 Y-6.653 E64.50798
G1 X-93.446 Y-7.115 E64.52728
G1 X-93.174 Y-7.539 E64.54655
G1 X-92.794 Y-7.96 E64.56826
G1 X-92.411 Y-8.287 E64.58753
G1 X-91.981 Y-8.549 E64.6068
G1 X-91.515 Y-8.74 E64.62607
G1 X-91.024 Y-8.854 E64.64536
G1 X-90.508 Y-8.893 E64.66517
G1 X-90.031 Y-8.9 E64.68342
G1 X-79.057 Y-8.9 E65.10339
G1 X-77.832 Y-8.917 E65.15028
G1 X-76.73 Y-8.925 E65.19245
G1 X-73.643 Y-8.925 E65.31059
G1 X-72.583 Y-8.91 E65.35116
G1 X-71.191 Y-8.9 E65.40443
G1 X90.01 Y-8.9 E71.57352
G1 X90.712 Y-8.89 E71.60038
G1 X91.214 Y-8.843 E71.61968
G1 X91.701 Y-8.717 E71.63893
G1 X92.163 Y-8.516 E71.65821
G1 X92.587 Y-8.244 E71.67749
G1 X93.01 Y-7.862 E71.6993
G1 X93.337 Y-7.479 E71.71858
G1 X93.599 Y-7.049 E71.73785
G1 X93.79 Y-6.583 E71.75712
G1 X93.904 Y-6.092 E71.77641
G1 X93.943 Y-5.576 E71.79621
G1 X93.95 Y-5.132 E71.81321
G1 X93.95 Y4.939 E72.19862
G1 X93.94 Y5.661 E72.22625
G1 X93.893 Y6.162 E72.24551
G1 X93.767 Y6.65 E72.2648
G1 X93.566 Y7.112 E72.28408
G1 X93.295 Y7.536 E72.30334
G1 X92.912 Y7.96 E72.3252
G1 X92.529 Y8.287 E72.34447
G1 X92.099 Y8.549 E72.36374
G1 X91.633 Y8.74 E72.38302
G1 X91.142 Y8.854 E72.40231
G1 X90.626 Y8.893 E72.42211
G1 X90.149 Y8.9 E72.44037
G1 X-58.773 Y8.9 E78.13954
G0 F2040 X-59.3 Y5.55
;TYPE:SUPPORT
G1 F1020 X-59.663 Y4.329 E78.18829
G1 X-60.036 Y4.05 E78.20612
G1 X-71.262 Y4.05 E78.63573
G1 X-71.262 Y-5.55 E79.00312
G1 X90.599 Y-5.55 E85.19746
G1 X90.6 Y5.549 E85.62221
G1 X-59.3 Y5.55 E91.35881
G0 F2040 X-59.418 Y4.665
G1 F1020 X90.46 Y4.666 E97.09457
G0 F2040 X88.654 Y5.41
G1 F1020 X88.654 Y-5.41 E97.50865
G0 F2040 X90.46 Y-4.665
G1 F1020 X-71.122 Y-4.666 E103.69231
G0 F2040 X-69.99 Y-5.41
G1 F1020 X-69.99 Y3.91 E104.04899
G0 F2040 X-71.122 Y2.332
G1 F1020 X90.46 Y2.333 E110.23265
G0 F2040 X90.46 Y0.00
G1 F1020 X-71.122 Y0.00 E116.41632
G0 F2040 X-71.122 Y-2.333
G1 F1020 X90.46 Y-2.332 E122.59998
G0 F2040 X86.321 Y-5.41
G1 F1020 X86.321 Y5.41 E123.01406
G0 F2040 X83.988 Y5.41
G1 F1020 X83.988 Y-5.41 E123.42814
G0 F2040 X81.655 Y-5.41
G1 F1020 X81.655 Y5.41 E123.84221
G0 F2040 X79.322 Y5.41
G1 F1020 X79.322 Y-5.41 E124.25629
G0 F2040 X76.989 Y-5.41
G1 F1020 X76.989 Y5.41 E124.67036
G0 F2040 X74.656 Y5.41
G1 F1020 X74.656 Y-5.41 E125.08444
G0 F2040 X72.323 Y-5.41
G1 F1020 X72.323 Y5.41 E125.49852
G0 F2040 X69.99 Y5.41
G1 F1020 X69.99 Y-5.41 E125.91259
G0 F2040 X67.657 Y-5.41
G1 F1020 X67.657 Y5.41 E126.32667
G0 F2040 X65.324 Y5.41
G1 F1020 X65.324 Y-5.41 E126.74075
G0 F2040 X62.991 Y-5.41
G1 F1020 X62.991 Y5.41 E127.15482
G0 F2040 X60.658 Y5.41
G1 F1020 X60.658 Y-5.41 E127.5689
G0 F2040 X58.325 Y-5.41
G1 F1020 X58.325 Y5.41 E127.98297
G0 F2040 X55.992 Y5.41
G1 F1020 X55.992 Y-5.41 E128.39705
G0 F2040 X53.659 Y-5.41
G1 F1020 X53.659 Y5.41 E128.81113
G0 F2040 X51.326 Y5.41
G1 F1020 X51.326 Y-5.41 E129.2252
G0 F2040 X48.993 Y-5.41
G1 F1020 X48.993 Y5.41 E129.63928
G0 F2040 X46.66 Y5.41
G1 F1020 X46.66 Y-5.41 E130.05336
G0 F2040 X44.327 Y-5.41
G1 F1020 X44.327 Y5.41 E130.46743
G0 F2040 X41.994 Y5.41
G1 F1020 X41.994 Y-5.41 E130.88151
G0 F2040 X39.661 Y-5.41
G1 F1020 X39.661 Y5.41 E131.29558
G0 F2040 X37.328 Y5.41
G1 F1020 X37.328 Y-5.41 E131.70966
G0 F2040 X34.995 Y-5.41
G1 F1020 X34.995 Y5.41 E132.12374
G0 F2040 X32.662 Y5.41
G1 F1020 X32.662 Y-5.41 E132.53781
G0 F2040 X30.329 Y-5.41
G1 F1020 X30.329 Y5.41 E132.95189
G0 F2040 X27.996 Y5.41
G1 F1020 X27.996 Y-5.41 E133.36596
G0 F2040 X25.663 Y-5.41
G1 F1020 X25.663 Y5.41 E133.78004
G0 F2040 X23.33 Y5.41
G1 F1020 X23.33 Y-5.41 E134.19412
G0 F2040 X20.997 Y-5.41
G1 F1020 X20.997 Y5.41 E134.60819
G0 F2040 X18.664 Y5.41
G1 F1020 X18.664 Y-5.41 E135.02227
G0 F2040 X16.331 Y-5.41
G1 F1020 X16.331 Y5.41 E135.43635
G0 F2040 X13.998 Y5.41
G1 F1020 X13.998 Y-5.41 E135.85042
G0 F2040 X11.665 Y-5.41
G1 F1020 X11.665 Y5.41 E136.2645
G0 F2040 X9.332 Y5.41
G1 F1020 X9.332 Y-5.41 E136.67857
G0 F2040 X6.999 Y-5.41
G1 F1020 X6.999 Y5.41 E137.09265
G0 F2040 X4.666 Y5.41
G1 F1020 X4.666 Y-5.41 E137.50673
G0 F2040 X2.333 Y-5.41
G1 F1020 X2.333 Y5.41 E137.9208
G0 F2040 X0.00 Y5.41
G1 F1020 X0.00 Y-5.41 E138.33488
G0 F2040 X-2.333 Y-5.41
G1 F1020 X-2.333 Y5.41 E138.74896
G0 F2040 X-4.666 Y5.41
G1 F1020 X-4.666 Y-5.41 E139.16303
G0 F2040 X-6.999 Y-5.41
G1 F1020 X-6.999 Y5.41 E139.57711
G0 F2040 X-9.332 Y5.41
G1 F1020 X-9.332 Y-5.41 E139.99118
G0 F2040 X-11.665 Y-5.41
G1 F1020 X-11.665 Y5.41 E140.40526
G0 F2040 X-13.998 Y5.41
G1 F1020 X-13.998 Y-5.41 E140.81934
G0 F2040 X-16.331 Y-5.41
G1 F1020 X-16.331 Y5.41 E141.23341
G0 F2040 X-18.664 Y5.41
G1 F1020 X-18.664 Y-5.41 E141.64749
G0 F2040 X-20.997 Y-5.41
G1 F1020 X-20.997 Y5.41 E142.06157
G0 F2040 X-23.33 Y5.41
G1 F1020 X-23.33 Y-5.41 E142.47564
G0 F2040 X-25.663 Y-5.41
G1 F1020 X-25.663 Y5.41 E142.88972
G0 F2040 X-27.996 Y5.41
G1 F1020 X-27.996 Y-5.41 E143.30379
G0 F2040 X-30.329 Y-5.41
G1 F1020 X-30.329 Y5.41 E143.71787
G0 F2040 X-32.662 Y5.41
G1 F1020 X-32.662 Y-5.41 E144.13195
G0 F2040 X-34.995 Y-5.41
G1 F1020 X-34.995 Y5.41 E144.54602
G0 F2040 X-37.328 Y5.41
G1 F1020 X-37.328 Y-5.41 E144.9601
G0 F2040 X-39.661 Y-5.41
G1 F1020 X-39.661 Y5.41 E145.37417
G0 F2040 X-41.994 Y5.41
G1 F1020 X-41.994 Y-5.41 E145.78825
G0 F2040 X-44.327 Y-5.41
G1 F1020 X-44.327 Y5.41 E146.20233
G0 F2040 X-46.66 Y5.41
G1 F1020 X-46.66 Y-5.41 E146.6164
G0 F2040 X-48.993 Y-5.41
G1 F1020 X-48.993 Y5.41 E147.03048
G0 F2040 X-51.326 Y5.41
G1 F1020 X-51.326 Y-5.41 E147.44456
G0 F2040 X-53.659 Y-5.41
G1 F1020 X-53.659 Y5.41 E147.85863
G0 F2040 X-55.992 Y5.41
G1 F1020 X-55.992 Y-5.41 E148.27271
G0 F2040 X-58.325 Y-5.41
G1 F1020 X-58.325 Y5.41 E148.68678
G0 F2040 X-60.658 Y3.91
G1 F1020 X-60.658 Y-5.41 E149.04346
G0 F2040 X-62.991 Y-5.41
G1 F1020 X-62.991 Y3.91 E149.40013
G0 F2040 X-65.324 Y3.91
G1 F1020 X-65.324 Y-5.41 E149.7568
G0 F2040 X-67.657 Y-5.41
G1 F1020 X-67.657 Y3.91 E150.11347
G1 F3600 E146.31347
G0 F2040 X-72.834 Y4.886
G0 X-77.166 Y4.886
G0 X-78.738 Y4.05
G1 F3600 E150.11347
