;FLAVOR:Marlin
;TIME:6273
;Filament used: 7.93973m
;Layer height: 0.3
;MINX:-54.558
;MINY:-47.307
;MINZ:0.26
;MAXX:54.556
;MAXY:49.314
;MAXZ:23.66
;Generated with Cura_SteamEngine 4.9.1
M82 ;absolute extrusion mode
;Gcode by Cura
G90
G28
M107
M109 R100
G30
M109 S215 U-55 X55 V-85 Y-85 W0.26 Z0.26
M82
G92 E0
G1 F200 E6
G92 E0
G1 F200 E-3.5
G0 Z0.15
G0 X10
G0 Z3
G1 F6000
G92 E0
G92 E0
G1 F3600 E-3.8
;LAYER_COUNT:79
;LAYER:0
M107
G0 F2040 X-4.439 Y46.221 Z0.26
;TYPE:SKIRT
G1 F3600 E0
G1 F1020 X-53.639 Y-39.879 E3.79503
G1 X-53.985 Y-40.503 E3.82233
G1 X-54.243 Y-41.05 E3.84548
G1 X-54.426 Y-41.627 E3.86864
G1 X-54.532 Y-42.222 E3.89177
G1 X-54.558 Y-42.826 E3.91491
G1 X-54.504 Y-43.428 E3.93804
G1 X-54.372 Y-44.018 E3.96118
G1 X-54.162 Y-44.586 E3.98435
G1 X-53.88 Y-45.12 E4.00746
G1 X-53.53 Y-45.613 E4.0306
G1 X-53.117 Y-46.055 E4.05375
G1 X-52.65 Y-46.44 E4.07691
G1 X-52.137 Y-46.759 E4.10003
G1 X-51.586 Y-47.007 E4.12315
G1 X-51.007 Y-47.181 E4.14629
G1 X-50.195 Y-47.292 E4.17765
G1 X-49.976 Y-47.3 E4.18604
G1 X-49.415 Y-47.307 E4.20751
G1 X49.359 Y-47.307 E7.98755
G1 X50.049 Y-47.297 E8.01395
G1 X50.652 Y-47.248 E8.03711
G1 X51.243 Y-47.12 E8.06025
G1 X51.812 Y-46.916 E8.08338
G1 X52.349 Y-46.638 E8.10652
G1 X52.845 Y-46.291 E8.12969
G1 X53.29 Y-45.883 E8.15279
G1 X53.678 Y-45.419 E8.17594
G1 X54.002 Y-44.908 E8.1991
G1 X54.255 Y-44.359 E8.22223
G1 X54.434 Y-43.781 E8.24539
G1 X54.534 Y-43.185 E8.26851
G1 X54.556 Y-42.581 E8.29164
G1 X54.497 Y-41.979 E8.31479
G1 X54.36 Y-41.39 E8.33793
G1 X54.096 Y-40.718 E8.36556
G1 X53.966 Y-40.465 E8.37645
G1 X53.665 Y-39.924 E8.40014
G1 X4.305 Y46.457 E12.20754
G1 X3.939 Y47.074 E12.235
G1 X3.597 Y47.573 E12.25815
G1 X3.192 Y48.022 E12.28129
G1 X2.731 Y48.413 E12.30442
G1 X2.223 Y48.741 E12.32756
G1 X1.676 Y48.999 E12.35071
G1 X1.1 Y49.182 E12.37384
G1 X0.504 Y49.288 E12.397
G1 X-.1 Y49.314 E12.42014
G1 X-.702 Y49.26 E12.44327
G1 X-1.292 Y49.128 E12.46641
G1 X-1.859 Y48.918 E12.48955
G1 X-2.394 Y48.636 E12.51269
G1 X-2.887 Y48.286 E12.53583
G1 X-3.329 Y47.874 E12.55895
G1 X-3.713 Y47.407 E12.58209
G1 X-3.924 Y47.085 E12.59682
G1 X-4.439 Y46.221 E12.63532
G0 F2040 X-4.135 Y46.047
G1 F1020 X-53.333 Y-40.049 E16.43017
G1 X-53.679 Y-40.673 E16.45748
G1 X-53.925 Y-41.199 E16.4797
G1 X-54.097 Y-41.755 E16.50197
G1 X-54.191 Y-42.328 E16.5242
G1 X-54.205 Y-42.909 E16.54644
G1 X-54.139 Y-43.486 E16.56866
G1 X-53.995 Y-44.049 E16.5909
G1 X-53.775 Y-44.587 E16.61315
G1 X-53.483 Y-45.089 E16.63537
G1 X-53.126 Y-45.547 E16.65759
G1 X-52.708 Y-45.951 E16.67984
G1 X-52.239 Y-46.295 E16.7021
G1 X-51.728 Y-46.57 E16.72431
G1 X-51.184 Y-46.773 E16.74653
G1 X-50.616 Y-46.899 E16.76879
G1 X-50.114 Y-46.946 E16.78809
G1 X-49.972 Y-46.95 E16.79353
G1 X-49.411 Y-46.957 E16.815
G1 X49.354 Y-46.957 E20.59469
G1 X50.044 Y-46.947 E20.62109
G1 X50.623 Y-46.898 E20.64333
G1 X51.19 Y-46.771 E20.66557
G1 X51.734 Y-46.567 E20.6878
G1 X52.245 Y-46.29 E20.71005
G1 X52.713 Y-45.946 E20.73227
G1 X53.13 Y-45.541 E20.75452
G1 X53.487 Y-45.083 E20.77674
G1 X53.778 Y-44.58 E20.79898
G1 X53.997 Y-44.042 E20.82121
G1 X54.14 Y-43.478 E20.84348
G1 X54.204 Y-42.901 E20.8657
G1 X54.189 Y-42.32 E20.88794
G1 X54.094 Y-41.747 E20.91017
G1 X53.921 Y-41.192 E20.93241
G1 X53.659 Y-40.635 E20.95597
G1 X53.361 Y-40.098 E20.97947
G1 X4.004 Y46.279 E24.78668
G1 X3.638 Y46.896 E24.81414
G1 X3.308 Y47.374 E24.83637
G1 X2.915 Y47.802 E24.8586
G1 X2.467 Y48.172 E24.88084
G1 X1.973 Y48.478 E24.90308
G1 X1.442 Y48.713 E24.9253
G1 X0.883 Y48.873 E24.94755
G1 X0.308 Y48.954 E24.96977
G1 X-.273 Y48.956 E24.99201
G1 X-.849 Y48.878 E25.01425
G1 X-1.409 Y48.722 E25.0365
G1 X-1.942 Y48.49 E25.05875
G1 X-2.438 Y48.188 E25.08097
G1 X-2.888 Y47.82 E25.10322
G1 X-3.283 Y47.395 E25.12542
G1 X-3.624 Y46.906 E25.14824
G1 X-4.135 Y46.047 E25.18649
G0 F2040 X-3.831 Y45.874
G1 F1020 X-53.027 Y-40.219 E28.9812
G1 X-53.373 Y-40.843 E29.00851
G1 X-53.607 Y-41.348 E29.02981
G1 X-53.767 Y-41.881 E29.05111
G1 X-53.848 Y-42.431 E29.07238
G1 X-53.85 Y-42.988 E29.0937
G1 X-53.772 Y-43.538 E29.11496
G1 X-53.616 Y-44.073 E29.13628
G1 X-53.385 Y-44.579 E29.15757
G1 X-53.084 Y-45.047 E29.17887
G1 X-52.719 Y-45.467 E29.20016
G1 X-52.298 Y-45.83 E29.22143
G1 X-51.829 Y-46.13 E29.24274
G1 X-51.322 Y-46.359 E29.26403
G1 X-50.787 Y-46.513 E29.28534
G1 X-50.163 Y-46.593 E29.30941
G1 X-49.967 Y-46.6 E29.31692
G1 X-49.406 Y-46.607 E29.33839
G1 X49.349 Y-46.607 E33.11769
G1 X50.039 Y-46.597 E33.1441
G1 X50.593 Y-46.549 E33.16538
G1 X51.135 Y-46.422 E33.18669
G1 X51.653 Y-46.219 E33.20798
G1 X52.137 Y-45.943 E33.2293
G1 X52.576 Y-45.602 E33.25057
G1 X52.962 Y-45.201 E33.27187
G1 X53.286 Y-44.748 E33.29319
G1 X53.542 Y-44.254 E33.31448
G1 X53.725 Y-43.729 E33.33576
G1 X53.831 Y-43.183 E33.35704
G1 X53.857 Y-42.627 E33.37835
G1 X53.803 Y-42.073 E33.39965
G1 X53.671 Y-41.533 E33.42092
G1 X53.467 Y-41.025 E33.44187
G1 X53.353 Y-40.805 E33.45135
G1 X53.057 Y-40.271 E33.47472
G1 X3.703 Y46.1 E37.28167
G1 X3.337 Y46.717 E37.30913
G1 X3.019 Y47.174 E37.33043
G1 X2.64 Y47.581 E37.35172
G1 X2.206 Y47.929 E37.37301
G1 X1.726 Y48.211 E37.39431
G1 X1.211 Y48.422 E37.41561
G1 X0.671 Y48.557 E37.43691
G1 X0.118 Y48.613 E37.45818
G1 X-.438 Y48.59 E37.47948
G1 X-.985 Y48.487 E37.50078
G1 X-1.511 Y48.306 E37.52207
G1 X-2.006 Y48.053 E37.54334
G1 X-2.46 Y47.731 E37.56464
G1 X-2.863 Y47.347 E37.58595
G1 X-3.323 Y46.726 E37.61552
G1 X-3.831 Y45.874 E37.65348
G0 F2040 X-3.528 Y45.7
G1 F1020 X-52.721 Y-40.389 E41.44801
G1 X-53.067 Y-41.013 E41.47532
G1 X-53.288 Y-41.495 E41.49561
G1 X-53.435 Y-42.005 E41.51592
G1 X-53.504 Y-42.531 E41.53622
G1 X-53.493 Y-43.061 E41.55651
G1 X-53.402 Y-43.584 E41.57683
G1 X-53.234 Y-44.088 E41.59716
G1 X-52.992 Y-44.56 E41.61746
G1 X-52.682 Y-44.991 E41.63777
G1 X-52.311 Y-45.37 E41.65807
G1 X-51.887 Y-45.689 E41.67838
G1 X-51.42 Y-45.941 E41.69868
G1 X-50.92 Y-46.12 E41.71901
G1 X-50.147 Y-46.243 E41.74896
G1 X-49.963 Y-46.25 E41.75601
G1 X-49.402 Y-46.257 E41.77748
G1 X49.344 Y-46.257 E45.55644
G1 X50.034 Y-46.247 E45.58285
G1 X50.563 Y-46.199 E45.60318
G1 X51.078 Y-46.073 E45.62347
G1 X51.569 Y-45.87 E45.6438
G1 X52.023 Y-45.597 E45.66408
G1 X52.432 Y-45.258 E45.68441
G1 X52.784 Y-44.861 E45.70471
G1 X53.074 Y-44.417 E45.72501
G1 X53.293 Y-43.933 E45.74534
G1 X53.438 Y-43.423 E45.76563
G1 X53.504 Y-42.896 E45.78595
G1 X53.49 Y-42.366 E45.80624
G1 X53.397 Y-41.843 E45.82657
G1 X53.152 Y-41.178 E45.85369
G1 X53.047 Y-40.974 E45.86247
G1 X52.754 Y-40.445 E45.88562
G1 X3.402 Y45.921 E49.69237
G1 X3.036 Y46.538 E49.71982
G1 X2.731 Y46.973 E49.74015
G1 X2.365 Y47.357 E49.76045
G1 X1.946 Y47.682 E49.78075
G1 X1.482 Y47.94 E49.80106
G1 X0.985 Y48.126 E49.82137
G1 X0.465 Y48.235 E49.84171
G1 X-0.064 Y48.264 E49.86198
G1 X-.593 Y48.214 E49.88231
G1 X-1.107 Y48.085 E49.9026
G1 X-1.597 Y47.88 E49.92292
G1 X-2.05 Y47.605 E49.9432
G1 X-2.457 Y47.264 E49.96352
G1 X-2.808 Y46.866 E49.98383
G1 X-3.023 Y46.547 E49.99855
G1 X-3.528 Y45.7 E50.03629
G0 F2040 X-3.224 Y45.526
G1 F1020 X-52.415 Y-40.558 E53.83062
G1 X-52.761 Y-41.182 E53.85792
G1 X-52.969 Y-41.641 E53.87721
G1 X-53.103 Y-42.126 E53.89646
G1 X-53.158 Y-42.627 E53.91575
G1 X-53.133 Y-43.13 E53.93502
G1 X-53.029 Y-43.623 E53.95431
G1 X-52.848 Y-44.093 E53.97358
G1 X-52.595 Y-44.528 E53.99284
G1 X-52.277 Y-44.918 E54.0121
G1 X-51.901 Y-45.253 E54.03137
G1 X-51.476 Y-45.524 E54.05066
G1 X-51.014 Y-45.725 E54.06994
G1 X-50.527 Y-45.85 E54.08918
G1 X-49.959 Y-45.9 E54.111
G1 X-49.398 Y-45.907 E54.13247
G1 X49.339 Y-45.907 E57.91109
G1 X50.029 Y-45.897 E57.9375
G1 X50.53 Y-45.849 E57.95676
G1 X51.018 Y-45.724 E57.97604
G1 X51.48 Y-45.522 E57.99533
G1 X51.903 Y-45.25 E58.01458
G1 X52.279 Y-44.915 E58.03385
G1 X52.597 Y-44.524 E58.05314
G1 X52.849 Y-44.088 E58.07241
G1 X53.029 Y-43.618 E58.09167
G1 X53.132 Y-43.125 E58.11095
G1 X53.156 Y-42.622 E58.13022
G1 X53.101 Y-42.122 E58.14947
G1 X52.967 Y-41.636 E58.16876
G1 X52.741 Y-41.144 E58.18948
G1 X52.45 Y-40.619 E58.21245
G1 X3.101 Y45.743 E62.01901
G1 X2.735 Y46.36 E62.04647
G1 X2.444 Y46.771 E62.06574
G1 X2.092 Y47.131 E62.08501
G1 X1.688 Y47.432 E62.10429
G1 X1.241 Y47.664 E62.12356
G1 X0.763 Y47.823 E62.14284
G1 X0.266 Y47.904 E62.16211
G1 X-.237 Y47.906 E62.18136
G1 X-.735 Y47.828 E62.20065
G1 X-1.214 Y47.672 E62.21993
G1 X-1.662 Y47.443 E62.23919
G1 X-2.068 Y47.145 E62.25846
G1 X-2.423 Y46.788 E62.27773
G1 X-2.722 Y46.367 E62.29749
G1 X-3.224 Y45.526 E62.33497
G1 F3600 E58.53497
;MESH:support_tri_0_024.stl
G0 F2040 X-.944 Y44.454
G0 X-.186 Y44.02
G0 X0.00 Y43.71
;TYPE:WALL-INNER
G1 F3600 E62.33497
G1 F1020 X-49.095 Y-42.207 E66.12192
G1 X49.095 Y-42.207 E69.87961
G1 X0.00 Y43.71 E73.66656
G0 F2040 X0.00 Y44.365
;TYPE:WALL-OUTER
G1 F1020 X-49.655 Y-42.532 E77.49671
G1 X49.655 Y-42.532 E81.29725
G1 X0.00 Y44.365 E85.1274
G0 F2040 X-0.099 Y44.192
G0 X-0.011 Y44.143
G0 X0.00 Y43.025
;TYPE:SKIN
G1 F1020 X-48.509 Y-41.867 E88.86917
G1 X48.509 Y-41.867 E92.582
G1 X0.00 Y43.025 E96.32377
G0 F2040 X0.05 Y42.618
G1 F1020 X-.185 Y42.382 E96.33651
G0 F2040 X0.23 Y42.303
G1 F1020 X-.845 Y41.227 E96.39472
G1 X-.907 Y41.165
G0 F2040 X-1.505 Y40.072
G1 F1020 X0.41 Y41.988 E96.49839
G0 F2040 X0.591 Y41.674
G1 F1020 X-2.165 Y38.917 E96.64758
G1 X-2.227 Y38.855
G0 F2040 X-2.825 Y37.762
G1 F1020 X0.77 Y41.358 E96.84217
G0 F2040 X0.951 Y41.044
G1 F1020 X-3.485 Y36.607 E97.08228
G1 X-3.547 Y36.545
G0 F2040 X-4.145 Y35.452
G1 F1020 X1.13 Y40.728 E97.36779
G0 F2040 X1.31 Y40.413
G1 F1020 X-4.804 Y34.298 E97.69872
G1 X-4.866 Y34.236
G0 F2040 X-5.465 Y33.142
G1 F1020 X1.49 Y40.098 E98.07516
G0 F2040 X1.67 Y39.783
G1 F1020 X-6.124 Y31.988 E98.49701
G1 X-6.186 Y31.926
G0 F2040 X-6.784 Y30.833
G1 F1020 X1.85 Y39.468 E98.96432
G0 F2040 X2.03 Y39.153
G1 F1020 X-7.444 Y29.678 E99.47709
G1 X-7.506 Y29.616
G0 F2040 X-8.104 Y28.523
G1 F1020 X2.21 Y38.838 E100.03532
G0 F2040 X2.39 Y38.523
G1 F1020 X-8.764 Y27.368 E100.63902
G1 X-8.826 Y27.306
G0 F2040 X-9.424 Y26.213
G1 F1020 X2.571 Y38.209 E101.28823
G0 F2040 X2.75 Y37.893
G1 F1020 X-10.084 Y25.059 E101.98282
G1 X-10.146 Y24.997
G0 F2040 X-10.744 Y23.903
G1 F1020 X2.93 Y37.579 E102.72293
G0 F2040 X3.11 Y37.263
G1 F1020 X-11.404 Y22.749 E103.50845
G1 X-11.466 Y22.687
G0 F2040 X-12.063 Y21.594
G1 F1020 X3.29 Y36.949 E104.33943
G0 F2040 X3.47 Y36.633
G1 F1020 X-12.724 Y20.438 E105.21589
G1 X-12.786 Y20.376
G0 F2040 X-13.384 Y19.284
G1 F1020 X3.65 Y36.319 E106.13782
G0 F2040 X3.83 Y36.003
G1 F1020 X-14.043 Y18.129 E107.10516
G1 X-14.105 Y18.067
G0 F2040 X-14.703 Y16.974
G1 F1020 X4.01 Y35.689 E108.11798
G0 F2040 X4.19 Y35.373
G1 F1020 X-15.364 Y15.819 E109.17627
G1 X-15.426 Y15.757
G0 F2040 X-16.023 Y14.664
G1 F1020 X4.37 Y35.059 E110.28002
G0 F2040 X4.55 Y34.743
G1 F1020 X-16.683 Y13.509 E111.42921
G1 X-16.745 Y13.447
G0 F2040 X-17.343 Y12.355
G1 F1020 X4.73 Y34.429 E112.62385
G0 F2040 X4.91 Y34.114
G1 F1020 X-18.003 Y11.199 E113.86399
G1 X-18.065 Y11.137
G0 F2040 X-18.663 Y10.045
G1 F1020 X5.09 Y33.798 E115.14953
G0 F2040 X5.27 Y33.484
G1 F1020 X-19.323 Y8.89 E116.48056
G1 X-19.385 Y8.828
G0 F2040 X-19.982 Y7.735
G1 F1020 X5.45 Y33.168 E117.857
G0 F2040 X5.63 Y32.854
G1 F1020 X-20.643 Y6.58 E119.27895
G1 X-20.705 Y6.518
G0 F2040 X-21.303 Y5.425
G1 F1020 X5.81 Y32.538 E120.74634
G0 F2040 X5.99 Y32.224
G1 F1020 X-21.962 Y4.27 E122.2592
G1 X-22.024 Y4.208
G0 F2040 X-22.622 Y3.116
G1 F1020 X6.17 Y31.908 E123.81746
G0 F2040 X6.35 Y31.594
G1 F1020 X-23.282 Y1.96 E125.42123
G1 X-23.344 Y1.898
G0 F2040 X-23.942 Y0.806
G1 F1020 X6.53 Y31.278 E127.07042
G0 F2040 X6.71 Y30.964
G1 F1020 X-24.602 Y-.348 E128.76506
G1 X-24.664 Y-.41
G0 F2040 X-25.262 Y-1.504
G1 F1020 X6.89 Y30.648 E130.50517
G0 F2040 X7.07 Y30.334
G1 F1020 X-25.922 Y-2.658 E132.29074
G1 X-25.984 Y-2.72
G0 F2040 X-26.582 Y-3.813
G1 F1020 X7.25 Y30.019 E134.12177
G0 F2040 X7.43 Y29.704
G1 F1020 X-27.241 Y-4.968 E135.99823
G1 X-27.303 Y-5.03
G0 F2040 X-27.902 Y-6.123
G1 F1020 X7.61 Y29.389 E137.92019
G0 F2040 X7.79 Y29.074
G1 F1020 X-28.562 Y-7.278 E139.88761
G1 X-28.624 Y-7.34
G0 F2040 X-29.221 Y-8.432
G1 F1020 X7.97 Y28.759 E141.90043
G0 F2040 X8.15 Y28.444
G1 F1020 X-29.881 Y-9.587 E143.95872
G1 X-29.943 Y-9.649
G0 F2040 X-30.542 Y-10.743
G1 F1020 X8.33 Y28.129 E146.06252
G0 F2040 X8.51 Y27.814
G1 F1020 X-31.201 Y-11.897 E148.21173
G1 X-31.263 Y-11.959
G0 F2040 X-31.861 Y-13.052
G1 F1020 X8.69 Y27.499 E150.4064
G0 F2040 X8.869 Y27.184
G1 F1020 X-32.521 Y-14.207 E152.64651
G1 X-32.583 Y-14.269
G0 F2040 X-33.181 Y-15.362
G1 F1020 X9.05 Y26.869 E154.9321
G0 F2040 X9.23 Y26.554
G1 F1020 X-33.841 Y-16.517 E157.26316
G1 X-33.903 Y-16.579
G0 F2040 X-34.501 Y-17.672
G1 F1020 X9.41 Y26.239 E159.63968
G0 F2040 X9.59 Y25.924
G1 F1020 X-35.161 Y-18.827 E162.06166
G1 X-35.223 Y-18.889
G0 F2040 X-35.821 Y-19.982
G1 F1020 X9.77 Y25.609 E164.5291
G0 F2040 X9.95 Y25.294
G1 F1020 X-36.481 Y-21.136 E167.04198
G1 X-36.543 Y-21.198
G0 F2040 X-37.14 Y-22.291
G1 F1020 X10.13 Y24.979 E169.60029
G0 F2040 X10.31 Y24.664
G1 F1020 X-37.801 Y-23.446 E172.20409
G1 X-37.863 Y-23.508
G0 F2040 X-38.46 Y-24.601
G1 F1020 X10.489 Y24.349 E174.8533
G0 F2040 X10.67 Y24.034
G1 F1020 X-39.12 Y-25.756 E177.548
G1 X-39.182 Y-25.818
G0 F2040 X-39.78 Y-26.911
G1 F1020 X10.849 Y23.719 E180.28814
G0 F2040 X11.03 Y23.404
G1 F1020 X-40.44 Y-28.066 E183.07376
G1 X-40.502 Y-28.128
G0 F2040 X-41.1 Y-29.221
G1 F1020 X11.209 Y23.089 E185.90481
G0 F2040 X11.39 Y22.774
G1 F1020 X-41.76 Y-30.375 E188.78133
G1 X-41.822 Y-30.437
G0 F2040 X-42.42 Y-31.53
G1 F1020 X11.57 Y22.459 E191.70331
G0 F2040 X11.749 Y22.144
G1 F1020 X-43.08 Y-32.686 E194.67076
G1 X-43.142 Y-32.748
G0 F2040 X-43.74 Y-33.84
G1 F1020 X11.93 Y21.829 E197.68366
G0 F2040 X12.109 Y21.514
G1 F1020 X-44.399 Y-34.995 E200.74197
G1 X-44.461 Y-35.057
G0 F2040 X-45.059 Y-36.15
G1 F1020 X12.29 Y21.199 E203.84577
G0 F2040 X12.469 Y20.884
G1 F1020 X-45.72 Y-37.305 E206.99504
G1 X-45.782 Y-37.367
G0 F2040 X-46.379 Y-38.46
G1 F1020 X12.65 Y20.569 E210.18976
G0 F2040 X12.829 Y20.254
G1 F1020 X-47.039 Y-39.614 E213.42989
G1 X-47.101 Y-39.676
G0 F2040 X-47.7 Y-40.77
G1 F1020 X13.01 Y19.939 E216.71557
G0 F2040 X13.189 Y19.624
G1 F1020 X-48.144 Y-41.71 E220.03502
G0 F2040 X-47.649 Y-41.71
G1 F1020 X13.369 Y19.309 E223.33741
G0 F2040 X13.549 Y18.994
G1 F1020 X-47.154 Y-41.71 E226.62277
G0 F2040 X-46.659 Y-41.71
G1 F1020 X13.729 Y18.679 E229.89107
G0 F2040 X13.91 Y18.364
G1 F1020 X-46.164 Y-41.71 E233.14235
G0 F2040 X-45.669 Y-41.71
G1 F1020 X14.089 Y18.049 E236.37656
G0 F2040 X14.27 Y17.734
G1 F1020 X-45.174 Y-41.71 E239.59374
G0 F2040 X-44.679 Y-41.71
G1 F1020 X14.449 Y17.419 E242.79385
G0 F2040 X14.63 Y17.104
G1 F1020 X-44.184 Y-41.71 E245.97694
G0 F2040 X-43.69 Y-41.71
G1 F1020 X14.809 Y16.789 E249.14298
G0 F2040 X14.989 Y16.474
G1 F1020 X-43.195 Y-41.71 E252.29197
G0 F2040 X-42.7 Y-41.71
G1 F1020 X15.169 Y16.159 E255.42392
G0 F2040 X15.349 Y15.844
G1 F1020 X-42.205 Y-41.71 E258.53881
G0 F2040 X-41.71 Y-41.71
G1 F1020 X15.529 Y15.529 E261.63666
G0 F2040 X15.709 Y15.214
G1 F1020 X-41.215 Y-41.71 E264.71746
G0 F2040 X-40.72 Y-41.71
G1 F1020 X15.89 Y14.9 E267.78126
G0 F2040 X16.069 Y14.584
G1 F1020 X-40.225 Y-41.71 E270.82797
G0 F2040 X-39.73 Y-41.71
G1 F1020 X16.25 Y14.27 E273.85768
G0 F2040 X16.429 Y13.954
G1 F1020 X-39.235 Y-41.71 E276.87028
G0 F2040 X-38.74 Y-41.71
G1 F1020 X16.609 Y13.64 E279.86587
G0 F2040 X16.789 Y13.324
G1 F1020 X-38.245 Y-41.71 E282.84438
G0 F2040 X-37.75 Y-41.71
G1 F1020 X16.969 Y13.01 E285.80587
G0 F2040 X17.149 Y12.694
G1 F1020 X-37.255 Y-41.71 E288.75028
G0 F2040 X-36.76 Y-41.71
G1 F1020 X17.329 Y12.38 E291.67767
G0 F2040 X17.509 Y12.064
G1 F1020 X-36.265 Y-41.71 E294.58799
G0 F2040 X-35.77 Y-41.71
G1 F1020 X17.689 Y11.749 E297.48126
G0 F2040 X17.869 Y11.434
G1 F1020 X-35.275 Y-41.71 E300.35748
G0 F2040 X-34.78 Y-41.71
G1 F1020 X18.049 Y11.119 E303.21665
G0 F2040 X18.229 Y10.805
G1 F1020 X-34.285 Y-41.71 E306.05881
G0 F2040 X-33.79 Y-41.71
G1 F1020 X18.409 Y10.489 E308.88388
G0 F2040 X18.589 Y10.175
G1 F1020 X-33.295 Y-41.71 E311.69194
G0 F2040 X-32.8 Y-41.71
G1 F1020 X18.769 Y9.859 E314.48292
G0 F2040 X18.949 Y9.545
G1 F1020 X-32.305 Y-41.71 E317.25688
