;FLAVOR:Marlin
;TIME:7903
;Filament used: 7.25093m
;Layer height: 0.2
;MINX:-66.285
;MINY:-25.376
;MINZ:0.26
;MAXX:43.941
;MAXY:70.675
;MAXZ:23.46
;Generated with Cura_SteamEngine 4.8.0
M82 ;absolute extrusion mode
;Gcode by Cura
G90
G28
M107
M109 R100
G30
M109 S215 U-55 X55 V-85 Y-85 W0.26 Z0.26
M82
G92 E0
G1 F200 E6
G92 E0
G1 F200 E-3.5
G0 Z0.15
G0 X10
G0 Z3
G1 F6000
G92 E0
G92 E0
G1 F3600 E-3.8
;LAYER_COUNT:117
;LAYER:0
M107
G0 F2040 X38.744 Y-25.376 Z0.26
;TYPE:SKIRT
G1 F3600 E0
G1 F1020 X39.434 Y-25.366 E0.02641
G1 X40.037 Y-25.317 E0.04956
G1 X40.628 Y-25.189 E0.0727
G1 X41.197 Y-24.985 E0.09584
G1 X41.734 Y-24.707 E0.11898
G1 X42.23 Y-24.36 E0.14214
G1 X42.675 Y-23.952 E0.16525
G1 X43.063 Y-23.488 E0.18839
G1 X43.387 Y-22.977 E0.21155
G1 X43.64 Y-22.428 E0.23468
G1 X43.819 Y-21.85 E0.25784
G1 X43.919 Y-21.254 E0.28097
G1 X43.941 Y-20.65 E0.3041
G1 X43.882 Y-20.048 E0.32725
G1 X43.745 Y-19.459 E0.35039
G1 X43.451 Y-18.727 E0.38058
G1 X43.101 Y-18.081 E0.40869
G1 X-5.773 Y67.833 E4.19136
G1 X-6.123 Y68.426 E4.21771
G1 X-6.464 Y68.926 E4.24087
G1 X-6.868 Y69.376 E4.26401
G1 X-7.328 Y69.768 E4.28714
G1 X-7.835 Y70.097 E4.31027
G1 X-8.382 Y70.356 E4.33343
G1 X-8.958 Y70.54 E4.35657
G1 X-9.553 Y70.647 E4.37971
G1 X-10.157 Y70.675 E4.40285
G1 X-10.759 Y70.623 E4.42597
G1 X-11.349 Y70.491 E4.44911
G1 X-11.917 Y70.283 E4.47226
G1 X-12.452 Y70.002 E4.49539
G1 X-12.946 Y69.653 E4.51853
G1 X-13.389 Y69.242 E4.54166
G1 X-13.905 Y68.584 E4.57366
G1 X-14.256 Y68.015 E4.59925
G1 X-65.307 Y-17.858 E8.42244
G1 X-65.674 Y-18.495 E8.45057
G1 X-65.94 Y-19.037 E8.47368
G1 X-66.133 Y-19.61 E8.49682
G1 X-66.249 Y-20.204 E8.51998
G1 X-66.285 Y-20.807 E8.5431
G1 X-66.241 Y-21.41 E8.56624
G1 X-66.118 Y-22.003 E8.58941
G1 X-65.919 Y-22.573 E8.61252
G1 X-65.645 Y-23.112 E8.63566
G1 X-65.303 Y-23.611 E8.65881
G1 X-64.898 Y-24.06 E8.68195
G1 X-64.438 Y-24.452 E8.70508
G1 X-63.929 Y-24.78 E8.72825
G1 X-63.382 Y-25.037 E8.75138
G1 X-62.806 Y-25.221 E8.77452
G1 X-62.211 Y-25.326 E8.79764
G1 X-61.809 Y-25.353 E8.81306
G1 X-60.693 Y-25.376 E8.85578
G1 X38.744 Y-25.376 E12.66119
G0 F2040 X38.739 Y-25.026
G1 F1020 X39.429 Y-25.016 E12.68759
G1 X40.008 Y-24.967 E12.70983
G1 X40.575 Y-24.84 E12.73207
G1 X41.119 Y-24.636 E12.7543
G1 X41.63 Y-24.359 E12.77655
G1 X42.098 Y-24.015 E12.79877
G1 X42.515 Y-23.61 E12.82102
G1 X42.872 Y-23.152 E12.84324
G1 X43.163 Y-22.649 E12.86548
G1 X43.382 Y-22.111 E12.88771
G1 X43.525 Y-21.547 E12.90998
G1 X43.589 Y-20.97 E12.9322
G1 X43.574 Y-20.389 E12.95444
G1 X43.479 Y-19.816 E12.97667
G1 X43.306 Y-19.261 E12.99891
G1 X43.093 Y-18.796 E13.01849
G1 X42.795 Y-18.251 E13.04226
G1 X-6.074 Y67.656 E16.82459
G1 X-6.424 Y68.249 E16.85095
G1 X-6.754 Y68.727 E16.87317
G1 X-7.145 Y69.157 E16.89542
G1 X-7.592 Y69.528 E16.91765
G1 X-8.086 Y69.835 E16.93991
G1 X-8.616 Y70.071 E16.96211
G1 X-9.175 Y70.232 E16.98437
G1 X-9.75 Y70.314 E17.0066
G1 X-10.331 Y70.317 E17.02883
G1 X-10.907 Y70.241 E17.05107
G1 X-11.467 Y70.086 E17.0733
G1 X-12 Y69.856 E17.09552
G1 X-12.497 Y69.554 E17.11778
G1 X-12.948 Y69.188 E17.14
G1 X-13.344 Y68.763 E17.16223
G1 X-13.664 Y68.312 E17.1834
G1 X-13.957 Y67.834 E17.20485
G1 X-65.035 Y-18.086 E21.03012
G1 X-65.371 Y-18.669 E21.05587
G1 X-65.625 Y-19.191 E21.07809
G1 X-65.806 Y-19.744 E21.10036
G1 X-65.909 Y-20.315 E21.12256
G1 X-65.933 Y-20.896 E21.14482
G1 X-65.877 Y-21.474 E21.16704
G1 X-65.743 Y-22.039 E21.18926
G1 X-65.532 Y-22.581 E21.21152
G1 X-65.248 Y-23.088 E21.23376
G1 X-64.898 Y-23.552 E21.256
G1 X-64.487 Y-23.963 E21.27825
G1 X-64.024 Y-24.314 E21.30048
G1 X-63.517 Y-24.598 E21.32272
G1 X-62.976 Y-24.81 E21.34496
G1 X-62.411 Y-24.945 E21.36719
G1 X-61.801 Y-25.003 E21.39064
G1 X-60.693 Y-25.026 E21.43305
G1 X38.739 Y-25.026 E25.23826
G0 F2040 X38.734 Y-24.676
G1 F1020 X39.424 Y-24.666 E25.26467
G1 X39.978 Y-24.618 E25.28595
G1 X40.52 Y-24.491 E25.30726
G1 X41.038 Y-24.288 E25.32855
G1 X41.522 Y-24.012 E25.34987
G1 X41.961 Y-23.671 E25.37114
G1 X42.347 Y-23.27 E25.39244
G1 X42.671 Y-22.817 E25.41376
G1 X42.927 Y-22.323 E25.43505
G1 X43.11 Y-21.798 E25.45633
G1 X43.216 Y-21.252 E25.47761
G1 X43.242 Y-20.696 E25.49891
G1 X43.188 Y-20.142 E25.52022
G1 X43.056 Y-19.602 E25.54149
G1 X42.826 Y-19.043 E25.56462
G1 X42.489 Y-18.42 E25.59173
G1 X-6.376 Y67.478 E29.37369
G1 X-6.726 Y68.071 E29.40004
G1 X-7.042 Y68.528 E29.42131
G1 X-7.421 Y68.936 E29.44262
G1 X-7.854 Y69.285 E29.4639
G1 X-8.333 Y69.568 E29.48519
G1 X-8.848 Y69.78 E29.5065
G1 X-9.387 Y69.917 E29.52779
G1 X-9.941 Y69.974 E29.5491
G1 X-10.497 Y69.952 E29.5704
G1 X-11.044 Y69.85 E29.59169
G1 X-11.57 Y69.671 E29.61295
G1 X-12.066 Y69.418 E29.63426
G1 X-12.521 Y69.097 E29.65557
G1 X-12.924 Y68.714 E29.67685
G1 X-13.317 Y68.204 E29.70149
G1 X-13.658 Y67.652 E29.72632
G1 X-64.731 Y-18.261 E33.55126
G1 X-65.067 Y-18.844 E33.57701
G1 X-65.31 Y-19.345 E33.59832
G1 X-65.478 Y-19.875 E33.6196
G1 X-65.569 Y-20.424 E33.64089
G1 X-65.58 Y-20.981 E33.66221
G1 X-65.511 Y-21.533 E33.6835
G1 X-65.364 Y-22.069 E33.70477
G1 X-65.141 Y-22.579 E33.72608
G1 X-64.848 Y-23.052 E33.74737
G1 X-64.49 Y-23.478 E33.76866
G1 X-64.075 Y-23.849 E33.78997
G1 X-63.611 Y-24.156 E33.81126
G1 X-63.108 Y-24.393 E33.83254
G1 X-62.576 Y-24.556 E33.85383
G1 X-61.794 Y-24.653 E33.88399
G1 X-60.693 Y-24.676 E33.92613
G1 X38.734 Y-24.676 E37.73116
G0 F2040 X38.729 Y-24.326
G1 F1020 X39.419 Y-24.316 E37.75756
G1 X39.948 Y-24.268 E37.77789
G1 X40.463 Y-24.142 E37.79818
G1 X40.954 Y-23.939 E37.81851
G1 X41.408 Y-23.666 E37.83879
G1 X41.817 Y-23.327 E37.85912
G1 X42.169 Y-22.93 E37.87942
G1 X42.459 Y-22.486 E37.89972
G1 X42.678 Y-22.002 E37.92005
G1 X42.823 Y-21.492 E37.94034
G1 X42.889 Y-20.965 E37.96067
G1 X42.875 Y-20.435 E37.98096
G1 X42.782 Y-19.912 E38.00128
G1 X42.514 Y-19.2 E38.0304
G1 X42.182 Y-18.59 E38.05698
G1 X-6.677 Y67.3 E41.83856
G1 X-7.027 Y67.893 E41.86491
G1 X-7.331 Y68.328 E41.88522
G1 X-7.696 Y68.713 E41.90552
G1 X-8.115 Y69.039 E41.92584
G1 X-8.578 Y69.298 E41.94614
G1 X-9.075 Y69.485 E41.96646
G1 X-9.594 Y69.595 E41.98677
G1 X-10.124 Y69.625 E42.00708
G1 X-10.652 Y69.576 E42.02737
G1 X-11.167 Y69.449 E42.04767
G1 X-11.657 Y69.245 E42.06799
G1 X-12.111 Y68.97 E42.0883
G1 X-12.518 Y68.63 E42.10859
G1 X-12.87 Y68.233 E42.1289
G1 X-13.359 Y67.47 E42.16358
G1 X-64.428 Y-18.436 E45.98821
G1 X-64.764 Y-19.019 E46.01397
G1 X-64.994 Y-19.497 E46.03427
G1 X-65.149 Y-20.005 E46.05459
G1 X-65.226 Y-20.53 E46.0749
G1 X-65.224 Y-21.06 E46.09518
G1 X-65.142 Y-21.585 E46.11552
G1 X-64.982 Y-22.091 E46.13583
G1 X-64.748 Y-22.567 E46.15612
G1 X-64.445 Y-23.003 E46.17644
G1 X-64.08 Y-23.388 E46.19675
G1 X-63.662 Y-23.714 E46.21703
G1 X-63.199 Y-23.974 E46.23735
G1 X-62.702 Y-24.161 E46.25768
G1 X-62.183 Y-24.272 E46.27799
G1 X-61.786 Y-24.303 E46.29323
G1 X-60.693 Y-24.326 E46.33506
G1 X38.729 Y-24.326 E50.1399
G0 F2040 X38.724 Y-23.976
G1 F1020 X39.414 Y-23.966 E50.1663
G1 X39.915 Y-23.918 E50.18556
G1 X40.403 Y-23.793 E50.20484
G1 X40.865 Y-23.591 E50.22414
G1 X41.288 Y-23.319 E50.24339
G1 X41.664 Y-22.984 E50.26266
G1 X41.982 Y-22.593 E50.28195
G1 X42.234 Y-22.157 E50.30122
G1 X42.414 Y-21.687 E50.32048
G1 X42.517 Y-21.194 E50.33975
G1 X42.541 Y-20.691 E50.35902
G1 X42.486 Y-20.191 E50.37827
G1 X42.352 Y-19.705 E50.39757
G1 X42.099 Y-19.162 E50.42049
G1 X41.86 Y-18.73 E50.43939
G1 X-6.979 Y67.122 E54.21932
G1 X-7.329 Y67.715 E54.24568
G1 X-7.618 Y68.127 E54.26494
G1 X-7.969 Y68.488 E54.28421
G1 X-8.373 Y68.789 E54.30349
G1 X-8.819 Y69.022 E54.32274
G1 X-9.297 Y69.182 E54.34203
G1 X-9.794 Y69.265 E54.36132
G1 X-10.297 Y69.267 E54.38057
G1 X-10.795 Y69.19 E54.39985
G1 X-11.274 Y69.036 E54.41911
G1 X-11.723 Y68.807 E54.43839
G1 X-12.13 Y68.511 E54.45765
G1 X-12.485 Y68.154 E54.47692
G1 X-12.783 Y67.742 E54.49638
G1 X-13.076 Y67.261 E54.51793
G1 X-64.125 Y-18.611 E58.34106
G1 X-64.461 Y-19.194 E58.36681
G1 X-64.677 Y-19.648 E58.38605
G1 X-64.818 Y-20.132 E58.40534
G1 X-64.882 Y-20.631 E58.42459
G1 X-64.865 Y-21.135 E58.44389
G1 X-64.769 Y-21.629 E58.46315
G1 X-64.596 Y-22.102 E58.48243
G1 X-64.351 Y-22.542 E58.5017
G1 X-64.039 Y-22.937 E58.52096
G1 X-63.668 Y-23.278 E58.54025
G1 X-63.248 Y-23.556 E58.55952
G1 X-62.79 Y-23.765 E58.57879
G1 X-62.304 Y-23.898 E58.59807
G1 X-61.779 Y-23.953 E58.61827
G1 X-60.693 Y-23.976 E58.65984
G1 X38.724 Y-23.976 E62.46448
G1 F3600 E58.66448
;MESH:support_tri_0_005.stl
G0 F2040 X38.724 Y-21.466
G0 X38.724 Y-20.431
G0 X-10.072 Y65.075
;TYPE:WALL-INNER
G1 F3600 E62.46448
G1 F1020 X-60.811 Y-20.276 E66.26441
G1 X38.483 Y-20.276 E70.06434
G1 X-10.072 Y65.075 E73.82224
G0 F2040 X-10.066 Y65.721
;TYPE:WALL-OUTER
G1 F1020 X-61.382 Y-20.601 E77.66539
G1 X39.041 Y-20.601 E81.50853
G1 X-10.066 Y65.721 E85.30917
G0 F2040 X-10.168 Y65.55
G0 X-10.069 Y65.323
G0 X-10.079 Y64.399
;TYPE:SKIN
G1 F1020 X-60.214 Y-19.936 E89.06386
G1 X37.898 Y-19.936 E92.81856
G1 X-10.079 Y64.399 E96.53172
G0 F2040 X-9.931 Y63.819
G1 F1020 X-10.697 Y63.054 E96.57315
G1 X-10.759 Y62.992
G0 F2040 X-9.751 Y63.504
G1 F1020 X-11.422 Y61.833 E96.66359
G1 X-11.484 Y61.771
G0 F2040 X-12.148 Y60.613
G1 F1020 X-9.572 Y63.189 E96.80301
G0 F2040 X-9.392 Y62.873
G1 F1020 X-12.874 Y59.392 E96.99143
G1 X-12.936 Y59.33
G0 F2040 X-13.599 Y58.171
G1 F1020 X-9.213 Y62.557 E97.22881
G0 F2040 X-9.033 Y62.242
G1 F1020 X-14.325 Y56.951 E97.51519
G1 X-14.387 Y56.889
G0 F2040 X-15.05 Y55.73
G1 F1020 X-8.854 Y61.926 E97.85053
G0 F2040 X-8.674 Y61.611
G1 F1020 X-15.776 Y54.51 E98.23487
G1 X-15.838 Y54.448
G0 F2040 X-16.501 Y53.289
G1 F1020 X-8.495 Y61.296 E98.66819
G0 F2040 X-8.315 Y60.98
G1 F1020 X-17.227 Y52.069 E99.15049
G1 X-17.289 Y52.007
G0 F2040 X-17.952 Y50.848
G1 F1020 X-8.136 Y60.664 E99.68175
G0 F2040 X-7.957 Y60.349
G1 F1020 X-18.678 Y49.628 E100.26198
G1 X-18.74 Y49.566
G0 F2040 X-19.403 Y48.407
G1 F1020 X-7.777 Y60.034 E100.89122
G0 F2040 X-7.597 Y59.718
G1 F1020 X-20.129 Y47.186 E101.56947
G1 X-20.191 Y47.124
G0 F2040 X-20.855 Y45.966
G1 F1020 X-7.418 Y59.403 E102.2967
G0 F2040 X-7.238 Y59.087
G1 F1020 X-21.58 Y44.745 E103.0729
G1 X-21.642 Y44.683
G0 F2040 X-22.306 Y43.525
G1 F1020 X-7.059 Y58.771 E103.89806
G0 F2040 X-6.88 Y58.456
G1 F1020 X-23.031 Y42.304 E104.7722
G1 X-23.093 Y42.242
G0 F2040 X-23.757 Y41.084
G1 F1020 X-6.7 Y58.141 E105.69535
G0 F2040 X-6.52 Y57.825
G1 F1020 X-24.482 Y39.863 E106.66748
G1 X-24.544 Y39.801
G0 F2040 X-25.208 Y38.643
G1 F1020 X-6.341 Y57.51 E107.68858
G0 F2040 X-6.161 Y57.195
G1 F1020 X-25.933 Y37.422 E108.75869
G1 X-25.995 Y37.36
G0 F2040 X-26.659 Y36.202
G1 F1020 X-5.982 Y56.878 E109.87773
G0 F2040 X-5.803 Y56.563
G1 F1020 X-27.385 Y34.981 E111.04578
G1 X-27.447 Y34.919
G0 F2040 X-28.111 Y33.76
G1 F1020 X-5.623 Y56.248 E112.26286
G0 F2040 X-5.444 Y55.932
G1 F1020 X-28.836 Y32.54 E113.52886
G1 X-28.898 Y32.478
G0 F2040 X-29.562 Y31.319
G1 F1020 X-5.264 Y55.617 E114.8439
G0 F2040 X-5.085 Y55.301
G1 F1020 X-30.287 Y30.099 E116.20787
G1 X-30.349 Y30.037
G0 F2040 X-31.012 Y28.878
G1 F1020 X-4.905 Y54.986 E117.62084
G0 F2040 X-4.726 Y54.67
G1 F1020 X-31.738 Y27.658 E119.08276
G1 X-31.8 Y27.596
G0 F2040 X-32.463 Y26.438
G1 F1020 X-4.546 Y54.355 E120.59366
G0 F2040 X-4.367 Y54.039
G1 F1020 X-33.189 Y25.217 E122.15355
G1 X-33.251 Y25.155
G0 F2040 X-33.914 Y23.997
G1 F1020 X-4.187 Y53.724 E123.76241
G0 F2040 X-4.008 Y53.408
G1 F1020 X-34.641 Y22.775 E125.42031
G1 X-34.703 Y22.713
G0 F2040 X-35.366 Y21.555
G1 F1020 X-3.828 Y53.093 E127.12718
G0 F2040 X-3.649 Y52.777
G1 F1020 X-36.092 Y20.334 E128.88304
G1 X-36.154 Y20.272
G0 F2040 X-36.817 Y19.114
G1 F1020 X-3.469 Y52.462 E130.68788
G0 F2040 X-3.29 Y52.147
G1 F1020 X-37.543 Y17.894 E132.54169
G1 X-37.605 Y17.832
G0 F2040 X-38.268 Y16.673
G1 F1020 X-3.11 Y51.831 E134.44449
G0 F2040 X-2.931 Y51.515
G1 F1020 X-38.994 Y15.453 E136.39624
G1 X-39.056 Y15.391
G0 F2040 X-39.719 Y14.232
G1 F1020 X-2.752 Y51.2 E138.39697
G0 F2040 X-2.572 Y50.884
G1 F1020 X-40.445 Y13.012 E140.44667
G1 X-40.507 Y12.95
G0 F2040 X-41.17 Y11.791
G1 F1020 X-2.392 Y50.569 E142.54539
G0 F2040 X-2.213 Y50.254
G1 F1020 X-41.896 Y10.571 E144.69308
G1 X-41.958 Y10.509
G0 F2040 X-42.622 Y9.35
G1 F1020 X-2.033 Y49.938 E146.88978
G0 F2040 X-1.854 Y49.622
G1 F1020 X-43.347 Y8.129 E149.13544
G1 X-43.409 Y8.067
G0 F2040 X-44.073 Y6.909
G1 F1020 X-1.675 Y49.307 E151.43007
G0 F2040 X-1.495 Y48.991
G1 F1020 X-44.798 Y5.688 E153.77369
G1 X-44.86 Y5.626
G0 F2040 X-45.524 Y4.468
G1 F1020 X-1.315 Y48.676 E156.16631
G0 F2040 X-1.136 Y48.361
G1 F1020 X-46.249 Y3.247 E158.60791
G1 X-46.311 Y3.185
G0 F2040 X-46.975 Y2.027
G1 F1020 X-.956 Y48.045 E161.09849
G0 F2040 X-.777 Y47.729
G1 F1020 X-47.7 Y0.806 E163.63802
G1 X-47.762 Y0.744
G0 F2040 X-48.426 Y-.413
G1 F1020 X-.598 Y47.414 E166.2265
G0 F2040 X-.418 Y47.098
G1 F1020 X-49.151 Y-1.634 E168.86397
G1 X-49.213 Y-1.696
G0 F2040 X-49.877 Y-2.855
G1 F1020 X-.239 Y46.783 E171.55044
G0 F2040 X-0.059 Y46.468
G1 F1020 X-50.603 Y-4.075 E174.28592
G1 X-50.665 Y-4.137
G0 F2040 X-51.328 Y-5.296
G1 F1020 X0.119 Y46.152 E177.07032
G0 F2040 X0.299 Y45.836
G1 F1020 X-52.054 Y-6.516 E179.90371
G1 X-52.116 Y-6.578
G0 F2040 X-52.779 Y-7.737
G1 F1020 X0.478 Y45.521 E182.78607
G0 F2040 X0.658 Y45.206
G1 F1020 X-53.505 Y-8.957 E185.71744
G1 X-53.567 Y-9.019
G0 F2040 X-54.23 Y-10.178
G1 F1020 X0.837 Y44.89 E188.69777
G0 F2040 X1.017 Y44.575
G1 F1020 X-54.956 Y-11.398 E191.7271
G1 X-55.018 Y-11.46
G0 F2040 X-55.681 Y-12.619
G1 F1020 X1.196 Y44.259 E194.80538
G0 F2040 X1.376 Y43.943
G1 F1020 X-56.407 Y-13.839 E197.93264
G1 X-56.469 Y-13.901
G0 F2040 X-57.133 Y-15.06
G1 F1020 X1.555 Y43.628 E201.10891
G0 F2040 X1.735 Y43.313
G1 F1020 X-57.859 Y-16.281 E204.33421
G1 X-57.921 Y-16.343
G0 F2040 X-58.584 Y-17.501
G1 F1020 X1.914 Y42.997 E207.60844
G0 F2040 X2.094 Y42.682
G1 F1020 X-59.309 Y-18.722 E210.93168
G1 X-59.371 Y-18.784
G0 F2040 X-59.376 Y-19.778
G1 F1020 X2.452 Y42.05 E214.27789
G0 F2040 X2.632 Y41.735
G1 F1020 X-58.881 Y-19.778 E217.60705
G0 F2040 X-58.386 Y-19.778
G1 F1020 X2.812 Y41.42 E220.91916
G0 F2040 X2.991 Y41.104
G1 F1020 X-57.891 Y-19.778 E224.21417
G0 F2040 X-57.396 Y-19.778
G1 F1020 X3.171 Y40.789 E227.49214
G0 F2040 X3.35 Y40.473
G1 F1020 X-56.901 Y-19.778 E230.753
G0 F2040 X-56.406 Y-19.778
G1 F1020 X3.529 Y40.158 E233.99678
G0 F2040 X3.709 Y39.842
G1 F1020 X-55.911 Y-19.778 E237.22349
G0 F2040 X-55.416 Y-19.778
G1 F1020 X3.889 Y39.527 E240.43316
G0 F2040 X4.068 Y39.211
G1 F1020 X-54.921 Y-19.778 E243.62572
G0 F2040 X-54.426 Y-19.778
G1 F1020 X4.247 Y38.895 E246.80117
G0 F2040 X4.427 Y38.58
G1 F1020 X-53.931 Y-19.778 E249.95958
G0 F2040 X-53.436 Y-19.778
G1 F1020 X4.606 Y38.265 E253.10092
G0 F2040 X4.786 Y37.949
G1 F1020 X-52.941 Y-19.778 E256.22518
G0 F2040 X-52.446 Y-19.778
G1 F1020 X4.966 Y37.634 E259.33239
G0 F2040 X5.145 Y37.318
G1 F1020 X-51.951 Y-19.778 E262.4225
G0 F2040 X-51.456 Y-19.778
G1 F1020 X5.324 Y37.002 E265.4955
G0 F2040 X5.504 Y36.687
G1 F1020 X-50.961 Y-19.778 E268.55146
G0 F2040 X-50.466 Y-19.778
G1 F1020 X5.683 Y36.372 E271.59034
G0 F2040 X5.863 Y36.056
G1 F1020 X-49.971 Y-19.778 E274.61215
G0 F2040 X-49.476 Y-19.778
G1 F1020 X6.042 Y35.741 E277.61688
G0 F2040 X6.222 Y35.426
G1 F1020 X-48.981 Y-19.778 E280.60456
G0 F2040 X-48.487 Y-19.778
G1 F1020 X6.401 Y35.109 E283.57515
G0 F2040 X6.581 Y34.794
G1 F1020 X-47.992 Y-19.778 E286.52868
G0 F2040 X-47.497 Y-19.778
G1 F1020 X6.76 Y34.479 E289.46514
G0 F2040 X6.94 Y34.163
G1 F1020 X-47.002 Y-19.778 E292.38452
G0 F2040 X-46.507 Y-19.778
G1 F1020 X7.119 Y33.848 E295.28683
G0 F2040 X7.299 Y33.533
G1 F1020 X-46.012 Y-19.778 E298.17209
G0 F2040 X-45.517 Y-19.778
G1 F1020 X7.478 Y33.217 E301.04024
G0 F2040 X7.657 Y32.901
G1 F1020 X-45.022 Y-19.778 E303.8913
G0 F2040 X-44.527 Y-19.778
G1 F1020 X7.837 Y32.586 E306.7253
G0 F2040 X8.017 Y32.27
G1 F1020 X-44.032 Y-19.778 E309.54224
G0 F2040 X-43.537 Y-19.778
G1 F1020 X8.196 Y31.955 E312.34209
G0 F2040 X8.376 Y31.64
G1 F1020 X-43.042 Y-19.778 E315.1249
G0 F2040 X-42.547 Y-19.778
G1 F1020 X8.555 Y31.324 E317.8906
G0 F2040 X8.734 Y31.008
G1 F1020 X-42.052 Y-19.778 E320.63921
G0 F2040 X-41.557 Y-19.778
G1 F1020 X8.914 Y30.693 E323.37076
G0 F2040 X9.094 Y30.378
G1 F1020 X-41.062 Y-19.778 E326.08527
