;FLAVOR:Marlin
;TIME:7910
;Filament used: 7.25364m
;Layer height: 0.2
;MINX:-66.284
;MINY:-25.376
;MINZ:0.26
;MAXX:43.942
;MAXY:70.674
;MAXZ:23.46
;Generated with Cura_SteamEngine 4.8.0
M82 ;absolute extrusion mode
;Gcode by Cura
G90
G28
M107
M109 R100
G30
M109 S215 U-55 X55 V-85 Y-85 W0.26 Z0.26
M82
G92 E0
G1 F200 E6
G92 E0
G1 F200 E-3.5
G0 Z0.15
G0 X10
G0 Z3
G1 F6000
G92 E0
G92 E0
G1 F3600 E-3.8
;LAYER_COUNT:117
;LAYER:0
M107
G0 F2040 X38.745 Y-25.376 Z0.26
;TYPE:SKIRT
G1 F3600 E0
G1 F1020 X39.435 Y-25.366 E0.02641
G1 X40.038 Y-25.317 E0.04956
G1 X40.629 Y-25.189 E0.0727
G1 X41.198 Y-24.985 E0.09584
G1 X41.735 Y-24.707 E0.11898
G1 X42.231 Y-24.36 E0.14214
G1 X42.676 Y-23.952 E0.16525
G1 X43.064 Y-23.488 E0.18839
G1 X43.388 Y-22.977 E0.21155
G1 X43.641 Y-22.428 E0.23468
G1 X43.82 Y-21.85 E0.25784
G1 X43.92 Y-21.254 E0.28097
G1 X43.942 Y-20.65 E0.3041
G1 X43.883 Y-20.048 E0.32725
G1 X43.746 Y-19.459 E0.35039
G1 X43.434 Y-18.693 E0.38204
G1 X43.104 Y-18.086 E0.40848
G1 X-5.72 Y67.741 E4.1873
G1 X-6.114 Y68.414 E4.21715
G1 X-6.454 Y68.914 E4.24029
G1 X-6.856 Y69.365 E4.26341
G1 X-7.315 Y69.759 E4.28656
G1 X-7.821 Y70.089 E4.30968
G1 X-8.367 Y70.35 E4.33284
G1 X-8.942 Y70.536 E4.35597
G1 X-9.537 Y70.645 E4.37911
G1 X-10.141 Y70.674 E4.40226
G1 X-10.743 Y70.624 E4.42537
G1 X-11.334 Y70.494 E4.44853
G1 X-11.902 Y70.288 E4.47165
G1 X-12.439 Y70.009 E4.49481
G1 X-12.933 Y69.661 E4.51794
G1 X-13.378 Y69.251 E4.54109
G1 X-13.913 Y68.568 E4.5743
G1 X-14.245 Y68.032 E4.59843
G1 X-65.33 Y-17.898 E8.42416
G1 X-65.676 Y-18.5 E8.45073
G1 X-65.942 Y-19.043 E8.47387
G1 X-66.134 Y-19.616 E8.497
G1 X-66.248 Y-20.21 E8.52015
G1 X-66.284 Y-20.813 E8.54326
G1 X-66.239 Y-21.416 E8.5664
G1 X-66.116 Y-22.008 E8.58954
G1 X-65.915 Y-22.579 E8.61271
G1 X-65.641 Y-23.118 E8.63585
G1 X-65.298 Y-23.616 E8.65899
G1 X-64.893 Y-24.064 E8.6821
G1 X-64.432 Y-24.456 E8.70526
G1 X-63.923 Y-24.782 E8.72839
G1 X-63.376 Y-25.04 E8.75154
G1 X-62.8 Y-25.222 E8.77466
G1 X-62.204 Y-25.327 E8.79782
G1 X-61.808 Y-25.353 E8.813
G1 X-60.692 Y-25.376 E8.85572
G1 X38.745 Y-25.376 E12.66113
G0 F2040 X38.74 Y-25.026
G1 F1020 X39.43 Y-25.016 E12.68754
G1 X40.009 Y-24.967 E12.70977
G1 X40.576 Y-24.84 E12.73201
G1 X41.12 Y-24.636 E12.75424
G1 X41.631 Y-24.359 E12.77649
G1 X42.099 Y-24.015 E12.79872
G1 X42.516 Y-23.61 E12.82096
G1 X42.873 Y-23.152 E12.84319
G1 X43.164 Y-22.649 E12.86542
G1 X43.383 Y-22.111 E12.88765
G1 X43.526 Y-21.547 E12.90992
G1 X43.59 Y-20.97 E12.93214
G1 X43.575 Y-20.389 E12.95438
G1 X43.48 Y-19.816 E12.97661
G1 X43.307 Y-19.261 E12.99885
G1 X43.075 Y-18.76 E13.01998
G1 X42.798 Y-18.255 E13.04203
G1 X-6.052 Y67.616 E16.82281
G1 X-6.416 Y68.237 E16.85035
G1 X-6.744 Y68.716 E16.87257
G1 X-7.134 Y69.147 E16.89481
G1 X-7.58 Y69.52 E16.91706
G1 X-8.072 Y69.828 E16.93928
G1 X-8.602 Y70.065 E16.9615
G1 X-9.16 Y70.228 E16.98374
G1 X-9.735 Y70.312 E17.00598
G1 X-10.316 Y70.317 E17.02822
G1 X-10.892 Y70.242 E17.05045
G1 X-11.453 Y70.089 E17.0727
G1 X-11.987 Y69.86 E17.09494
G1 X-12.485 Y69.561 E17.11716
G1 X-12.937 Y69.195 E17.13942
G1 X-13.334 Y68.772 E17.16162
G1 X-13.684 Y68.276 E17.18486
G1 X-13.975 Y67.803 E17.20611
G1 X-65.06 Y-18.131 E21.03197
G1 X-65.372 Y-18.674 E21.05594
G1 X-65.626 Y-19.197 E21.07819
G1 X-65.807 Y-19.749 E21.10042
G1 X-65.909 Y-20.321 E21.12266
G1 X-65.932 Y-20.902 E21.14491
G1 X-65.875 Y-21.48 E21.16714
G1 X-65.74 Y-22.045 E21.18937
G1 X-65.528 Y-22.586 E21.21161
G1 X-65.244 Y-23.093 E21.23384
G1 X-64.893 Y-23.556 E21.25608
G1 X-64.482 Y-23.966 E21.2783
G1 X-64.019 Y-24.317 E21.30053
G1 X-63.511 Y-24.6 E21.32279
G1 X-62.97 Y-24.811 E21.34501
G1 X-62.405 Y-24.946 E21.36724
G1 X-61.8 Y-25.003 E21.39049
G1 X-60.692 Y-25.026 E21.43291
G1 X38.74 Y-25.026 E25.23812
G0 F2040 X38.735 Y-24.676
G1 F1020 X39.425 Y-24.666 E25.26453
G1 X39.979 Y-24.618 E25.28581
G1 X40.521 Y-24.491 E25.30711
G1 X41.039 Y-24.288 E25.32841
G1 X41.523 Y-24.012 E25.34973
G1 X41.962 Y-23.671 E25.371
G1 X42.348 Y-23.27 E25.3923
G1 X42.672 Y-22.817 E25.41362
G1 X42.928 Y-22.323 E25.43491
G1 X43.111 Y-21.798 E25.45619
G1 X43.217 Y-21.252 E25.47747
G1 X43.243 Y-20.696 E25.49877
G1 X43.189 Y-20.142 E25.52007
G1 X43.057 Y-19.602 E25.54135
G1 X42.812 Y-19.014 E25.56573
G1 X42.492 Y-18.424 E25.59141
G1 X-6.354 Y67.439 E29.37185
G1 X-6.718 Y68.06 E29.3994
G1 X-7.033 Y68.518 E29.42067
G1 X-7.411 Y68.927 E29.44198
G1 X-7.843 Y69.277 E29.46326
G1 X-8.321 Y69.562 E29.48456
G1 X-8.835 Y69.776 E29.50586
G1 X-9.374 Y69.914 E29.52716
G1 X-9.927 Y69.973 E29.54844
G1 X-10.483 Y69.952 E29.56973
G1 X-11.03 Y69.852 E29.59101
G1 X-11.558 Y69.674 E29.61234
G1 X-12.054 Y69.423 E29.63361
G1 X-12.509 Y69.103 E29.6549
G1 X-12.914 Y68.722 E29.67618
G1 X-13.324 Y68.191 E29.70185
G1 X-13.648 Y67.667 E29.72543
G1 X-64.757 Y-18.305 E33.55302
G1 X-65.069 Y-18.848 E33.57698
G1 X-65.311 Y-19.35 E33.59831
G1 X-65.478 Y-19.88 E33.61958
G1 X-65.568 Y-20.429 E33.64087
G1 X-65.578 Y-20.986 E33.66219
G1 X-65.509 Y-21.538 E33.68347
G1 X-65.361 Y-22.074 E33.70475
G1 X-65.138 Y-22.584 E33.72606
G1 X-64.844 Y-23.056 E33.74734
G1 X-64.486 Y-23.482 E33.76863
G1 X-64.07 Y-23.852 E33.78994
G1 X-63.606 Y-24.158 E33.81121
G1 X-63.102 Y-24.395 E33.83252
G1 X-62.57 Y-24.557 E33.85381
G1 X-61.793 Y-24.653 E33.88377
G1 X-60.692 Y-24.676 E33.92591
G1 X38.735 Y-24.676 E37.73093
G0 F2040 X38.73 Y-24.326
G1 F1020 X39.42 Y-24.316 E37.75734
G1 X39.949 Y-24.268 E37.77767
G1 X40.464 Y-24.142 E37.79796
G1 X40.955 Y-23.939 E37.81829
G1 X41.409 Y-23.666 E37.83857
G1 X41.818 Y-23.327 E37.8589
G1 X42.17 Y-22.93 E37.8792
G1 X42.46 Y-22.486 E37.8995
G1 X42.679 Y-22.002 E37.91983
G1 X42.824 Y-21.492 E37.94012
G1 X42.89 Y-20.965 E37.96044
G1 X42.876 Y-20.435 E37.98073
G1 X42.783 Y-19.912 E38.00106
G1 X42.501 Y-19.174 E38.0313
G1 X42.185 Y-18.593 E38.05661
G1 X-6.656 Y67.262 E41.83668
G1 X-7.02 Y67.883 E41.86423
G1 X-7.322 Y68.319 E41.88453
G1 X-7.686 Y68.705 E41.90483
G1 X-8.104 Y69.032 E41.92514
G1 X-8.566 Y69.292 E41.94543
G1 X-9.062 Y69.481 E41.96574
G1 X-9.581 Y69.592 E41.98605
G1 X-10.111 Y69.625 E42.00638
G1 X-10.639 Y69.577 E42.02667
G1 X-11.155 Y69.451 E42.04699
G1 X-11.646 Y69.249 E42.06731
G1 X-12.1 Y68.975 E42.08761
G1 X-12.509 Y68.637 E42.10791
G1 X-12.862 Y68.24 E42.12824
G1 X-13.35 Y67.484 E42.16268
G1 X-64.453 Y-18.48 E45.98988
G1 X-64.765 Y-19.023 E46.01385
G1 X-64.994 Y-19.502 E46.03417
G1 X-65.149 Y-20.009 E46.05446
G1 X-65.225 Y-20.534 E46.07476
G1 X-65.222 Y-21.065 E46.09508
G1 X-65.14 Y-21.589 E46.11538
G1 X-64.979 Y-22.095 E46.1357
G1 X-64.745 Y-22.571 E46.156
G1 X-64.441 Y-23.006 E46.17631
G1 X-64.076 Y-23.391 E46.19661
G1 X-63.657 Y-23.717 E46.21692
G1 X-63.194 Y-23.976 E46.23723
G1 X-62.697 Y-24.163 E46.25755
G1 X-62.178 Y-24.273 E46.27785
G1 X-61.785 Y-24.303 E46.29294
G1 X-60.692 Y-24.326 E46.33477
G1 X38.73 Y-24.326 E50.13961
G0 F2040 X38.725 Y-23.976
G1 F1020 X39.415 Y-23.966 E50.16601
G1 X39.916 Y-23.918 E50.18528
G1 X40.404 Y-23.793 E50.20455
G1 X40.866 Y-23.591 E50.22385
G1 X41.289 Y-23.319 E50.2431
G1 X41.665 Y-22.984 E50.26237
G1 X41.983 Y-22.593 E50.28166
G1 X42.235 Y-22.157 E50.30093
G1 X42.415 Y-21.687 E50.32019
G1 X42.518 Y-21.194 E50.33946
G1 X42.542 Y-20.691 E50.35873
G1 X42.487 Y-20.191 E50.37798
G1 X42.353 Y-19.705 E50.39728
G1 X42.142 Y-19.242 E50.41675
G1 X41.86 Y-18.728 E50.43919
G1 X-6.958 Y67.085 E54.21743
G1 X-7.322 Y67.706 E54.24498
G1 X-7.61 Y68.118 E54.26421
G1 X-7.96 Y68.481 E54.28351
G1 X-8.363 Y68.783 E54.30278
G1 X-8.808 Y69.018 E54.32204
G1 X-9.286 Y69.179 E54.34135
G1 X-9.782 Y69.263 E54.3606
G1 X-10.286 Y69.267 E54.37989
G1 X-10.784 Y69.192 E54.39916
G1 X-11.263 Y69.039 E54.4184
G1 X-11.713 Y68.811 E54.43771
G1 X-12.121 Y68.516 E54.45698
G1 X-12.477 Y68.16 E54.47624
G1 X-12.8 Y67.71 E54.49744
G1 X-13.072 Y67.266 E54.51737
G1 X-64.15 Y-18.654 E58.34264
G1 X-64.462 Y-19.197 E58.3666
G1 X-64.677 Y-19.652 E58.38586
G1 X-64.818 Y-20.136 E58.40516
G1 X-64.881 Y-20.636 E58.42444
G1 X-64.864 Y-21.139 E58.4437
G1 X-64.767 Y-21.633 E58.46297
G1 X-64.593 Y-22.106 E58.48226
G1 X-64.347 Y-22.545 E58.50151
G1 X-64.035 Y-22.94 E58.52078
G1 X-63.664 Y-23.281 E58.54006
G1 X-63.244 Y-23.558 E58.55932
G1 X-62.785 Y-23.766 E58.5786
G1 X-62.299 Y-23.899 E58.59788
G1 X-61.778 Y-23.953 E58.61793
G1 X-60.692 Y-23.976 E58.6595
G1 X38.725 Y-23.976 E62.46414
G1 F3600 E58.66414
;MESH:support_tri_0_003.stl
G0 F2040 X38.725 Y-21.466
G0 X38.725 Y-20.431
G0 X-10.071 Y65.074
;TYPE:WALL-INNER
G1 F3600 E62.46414
G1 F1020 X-60.81 Y-20.276 E66.26403
G1 X38.484 Y-20.276 E70.06396
G1 X-10.071 Y65.074 E73.82183
G0 F2040 X-10.065 Y65.72
;TYPE:WALL-OUTER
G1 F1020 X-61.381 Y-20.601 E77.66494
G1 X39.042 Y-20.601 E81.50808
G1 X-10.065 Y65.72 E85.30869
G0 F2040 X-10.167 Y65.549
G0 X-10.068 Y65.322
G0 X-10.078 Y64.398
;TYPE:SKIN
G1 F1020 X-60.213 Y-19.936 E89.06335
G1 X37.899 Y-19.936 E92.81805
G1 X-10.078 Y64.398 E96.53118
G0 F2040 X-9.93 Y63.82
G1 F1020 X-10.691 Y63.059 E96.57237
G1 X-10.753 Y62.997
G0 F2040 X-9.751 Y63.505
G1 F1020 X-11.417 Y61.838 E96.66256
G1 X-11.479 Y61.776
G0 F2040 X-12.143 Y60.618
G1 F1020 X-9.572 Y63.189 E96.80171
G0 F2040 X-9.392 Y62.873
G1 F1020 X-12.868 Y59.397 E96.98983
G1 X-12.93 Y59.335
G0 F2040 X-13.594 Y58.177
G1 F1020 X-9.212 Y62.558 E97.22697
G0 F2040 X-9.033 Y62.243
G1 F1020 X-14.319 Y56.956 E97.51308
G1 X-14.381 Y56.894
G0 F2040 X-15.045 Y55.736
G1 F1020 X-8.853 Y61.927 E97.84817
G0 F2040 X-8.674 Y61.611
G1 F1020 X-15.77 Y54.515 E98.23221
G1 X-15.832 Y54.453
G0 F2040 X-16.496 Y53.294
G1 F1020 X-8.495 Y61.296 E98.66527
G0 F2040 X-8.315 Y60.98
G1 F1020 X-17.222 Y52.074 E99.1473
G1 X-17.284 Y52.012
G0 F2040 X-17.947 Y50.853
G1 F1020 X-8.135 Y60.665 E99.67833
G0 F2040 X-7.956 Y60.35
G1 F1020 X-18.673 Y49.633 E100.25835
G1 X-18.735 Y49.571
G0 F2040 X-19.398 Y48.412
G1 F1020 X-7.776 Y60.034 E100.88735
G0 F2040 X-7.597 Y59.718
G1 F1020 X-20.124 Y47.192 E101.5653
G1 X-20.186 Y47.13
G0 F2040 X-20.849 Y45.971
G1 F1020 X-7.418 Y59.403 E102.29223
G0 F2040 X-7.238 Y59.087
G1 F1020 X-21.575 Y44.75 E103.06817
G1 X-21.637 Y44.688
G0 F2040 X-22.301 Y43.53
G1 F1020 X-7.059 Y58.772 E103.89308
G0 F2040 X-6.879 Y58.457
G1 F1020 X-23.026 Y42.309 E104.76701
G1 X-23.088 Y42.247
G0 F2040 X-23.752 Y41.089
G1 F1020 X-6.699 Y58.141 E105.68991
G0 F2040 X-6.52 Y57.825
G1 F1020 X-24.477 Y39.868 E106.66176
G1 X-24.539 Y39.806
G0 F2040 X-25.203 Y38.648
G1 F1020 X-6.341 Y57.51 E107.6826
G0 F2040 X-6.161 Y57.195
G1 F1020 X-25.928 Y37.427 E108.75244
G1 X-25.99 Y37.365
G0 F2040 X-26.655 Y36.206
G1 F1020 X-5.982 Y56.879 E109.87129
G0 F2040 X-5.802 Y56.564
G1 F1020 X-27.38 Y34.986 E111.03912
G1 X-27.442 Y34.924
G0 F2040 X-28.106 Y33.765
G1 F1020 X-5.622 Y56.248 E112.25596
G0 F2040 X-5.444 Y55.932
G1 F1020 X-28.831 Y32.545 E113.52169
G1 X-28.893 Y32.483
G0 F2040 X-29.557 Y31.324
G1 F1020 X-5.264 Y55.617 E114.83646
G0 F2040 X-5.084 Y55.302
G1 F1020 X-30.282 Y30.104 E116.20021
G1 X-30.344 Y30.042
G0 F2040 X-31.008 Y28.883
G1 F1020 X-4.905 Y54.986 E117.61293
G0 F2040 X-4.725 Y54.671
G1 F1020 X-31.734 Y27.662 E119.0747
G1 X-31.796 Y27.6
G0 F2040 X-32.459 Y26.442
G1 F1020 X-4.546 Y54.355 E120.58538
G0 F2040 X-4.367 Y54.039
G1 F1020 X-33.185 Y25.221 E122.14505
G1 X-33.247 Y25.159
G0 F2040 X-33.91 Y24.001
G1 F1020 X-4.187 Y53.724 E123.7537
G0 F2040 X-4.007 Y53.409
G1 F1020 X-34.636 Y22.78 E125.41138
G1 X-34.698 Y22.718
G0 F2040 X-35.361 Y21.56
G1 F1020 X-3.828 Y53.093 E127.11798
G0 F2040 X-3.648 Y52.778
G1 F1020 X-36.087 Y20.339 E128.87362
G1 X-36.149 Y20.277
G0 F2040 X-36.813 Y19.118
G1 F1020 X-3.469 Y52.462 E130.67824
G0 F2040 X-3.29 Y52.147
G1 F1020 X-37.538 Y17.898 E132.53182
G1 X-37.6 Y17.836
G0 F2040 X-38.264 Y16.677
G1 F1020 X-3.11 Y51.831 E134.43439
G0 F2040 X-2.93 Y51.516
G1 F1020 X-38.989 Y15.457 E136.38595
G1 X-39.051 Y15.395
G0 F2040 X-39.715 Y14.236
G1 F1020 X-2.751 Y51.2 E138.38649
G0 F2040 X-2.571 Y50.885
G1 F1020 X-40.44 Y13.016 E140.43601
G1 X-40.502 Y12.954
G0 F2040 X-41.166 Y11.795
G1 F1020 X-2.392 Y50.569 E142.53451
G0 F2040 X-2.213 Y50.254
G1 F1020 X-41.892 Y10.574 E144.68201
G1 X-41.954 Y10.512
G0 F2040 X-42.618 Y9.354
G1 F1020 X-2.033 Y49.938 E146.8785
G0 F2040 X-1.854 Y49.623
G1 F1020 X-43.343 Y8.133 E149.12396
G1 X-43.405 Y8.071
G0 F2040 X-44.069 Y6.913
G1 F1020 X-1.674 Y49.307 E151.41841
G0 F2040 X-1.494 Y48.992
G1 F1020 X-44.794 Y5.692 E153.76186
G1 X-44.856 Y5.63
G0 F2040 X-45.519 Y4.472
G1 F1020 X-1.315 Y48.676 E156.15424
G0 F2040 X-1.136 Y48.361
G1 F1020 X-46.245 Y3.251 E158.59562
G1 X-46.307 Y3.189
G0 F2040 X-46.97 Y2.031
G1 F1020 X-.956 Y48.045 E161.08596
G0 F2040 X-.777 Y47.73
G1 F1020 X-47.697 Y0.81 E163.62533
G1 X-47.759 Y0.748
G0 F2040 X-48.422 Y-.41
G1 F1020 X-.597 Y47.415 E166.21368
G0 F2040 X-.418 Y47.098
G1 F1020 X-49.148 Y-1.63 E168.85095
G1 X-49.21 Y-1.692
G0 F2040 X-49.873 Y-2.851
G1 F1020 X-.239 Y46.783 E171.53721
G0 F2040 X-0.059 Y46.468
G1 F1020 X-50.599 Y-4.071 E174.27247
G1 X-50.661 Y-4.133
G0 F2040 X-51.324 Y-5.291
G1 F1020 X0.12 Y46.152 E177.05666
G0 F2040 X0.299 Y45.837
G1 F1020 X-52.05 Y-6.512 E179.88985
G1 X-52.112 Y-6.574
G0 F2040 X-52.776 Y-7.733
G1 F1020 X0.479 Y45.522 E182.77208
G0 F2040 X0.658 Y45.206
G1 F1020 X-53.501 Y-8.954 E185.70326
G1 X-53.563 Y-9.016
G0 F2040 X-54.227 Y-10.174
G1 F1020 X0.837 Y44.89 E188.68339
G0 F2040 X1.017 Y44.575
G1 F1020 X-54.952 Y-11.395 E191.71254
G1 X-55.014 Y-11.457
G0 F2040 X-55.678 Y-12.615
G1 F1020 X1.197 Y44.259 E194.79066
G0 F2040 X1.376 Y43.944
G1 F1020 X-56.403 Y-13.835 E197.91773
G1 X-56.465 Y-13.897
G0 F2040 X-57.129 Y-15.056
G1 F1020 X1.556 Y43.629 E201.09384
G0 F2040 X1.735 Y43.313
G1 F1020 X-57.855 Y-16.277 E204.31892
G1 X-57.917 Y-16.339
G0 F2040 X-58.58 Y-17.498
G1 F1020 X1.914 Y42.997 E207.59296
G0 F2040 X2.094 Y42.682
G1 F1020 X-59.306 Y-18.718 E210.91601
G1 X-59.368 Y-18.78
G0 F2040 X-59.376 Y-19.778
G1 F1020 X2.453 Y42.051 E214.26227
G0 F2040 X2.633 Y41.736
G1 F1020 X-58.881 Y-19.778 E217.59149
G0 F2040 X-58.386 Y-19.778
G1 F1020 X2.812 Y41.42 E220.9036
G0 F2040 X2.991 Y41.104
G1 F1020 X-57.891 Y-19.778 E224.19861
G0 F2040 X-57.396 Y-19.778
G1 F1020 X3.171 Y40.789 E227.47658
G0 F2040 X3.35 Y40.474
G1 F1020 X-56.901 Y-19.778 E230.73746
G0 F2040 X-56.406 Y-19.778
G1 F1020 X3.53 Y40.158 E233.98128
G0 F2040 X3.709 Y39.842
G1 F1020 X-55.911 Y-19.778 E237.20799
G0 F2040 X-55.416 Y-19.778
G1 F1020 X3.889 Y39.527 E240.41765
G0 F2040 X4.068 Y39.211
G1 F1020 X-54.921 Y-19.778 E243.61021
G0 F2040 X-54.426 Y-19.778
G1 F1020 X4.248 Y38.896 E246.78572
G0 F2040 X4.427 Y38.581
G1 F1020 X-53.931 Y-19.778 E249.94416
G0 F2040 X-53.436 Y-19.778
G1 F1020 X4.607 Y38.265 E253.08552
G0 F2040 X4.786 Y37.949
G1 F1020 X-52.941 Y-19.778 E256.20978
G0 F2040 X-52.446 Y-19.778
G1 F1020 X4.966 Y37.634 E259.31699
G0 F2040 X5.145 Y37.318
G1 F1020 X-51.951 Y-19.778 E262.4071
G0 F2040 X-51.456 Y-19.778
G1 F1020 X5.325 Y37.003 E265.48016
G0 F2040 X5.504 Y36.688
G1 F1020 X-50.961 Y-19.778 E268.53614
G0 F2040 X-50.466 Y-19.778
G1 F1020 X5.684 Y36.372 E271.57505
G0 F2040 X5.863 Y36.056
G1 F1020 X-49.971 Y-19.778 E274.59686
G0 F2040 X-49.476 Y-19.778
G1 F1020 X6.042 Y35.741 E277.60159
G0 F2040 X6.222 Y35.426
G1 F1020 X-48.981 Y-19.778 E280.58927
G0 F2040 X-48.487 Y-19.778
G1 F1020 X6.402 Y35.11 E283.55991
G0 F2040 X6.581 Y34.795
G1 F1020 X-47.992 Y-19.778 E286.51347
G0 F2040 X-47.497 Y-19.778
G1 F1020 X6.761 Y34.479 E289.44995
G0 F2040 X6.94 Y34.163
G1 F1020 X-47.002 Y-19.778 E292.36934
G0 F2040 X-46.507 Y-19.778
G1 F1020 X7.119 Y33.848 E295.27165
G0 F2040 X7.299 Y33.533
G1 F1020 X-46.012 Y-19.778 E298.1569
G0 F2040 X-45.517 Y-19.778
G1 F1020 X7.479 Y33.217 E301.02509
G0 F2040 X7.658 Y32.902
G1 F1020 X-45.022 Y-19.778 E303.8762
G0 F2040 X-44.527 Y-19.778
G1 F1020 X7.837 Y32.586 E306.7102
G0 F2040 X8.017 Y32.27
G1 F1020 X-44.032 Y-19.778 E309.52713
G0 F2040 X-43.537 Y-19.778
G1 F1020 X8.196 Y31.955 E312.32699
G0 F2040 X8.376 Y31.64
G1 F1020 X-43.042 Y-19.778 E315.1098
G0 F2040 X-42.547 Y-19.778
G1 F1020 X8.555 Y31.324 E317.8755
G0 F2040 X8.735 Y31.009
G1 F1020 X-42.052 Y-19.778 E320.62416
G0 F2040 X-41.557 Y-19.778
G1 F1020 X8.914 Y30.693 E323.35572
G0 F2040 X9.094 Y30.378
G1 F1020 X-41.062 Y-19.778 E326.07022
G0 F2040 X-40.567 Y-19.778
