;FLAVOR:Marlin
;TIME:6263
;Filament used: 7.94344m
;Layer height: 0.3
;MINX:-42.103
;MINY:-70.611
;MINZ:0.26
;MAXX:67.011
;MAXY:26.011
;MAXZ:23.66
;Generated with Cura_SteamEngine 4.9.1
M82 ;absolute extrusion mode
;Gcode by Cura
G90
G28
M107
M109 R100
G30
M109 S215 U-55 X55 V-85 Y-85 W0.26 Z0.26
M82
G92 E0
G1 F200 E6
G92 E0
G1 F200 E-3.5
G0 Z0.15
G0 X10
G0 Z3
G1 F6000
G92 E0
G92 E0
G1 F3600 E-3.8
;LAYER_COUNT:79
;LAYER:0
M107
G0 F2040 X-36.906 Y26.011 Z0.26
;TYPE:SKIRT
G1 F3600 E0
G1 F1020 X-37.596 Y26.001 E0.02641
G1 X-38.199 Y25.952 E0.04956
G1 X-38.79 Y25.824 E0.0727
G1 X-39.359 Y25.62 E0.09584
G1 X-39.896 Y25.342 E0.11898
G1 X-40.392 Y24.995 E0.14214
G1 X-40.837 Y24.587 E0.16525
G1 X-41.225 Y24.123 E0.18839
G1 X-41.549 Y23.612 E0.21155
G1 X-41.802 Y23.063 E0.23468
G1 X-41.981 Y22.485 E0.25784
G1 X-42.081 Y21.889 E0.28097
G1 X-42.103 Y21.285 E0.3041
G1 X-42.044 Y20.683 E0.32725
G1 X-41.907 Y20.094 E0.35039
G1 X-41.643 Y19.422 E0.37802
G1 X-41.51 Y19.165 E0.38909
G1 X-41.173 Y18.559 E0.41563
G1 X8.168 Y-67.787 E4.22151
G1 X8.512 Y-68.368 E4.24735
G1 X8.854 Y-68.867 E4.2705
G1 X9.259 Y-69.316 E4.29364
G1 X9.719 Y-69.708 E4.31677
G1 X10.227 Y-70.036 E4.33991
G1 X10.774 Y-70.294 E4.36305
G1 X11.35 Y-70.478 E4.38619
G1 X11.945 Y-70.584 E4.40932
G1 X12.549 Y-70.611 E4.43246
G1 X13.151 Y-70.558 E4.45559
G1 X13.741 Y-70.426 E4.47872
G1 X14.309 Y-70.217 E4.50189
G1 X14.844 Y-69.935 E4.52503
G1 X15.337 Y-69.585 E4.54817
G1 X15.78 Y-69.173 E4.57132
G1 X16.164 Y-68.707 E4.59443
G1 X16.379 Y-68.379 E4.60944
G1 X16.884 Y-67.53 E4.64724
G1 X66.088 Y18.577 E8.44258
G1 X66.437 Y19.206 E8.47011
G1 X66.695 Y19.753 E8.49325
G1 X66.879 Y20.329 E8.51639
G1 X66.984 Y20.925 E8.53955
G1 X67.011 Y21.529 E8.56269
G1 X66.957 Y22.131 E8.58582
G1 X66.825 Y22.721 E8.60896
G1 X66.616 Y23.288 E8.63208
G1 X66.334 Y23.823 E8.65523
G1 X65.983 Y24.316 E8.67839
G1 X65.571 Y24.759 E8.70154
G1 X65.105 Y25.143 E8.72465
G1 X64.591 Y25.462 E8.7478
G1 X64.04 Y25.711 E8.77094
G1 X63.461 Y25.885 E8.79408
G1 X62.648 Y25.996 E8.82548
G1 X62.429 Y26.004 E8.83386
G1 X61.868 Y26.011 E8.85533
G1 X-36.906 Y26.011 E12.63537
G0 F2040 X-36.901 Y25.661
G1 F1020 X-37.591 Y25.651 E12.66178
G1 X-38.17 Y25.602 E12.68401
G1 X-38.737 Y25.475 E12.70625
G1 X-39.281 Y25.271 E12.72849
G1 X-39.792 Y24.994 E12.75073
G1 X-40.26 Y24.65 E12.77296
G1 X-40.677 Y24.245 E12.7952
G1 X-41.034 Y23.787 E12.81743
G1 X-41.325 Y23.284 E12.83967
G1 X-41.544 Y22.746 E12.86189
G1 X-41.687 Y22.182 E12.88416
G1 X-41.751 Y21.605 E12.90638
G1 X-41.736 Y21.024 E12.92862
G1 X-41.641 Y20.451 E12.95085
G1 X-41.468 Y19.896 E12.9731
G1 X-41.204 Y19.335 E12.99682
G1 X-40.869 Y18.733 E13.02319
G1 X8.469 Y-67.609 E16.82888
G1 X8.813 Y-68.19 E16.85472
G1 X9.143 Y-68.668 E16.87694
G1 X9.535 Y-69.097 E16.89918
G1 X9.983 Y-69.467 E16.92142
G1 X10.477 Y-69.773 E16.94366
G1 X11.008 Y-70.009 E16.9659
G1 X11.566 Y-70.169 E16.98811
G1 X12.142 Y-70.251 E17.01038
G1 X12.723 Y-70.253 E17.03261
G1 X13.299 Y-70.176 E17.05485
G1 X13.858 Y-70.02 E17.07706
G1 X14.391 Y-69.789 E17.09929
G1 X14.888 Y-69.487 E17.12155
G1 X15.338 Y-69.12 E17.14377
G1 X15.734 Y-68.694 E17.16603
G1 X16.078 Y-68.2 E17.18907
G1 X16.58 Y-67.356 E17.22665
G1 X65.782 Y18.747 E21.02181
G1 X66.131 Y19.376 E21.04934
G1 X66.378 Y19.902 E21.07158
G1 X66.549 Y20.457 E21.0938
G1 X66.643 Y21.031 E21.11606
G1 X66.658 Y21.612 E21.1383
G1 X66.593 Y22.189 E21.16053
G1 X66.449 Y22.752 E21.18277
G1 X66.229 Y23.29 E21.20501
G1 X65.937 Y23.792 E21.22723
G1 X65.579 Y24.25 E21.24948
G1 X65.162 Y24.655 E21.27173
G1 X64.693 Y24.998 E21.29396
G1 X64.182 Y25.274 E21.31619
G1 X63.638 Y25.477 E21.33841
G1 X63.071 Y25.603 E21.36064
G1 X62.567 Y25.65 E21.38001
G1 X62.425 Y25.654 E21.38545
G1 X61.864 Y25.661 E21.40692
G1 X-36.901 Y25.661 E25.18661
G0 F2040 X-36.896 Y25.311
G1 F1020 X-37.586 Y25.301 E25.21301
G1 X-38.14 Y25.253 E25.2343
G1 X-38.682 Y25.126 E25.2556
G1 X-39.2 Y24.923 E25.27689
G1 X-39.684 Y24.647 E25.29821
G1 X-40.123 Y24.306 E25.31949
G1 X-40.509 Y23.905 E25.34079
G1 X-40.833 Y23.452 E25.3621
G1 X-41.089 Y22.958 E25.38339
G1 X-41.272 Y22.433 E25.40467
G1 X-41.378 Y21.887 E25.42596
G1 X-41.404 Y21.331 E25.44726
G1 X-41.35 Y20.777 E25.46856
G1 X-41.218 Y20.237 E25.48983
G1 X-41.014 Y19.729 E25.51078
G1 X-40.898 Y19.505 E25.52044
G1 X-40.565 Y18.906 E25.54666
G1 X8.771 Y-67.43 E29.35211
G1 X9.115 Y-68.011 E29.37795
G1 X9.432 Y-68.468 E29.39924
G1 X9.811 Y-68.875 E29.42052
G1 X10.245 Y-69.224 E29.44184
G1 X10.724 Y-69.507 E29.46313
G1 X11.239 Y-69.718 E29.48443
G1 X11.778 Y-69.854 E29.5057
G1 X12.332 Y-69.91 E29.52701
G1 X12.888 Y-69.887 E29.5483
G1 X13.435 Y-69.785 E29.5696
G1 X13.961 Y-69.605 E29.59087
G1 X14.457 Y-69.351 E29.6122
G1 X14.911 Y-69.03 E29.63348
G1 X15.314 Y-68.646 E29.65478
G1 X15.778 Y-68.021 E29.68457
G1 X16.276 Y-67.183 E29.72188
G1 X65.476 Y18.917 E33.5169
G1 X65.825 Y19.546 E33.54443
G1 X66.06 Y20.051 E33.56575
G1 X66.219 Y20.584 E33.58703
G1 X66.301 Y21.134 E33.60831
G1 X66.303 Y21.69 E33.62959
G1 X66.225 Y22.241 E33.65089
G1 X66.069 Y22.776 E33.67222
G1 X65.839 Y23.282 E33.69349
G1 X65.538 Y23.75 E33.71478
G1 X65.173 Y24.17 E33.73608
G1 X64.752 Y24.534 E33.75737
G1 X64.283 Y24.833 E33.77866
G1 X63.776 Y25.062 E33.79995
G1 X63.241 Y25.217 E33.82127
G1 X62.616 Y25.297 E33.84538
G1 X62.42 Y25.304 E33.85289
G1 X61.859 Y25.311 E33.87436
G1 X-36.896 Y25.311 E37.65366
G0 F2040 X-36.891 Y24.961
G1 F1020 X-37.581 Y24.951 E37.68007
G1 X-38.11 Y24.903 E37.7004
G1 X-38.625 Y24.777 E37.72069
G1 X-39.116 Y24.574 E37.74102
G1 X-39.57 Y24.301 E37.7613
G1 X-39.979 Y23.962 E37.78163
G1 X-40.331 Y23.565 E37.80193
G1 X-40.621 Y23.121 E37.82223
G1 X-40.84 Y22.637 E37.84256
G1 X-40.985 Y22.127 E37.86285
G1 X-41.051 Y21.6 E37.88317
G1 X-41.037 Y21.07 E37.90346
G1 X-40.944 Y20.547 E37.92379
G1 X-40.699 Y19.882 E37.95091
G1 X-40.592 Y19.675 E37.95983
G1 X-40.262 Y19.08 E37.98587
G1 X9.072 Y-67.252 E41.79115
G1 X9.416 Y-67.833 E41.81699
G1 X9.72 Y-68.268 E41.8373
G1 X10.086 Y-68.652 E41.8576
G1 X10.505 Y-68.977 E41.87789
G1 X10.968 Y-69.236 E41.89819
G1 X11.465 Y-69.422 E41.9185
G1 X11.985 Y-69.531 E41.93884
G1 X12.514 Y-69.561 E41.95911
G1 X13.043 Y-69.512 E41.97944
G1 X13.558 Y-69.383 E41.99976
G1 X14.047 Y-69.179 E42.02004
G1 X14.501 Y-68.903 E42.04037
G1 X14.908 Y-68.563 E42.06067
G1 X15.259 Y-68.165 E42.08098
G1 X15.477 Y-67.841 E42.09592
G1 X15.973 Y-67.009 E42.13299
G1 X65.17 Y19.087 E45.92783
G1 X65.519 Y19.716 E45.95535
G1 X65.741 Y20.198 E45.97566
G1 X65.888 Y20.708 E45.99597
G1 X65.957 Y21.234 E46.01628
G1 X65.946 Y21.765 E46.0366
G1 X65.855 Y22.287 E46.05688
G1 X65.687 Y22.791 E46.07721
G1 X65.445 Y23.263 E46.09751
G1 X65.136 Y23.694 E46.11781
G1 X64.764 Y24.073 E46.13813
G1 X64.341 Y24.393 E46.15843
G1 X63.874 Y24.645 E46.17874
G1 X63.374 Y24.824 E46.19906
G1 X62.6 Y24.947 E46.22905
G1 X62.416 Y24.954 E46.2361
G1 X61.855 Y24.961 E46.25757
G1 X-36.891 Y24.961 E50.03653
G0 F2040 X-36.886 Y24.611
G1 F1020 X-37.576 Y24.601 E50.06294
G1 X-38.077 Y24.553 E50.0822
G1 X-38.565 Y24.428 E50.10148
G1 X-39.027 Y24.226 E50.12078
G1 X-39.45 Y23.954 E50.14002
G1 X-39.826 Y23.619 E50.15929
G1 X-40.144 Y23.228 E50.17858
G1 X-40.396 Y22.792 E50.19785
G1 X-40.576 Y22.322 E50.21711
G1 X-40.679 Y21.829 E50.23639
G1 X-40.703 Y21.326 E50.25566
G1 X-40.648 Y20.826 E50.27491
G1 X-40.514 Y20.34 E50.2942
G1 X-40.286 Y19.845 E50.31506
G1 X-39.958 Y19.254 E50.34093
G1 X9.373 Y-67.074 E54.14602
G1 X9.717 Y-67.655 E54.17186
G1 X10.007 Y-68.066 E54.19111
G1 X10.359 Y-68.427 E54.2104
G1 X10.763 Y-68.727 E54.22966
G1 X11.209 Y-68.96 E54.24892
G1 X11.687 Y-69.119 E54.26819
G1 X12.184 Y-69.201 E54.28747
G1 X12.688 Y-69.203 E54.30676
G1 X13.185 Y-69.125 E54.32601
G1 X13.664 Y-68.97 E54.34528
G1 X14.113 Y-68.741 E54.36457
G1 X14.519 Y-68.444 E54.38382
G1 X14.874 Y-68.086 E54.40311
G1 X15.176 Y-67.662 E54.42303
G1 X15.669 Y-66.835 E54.45988
G1 X64.864 Y19.257 E58.25455
G1 X65.213 Y19.886 E58.28207
G1 X65.422 Y20.344 E58.30134
G1 X65.555 Y20.829 E58.32059
G1 X65.611 Y21.33 E58.33988
G1 X65.586 Y21.833 E58.35915
G1 X65.482 Y22.326 E58.37843
G1 X65.301 Y22.796 E58.39771
G1 X65.049 Y23.232 E58.41698
G1 X64.73 Y23.622 E58.43626
G1 X64.354 Y23.957 E58.45553
G1 X63.93 Y24.228 E58.47479
G1 X63.468 Y24.429 E58.49407
G1 X62.981 Y24.554 E58.51332
G1 X62.412 Y24.604 E58.53517
G1 X61.851 Y24.611 E58.55665
G1 X-36.886 Y24.611 E62.33526
G1 F3600 E58.53526
;MESH:support_tri_0_035.stl
G0 F2040 X-36.886 Y22.101
G0 X-36.886 Y21.066
G0 X-36.642 Y20.911
;TYPE:WALL-INNER
G1 F3600 E62.33526
G1 F1020 X12.453 Y-65.006 E66.12221
G1 X61.548 Y20.911 E69.90917
G1 X-36.642 Y20.911 E73.66685
G0 F2040 X-37.202 Y21.236
;TYPE:WALL-OUTER
G1 F1020 X12.453 Y-65.661 E77.497
G1 X62.108 Y21.236 E81.32715
G1 X-37.202 Y21.236 E85.12769
G0 F2040 X-37.103 Y21.063
G0 X-36.857 Y21.036
G0 X-36.056 Y20.571
;TYPE:SKIN
G1 F1020 X12.453 Y-64.321 E88.86946
G1 X60.962 Y20.571 E92.61123
G1 X-36.056 Y20.571 E96.32406
G0 F2040 X-35.687 Y20.244
G1 F1020 X-35.518 Y20.413 E96.33321
G0 F2040 X-35.507 Y19.929
G1 F1020 X-35.023 Y20.413 E96.3594
G0 F2040 X-34.528 Y20.413
G1 F1020 X-35.327 Y19.614 E96.40264
G0 F2040 X-35.147 Y19.299
G1 F1020 X-34.033 Y20.413 E96.46294
G0 F2040 X-33.538 Y20.413
G1 F1020 X-34.967 Y18.984 E96.54028
G0 F2040 X-34.787 Y18.669
G1 F1020 X-33.043 Y20.413 E96.63466
G0 F2040 X-32.548 Y20.413
G1 F1020 X-34.607 Y18.354 E96.7461
G0 F2040 X-34.427 Y18.039
G1 F1020 X-32.053 Y20.413 E96.87458
G0 F2040 X-31.558 Y20.413
G1 F1020 X-34.247 Y17.725 E97.02009
G0 F2040 X-34.067 Y17.409
G1 F1020 X-31.063 Y20.413 E97.18267
G0 F2040 X-30.568 Y20.413
G1 F1020 X-33.887 Y17.095 E97.36227
G0 F2040 X-33.707 Y16.779
G1 F1020 X-30.073 Y20.413 E97.55895
G0 F2040 X-29.578 Y20.413
G1 F1020 X-33.527 Y16.464 E97.77267
G0 F2040 X-33.347 Y16.149
G1 F1020 X-29.084 Y20.413 E98.00342
G0 F2040 X-28.589 Y20.413
G1 F1020 X-33.167 Y15.834 E98.25121
G0 F2040 X-32.987 Y15.519
G1 F1020 X-28.094 Y20.413 E98.51605
G0 F2040 X-27.599 Y20.413
G1 F1020 X-32.807 Y15.204 E98.79794
G0 F2040 X-32.628 Y14.889
G1 F1020 X-27.104 Y20.413 E99.09691
G0 F2040 X-26.609 Y20.413
G1 F1020 X-32.447 Y14.574 E99.4129
G0 F2040 X-32.268 Y14.259
G1 F1020 X-26.114 Y20.413 E99.74596
G0 F2040 X-25.619 Y20.413
G1 F1020 X-32.087 Y13.944 E100.09604
G0 F2040 X-31.907 Y13.63
G1 F1020 X-25.124 Y20.413 E100.46315
G0 F2040 X-24.629 Y20.413
G1 F1020 X-31.727 Y13.314 E100.84733
G0 F2040 X-31.547 Y13
G1 F1020 X-24.134 Y20.413 E101.24853
G0 F2040 X-23.639 Y20.413
G1 F1020 X-31.367 Y12.684 E101.6668
G0 F2040 X-31.187 Y12.37
G1 F1020 X-23.144 Y20.413 E102.1021
G0 F2040 X-22.649 Y20.413
G1 F1020 X-31.008 Y12.054 E102.5545
G0 F2040 X-30.827 Y11.74
G1 F1020 X-22.154 Y20.413 E103.0239
G0 F2040 X-21.659 Y20.413
G1 F1020 X-30.648 Y11.424 E103.51039
G0 F2040 X-30.467 Y11.11
G1 F1020 X-21.164 Y20.413 E104.01388
G0 F2040 X-20.669 Y20.413
G1 F1020 X-30.288 Y10.794 E104.53447
G0 F2040 X-30.107 Y10.48
G1 F1020 X-20.174 Y20.413 E105.07206
G0 F2040 X-19.679 Y20.413
G1 F1020 X-29.927 Y10.165 E105.6267
G0 F2040 X-29.747 Y9.849
G1 F1020 X-19.184 Y20.413 E106.19841
G0 F2040 X-18.689 Y20.413
G1 F1020 X-29.567 Y9.535 E106.78714
G0 F2040 X-29.388 Y9.219
G1 F1020 X-18.194 Y20.413 E107.39297
G0 F2040 X-17.699 Y20.413
G1 F1020 X-29.207 Y8.905 E108.0158
G0 F2040 X-29.028 Y8.589
G1 F1020 X-17.204 Y20.413 E108.65573
G0 F2040 X-16.709 Y20.413
G1 F1020 X-28.847 Y8.275 E109.31265
G0 F2040 X-28.668 Y7.959
G1 F1020 X-16.214 Y20.413 E109.98668
G0 F2040 X-15.719 Y20.413
G1 F1020 X-28.487 Y7.645 E110.6777
G0 F2040 X-28.308 Y7.329
G1 F1020 X-15.224 Y20.413 E111.38582
G0 F2040 X-14.729 Y20.413
G1 F1020 X-28.128 Y7.015 E112.11097
G0 F2040 X-27.948 Y6.699
G1 F1020 X-14.234 Y20.413 E112.85318
G0 F2040 X-13.739 Y20.413
G1 F1020 X-27.768 Y6.385 E113.61243
G0 F2040 X-27.587 Y6.07
G1 F1020 X-13.244 Y20.413 E114.38869
G0 F2040 X-12.749 Y20.413
G1 F1020 X-27.408 Y5.755 E115.18202
G0 F2040 X-27.227 Y5.44
G1 F1020 X-12.254 Y20.413 E115.99238
G0 F2040 X-11.759 Y20.413
G1 F1020 X-27.048 Y5.125 E116.81981
G0 F2040 X-26.867 Y4.81
G1 F1020 X-11.264 Y20.413 E117.66427
G0 F2040 X-10.769 Y20.413
G1 F1020 X-26.688 Y4.495 E118.5258
G0 F2040 X-26.508 Y4.18
G1 F1020 X-10.274 Y20.413 E119.40438
G0 F2040 X-9.779 Y20.413
G1 F1020 X-26.328 Y3.865 E120.3
G0 F2040 X-26.148 Y3.55
G1 F1020 X-9.285 Y20.413 E121.21265
G0 F2040 X-8.79 Y20.413
G1 F1020 X-25.968 Y3.235 E122.14234
G0 F2040 X-25.788 Y2.92
G1 F1020 X-8.295 Y20.413 E123.08909
G0 F2040 X-7.8 Y20.413
G1 F1020 X-25.608 Y2.604 E124.05291
G0 F2040 X-25.428 Y2.29
G1 F1020 X-7.305 Y20.413 E125.03375
G0 F2040 X-6.81 Y20.413
G1 F1020 X-25.247 Y1.975 E126.03161
G0 F2040 X-25.068 Y1.66
G1 F1020 X-6.315 Y20.413 E127.04654
G0 F2040 X-5.82 Y20.413
G1 F1020 X-24.888 Y1.345 E128.07853
G0 F2040 X-24.708 Y1.03
G1 F1020 X-5.325 Y20.413 E129.12756
G0 F2040 X-4.83 Y20.413
G1 F1020 X-24.528 Y0.715 E130.19364
G0 F2040 X-24.348 Y0.4
G1 F1020 X-4.335 Y20.413 E131.27677
G0 F2040 X-3.84 Y20.413
G1 F1020 X-24.168 Y0.085 E132.37695
G0 F2040 X-23.988 Y-.229
G1 F1020 X-3.345 Y20.413 E133.49415
G0 F2040 X-2.85 Y20.413
G1 F1020 X-23.808 Y-.544 E134.62839
G0 F2040 X-23.628 Y-.859
G1 F1020 X-2.355 Y20.413 E135.77969
G0 F2040 X-1.86 Y20.413
G1 F1020 X-23.448 Y-1.174 E136.94803
G0 F2040 X-23.268 Y-1.489
G1 F1020 X-1.365 Y20.413 E138.13342
G0 F2040 X-.87 Y20.413
G1 F1020 X-23.088 Y-1.804 E139.33586
G0 F2040 X-22.908 Y-2.119
G1 F1020 X-.375 Y20.413 E140.55535
G0 F2040 X0.119 Y20.413
G1 F1020 X-22.728 Y-2.434 E141.79186
G0 F2040 X-22.548 Y-2.749
G1 F1020 X0.614 Y20.413 E143.04541
G0 F2040 X1.109 Y20.413
G1 F1020 X-22.368 Y-3.064 E144.31602
G0 F2040 X-22.188 Y-3.379
G1 F1020 X1.604 Y20.413 E145.60367
G0 F2040 X2.099 Y20.413
G1 F1020 X-22.008 Y-3.694 E146.90837
G0 F2040 X-21.828 Y-4.009
G1 F1020 X2.594 Y20.413 E148.23012
G0 F2040 X3.089 Y20.413
G1 F1020 X-21.648 Y-4.324 E149.56892
G0 F2040 X-21.468 Y-4.639
G1 F1020 X3.584 Y20.413 E150.92477
G0 F2040 X4.079 Y20.413
G1 F1020 X-21.288 Y-4.954 E152.29766
G0 F2040 X-21.108 Y-5.269
G1 F1020 X4.574 Y20.413 E153.68761
G0 F2040 X5.069 Y20.413
G1 F1020 X-20.928 Y-5.584 E155.0946
G0 F2040 X-20.748 Y-5.899
G1 F1020 X5.564 Y20.413 E156.51863
G0 F2040 X6.059 Y20.413
G1 F1020 X-20.568 Y-6.214 E157.95972
G0 F2040 X-20.388 Y-6.529
G1 F1020 X6.554 Y20.413 E159.41786
G0 F2040 X7.049 Y20.413
G1 F1020 X-20.208 Y-6.844 E160.89304
G0 F2040 X-20.028 Y-7.159
G1 F1020 X7.544 Y20.413 E162.38527
G0 F2040 X8.039 Y20.413
G1 F1020 X-19.848 Y-7.474 E163.89455
G0 F2040 X-19.668 Y-7.789
G1 F1020 X8.534 Y20.413 E165.42088
G0 F2040 X9.029 Y20.413
G1 F1020 X-19.488 Y-8.104 E166.96426
G0 F2040 X-19.308 Y-8.419
G1 F1020 X9.524 Y20.413 E168.52468
G0 F2040 X10.018 Y20.413
G1 F1020 X-19.128 Y-8.734 E170.10213
G0 F2040 X-18.949 Y-9.049
G1 F1020 X10.513 Y20.413 E171.69665
G0 F2040 X11.008 Y20.413
G1 F1020 X-18.768 Y-9.364 E173.30819
G0 F2040 X-18.588 Y-9.678
G1 F1020 X11.503 Y20.413 E174.93675
G0 F2040 X11.998 Y20.413
G1 F1020 X-18.408 Y-9.994 E176.58239
G0 F2040 X-18.228 Y-10.308
G1 F1020 X12.493 Y20.413 E178.24505
G0 F2040 X12.988 Y20.413
G1 F1020 X-18.048 Y-10.624 E179.92479
G0 F2040 X-17.868 Y-10.938
G1 F1020 X13.483 Y20.413 E181.62154
G0 F2040 X13.978 Y20.413
G1 F1020 X-17.688 Y-11.254 E183.33537
G0 F2040 X-17.508 Y-11.568
G1 F1020 X14.473 Y20.413 E185.06623
G0 F2040 X14.968 Y20.413
G1 F1020 X-17.329 Y-11.884 E186.81418
G0 F2040 X-17.148 Y-12.199
G1 F1020 X15.463 Y20.413 E188.57916
G0 F2040 X15.958 Y20.413
G1 F1020 X-16.969 Y-12.514 E190.36121
G0 F2040 X-16.788 Y-12.829
G1 F1020 X16.453 Y20.413 E192.16028
G0 F2040 X16.948 Y20.413
G1 F1020 X-16.608 Y-13.143 E193.97637
G0 F2040 X-16.428 Y-13.459
G1 F1020 X17.443 Y20.413 E195.80954
G0 F2040 X17.938 Y20.413
G1 F1020 X-16.248 Y-13.773 E197.65973
G0 F2040 X-16.069 Y-14.089
G1 F1020 X18.433 Y20.413 E199.52703
G0 F2040 X18.928 Y20.413
G1 F1020 X-15.888 Y-14.403 E201.41131
G0 F2040 X-15.709 Y-14.719
G1 F1020 X19.423 Y20.413 E203.3127
G0 F2040 X19.918 Y20.413
G1 F1020 X-15.528 Y-15.033 E205.23108
G0 F2040 X-15.349 Y-15.349
G1 F1020 X20.413 Y20.413 E207.16657
G0 F2040 X20.908 Y20.413
G1 F1020 X-15.168 Y-15.663 E209.11905
G0 F2040 X-14.989 Y-15.979
G1 F1020 X21.403 Y20.413 E211.08863
