;FLAVOR:Marlin
;TIME:7330
;Filament used: 7.01132m
;Layer height: 0.2
;MINX:-53.983
;MINY:-53.908
;MINZ:0.26
;MAXX:56.246
;MAXY:44.634
;MAXZ:13.26
;Generated with Cura_SteamEngine 4.8.0
M82 ;absolute extrusion mode
;Gcode by Cura
G90
G28
M107
M109 R100
G30
M109 S215 U-55 X55 V-85 Y-85 W0.26 Z0.26
M82
G92 E0
G1 F200 E6
G92 E0
G1 F200 E-3.5
G0 Z0.15
G0 X10
G0 Z3
G1 F6000
G92 E0
G92 E0
G1 F3600 E-3.8
;LAYER_COUNT:66
;LAYER:0
M107
G0 F2040 X0.226 Y-51.175 Z0.26
;TYPE:SKIRT
G1 F3600 E0
G1 F1020 X0.583 Y-51.75 E0.0259
G1 X0.935 Y-52.242 E0.04905
G1 X1.349 Y-52.682 E0.07217
G1 X1.818 Y-53.065 E0.09535
G1 X2.333 Y-53.382 E0.11849
G1 X2.885 Y-53.629 E0.14163
G1 X3.464 Y-53.8 E0.16474
G1 X4.062 Y-53.894 E0.1879
G1 X4.666 Y-53.908 E0.21102
G1 X5.267 Y-53.842 E0.23416
G1 X5.854 Y-53.698 E0.25729
G1 X6.417 Y-53.477 E0.28044
G1 X6.946 Y-53.184 E0.30358
G1 X7.432 Y-52.824 E0.32673
G1 X7.866 Y-52.403 E0.34987
G1 X8.241 Y-51.928 E0.37303
G1 X8.706 Y-51.13 E0.40837
G1 X55.409 Y37.298 E4.23545
G1 X55.748 Y37.958 E4.26385
G1 X55.988 Y38.513 E4.28699
G1 X56.153 Y39.094 E4.3101
G1 X56.239 Y39.693 E4.33326
G1 X56.246 Y40.297 E4.35638
G1 X56.173 Y40.898 E4.37955
G1 X56.022 Y41.483 E4.40267
G1 X55.795 Y42.043 E4.42579
G1 X55.496 Y42.569 E4.44895
G1 X55.13 Y43.05 E4.47208
G1 X54.704 Y43.479 E4.49522
G1 X54.225 Y43.848 E4.51836
G1 X53.702 Y44.151 E4.54149
G1 X53.143 Y44.382 E4.56463
G1 X52.558 Y44.537 E4.58779
G1 X51.866 Y44.619 E4.61446
G1 X51.26 Y44.634 E4.63766
G1 X-48.779 Y44.634 E8.4661
G1 X-49.47 Y44.625 E8.49255
G1 X-50.072 Y44.577 E8.51566
G1 X-50.664 Y44.45 E8.53883
G1 X-51.233 Y44.246 E8.56197
G1 X-51.77 Y43.969 E8.58509
G1 X-52.266 Y43.624 E8.60821
G1 X-52.713 Y43.216 E8.63137
G1 X-53.101 Y42.753 E8.65449
G1 X-53.426 Y42.242 E8.67767
G1 X-53.68 Y41.693 E8.70082
G1 X-53.859 Y41.116 E8.72394
G1 X-53.961 Y40.52 E8.74708
G1 X-53.983 Y39.916 E8.77021
G1 X-53.925 Y39.314 E8.79335
G1 X-53.789 Y38.725 E8.81649
G1 X-53.576 Y38.159 E8.83963
G1 X-53.279 Y37.596 E8.86399
G1 X-53.067 Y37.237 E8.87994
G1 X0.226 Y-51.175 E12.83058
G0 F2040 X0.524 Y-50.991
G1 F1020 X0.881 Y-51.566 E12.85648
G1 X1.22 Y-52.037 E12.87869
G1 X1.621 Y-52.457 E12.90091
G1 X2.076 Y-52.819 E12.92316
G1 X2.577 Y-53.114 E12.94541
G1 X3.113 Y-53.338 E12.96764
G1 X3.675 Y-53.486 E12.98989
G1 X4.251 Y-53.556 E13.01209
G1 X4.832 Y-53.546 E13.03433
G1 X5.406 Y-53.457 E13.05656
G1 X5.963 Y-53.289 E13.07882
G1 X6.491 Y-53.047 E13.10105
G1 X6.981 Y-52.735 E13.12328
G1 X7.423 Y-52.358 E13.14551
G1 X7.81 Y-51.925 E13.16774
G1 X8.17 Y-51.378 E13.1928
G1 X8.436 Y-50.893 E13.21397
G1 X55.097 Y37.458 E17.03769
G1 X55.436 Y38.118 E17.06609
G1 X55.666 Y38.652 E17.08834
G1 X55.819 Y39.212 E17.11056
G1 X55.895 Y39.788 E17.13279
G1 X55.891 Y40.369 E17.15502
G1 X55.807 Y40.944 E17.17726
G1 X55.645 Y41.502 E17.1995
G1 X55.408 Y42.032 E17.22172
G1 X55.1 Y42.525 E17.24396
G1 X54.728 Y42.971 E17.26619
G1 X54.298 Y43.362 E17.28843
G1 X53.819 Y43.69 E17.31065
G1 X53.299 Y43.95 E17.3329
G1 X52.748 Y44.135 E17.35514
G1 X52.177 Y44.243 E17.37738
G1 X51.656 Y44.277 E17.39736
G1 X51.256 Y44.284 E17.41267
G1 X-48.774 Y44.284 E21.24077
G1 X-49.465 Y44.275 E21.26722
G1 X-50.044 Y44.227 E21.28945
G1 X-50.611 Y44.101 E21.31168
G1 X-51.156 Y43.898 E21.33394
G1 X-51.667 Y43.622 E21.35616
G1 X-52.136 Y43.278 E21.37842
G1 X-52.553 Y42.874 E21.40064
G1 X-52.91 Y42.416 E21.42286
G1 X-53.202 Y41.913 E21.44512
G1 X-53.422 Y41.375 E21.46737
G1 X-53.566 Y40.812 E21.48961
G1 X-53.631 Y40.235 E21.51183
G1 X-53.616 Y39.654 E21.53407
G1 X-53.522 Y39.081 E21.55629
G1 X-53.351 Y38.526 E21.57851
G1 X-53.111 Y38.013 E21.60019
G1 X-52.788 Y37.452 E21.62496
G1 X0.524 Y-50.991 E25.57699
G0 F2040 X0.821 Y-50.806
G1 F1020 X1.178 Y-51.381 E25.60289
G1 X1.505 Y-51.831 E25.62418
G1 X1.892 Y-52.23 E25.64545
G1 X2.333 Y-52.57 E25.66676
G1 X2.818 Y-52.842 E25.68804
G1 X3.337 Y-53.043 E25.70934
G1 X3.88 Y-53.167 E25.73066
G1 X4.434 Y-53.212 E25.75193
G1 X4.99 Y-53.177 E25.77325
G1 X5.534 Y-53.063 E25.79452
G1 X6.057 Y-52.872 E25.81583
G1 X6.547 Y-52.608 E25.83713
G1 X6.994 Y-52.277 E25.85841
G1 X7.389 Y-51.885 E25.87971
G1 X7.863 Y-51.208 E25.91134
G1 X8.126 Y-50.73 E25.93222
G1 X54.786 Y37.618 E29.75582
G1 X55.125 Y38.278 E29.78422
G1 X55.343 Y38.789 E29.80548
G1 X55.485 Y39.327 E29.82677
G1 X55.549 Y39.88 E29.84808
G1 X55.534 Y40.436 E29.86936
G1 X55.438 Y40.984 E29.89065
G1 X55.265 Y41.513 E29.91195
G1 X55.018 Y42.012 E29.93326
G1 X54.703 Y42.47 E29.95453
G1 X54.325 Y42.878 E29.97582
G1 X53.892 Y43.228 E29.99713
G1 X53.414 Y43.513 E30.01842
G1 X52.9 Y43.725 E30.0397
G1 X52.36 Y43.862 E30.06102
G1 X51.837 Y43.92 E30.08116
G1 X51.253 Y43.934 E30.10352
G1 X-48.769 Y43.934 E33.93131
G1 X-49.46 Y43.925 E33.95776
G1 X-50.015 Y43.877 E33.97907
G1 X-50.557 Y43.751 E34.00037
G1 X-51.075 Y43.549 E34.02165
G1 X-51.559 Y43.274 E34.04295
G1 X-51.999 Y42.933 E34.06425
G1 X-52.385 Y42.533 E34.08553
G1 X-52.71 Y42.081 E34.10683
G1 X-52.967 Y41.588 E34.12811
G1 X-53.15 Y41.062 E34.14942
G1 X-53.257 Y40.516 E34.17072
G1 X-53.284 Y39.961 E34.19198
G1 X-53.231 Y39.407 E34.21328
G1 X-53.1 Y38.866 E34.23458
G1 X-52.805 Y38.182 E34.26309
G1 X-52.486 Y37.63 E34.28749
G1 X0.821 Y-50.806 E38.23918
G0 F2040 X1.118 Y-50.621
G1 F1020 X1.475 Y-51.196 E38.26509
G1 X1.788 Y-51.625 E38.28541
G1 X2.162 Y-52.001 E38.3057
G1 X2.588 Y-52.318 E38.32603
G1 X3.057 Y-52.566 E38.34633
G1 X3.558 Y-52.742 E38.36665
G1 X4.079 Y-52.84 E38.38694
G1 X4.61 Y-52.859 E38.40727
G1 X5.137 Y-52.798 E38.42757
G1 X5.649 Y-52.659 E38.44788
G1 X6.134 Y-52.444 E38.46818
G1 X6.582 Y-52.159 E38.4885
G1 X6.982 Y-51.81 E38.50882
G1 X7.324 Y-51.405 E38.5291
G1 X7.787 Y-50.622 E38.56391
G1 X54.475 Y37.777 E42.38975
G1 X54.814 Y38.437 E42.41814
G1 X55.02 Y38.926 E42.43845
G1 X55.15 Y39.441 E42.45878
G1 X55.202 Y39.969 E42.47908
G1 X55.174 Y40.499 E42.49939
G1 X55.067 Y41.019 E42.51971
G1 X54.883 Y41.516 E42.53999
G1 X54.626 Y41.981 E42.56032
G1 X54.302 Y42.401 E42.58062
G1 X53.919 Y42.769 E42.60095
G1 X53.486 Y43.074 E42.62122
G1 X53.011 Y43.311 E42.64153
G1 X52.506 Y43.474 E42.66184
G1 X51.822 Y43.57 E42.68827
G1 X51.249 Y43.584 E42.71021
G1 X-48.765 Y43.584 E46.5377
G1 X-49.456 Y43.575 E46.56414
G1 X-49.984 Y43.528 E46.58443
G1 X-50.5 Y43.402 E46.60476
G1 X-50.991 Y43.201 E46.62506
G1 X-51.446 Y42.928 E46.64537
G1 X-51.855 Y42.589 E46.6657
G1 X-52.208 Y42.194 E46.68597
G1 X-52.498 Y41.749 E46.7063
G1 X-52.719 Y41.266 E46.72662
G1 X-52.864 Y40.756 E46.74691
G1 X-52.93 Y40.229 E46.76724
G1 X-52.917 Y39.699 E46.78753
G1 X-52.825 Y39.176 E46.80785
G1 X-52.655 Y38.674 E46.82813
G1 X-52.427 Y38.221 E46.84754
G1 X-52.168 Y37.779 E46.86715
G1 X1.118 Y-50.621 E50.81725
G0 F2040 X1.416 Y-50.437
G1 F1020 X1.773 Y-51.012 E50.84315
G1 X2.071 Y-51.417 E50.8624
G1 X2.43 Y-51.77 E50.88166
G1 X2.841 Y-52.062 E50.90096
G1 X3.292 Y-52.285 E50.92021
G1 X3.773 Y-52.435 E50.93949
G1 X4.272 Y-52.506 E50.95878
G1 X4.775 Y-52.497 E50.97803
G1 X5.271 Y-52.409 E50.99731
G1 X5.747 Y-52.244 E51.01659
G1 X6.19 Y-52.006 E51.03584
G1 X6.591 Y-51.7 E51.05514
G1 X6.938 Y-51.335 E51.07441
G1 X7.25 Y-50.87 E51.09584
G1 X7.508 Y-50.403 E51.11626
G1 X54.163 Y37.937 E54.93951
G1 X54.502 Y38.597 E54.9679
G1 X54.696 Y39.062 E54.98719
G1 X54.814 Y39.552 E55.00647
G1 X54.853 Y40.054 E55.02574
G1 X54.812 Y40.556 E55.04502
G1 X54.692 Y41.045 E55.06429
G1 X54.497 Y41.509 E55.08355
G1 X54.23 Y41.936 E55.10282
G1 X53.9 Y42.316 E55.12208
G1 X53.513 Y42.639 E55.14137
G1 X53.08 Y42.896 E55.16064
G1 X52.612 Y43.082 E55.17992
G1 X52.121 Y43.192 E55.19917
G1 X51.613 Y43.228 E55.21866
G1 X51.245 Y43.234 E55.23275
G1 X-48.76 Y43.234 E59.05989
G1 X-49.451 Y43.225 E59.08634
G1 X-49.953 Y43.178 E59.10563
G1 X-50.441 Y43.053 E59.12491
G1 X-50.902 Y42.852 E59.14416
G1 X-51.327 Y42.581 E59.16345
G1 X-51.703 Y42.246 E59.18272
G1 X-52.021 Y41.856 E59.20198
G1 X-52.274 Y41.421 E59.22123
G1 X-52.455 Y40.95 E59.24054
G1 X-52.559 Y40.458 E59.25979
G1 X-52.584 Y39.955 E59.27906
G1 X-52.529 Y39.454 E59.29835
G1 X-52.395 Y38.969 E59.31761
G1 X-52.121 Y38.39 E59.34212
G1 X-51.868 Y37.96 E59.36121
G1 X1.416 Y-50.437 E63.31118
G1 F3600 E59.51118
;MESH:support_tri_0_088.stl
G0 F2040 X3.564 Y-49.139
G0 X4.465 Y-48.597
G0 X50.822 Y39.534
;TYPE:WALL-INNER
G1 F3600 E63.31118
G1 F1020 X-48.497 Y39.534 E67.11207
G1 X4.44 Y-48.29 E71.0364
G1 X50.822 Y39.534 E74.83731
G0 F2040 X51.361 Y39.859
;TYPE:WALL-OUTER
G1 F1020 X-49.072 Y39.859 E78.68083
G1 X4.459 Y-48.95 E82.64918
G1 X51.361 Y39.859 E86.49271
G0 F2040 X51.161 Y39.859
G0 X51.027 Y39.658
G0 X50.257 Y39.194
;TYPE:SKIN
G1 F1020 X-47.895 Y39.194 E90.24894
G1 X4.42 Y-47.599 E94.12719
G1 X50.257 Y39.194 E97.88347
G0 F2040 X-47.417 Y38.707
G1 F1020 X-47.089 Y39.036 E97.90125
G0 F2040 X-46.594 Y39.036
G1 F1020 X-47.231 Y38.398 E97.93575
G0 F2040 X-47.045 Y38.09
G1 F1020 X-46.099 Y39.036 E97.98695
G0 F2040 X-45.604 Y39.036
G1 F1020 X-46.859 Y37.781 E98.05487
G0 F2040 X-46.673 Y37.472
G1 F1020 X-45.109 Y39.036 E98.13951
G0 F2040 X-44.614 Y39.036
G1 F1020 X-46.487 Y37.163 E98.24088
G0 F2040 X-46.3 Y36.855
G1 F1020 X-44.119 Y39.036 E98.35892
G0 F2040 X-43.624 Y39.036
G1 F1020 X-46.114 Y36.546 E98.49368
G0 F2040 X-45.928 Y36.237
G1 F1020 X-43.129 Y39.036 E98.64517
G0 F2040 X-42.634 Y39.036
G1 F1020 X-45.742 Y35.928 E98.81338
G0 F2040 X-45.556 Y35.619
G1 F1020 X-42.139 Y39.036 E98.99831
G0 F2040 X-41.644 Y39.036
G1 F1020 X-45.37 Y35.31 E99.19997
G0 F2040 X-45.184 Y35.001
G1 F1020 X-41.149 Y39.036 E99.41835
G0 F2040 X-40.654 Y39.036
G1 F1020 X-44.998 Y34.692 E99.65345
G0 F2040 X-44.811 Y34.384
G1 F1020 X-40.159 Y39.036 E99.90522
G0 F2040 X-39.664 Y39.036
G1 F1020 X-44.625 Y34.075 E100.17372
G0 F2040 X-44.439 Y33.766
G1 F1020 X-39.169 Y39.036 E100.45894
G0 F2040 X-38.674 Y39.036
G1 F1020 X-44.253 Y33.457 E100.76088
G0 F2040 X-44.066 Y33.149
G1 F1020 X-38.179 Y39.036 E101.07949
G0 F2040 X-37.684 Y39.036
G1 F1020 X-43.88 Y32.84 E101.41483
G0 F2040 X-43.694 Y32.531
G1 F1020 X-37.189 Y39.036 E101.76688
G0 F2040 X-36.694 Y39.036
G1 F1020 X-43.508 Y32.222 E102.13567
G0 F2040 X-43.322 Y31.913
G1 F1020 X-36.199 Y39.036 E102.52117
G0 F2040 X-35.704 Y39.036
G1 F1020 X-43.136 Y31.604 E102.9234
G0 F2040 X-42.95 Y31.295
G1 F1020 X-35.209 Y39.036 E103.34235
G0 F2040 X-34.714 Y39.036
G1 F1020 X-42.764 Y30.986 E103.77803
G0 F2040 X-42.577 Y30.678
G1 F1020 X-34.219 Y39.036 E104.23038
G0 F2040 X-33.724 Y39.036
G1 F1020 X-42.391 Y30.369 E104.69945
G0 F2040 X-42.205 Y30.06
G1 F1020 X-33.229 Y39.036 E105.18524
G0 F2040 X-32.734 Y39.036
G1 F1020 X-42.019 Y29.751 E105.68775
G0 F2040 X-41.833 Y29.443
G1 F1020 X-32.239 Y39.036 E106.20697
G0 F2040 X-31.744 Y39.036
G1 F1020 X-41.647 Y29.134 E106.7429
G0 F2040 X-41.461 Y28.825
G1 F1020 X-31.249 Y39.036 E107.29556
G0 F2040 X-30.754 Y39.036
G1 F1020 X-41.275 Y28.516 E107.86494
G0 F2040 X-41.088 Y28.207
G1 F1020 X-30.259 Y39.036 E108.45102
G0 F2040 X-29.764 Y39.036
G1 F1020 X-40.902 Y27.898 E109.05383
G0 F2040 X-40.716 Y27.589
G1 F1020 X-29.269 Y39.036 E109.67335
G0 F2040 X-28.775 Y39.036
G1 F1020 X-40.53 Y27.28 E110.30958
G0 F2040 X-40.343 Y26.972
G1 F1020 X-28.28 Y39.036 E110.96247
G0 F2040 X-27.785 Y39.036
G1 F1020 X-40.158 Y26.663 E111.63211
G0 F2040 X-39.972 Y26.354
G1 F1020 X-27.29 Y39.036 E112.31848
G0 F2040 X-26.795 Y39.036
G1 F1020 X-39.786 Y26.045 E113.02157
G0 F2040 X-39.599 Y25.737
G1 F1020 X-26.3 Y39.036 E113.74132
G0 F2040 X-25.805 Y39.036
G1 F1020 X-39.413 Y25.428 E114.47781
G0 F2040 X-39.227 Y25.119
G1 F1020 X-25.31 Y39.036 E115.23101
G0 F2040 X-24.815 Y39.036
G1 F1020 X-39.041 Y24.81 E116.00094
G0 F2040 X-38.854 Y24.501
G1 F1020 X-24.32 Y39.036 E116.78757
G0 F2040 X-23.825 Y39.036
G1 F1020 X-38.668 Y24.192 E117.59092
G0 F2040 X-38.482 Y23.883
G1 F1020 X-23.33 Y39.036 E118.41099
G0 F2040 X-22.835 Y39.036
G1 F1020 X-38.296 Y23.574 E119.24779
G0 F2040 X-38.11 Y23.266
G1 F1020 X-22.34 Y39.036 E120.10128
G0 F2040 X-21.845 Y39.036
G1 F1020 X-37.924 Y22.957 E120.97149
G0 F2040 X-37.738 Y22.648
G1 F1020 X-21.35 Y39.036 E121.85843
G0 F2040 X-20.855 Y39.036
G1 F1020 X-37.552 Y22.339 E122.7621
G0 F2040 X-37.366 Y22.03
G1 F1020 X-20.36 Y39.036 E123.68248
G0 F2040 X-19.865 Y39.036
G1 F1020 X-37.179 Y21.722 E124.61954
G0 F2040 X-36.993 Y21.413
G1 F1020 X-19.37 Y39.036 E125.57332
G0 F2040 X-18.875 Y39.036
G1 F1020 X-36.807 Y21.104 E126.54382
G0 F2040 X-36.621 Y20.795
G1 F1020 X-18.38 Y39.036 E127.53105
G0 F2040 X-17.885 Y39.036
G1 F1020 X-36.435 Y20.487 E128.53497
G0 F2040 X-36.249 Y20.177
G1 F1020 X-17.39 Y39.036 E129.55564
G0 F2040 X-16.895 Y39.036
G1 F1020 X-36.063 Y19.868 E130.59304
G0 F2040 X-35.877 Y19.559
G1 F1020 X-16.4 Y39.036 E131.64716
G0 F2040 X-15.905 Y39.036
G1 F1020 X-35.69 Y19.251 E132.71795
G0 F2040 X-35.504 Y18.942
G1 F1020 X-15.41 Y39.036 E133.80546
G0 F2040 X-14.915 Y39.036
G1 F1020 X-35.318 Y18.633 E134.9097
G0 F2040 X-35.132 Y18.324
G1 F1020 X-14.42 Y39.036 E136.03066
G0 F2040 X-13.925 Y39.036
G1 F1020 X-34.945 Y18.016 E137.16829
G0 F2040 X-34.759 Y17.707
G1 F1020 X-13.43 Y39.036 E138.32264
G0 F2040 X-12.935 Y39.036
G1 F1020 X-34.573 Y17.398 E139.49372
G0 F2040 X-34.388 Y17.089
G1 F1020 X-12.44 Y39.036 E140.68154
G0 F2040 X-11.945 Y39.036
G1 F1020 X-34.201 Y16.781 E141.88604
G0 F2040 X-34.015 Y16.472
G1 F1020 X-11.45 Y39.036 E143.10726
G0 F2040 X-10.955 Y39.036
G1 F1020 X-33.829 Y16.163 E144.3452
G0 F2040 X-33.643 Y15.854
G1 F1020 X-10.46 Y39.036 E145.59987
G0 F2040 X-9.965 Y39.036
G1 F1020 X-33.456 Y15.545 E146.87123
G0 F2040 X-33.27 Y15.236
G1 F1020 X-9.47 Y39.036 E148.15932
G0 F2040 X-8.976 Y39.036
G1 F1020 X-33.084 Y14.927 E149.4641
G0 F2040 X-32.898 Y14.618
G1 F1020 X-8.481 Y39.036 E150.7856
G0 F2040 X-7.986 Y39.036
G1 F1020 X-32.712 Y14.31 E152.12381
G0 F2040 X-32.526 Y14.001
G1 F1020 X-7.491 Y39.036 E153.47873
G0 F2040 X-6.996 Y39.036
G1 F1020 X-32.34 Y13.692 E154.85038
G0 F2040 X-32.154 Y13.383
G1 F1020 X-6.501 Y39.036 E156.23876
G0 F2040 X-6.006 Y39.036
G1 F1020 X-31.967 Y13.075 E157.6438
G0 F2040 X-31.781 Y12.766
G1 F1020 X-5.511 Y39.036 E159.06556
G0 F2040 X-5.016 Y39.036
G1 F1020 X-31.595 Y12.457 E160.50405
G0 F2040 X-31.409 Y12.148
G1 F1020 X-4.521 Y39.036 E161.95927
G0 F2040 X-4.026 Y39.036
G1 F1020 X-31.223 Y11.839 E163.4312
G0 F2040 X-31.037 Y11.53
G1 F1020 X-3.531 Y39.036 E164.91986
G0 F2040 X-3.036 Y39.036
G1 F1020 X-30.851 Y11.221 E166.42525
G0 F2040 X-30.665 Y10.912
G1 F1020 X-2.541 Y39.036 E167.94735
G0 F2040 X-2.046 Y39.036
G1 F1020 X-30.478 Y10.604 E169.48613
G0 F2040 X-30.292 Y10.295
G1 F1020 X-1.551 Y39.036 E171.04163
G0 F2040 X-1.056 Y39.036
G1 F1020 X-30.106 Y9.986 E172.61385
G0 F2040 X-29.92 Y9.677
G1 F1020 X-.561 Y39.036 E174.2028
G0 F2040 X-0.066 Y39.036
G1 F1020 X-29.733 Y9.369 E175.80841
G0 F2040 X-29.547 Y9.06
G1 F1020 X0.428 Y39.036 E177.43073
G0 F2040 X0.923 Y39.036
G1 F1020 X-29.361 Y8.751 E179.06976
G0 F2040 X-29.175 Y8.442
G1 F1020 X1.418 Y39.036 E180.72552
G0 F2040 X1.913 Y39.036
G1 F1020 X-28.989 Y8.133 E182.398
G0 F2040 X-28.803 Y7.824
G1 F1020 X2.408 Y39.036 E184.08721
G0 F2040 X2.903 Y39.036
G1 F1020 X-28.617 Y7.515 E185.79314
G0 F2040 X-28.431 Y7.206
G1 F1020 X3.398 Y39.036 E187.51579
G0 F2040 X3.893 Y39.036
G1 F1020 X-28.244 Y6.898 E189.25511
G0 F2040 X-28.058 Y6.589
G1 F1020 X4.388 Y39.036 E191.01116
G0 F2040 X4.883 Y39.036
G1 F1020 X-27.872 Y6.28 E192.78393
G0 F2040 X-27.686 Y5.971
G1 F1020 X5.378 Y39.036 E194.57342
G0 F2040 X5.873 Y39.036
G1 F1020 X-27.5 Y5.663 E196.37961
G0 F2040 X-27.314 Y5.354
G1 F1020 X6.368 Y39.036 E198.20252
G0 F2040 X6.863 Y39.036
G1 F1020 X-27.128 Y5.045 E200.04216
G0 F2040 X-26.942 Y4.736
G1 F1020 X7.358 Y39.036 E201.89852
G0 F2040 X7.853 Y39.036
G1 F1020 X-26.755 Y4.427 E203.77158
G0 F2040 X-26.569 Y4.118
G1 F1020 X8.348 Y39.036 E205.66136
G0 F2040 X8.843 Y39.036
G1 F1020 X-26.383 Y3.809 E207.56786
G0 F2040 X-26.197 Y3.5
G1 F1020 X9.338 Y39.036 E209.49109
G0 F2040 X9.833 Y39.036
G1 F1020 X-26.01 Y3.192 E211.43098
G0 F2040 X-25.824 Y2.883
G1 F1020 X10.328 Y39.036 E213.3876
G0 F2040 X10.822 Y39.036
G1 F1020 X-25.638 Y2.574 E215.36092
G0 F2040 X-25.453 Y2.265
G1 F1020 X11.317 Y39.036 E217.35098
G0 F2040 X11.812 Y39.036
G1 F1020 X-25.266 Y1.957 E219.35772
G0 F2040 X-25.08 Y1.648
