;FLAVOR:Marlin
;TIME:7831
;Filament used: 7.25358m
;Layer height: 0.2
;MINX:-66.275
;MINY:-70.671
;MINZ:0.26
;MAXX:43.944
;MAXY:25.376
;MAXZ:23.46
;Generated with Cura_SteamEngine 4.8.0
M82 ;absolute extrusion mode
;Gcode by Cura
G90
G28
M107
M109 R100
G30
M109 S215 U-55 X55 V-85 Y-85 W0.26 Z0.26
M82
G92 E0
G1 F200 E6
G92 E0
G1 F200 E-3.5
G0 Z0.15
G0 X10
G0 Z3
G1 F6000
G92 E0
G92 E0
G1 F3600 E-3.8
;LAYER_COUNT:117
;LAYER:0
M107
G0 F2040 X38.884 Y25.376 Z0.26
;TYPE:SKIRT
G1 F3600 E0
G1 F1020 X-61.094 Y25.375 E3.82611
G1 X-61.77 Y25.365 E3.85198
G1 X-62.372 Y25.317 E3.87509
G1 X-62.963 Y25.189 E3.89824
G1 X-63.532 Y24.984 E3.92138
G1 X-64.069 Y24.706 E3.94452
G1 X-64.565 Y24.36 E3.96767
G1 X-65.01 Y23.951 E3.9908
G1 X-65.398 Y23.487 E4.01394
G1 X-65.721 Y22.976 E4.03708
G1 X-65.975 Y22.427 E4.06023
G1 X-66.153 Y21.849 E4.08337
G1 X-66.254 Y21.253 E4.10651
G1 X-66.275 Y20.649 E4.12964
G1 X-66.216 Y20.047 E4.15278
G1 X-66.079 Y19.458 E4.17593
G1 X-65.865 Y18.893 E4.19905
G1 X-65.683 Y18.537 E4.21435
G1 X-65.13 Y17.561 E4.25728
G1 X-14.29 Y-67.956 E8.06464
G1 X-13.957 Y-68.497 E8.08895
G1 X-13.607 Y-68.99 E8.11209
G1 X-13.195 Y-69.432 E8.13521
G1 X-12.728 Y-69.816 E8.15835
G1 X-12.214 Y-70.136 E8.18152
G1 X-11.663 Y-70.384 E8.20464
G1 X-11.084 Y-70.558 E8.22778
G1 X-10.487 Y-70.654 E8.25092
G1 X-9.882 Y-70.671 E8.27408
G1 X-9.281 Y-70.607 E8.29721
G1 X-8.693 Y-70.465 E8.32036
G1 X-8.13 Y-70.246 E8.34348
G1 X-7.6 Y-69.955 E8.36662
G1 X-7.113 Y-69.597 E8.38975
G1 X-6.677 Y-69.178 E8.41289
G1 X-6.17 Y-68.505 E8.44514
G1 X-5.862 Y-67.989 E8.46814
G1 X43.018 Y17.934 E12.25121
G1 X43.374 Y18.578 E12.27937
G1 X43.631 Y19.125 E12.3025
G1 X43.813 Y19.701 E12.32562
G1 X43.918 Y20.297 E12.34878
G1 X43.944 Y20.901 E12.37192
G1 X43.889 Y21.503 E12.39505
G1 X43.756 Y22.093 E12.4182
G1 X43.546 Y22.66 E12.44133
G1 X43.263 Y23.194 E12.46446
G1 X42.912 Y23.687 E12.48762
G1 X42.499 Y24.129 E12.51077
G1 X42.032 Y24.512 E12.53389
G1 X41.518 Y24.831 E12.55704
G1 X40.966 Y25.078 E12.58018
G1 X40.387 Y25.252 E12.60332
G1 X39.543 Y25.363 E12.6359
G1 X38.884 Y25.376 E12.66112
G0 F2040 X38.88 Y25.026
G1 F1020 X-61.088 Y25.026 E16.48685
G1 X-61.764 Y25.016 E16.51272
G1 X-62.343 Y24.967 E16.53496
G1 X-62.91 Y24.84 E16.55719
G1 X-63.454 Y24.635 E16.57944
G1 X-63.965 Y24.359 E16.60167
G1 X-64.433 Y24.014 E16.62392
G1 X-64.85 Y23.609 E16.64617
G1 X-65.207 Y23.151 E16.66839
G1 X-65.497 Y22.648 E16.69061
G1 X-65.716 Y22.109 E16.71287
G1 X-65.859 Y21.546 E16.7351
G1 X-65.923 Y20.969 E16.75732
G1 X-65.908 Y20.388 E16.77956
G1 X-65.813 Y19.815 E16.80179
G1 X-65.64 Y19.26 E16.82404
G1 X-65.379 Y18.709 E16.84737
G1 X-64.829 Y17.74 E16.89001
G1 X-13.992 Y-67.773 E20.69718
G1 X-13.659 Y-68.314 E20.72149
G1 X-13.321 Y-68.786 E20.74371
G1 X-12.922 Y-69.208 E20.76593
G1 X-12.468 Y-69.571 E20.78818
G1 X-11.969 Y-69.869 E20.81042
G1 X-11.434 Y-70.095 E20.83265
G1 X-10.872 Y-70.245 E20.85491
G1 X-10.296 Y-70.317 E20.87712
G1 X-9.715 Y-70.31 E20.89936
G1 X-9.14 Y-70.222 E20.92162
G1 X-8.583 Y-70.057 E20.94385
G1 X-8.054 Y-69.817 E20.96608
G1 X-7.563 Y-69.507 E20.9883
G1 X-7.119 Y-69.132 E21.01054
G1 X-6.731 Y-68.699 E21.03279
G1 X-6.399 Y-68.211 E21.05538
G1 X-6.139 Y-67.767 E21.07507
G1 X42.712 Y18.103 E24.85584
G1 X43.068 Y18.747 E24.884
G1 X43.313 Y19.274 E24.90624
G1 X43.484 Y19.829 E24.92846
G1 X43.577 Y20.402 E24.95068
G1 X43.591 Y20.983 E24.97292
G1 X43.524 Y21.561 E24.99519
G1 X43.379 Y22.123 E25.0174
G1 X43.159 Y22.661 E25.03964
G1 X42.866 Y23.163 E25.06189
G1 X42.508 Y23.62 E25.0841
G1 X42.09 Y24.024 E25.10635
G1 X41.621 Y24.367 E25.12859
G1 X41.109 Y24.642 E25.15083
G1 X40.564 Y24.844 E25.17307
G1 X39.997 Y24.969 E25.19529
G1 X39.398 Y25.018 E25.21829
G1 X38.88 Y25.026 E25.23812
G0 F2040 X38.875 Y24.676
G1 F1020 X-61.083 Y24.676 E29.06346
G1 X-61.759 Y24.666 E29.08934
G1 X-62.314 Y24.617 E29.11066
G1 X-62.855 Y24.49 E29.13192
G1 X-63.373 Y24.287 E29.15322
G1 X-63.857 Y24.012 E29.17452
G1 X-64.296 Y23.67 E29.19582
G1 X-64.681 Y23.269 E29.21709
G1 X-65.006 Y22.816 E29.23843
G1 X-65.262 Y22.322 E29.25972
G1 X-65.444 Y21.797 E29.28098
G1 X-65.55 Y21.25 E29.30231
G1 X-65.576 Y20.695 E29.32357
G1 X-65.522 Y20.141 E29.34487
G1 X-65.39 Y19.6 E29.36618
G1 X-65.074 Y18.882 E29.3962
G1 X-64.528 Y17.919 E29.43857
G1 X-13.694 Y-67.589 E33.24551
G1 X-13.361 Y-68.13 E33.26982
G1 X-13.036 Y-68.582 E33.29113
G1 X-12.65 Y-68.982 E33.3124
G1 X-12.21 Y-69.323 E33.33371
G1 X-11.726 Y-69.598 E33.35501
G1 X-11.208 Y-69.8 E33.37629
G1 X-10.666 Y-69.926 E33.39758
G1 X-10.111 Y-69.974 E33.4189
G1 X-9.556 Y-69.941 E33.44018
G1 X-9.011 Y-69.829 E33.46147
G1 X-8.488 Y-69.64 E33.48275
G1 X-7.997 Y-69.378 E33.50405
G1 X-7.548 Y-69.049 E33.52535
G1 X-7.152 Y-68.659 E33.54662
G1 X-6.765 Y-68.137 E33.57149
G1 X-6.467 Y-67.635 E33.59383
G1 X42.405 Y18.272 E37.37623
G1 X42.761 Y18.916 E37.40439
G1 X42.995 Y19.421 E37.42569
G1 X43.154 Y19.955 E37.44701
G1 X43.234 Y20.505 E37.46828
G1 X43.236 Y21.062 E37.48959
G1 X43.157 Y21.612 E37.51086
G1 X43 Y22.146 E37.53216
G1 X42.769 Y22.652 E37.55345
G1 X42.467 Y23.12 E37.57476
G1 X42.102 Y23.539 E37.59603
G1 X41.68 Y23.902 E37.61733
G1 X41.21 Y24.201 E37.63865
G1 X40.703 Y24.429 E37.65992
G1 X40.168 Y24.583 E37.68123
G1 X39.517 Y24.663 E37.70633
G1 X38.875 Y24.676 E37.7309
G0 F2040 X38.871 Y24.326
G1 F1020 X-61.078 Y24.326 E41.5559
G1 X-61.754 Y24.316 E41.58178
G1 X-62.283 Y24.268 E41.6021
G1 X-62.798 Y24.141 E41.6224
G1 X-63.289 Y23.939 E41.64272
G1 X-63.743 Y23.665 E41.66302
G1 X-64.151 Y23.326 E41.68332
G1 X-64.504 Y22.93 E41.70362
G1 X-64.793 Y22.485 E41.72392
G1 X-65.013 Y22.001 E41.74427
G1 X-65.157 Y21.491 E41.76455
G1 X-65.223 Y20.964 E41.78488
G1 X-65.209 Y20.434 E41.80517
G1 X-65.115 Y19.911 E41.8255
G1 X-64.945 Y19.409 E41.84578
G1 X-64.77 Y19.054 E41.86093
G1 X-64.265 Y18.162 E41.90016
G1 X-13.396 Y-67.406 E45.70976
G1 X-13.063 Y-67.947 E45.73407
G1 X-12.752 Y-68.376 E45.75435
G1 X-12.379 Y-68.755 E45.7747
G1 X-11.954 Y-69.072 E45.79499
G1 X-11.486 Y-69.323 E45.81531
G1 X-10.986 Y-69.5 E45.83561
G1 X-10.465 Y-69.601 E45.85592
G1 X-9.935 Y-69.622 E45.87622
G1 X-9.408 Y-69.563 E45.89652
G1 X-8.895 Y-69.426 E45.91684
G1 X-8.409 Y-69.213 E45.93714
G1 X-7.96 Y-68.93 E45.95745
G1 X-7.559 Y-68.582 E45.97777
G1 X-7.215 Y-68.178 E45.99808
G1 X-6.769 Y-67.458 E46.03049
G1 X42.099 Y18.442 E49.81258
G1 X42.455 Y19.086 E49.84074
G1 X42.676 Y19.568 E49.86103
G1 X42.822 Y20.078 E49.88133
G1 X42.89 Y20.604 E49.90163
G1 X42.878 Y21.135 E49.92195
G1 X42.787 Y21.658 E49.94227
G1 X42.618 Y22.161 E49.96258
G1 X42.376 Y22.633 E49.98288
G1 X42.065 Y23.063 E50.00318
G1 X41.693 Y23.442 E50.02351
G1 X41.269 Y23.761 E50.04381
G1 X40.802 Y24.012 E50.0641
G1 X40.302 Y24.191 E50.08443
G1 X39.781 Y24.292 E50.10474
G1 X39.281 Y24.321 E50.1239
G1 X38.871 Y24.326 E50.1396
G0 F2040 X38.867 Y23.976
G1 F1020 X-61.073 Y23.976 E53.96425
G1 X-61.749 Y23.966 E53.99012
G1 X-62.25 Y23.918 E54.00939
G1 X-62.738 Y23.792 E54.02867
G1 X-63.199 Y23.591 E54.04792
G1 X-63.623 Y23.319 E54.0672
G1 X-63.999 Y22.983 E54.0865
G1 X-64.316 Y22.592 E54.10576
G1 X-64.568 Y22.156 E54.12503
G1 X-64.748 Y21.686 E54.14429
G1 X-64.851 Y21.193 E54.16357
G1 X-64.875 Y20.69 E54.18284
G1 X-64.82 Y20.19 E54.20209
G1 X-64.685 Y19.704 E54.22139
G1 X-64.465 Y19.227 E54.24149
G1 X-63.926 Y18.277 E54.28329
G1 X-13.098 Y-67.222 E58.08982
G1 X-12.765 Y-67.763 E58.11414
G1 X-12.468 Y-68.17 E58.13342
G1 X-12.11 Y-68.524 E58.15269
G1 X-11.701 Y-68.818 E58.17196
G1 X-11.25 Y-69.043 E58.19125
G1 X-10.77 Y-69.194 E58.21051
G1 X-10.272 Y-69.267 E58.22977
G1 X-9.768 Y-69.26 E58.24906
G1 X-9.272 Y-69.174 E58.26832
G1 X-8.796 Y-69.011 E58.28758
G1 X-8.351 Y-68.774 E58.30687
G1 X-7.95 Y-68.47 E58.32613
G1 X-7.601 Y-68.107 E58.3454
G1 X-7.292 Y-67.658 E58.36626
G1 X-7.051 Y-67.248 E58.38446
G1 X41.793 Y18.611 E62.16473
G1 X42.149 Y19.255 E62.19289
G1 X42.357 Y19.714 E62.21217
G1 X42.489 Y20.199 E62.23141
G1 X42.544 Y20.7 E62.2507
G1 X42.518 Y21.203 E62.26997
G1 X42.413 Y21.696 E62.28926
G1 X42.232 Y22.165 E62.3085
G1 X41.979 Y22.601 E62.32779
G1 X41.66 Y22.99 E62.34704
G1 X41.283 Y23.325 E62.36634
G1 X40.859 Y23.595 E62.38558
G1 X40.397 Y23.795 E62.40485
G1 X39.909 Y23.92 E62.42413
G1 X39.358 Y23.969 E62.4453
G1 X38.867 Y23.976 E62.46409
G1 F3600 E58.66409
;MESH:support_tri_0_017.stl
G0 F2040 X38.768 Y21.466
G0 X38.768 Y20.441
G0 X38.484 Y20.276
;TYPE:WALL-INNER
G1 F3600 E62.46409
G1 F1020 X-60.81 Y20.276 E66.26402
G1 X-10.071 Y-65.074 E70.06391
G1 X38.484 Y20.276 E73.82178
G0 F2040 X39.042 Y20.601
;TYPE:WALL-OUTER
G1 F1020 X-61.381 Y20.601 E77.66492
G1 X-10.065 Y-65.72 E81.50803
G1 X39.042 Y20.601 E85.30864
G0 F2040 X38.842 Y20.601
G0 X38.699 Y20.401
G0 X37.899 Y19.936
;TYPE:SKIN
G1 F1020 X-60.213 Y19.936 E89.06334
G1 X-10.078 Y-64.398 E92.818
G1 X37.899 Y19.936 E96.53113
G0 F2040 X-10.101 Y-64.053
G1 F1020 X-10.014 Y-63.966 E96.53584
G0 F2040 X-10.285 Y-63.742
G1 F1020 X-9.361 Y-62.818 E96.58585
G1 X-9.299 Y-62.756
G0 F2040 X-10.47 Y-63.432
G1 F1020 X-8.708 Y-61.67 E96.68121
G1 X-8.646 Y-61.608
G0 F2040 X-8.054 Y-60.521
G1 F1020 X-10.654 Y-63.122 E96.82195
G0 F2040 X-10.839 Y-62.811
G1 F1020 X-7.401 Y-59.374 E97.00799
G1 X-7.339 Y-59.312
G0 F2040 X-6.748 Y-58.226
G1 F1020 X-11.023 Y-62.501 E97.23936
G0 F2040 X-11.208 Y-62.19
G1 F1020 X-6.095 Y-57.077 E97.51608
G1 X-6.033 Y-57.015
G0 F2040 X-5.441 Y-55.929
G1 F1020 X-11.392 Y-61.88 E97.83816
G0 F2040 X-11.577 Y-61.569
G1 F1020 X-4.789 Y-54.781 E98.20553
G1 X-4.727 Y-54.719
G0 F2040 X-4.135 Y-53.633
G1 F1020 X-11.762 Y-61.259 E98.61829
G0 F2040 X-11.946 Y-60.949
G1 F1020 X-3.482 Y-52.485 E99.07637
G1 X-3.42 Y-52.423
G0 F2040 X-2.829 Y-51.336
G1 F1020 X-12.131 Y-60.638 E99.57981
G0 F2040 X-12.315 Y-60.328
G1 F1020 X-2.176 Y-50.189 E100.12854
G1 X-2.114 Y-50.127
G0 F2040 X-1.523 Y-49.04
G1 F1020 X-12.5 Y-60.017 E100.72263
G0 F2040 X-12.684 Y-59.707
G1 F1020 X-.869 Y-47.892 E101.36208
G1 X-.807 Y-47.83
G0 F2040 X-.217 Y-46.744
G1 F1020 X-12.869 Y-59.396 E102.04682
G0 F2040 X-13.053 Y-59.086
G1 F1020 X0.436 Y-45.596 E102.77689
G1 X0.498 Y-45.534
G0 F2040 X1.089 Y-44.448
G1 F1020 X-13.238 Y-58.776 E103.55231
G0 F2040 X-13.423 Y-58.465
G1 F1020 X1.743 Y-43.299 E104.37311
G1 X1.805 Y-43.237
G0 F2040 X2.395 Y-42.152
G1 F1020 X-13.607 Y-58.155 E105.23919
G0 F2040 X-13.792 Y-57.844
G1 F1020 X3.049 Y-41.003 E106.15065
G1 X3.111 Y-40.941
G0 F2040 X3.702 Y-39.855
G1 F1020 X-13.976 Y-57.534 E107.10743
G0 F2040 X-14.161 Y-57.224
G1 F1020 X4.355 Y-38.707 E108.10957
G1 X4.417 Y-38.645
G0 F2040 X5.008 Y-37.559
G1 F1020 X-14.345 Y-56.913 E109.157
G0 F2040 X-14.53 Y-56.603
G1 F1020 X5.661 Y-36.411 E110.24979
G1 X5.723 Y-36.349
G0 F2040 X6.315 Y-35.262
G1 F1020 X-14.714 Y-56.292 E111.38793
G0 F2040 X-14.899 Y-55.982
G1 F1020 X6.968 Y-34.114 E112.57143
G1 X7.03 Y-34.052
G0 F2040 X7.621 Y-32.966
G1 F1020 X-15.084 Y-55.671 E113.80026
G0 F2040 X-15.268 Y-55.361
G1 F1020 X8.274 Y-31.818 E115.07441
G1 X8.336 Y-31.756
G0 F2040 X8.927 Y-30.67
G1 F1020 X-15.453 Y-55.051 E116.39391
G0 F2040 X-15.637 Y-54.74
G1 F1020 X9.58 Y-29.522 E117.75871
G1 X9.642 Y-29.46
G0 F2040 X10.233 Y-28.374
G1 F1020 X-15.822 Y-54.43 E119.16887
G0 F2040 X-16.006 Y-54.119
G1 F1020 X10.887 Y-27.225 E120.62438
G1 X10.949 Y-27.163
G0 F2040 X11.54 Y-26.077
G1 F1020 X-16.191 Y-53.809 E122.12524
G0 F2040 X-16.375 Y-53.498
G1 F1020 X12.193 Y-24.929 E123.67141
G1 X12.255 Y-24.867
G0 F2040 X12.846 Y-23.781
G1 F1020 X-16.56 Y-53.188 E125.26292
G0 F2040 X-16.744 Y-52.878
G1 F1020 X13.5 Y-22.633 E126.8998
G1 X13.562 Y-22.571
G0 F2040 X14.153 Y-21.484
G1 F1020 X-16.929 Y-52.567 E128.58202
G0 F2040 X-17.114 Y-52.257
G1 F1020 X14.806 Y-20.337 E130.30957
G1 X14.868 Y-20.275
G0 F2040 X15.459 Y-19.188
G1 F1020 X-17.298 Y-51.946 E132.08245
G0 F2040 X-17.483 Y-51.636
G1 F1020 X16.112 Y-18.04 E133.90068
G1 X16.174 Y-17.978
G0 F2040 X16.766 Y-16.892
G1 F1020 X-17.667 Y-51.326 E135.76426
G0 F2040 X-17.852 Y-51.015
G1 F1020 X17.418 Y-15.744 E137.67315
G1 X17.48 Y-15.682
G0 F2040 X18.072 Y-14.596
G1 F1020 X-18.036 Y-50.705 E139.62739
G0 F2040 X-18.221 Y-50.394
G1 F1020 X18.725 Y-13.447 E141.62698
G1 X18.787 Y-13.385
G0 F2040 X19.378 Y-12.3
G1 F1020 X-18.405 Y-50.084 E143.67187
G0 F2040 X-18.59 Y-49.773
G1 F1020 X20.031 Y-11.151 E145.76211
G1 X20.093 Y-11.089
G0 F2040 X20.684 Y-10.003
G1 F1020 X-18.775 Y-49.463 E147.89771
G0 F2040 X-18.959 Y-49.153
G1 F1020 X21.338 Y-8.855 E150.07867
G1 X21.4 Y-8.793
G0 F2040 X21.991 Y-7.707
G1 F1020 X-19.144 Y-48.842 E152.30494
G0 F2040 X-19.328 Y-48.531
G1 F1020 X22.644 Y-6.559 E154.57652
G1 X22.706 Y-6.497
G0 F2040 X23.297 Y-5.41
G1 F1020 X-19.512 Y-48.221 E156.89345
G0 F2040 X-19.697 Y-47.91
G1 F1020 X23.951 Y-4.262 E159.25574
G1 X24.013 Y-4.2
G0 F2040 X24.603 Y-3.114
G1 F1020 X-19.881 Y-47.6 E161.66332
G0 F2040 X-20.066 Y-47.289
G1 F1020 X25.257 Y-1.966 E164.11626
G1 X25.319 Y-1.904
G0 F2040 X25.91 Y-.818
G1 F1020 X-20.25 Y-46.979 E166.61453
G0 F2040 X-20.435 Y-46.669
G1 F1020 X26.563 Y0.329 E169.15812
G1 X26.625 Y0.391
G0 F2040 X27.216 Y1.477
G1 F1020 X-20.619 Y-46.358 E171.74701
G0 F2040 X-20.804 Y-46.048
G1 F1020 X27.869 Y2.626 E174.38128
G1 X27.931 Y2.688
G0 F2040 X28.523 Y3.774
G1 F1020 X-20.989 Y-45.737 E177.06091
G0 F2040 X-21.173 Y-45.427
G1 F1020 X29.175 Y4.922 E179.78583
G1 X29.237 Y4.984
G0 F2040 X29.829 Y6.07
G1 F1020 X-21.358 Y-45.116 E182.55611
G0 F2040 X-21.542 Y-44.806
G1 F1020 X30.482 Y7.218 E185.37172
G1 X30.544 Y7.28
G0 F2040 X31.136 Y8.367
G1 F1020 X-21.727 Y-44.496 E188.23273
G0 F2040 X-21.911 Y-44.185
G1 F1020 X31.788 Y9.514 E191.13899
G1 X31.85 Y9.576
G0 F2040 X32.442 Y10.663
G1 F1020 X-22.096 Y-43.875 E194.09065
G0 F2040 X-22.28 Y-43.564
G1 F1020 X33.095 Y11.811 E197.08762
G1 X33.157 Y11.873
G0 F2040 X33.748 Y12.959
G1 F1020 X-22.465 Y-43.254 E200.12994
G0 F2040 X-22.65 Y-42.944
G1 F1020 X34.401 Y14.107 E203.21761
G1 X34.463 Y14.169
G0 F2040 X35.054 Y15.255
G1 F1020 X-22.834 Y-42.633 E206.35058
G0 F2040 X-23.019 Y-42.323
G1 F1020 X35.708 Y16.404 E209.52896
G1 X35.77 Y16.466
G0 F2040 X36.36 Y17.551
G1 F1020 X-23.203 Y-42.012 E212.75259
G0 F2040 X-23.388 Y-41.702
G1 F1020 X37.014 Y18.7 E216.02162
G1 X37.076 Y18.762
G0 F2040 X37.102 Y19.778
G1 F1020 X-23.757 Y-41.081 E219.31539
G0 F2040 X-23.941 Y-40.771
G1 F1020 X36.607 Y19.778 E222.59235
G0 F2040 X36.112 Y19.778
G1 F1020 X-24.126 Y-40.46 E225.85251
G0 F2040 X-24.311 Y-40.15
G1 F1020 X35.617 Y19.778 E229.09589
G0 F2040 X35.122 Y19.778
G1 F1020 X-24.495 Y-39.839 E232.32244
G0 F2040 X-24.68 Y-39.529
G1 F1020 X34.627 Y19.778 E235.53221
G0 F2040 X34.132 Y19.778
G1 F1020 X-24.864 Y-39.218 E238.72514
G0 F2040 X-25.049 Y-38.908
G1 F1020 X33.637 Y19.778 E241.90131
G0 F2040 X33.142 Y19.778
G1 F1020 X-25.233 Y-38.598 E245.06066
G0 F2040 X-25.418 Y-38.287
G1 F1020 X32.647 Y19.778 E248.20321
G0 F2040 X32.152 Y19.778
G1 F1020 X-25.602 Y-37.977 E251.32896
G0 F2040 X-25.787 Y-37.666
G1 F1020 X31.657 Y19.778 E254.4379
G0 F2040 X31.162 Y19.778
G1 F1020 X-25.972 Y-37.356 E257.53007
G0 F2040 X-26.156 Y-37.046
G1 F1020 X30.667 Y19.778 E260.60543
G0 F2040 X30.172 Y19.778
G1 F1020 X-26.341 Y-36.735 E263.66398
G0 F2040 X-26.525 Y-36.425
G1 F1020 X29.677 Y19.778 E266.70574
G0 F2040 X29.183 Y19.778
G1 F1020 X-26.71 Y-36.114 E269.73071
G0 F2040 X-26.894 Y-35.804
G1 F1020 X28.688 Y19.778 E272.73888
G0 F2040 X28.193 Y19.778
G1 F1020 X-27.079 Y-35.493 E275.73024
G0 F2040 X-27.263 Y-35.183
G1 F1020 X27.698 Y19.778 E278.7048
G0 F2040 X27.203 Y19.778
G1 F1020 X-27.448 Y-34.873 E281.66258
G0 F2040 X-27.633 Y-34.562
G1 F1020 X26.708 Y19.778 E284.60356
G0 F2040 X26.213 Y19.778
G1 F1020 X-27.817 Y-34.252 E287.52773
G0 F2040 X-28.002 Y-33.941
G1 F1020 X25.718 Y19.778 E290.4351
G0 F2040 X25.223 Y19.778
G1 F1020 X-28.186 Y-33.631 E293.32566
G0 F2040 X-28.371 Y-33.32
G1 F1020 X24.728 Y19.778 E296.19942
G0 F2040 X24.233 Y19.778
G1 F1020 X-28.555 Y-33.01 E299.05638
G0 F2040 X-28.74 Y-32.7
G1 F1020 X23.738 Y19.778 E301.89655
G0 F2040 X23.243 Y19.778
G1 F1020 X-28.924 Y-32.389 E304.7199
G0 F2040 X-29.109 Y-32.079
G1 F1020 X22.748 Y19.778 E307.52646
G0 F2040 X22.253 Y19.778
G1 F1020 X-29.294 Y-31.768 E310.31623
G0 F2040 X-29.478 Y-31.458
