;FLAVOR:Marlin
;TIME:6231
;Filament used: 7.93953m
;Layer height: 0.3
;MINX:-54.556
;MINY:-49.315
;MINZ:0.26
;MAXX:54.558
;MAXY:47.307
;MAXZ:23.66
;Generated with Cura_SteamEngine 4.9.1
M82 ;absolute extrusion mode
;Gcode by Cura
G90
G28
M107
M109 R100
G30
M109 S215 U-55 X55 V-85 Y-85 W0.26 Z0.26
M82
G92 E0
G1 F200 E6
G92 E0
G1 F200 E-3.5
G0 Z0.15
G0 X10
G0 Z3
G1 F6000
G92 E0
G92 E0
G1 F3600 E-3.8
;LAYER_COUNT:79
;LAYER:0
M107
G0 F2040 X4.431 Y-46.234 Z0.26
;TYPE:SKIRT
G1 F3600 E0
G1 F1020 X53.635 Y39.873 E3.79533
G1 X53.984 Y40.502 E3.82286
G1 X54.242 Y41.049 E3.84601
G1 X54.426 Y41.625 E3.86915
G1 X54.531 Y42.221 E3.89231
G1 X54.558 Y42.825 E3.91545
G1 X54.504 Y43.427 E3.93858
G1 X54.372 Y44.017 E3.96171
G1 X54.163 Y44.584 E3.98484
G1 X53.881 Y45.119 E4.00799
G1 X53.53 Y45.612 E4.03115
G1 X53.118 Y46.055 E4.0543
G1 X52.652 Y46.439 E4.07741
G1 X52.138 Y46.758 E4.10056
G1 X51.587 Y47.007 E4.1237
G1 X51.008 Y47.181 E4.14683
G1 X50.195 Y47.292 E4.17824
G1 X49.976 Y47.3 E4.18662
G1 X49.415 Y47.307 E4.20809
G1 X-49.359 Y47.307 E7.98813
G1 X-50.049 Y47.297 E8.01453
G1 X-50.652 Y47.248 E8.03769
G1 X-51.243 Y47.12 E8.06083
G1 X-51.812 Y46.916 E8.08396
G1 X-52.349 Y46.638 E8.1071
G1 X-52.845 Y46.291 E8.13027
G1 X-53.29 Y45.883 E8.15337
G1 X-53.678 Y45.419 E8.17652
G1 X-54.002 Y44.908 E8.19968
G1 X-54.255 Y44.359 E8.22281
G1 X-54.434 Y43.781 E8.24597
G1 X-54.534 Y43.185 E8.26909
G1 X-54.556 Y42.581 E8.29222
G1 X-54.497 Y41.979 E8.31537
G1 X-54.36 Y41.39 E8.33851
G1 X-54.096 Y40.718 E8.36614
G1 X-53.963 Y40.461 E8.37722
G1 X-53.626 Y39.855 E8.40376
G1 X-4.285 Y-46.491 E12.20963
G1 X-3.941 Y-47.072 E12.23547
G1 X-3.599 Y-47.571 E12.25862
G1 X-3.194 Y-48.02 E12.28176
G1 X-2.734 Y-48.412 E12.30489
G1 X-2.226 Y-48.74 E12.32803
G1 X-1.679 Y-48.998 E12.35118
G1 X-1.103 Y-49.182 E12.37432
G1 X-.508 Y-49.288 E12.39745
G1 X0.096 Y-49.315 E12.42059
G1 X0.698 Y-49.262 E12.44371
G1 X1.288 Y-49.13 E12.46685
G1 X1.856 Y-48.921 E12.49001
G1 X2.391 Y-48.639 E12.51316
G1 X2.884 Y-48.289 E12.5363
G1 X3.327 Y-47.877 E12.55945
G1 X3.711 Y-47.411 E12.58256
G1 X3.926 Y-47.083 E12.59756
G1 X4.431 Y-46.234 E12.63537
G0 F2040 X4.127 Y-46.06
G1 F1020 X53.329 Y40.043 E16.43053
G1 X53.678 Y40.672 E16.45806
G1 X53.925 Y41.198 E16.4803
G1 X54.096 Y41.753 E16.50252
G1 X54.19 Y42.327 E16.52478
G1 X54.205 Y42.908 E16.54703
G1 X54.14 Y43.485 E16.56925
G1 X53.996 Y44.048 E16.59149
G1 X53.776 Y44.586 E16.61373
G1 X53.484 Y45.088 E16.63596
G1 X53.126 Y45.546 E16.6582
G1 X52.709 Y45.951 E16.68045
G1 X52.24 Y46.294 E16.70268
G1 X51.729 Y46.57 E16.72491
G1 X51.185 Y46.773 E16.74713
G1 X50.618 Y46.899 E16.76936
G1 X50.114 Y46.946 E16.78873
G1 X49.972 Y46.95 E16.79417
G1 X49.411 Y46.957 E16.81564
G1 X-49.354 Y46.957 E20.59533
G1 X-50.044 Y46.947 E20.62174
G1 X-50.623 Y46.898 E20.64397
G1 X-51.19 Y46.771 E20.66621
G1 X-51.734 Y46.567 E20.68844
G1 X-52.245 Y46.29 E20.71069
G1 X-52.713 Y45.946 E20.73292
G1 X-53.13 Y45.541 E20.75516
G1 X-53.487 Y45.083 E20.77739
G1 X-53.778 Y44.58 E20.79962
G1 X-53.997 Y44.042 E20.82185
G1 X-54.14 Y43.478 E20.84412
G1 X-54.204 Y42.901 E20.86634
G1 X-54.189 Y42.32 E20.88858
G1 X-54.094 Y41.747 E20.91081
G1 X-53.921 Y41.192 E20.93306
G1 X-53.657 Y40.631 E20.95678
G1 X-53.322 Y40.029 E20.98315
G1 X-3.984 Y-46.313 E24.78884
G1 X-3.64 Y-46.894 E24.81468
G1 X-3.31 Y-47.372 E24.8369
G1 X-2.918 Y-47.801 E24.85914
G1 X-2.47 Y-48.171 E24.88138
G1 X-1.976 Y-48.477 E24.90362
G1 X-1.445 Y-48.713 E24.92586
G1 X-.887 Y-48.873 E24.94807
G1 X-.311 Y-48.955 E24.97034
G1 X0.27 Y-48.957 E24.99257
G1 X0.846 Y-48.88 E25.01481
G1 X1.405 Y-48.724 E25.03702
G1 X1.938 Y-48.493 E25.05925
G1 X2.435 Y-48.191 E25.08151
G1 X2.885 Y-47.824 E25.10373
G1 X3.281 Y-47.398 E25.12599
G1 X3.625 Y-46.904 E25.14902
G1 X4.127 Y-46.06 E25.18661
G0 F2040 X3.823 Y-45.887
G1 F1020 X53.023 Y40.213 E28.98163
G1 X53.372 Y40.842 E29.00916
G1 X53.607 Y41.347 E29.03048
G1 X53.766 Y41.88 E29.05176
G1 X53.848 Y42.43 E29.07304
G1 X53.85 Y42.986 E29.09432
G1 X53.772 Y43.537 E29.11562
G1 X53.616 Y44.072 E29.13695
G1 X53.386 Y44.578 E29.15822
G1 X53.085 Y45.046 E29.17951
G1 X52.72 Y45.466 E29.20081
G1 X52.299 Y45.83 E29.2221
G1 X51.83 Y46.129 E29.24339
G1 X51.323 Y46.358 E29.26468
G1 X50.788 Y46.513 E29.286
G1 X50.163 Y46.593 E29.31011
G1 X49.967 Y46.6 E29.31762
G1 X49.406 Y46.607 E29.33909
G1 X-49.349 Y46.607 E33.11839
G1 X-50.039 Y46.597 E33.1448
G1 X-50.593 Y46.549 E33.16608
G1 X-51.135 Y46.422 E33.18739
G1 X-51.653 Y46.219 E33.20868
G1 X-52.137 Y45.943 E33.23
G1 X-52.576 Y45.602 E33.25127
G1 X-52.962 Y45.201 E33.27257
G1 X-53.286 Y44.748 E33.29389
G1 X-53.542 Y44.254 E33.31518
G1 X-53.725 Y43.729 E33.33646
G1 X-53.831 Y43.183 E33.35774
G1 X-53.857 Y42.627 E33.37904
G1 X-53.803 Y42.073 E33.40035
G1 X-53.671 Y41.533 E33.42162
G1 X-53.467 Y41.025 E33.44257
G1 X-53.351 Y40.801 E33.45222
G1 X-53.018 Y40.202 E33.47845
G1 X-3.682 Y-46.134 E37.2839
G1 X-3.338 Y-46.715 E37.30974
G1 X-3.021 Y-47.172 E37.33103
G1 X-2.642 Y-47.579 E37.35231
G1 X-2.208 Y-47.928 E37.37362
G1 X-1.729 Y-48.211 E37.39491
G1 X-1.214 Y-48.422 E37.41621
G1 X-.675 Y-48.558 E37.43749
G1 X-.121 Y-48.614 E37.4588
G1 X0.435 Y-48.591 E37.48009
G1 X0.982 Y-48.489 E37.50139
G1 X1.508 Y-48.309 E37.52266
G1 X2.004 Y-48.055 E37.54399
G1 X2.458 Y-47.734 E37.56527
G1 X2.861 Y-47.35 E37.58657
G1 X3.325 Y-46.725 E37.61636
G1 X3.823 Y-45.887 E37.65366
G0 F2040 X3.52 Y-45.713
G1 F1020 X52.717 Y40.383 E41.4485
G1 X53.066 Y41.012 E41.47603
G1 X53.288 Y41.494 E41.49634
G1 X53.435 Y42.004 E41.51665
G1 X53.504 Y42.53 E41.53695
G1 X53.493 Y43.061 E41.55728
G1 X53.402 Y43.583 E41.57755
G1 X53.234 Y44.087 E41.59789
G1 X52.992 Y44.559 E41.61818
G1 X52.683 Y44.99 E41.63848
G1 X52.311 Y45.369 E41.6588
G1 X51.888 Y45.689 E41.6791
G1 X51.421 Y45.941 E41.69941
G1 X50.921 Y46.12 E41.71973
G1 X50.147 Y46.243 E41.74973
G1 X49.963 Y46.25 E41.75677
G1 X49.402 Y46.257 E41.77824
G1 X-49.344 Y46.257 E45.55721
G1 X-50.034 Y46.247 E45.58361
G1 X-50.563 Y46.199 E45.60394
G1 X-51.078 Y46.073 E45.62423
G1 X-51.569 Y45.87 E45.64456
G1 X-52.023 Y45.597 E45.66484
G1 X-52.432 Y45.258 E45.68517
G1 X-52.784 Y44.861 E45.70547
G1 X-53.074 Y44.417 E45.72577
G1 X-53.293 Y43.933 E45.7461
G1 X-53.438 Y43.423 E45.76639
G1 X-53.504 Y42.896 E45.78672
G1 X-53.49 Y42.366 E45.80701
G1 X-53.397 Y41.843 E45.82733
G1 X-53.152 Y41.178 E45.85446
G1 X-53.045 Y40.971 E45.86337
G1 X-52.715 Y40.376 E45.88941
G1 X-3.381 Y-45.956 E49.69469
G1 X-3.037 Y-46.537 E49.72053
G1 X-2.733 Y-46.972 E49.74084
G1 X-2.367 Y-47.356 E49.76114
G1 X-1.948 Y-47.681 E49.78143
G1 X-1.485 Y-47.94 E49.80174
G1 X-.988 Y-48.126 E49.82205
G1 X-.468 Y-48.235 E49.84238
G1 X0.061 Y-48.265 E49.86265
G1 X0.59 Y-48.216 E49.88299
G1 X1.105 Y-48.087 E49.9033
G1 X1.594 Y-47.883 E49.92358
G1 X2.048 Y-47.607 E49.94391
G1 X2.455 Y-47.267 E49.96421
G1 X2.806 Y-46.869 E49.98452
G1 X3.024 Y-46.545 E49.99946
G1 X3.52 Y-45.713 E50.03653
G0 F2040 X3.216 Y-45.539
G1 F1020 X52.411 Y40.553 E53.8312
G1 X52.76 Y41.182 E53.85873
G1 X52.969 Y41.64 E53.87799
G1 X53.102 Y42.125 E53.89724
G1 X53.158 Y42.626 E53.91653
G1 X53.133 Y43.129 E53.9358
G1 X53.029 Y43.622 E53.95509
G1 X52.848 Y44.092 E53.97436
G1 X52.596 Y44.528 E53.99363
G1 X52.277 Y44.918 E54.01291
G1 X51.901 Y45.253 E54.03219
G1 X51.477 Y45.524 E54.05144
G1 X51.015 Y45.725 E54.07072
G1 X50.528 Y45.85 E54.08997
G1 X49.959 Y45.9 E54.11183
G1 X49.398 Y45.907 E54.1333
G1 X-49.339 Y45.907 E57.91191
G1 X-50.029 Y45.897 E57.93832
G1 X-50.53 Y45.849 E57.95758
G1 X-51.018 Y45.724 E57.97686
G1 X-51.48 Y45.522 E57.99616
G1 X-51.903 Y45.25 E58.0154
G1 X-52.279 Y44.915 E58.03468
G1 X-52.597 Y44.524 E58.05396
G1 X-52.849 Y44.088 E58.07324
G1 X-53.029 Y43.618 E58.0925
G1 X-53.132 Y43.125 E58.11177
G1 X-53.156 Y42.622 E58.13104
G1 X-53.101 Y42.122 E58.15029
G1 X-52.967 Y41.636 E58.16959
G1 X-52.739 Y41.141 E58.19044
G1 X-52.411 Y40.55 E58.21631
G1 X-3.08 Y-45.778 E62.0214
G1 X-2.736 Y-46.359 E62.04724
G1 X-2.446 Y-46.77 E62.06649
G1 X-2.094 Y-47.131 E62.08578
G1 X-1.69 Y-47.431 E62.10504
G1 X-1.244 Y-47.664 E62.1243
G1 X-.766 Y-47.823 E62.14358
G1 X-.269 Y-47.905 E62.16285
G1 X0.235 Y-47.907 E62.18214
G1 X0.732 Y-47.829 E62.20139
G1 X1.211 Y-47.674 E62.22066
G1 X1.66 Y-47.445 E62.23995
G1 X2.066 Y-47.148 E62.2592
G1 X2.421 Y-46.79 E62.2785
G1 X2.723 Y-46.366 E62.29842
G1 X3.216 Y-45.539 E62.33526
G1 F3600 E58.53526
;MESH:support_tri_0_009.stl
G0 F2040 X1.035 Y-44.294
G0 X0.155 Y-43.791
G0 X-49.095 Y42.207
;TYPE:WALL-INNER
G1 F3600 E62.33526
G1 F1020 X0.00 Y-43.71 E66.12221
G1 X49.095 Y42.207 E69.90917
G1 X-49.095 Y42.207 E73.66685
G0 F2040 X-49.655 Y42.532
;TYPE:WALL-OUTER
G1 F1020 X0.00 Y-44.365 E77.497
G1 X49.655 Y42.532 E81.32715
G1 X-49.655 Y42.532 E85.12769
G0 F2040 X-49.556 Y42.359
G0 X-49.31 Y42.332
G0 X-48.509 Y41.867
;TYPE:SKIN
G1 F1020 X0.00 Y-43.025 E88.86946
G1 X48.509 Y41.867 E92.61123
G1 X-48.509 Y41.867 E96.32406
G0 F2040 X-48.107 Y41.483
G1 F1020 X-47.88 Y41.71 E96.33635
G0 F2040 X-47.385 Y41.71
G1 F1020 X-47.927 Y41.167 E96.36571
G0 F2040 X-47.747 Y40.853
G1 F1020 X-46.89 Y41.71 E96.41209
G0 F2040 X-46.395 Y41.71
G1 F1020 X-47.567 Y40.537 E96.47555
G0 F2040 X-47.387 Y40.223
G1 F1020 X-45.9 Y41.71 E96.55602
G0 F2040 X-45.405 Y41.71
G1 F1020 X-47.207 Y39.907 E96.65358
G0 F2040 X-47.027 Y39.593
G1 F1020 X-44.91 Y41.71 E96.76815
G0 F2040 X-44.415 Y41.71
G1 F1020 X-46.847 Y39.278 E96.89978
G0 F2040 X-46.667 Y38.962
G1 F1020 X-43.92 Y41.71 E97.04847
G0 F2040 X-43.425 Y41.71
G1 F1020 X-46.487 Y38.648 E97.21419
G0 F2040 X-46.307 Y38.332
G1 F1020 X-42.93 Y41.71 E97.39699
G0 F2040 X-42.435 Y41.71
G1 F1020 X-46.127 Y38.018 E97.5968
G0 F2040 X-45.947 Y37.702
G1 F1020 X-41.94 Y41.71 E97.81369
G0 F2040 X-41.445 Y41.71
G1 F1020 X-45.767 Y37.388 E98.04761
G0 F2040 X-45.587 Y37.072
G1 F1020 X-40.95 Y41.71 E98.29859
G0 F2040 X-40.455 Y41.71
G1 F1020 X-45.407 Y36.758 E98.5666
G0 F2040 X-45.227 Y36.442
G1 F1020 X-39.96 Y41.71 E98.85169
G0 F2040 X-39.465 Y41.71
G1 F1020 X-45.047 Y36.128 E99.15379
G0 F2040 X-44.868 Y35.812
G1 F1020 X-38.97 Y41.71 E99.473
G0 F2040 X-38.475 Y41.71
G1 F1020 X-44.687 Y35.498 E99.8092
G0 F2040 X-44.507 Y35.183
G1 F1020 X-37.98 Y41.71 E100.16245
G0 F2040 X-37.485 Y41.71
G1 F1020 X-44.327 Y34.868 E100.53275
G0 F2040 X-44.147 Y34.553
G1 F1020 X-36.99 Y41.71 E100.92009
G0 F2040 X-36.495 Y41.71
G1 F1020 X-43.967 Y34.238 E101.32449
G0 F2040 X-43.787 Y33.923
G1 F1020 X-36 Y41.71 E101.74593
G0 F2040 X-35.505 Y41.71
G1 F1020 X-43.607 Y33.608 E102.18442
G0 F2040 X-43.427 Y33.293
G1 F1020 X-35.01 Y41.71 E102.63996
G0 F2040 X-34.516 Y41.71
G1 F1020 X-43.248 Y32.978 E103.11255
G0 F2040 X-43.067 Y32.663
G1 F1020 X-34.021 Y41.71 E103.60215
G0 F2040 X-33.526 Y41.71
G1 F1020 X-42.888 Y32.348 E104.10884
G0 F2040 X-42.707 Y32.033
G1 F1020 X-33.031 Y41.71 E104.63254
G0 F2040 X-32.536 Y41.71
G1 F1020 X-42.527 Y31.718 E105.17329
G0 F2040 X-42.347 Y31.403
G1 F1020 X-32.041 Y41.71 E105.7311
G0 F2040 X-31.546 Y41.71
G1 F1020 X-42.167 Y31.088 E106.30594
G0 F2040 X-41.988 Y30.773
G1 F1020 X-31.051 Y41.71 E106.89787
G0 F2040 X-30.556 Y41.71
G1 F1020 X-41.807 Y30.458 E107.50681
G0 F2040 X-41.628 Y30.143
G1 F1020 X-30.061 Y41.71 E108.13284
G0 F2040 X-29.566 Y41.71
G1 F1020 X-41.447 Y29.828 E108.77588
G0 F2040 X-41.268 Y29.513
G1 F1020 X-29.071 Y41.71 E109.43599
G0 F2040 X-28.576 Y41.71
G1 F1020 X-41.087 Y29.198 E110.11313
G0 F2040 X-40.908 Y28.883
G1 F1020 X-28.081 Y41.71 E110.80735
G0 F2040 X-27.586 Y41.71
G1 F1020 X-40.727 Y28.568 E111.51858
G0 F2040 X-40.548 Y28.253
G1 F1020 X-27.091 Y41.71 E112.24689
G0 F2040 X-26.596 Y41.71
G1 F1020 X-40.368 Y27.938 E112.99225
G0 F2040 X-40.187 Y27.623
G1 F1020 X-26.101 Y41.71 E113.75463
G0 F2040 X-25.606 Y41.71
G1 F1020 X-40.008 Y27.308 E114.53408
G0 F2040 X-39.827 Y26.993
G1 F1020 X-25.111 Y41.71 E115.33056
G0 F2040 X-24.616 Y41.71
G1 F1020 X-39.648 Y26.678 E116.14411
G0 F2040 X-39.467 Y26.363
G1 F1020 X-24.121 Y41.71 E116.97468
G0 F2040 X-23.626 Y41.71
G1 F1020 X-39.288 Y26.048 E117.82233
G0 F2040 X-39.107 Y25.733
G1 F1020 X-23.131 Y41.71 E118.687
G0 F2040 X-22.636 Y41.71
G1 F1020 X-38.928 Y25.418 E119.56874
G0 F2040 X-38.748 Y25.103
G1 F1020 X-22.141 Y41.71 E120.46753
G0 F2040 X-21.646 Y41.71
G1 F1020 X-38.568 Y24.788 E121.38337
G0 F2040 X-38.388 Y24.473
G1 F1020 X-21.151 Y41.71 E122.31626
G0 F2040 X-20.656 Y41.71
G1 F1020 X-38.208 Y24.158 E123.2662
G0 F2040 X-38.028 Y23.843
G1 F1020 X-20.161 Y41.71 E124.23318
G0 F2040 X-19.666 Y41.71
G1 F1020 X-37.847 Y23.528 E125.21719
G0 F2040 X-37.668 Y23.213
G1 F1020 X-19.171 Y41.71 E126.21827
G0 F2040 X-18.676 Y41.71
G1 F1020 X-37.487 Y22.898 E127.23637
G0 F2040 X-37.308 Y22.583
G1 F1020 X-18.181 Y41.71 E128.27155
G0 F2040 X-17.686 Y41.71
G1 F1020 X-37.128 Y22.268 E129.32378
G0 F2040 X-36.948 Y21.953
G1 F1020 X-17.191 Y41.71 E130.39305
G0 F2040 X-16.696 Y41.71
G1 F1020 X-36.768 Y21.638 E131.47937
G0 F2040 X-36.588 Y21.323
G1 F1020 X-16.201 Y41.71 E132.58274
G0 F2040 X-15.706 Y41.71
G1 F1020 X-36.408 Y21.008 E133.70316
G0 F2040 X-36.228 Y20.693
G1 F1020 X-15.211 Y41.71 E134.84063
G0 F2040 X-14.717 Y41.71
G1 F1020 X-36.048 Y20.378 E135.99512
G0 F2040 X-35.867 Y20.064
G1 F1020 X-14.222 Y41.71 E137.1666
G0 F2040 X-13.727 Y41.71
G1 F1020 X-35.688 Y19.748 E138.35518
G0 F2040 X-35.508 Y19.434
G1 F1020 X-13.232 Y41.71 E139.56079
G0 F2040 X-12.737 Y41.71
G1 F1020 X-35.328 Y19.118 E140.78347
G0 F2040 X-35.148 Y18.804
G1 F1020 X-12.242 Y41.71 E142.02317
G0 F2040 X-11.747 Y41.71
G1 F1020 X-34.968 Y18.488 E143.27995
G0 F2040 X-34.788 Y18.174
G1 F1020 X-11.252 Y41.71 E144.55375
G0 F2040 X-10.757 Y41.71
G1 F1020 X-34.608 Y17.858 E145.84462
G0 F2040 X-34.428 Y17.544
G1 F1020 X-10.262 Y41.71 E147.15252
G0 F2040 X-9.767 Y41.71
G1 F1020 X-34.248 Y17.228 E148.47749
G0 F2040 X-34.068 Y16.913
G1 F1020 X-9.272 Y41.71 E149.8195
G0 F2040 X-8.777 Y41.71
G1 F1020 X-33.888 Y16.598 E151.17857
G0 F2040 X-33.708 Y16.283
G1 F1020 X-8.282 Y41.71 E152.55468
G0 F2040 X-7.787 Y41.71
G1 F1020 X-33.528 Y15.969 E153.94782
G0 F2040 X-33.348 Y15.653
G1 F1020 X-7.292 Y41.71 E155.35803
G0 F2040 X-6.797 Y41.71
G1 F1020 X-33.168 Y15.339 E156.78526
G0 F2040 X-32.988 Y15.023
G1 F1020 X-6.302 Y41.71 E158.22957
G0 F2040 X-5.807 Y41.71
G1 F1020 X-32.808 Y14.709 E159.6909
G0 F2040 X-32.628 Y14.393
G1 F1020 X-5.312 Y41.71 E161.1693
G0 F2040 X-4.817 Y41.71
G1 F1020 X-32.448 Y14.079 E162.66473
G0 F2040 X-32.268 Y13.763
G1 F1020 X-4.322 Y41.71 E164.17723
G0 F2040 X-3.827 Y41.71
G1 F1020 X-32.088 Y13.449 E165.70675
G0 F2040 X-31.908 Y13.133
G1 F1020 X-3.332 Y41.71 E167.25335
G0 F2040 X-2.837 Y41.71
G1 F1020 X-31.728 Y12.819 E168.81696
G0 F2040 X-31.548 Y12.503
G1 F1020 X-2.342 Y41.71 E170.39766
G0 F2040 X-1.847 Y41.71
G1 F1020 X-31.368 Y12.189 E171.99537
G0 F2040 X-31.188 Y11.874
G1 F1020 X-1.352 Y41.71 E173.61013
G0 F2040 X-.857 Y41.71
G1 F1020 X-31.008 Y11.559 E175.24194
G0 F2040 X-30.828 Y11.244
G1 F1020 X-.362 Y41.71 E176.8908
G0 F2040 X0.132 Y41.71
G1 F1020 X-30.648 Y10.929 E178.55668
G0 F2040 X-30.468 Y10.614
G1 F1020 X0.627 Y41.71 E180.23961
G0 F2040 X1.122 Y41.71
G1 F1020 X-30.288 Y10.299 E181.93959
G0 F2040 X-30.108 Y9.984
G1 F1020 X1.617 Y41.71 E183.65661
G0 F2040 X2.112 Y41.71
G1 F1020 X-29.929 Y9.668 E185.39074
G0 F2040 X-29.748 Y9.354
G1 F1020 X2.607 Y41.71 E187.14186
G0 F2040 X3.102 Y41.71
G1 F1020 X-29.569 Y9.038 E188.91008
G0 F2040 X-29.388 Y8.724
G1 F1020 X3.597 Y41.71 E190.6953
G0 F2040 X4.092 Y41.71
G1 F1020 X-29.208 Y8.409 E192.49756
G0 F2040 X-29.028 Y8.094
G1 F1020 X4.587 Y41.71 E194.31688
G0 F2040 X5.081 Y41.71
G1 F1020 X-28.848 Y7.779 E196.15321
G0 F2040 X-28.668 Y7.464
G1 F1020 X5.576 Y41.71 E198.0066
G0 F2040 X6.071 Y41.71
G1 F1020 X-28.488 Y7.149 E199.87703
G0 F2040 X-28.309 Y6.834
G1 F1020 X6.566 Y41.71 E201.76453
G0 F2040 X7.061 Y41.71
G1 F1020 X-28.128 Y6.519 E203.66906
G0 F2040 X-27.949 Y6.204
G1 F1020 X7.556 Y41.71 E205.59066
G0 F2040 X8.051 Y41.71
G1 F1020 X-27.768 Y5.889 E207.52929
G0 F2040 X-27.589 Y5.574
G1 F1020 X8.546 Y41.71 E209.48499
G0 F2040 X9.041 Y41.71
G1 F1020 X-27.408 Y5.259 E211.45771
G0 F2040 X-27.229 Y4.944
G1 F1020 X9.536 Y41.71 E213.4475
G0 F2040 X10.031 Y41.71
G1 F1020 X-27.048 Y4.629 E215.45432
