;FLAVOR:Marlin
;TIME:7963
;Filament used: 7.37441m
;Layer height: 0.2
;MINX:-42.157
;MINY:-75.737
;MINZ:0.26
;MAXX:66.948
;MAXY:25.045
;MAXZ:22.66
;Generated with Cura_SteamEngine 4.8.0
M82 ;absolute extrusion mode
;Gcode by Cura
G90
G28
M107
M109 R100
G30
M109 S215 U-55 X55 V-85 Y-85 W0.26 Z0.26
M82
G92 E0
G1 F200 E6
G92 E0
G1 F200 E-3.5
G0 Z0.15
G0 X10
G0 Z3
G1 F6000
G92 E0
G92 E0
G1 F3600 E-3.8
;LAYER_COUNT:113
;LAYER:0
M107
G0 F2040 X-36.959 Y25.045 Z0.26
;TYPE:SKIRT
G1 F3600 E0
G1 F1020 X-37.644 Y25.036 E0.02622
G1 X-38.247 Y24.988 E0.04937
G1 X-38.838 Y24.861 E0.0725
G1 X-39.407 Y24.657 E0.09563
G1 X-39.945 Y24.38 E0.11879
G1 X-40.441 Y24.034 E0.14193
G1 X-40.887 Y23.626 E0.16507
G1 X-41.276 Y23.163 E0.18821
G1 X-41.6 Y22.653 E0.21133
G1 X-41.854 Y22.104 E0.23448
G1 X-42.033 Y21.527 E0.2576
G1 X-42.135 Y20.93 E0.28078
G1 X-42.157 Y20.326 E0.30391
G1 X-42.099 Y19.724 E0.32705
G1 X-41.963 Y19.135 E0.35019
G1 X-41.636 Y18.337 E0.38319
G1 X-41.175 Y17.459 E0.42114
G1 X8.064 Y-72.797 E4.35577
G1 X8.409 Y-73.409 E4.38265
G1 X8.74 Y-73.915 E4.40579
G1 X9.135 Y-74.372 E4.42891
G1 X9.586 Y-74.774 E4.45203
G1 X10.087 Y-75.113 E4.47518
G1 X10.629 Y-75.383 E4.49835
G1 X11.201 Y-75.579 E4.52149
G1 X11.793 Y-75.697 E4.54459
G1 X12.397 Y-75.737 E4.56776
G1 X13 Y-75.697 E4.59089
G1 X13.593 Y-75.577 E4.61404
G1 X14.165 Y-75.381 E4.63718
G1 X14.705 Y-75.11 E4.6603
G1 X15.206 Y-74.771 E4.68345
G1 X15.657 Y-74.369 E4.70657
G1 X16.052 Y-73.91 E4.72975
G1 X16.333 Y-73.489 E4.74912
G1 X16.637 Y-72.956 E4.7726
G1 X66.078 Y17.67 E8.72336
G1 X66.419 Y18.313 E8.75121
G1 X66.666 Y18.864 E8.77432
G1 X66.839 Y19.444 E8.79748
G1 X66.933 Y20.041 E8.82061
G1 X66.948 Y20.645 E8.84373
G1 X66.883 Y21.247 E8.8669
G1 X66.74 Y21.834 E8.89003
G1 X66.52 Y22.397 E8.91316
G1 X66.228 Y22.927 E8.93632
G1 X65.868 Y23.413 E8.95946
G1 X65.448 Y23.847 E8.98257
G1 X64.974 Y24.223 E9.00573
G1 X64.454 Y24.532 E9.02888
G1 X63.899 Y24.771 E9.052
G1 X63.316 Y24.934 E9.07517
G1 X62.453 Y25.03 E9.1084
G1 X61.532 Y25.045 E9.14365
G1 X-36.959 Y25.045 E12.91285
G0 F2040 X-36.955 Y24.695
G1 F1020 X-37.64 Y24.686 E12.93907
G1 X-38.219 Y24.638 E12.9613
G1 X-38.786 Y24.512 E12.98353
G1 X-39.33 Y24.308 E13.00577
G1 X-39.841 Y24.032 E13.02799
G1 X-40.31 Y23.689 E13.05023
G1 X-40.727 Y23.284 E13.07248
G1 X-41.085 Y22.826 E13.09472
G1 X-41.376 Y22.324 E13.11693
G1 X-41.596 Y21.786 E13.13917
G1 X-41.74 Y21.223 E13.16141
G1 X-41.805 Y20.646 E13.18363
G1 X-41.79 Y20.065 E13.20587
G1 X-41.696 Y19.491 E13.22813
G1 X-41.524 Y18.936 E13.25037
G1 X-41.326 Y18.5 E13.26869
G1 X-40.868 Y17.627 E13.30642
G1 X8.369 Y-72.625 E17.24088
G1 X8.714 Y-73.237 E17.26776
G1 X9.033 Y-73.722 E17.28998
G1 X9.416 Y-74.159 E17.31222
G1 X9.855 Y-74.539 E17.33444
G1 X10.343 Y-74.856 E17.35671
G1 X10.869 Y-75.102 E17.37893
G1 X11.424 Y-75.274 E17.40116
G1 X11.997 Y-75.368 E17.42339
G1 X12.578 Y-75.383 E17.44563
G1 X13.155 Y-75.318 E17.46785
G1 X13.718 Y-75.174 E17.49009
G1 X14.256 Y-74.954 E17.51233
G1 X14.759 Y-74.663 E17.53457
G1 X15.217 Y-74.305 E17.55682
G1 X15.622 Y-73.888 E17.57906
G1 X16.031 Y-73.311 E17.60613
G1 X16.332 Y-72.785 E17.62932
G1 X65.769 Y17.834 E21.57977
G1 X66.11 Y18.477 E21.60763
G1 X66.346 Y19.007 E21.62983
G1 X66.507 Y19.566 E21.65209
G1 X66.59 Y20.141 E21.67432
G1 X66.594 Y20.722 E21.69656
G1 X66.517 Y21.298 E21.7188
G1 X66.363 Y21.858 E21.74102
G1 X66.133 Y22.391 E21.76324
G1 X65.832 Y22.888 E21.78548
G1 X65.465 Y23.339 E21.80773
G1 X65.041 Y23.736 E21.82996
G1 X64.565 Y24.07 E21.85221
G1 X64.049 Y24.336 E21.87443
G1 X63.501 Y24.529 E21.89666
G1 X62.931 Y24.644 E21.91891
G1 X62.447 Y24.68 E21.93749
G1 X61.532 Y24.695 E21.97251
G1 X-36.955 Y24.695 E25.74156
G0 F2040 X-36.95 Y24.345
G1 F1020 X-37.635 Y24.336 E25.76778
G1 X-38.189 Y24.288 E25.78906
G1 X-38.731 Y24.162 E25.81035
G1 X-39.25 Y23.96 E25.83167
G1 X-39.733 Y23.685 E25.85294
G1 X-40.173 Y23.344 E25.87424
G1 X-40.559 Y22.944 E25.89551
G1 X-40.884 Y22.492 E25.91682
G1 X-41.141 Y21.998 E25.93813
G1 X-41.325 Y21.473 E25.95942
G1 X-41.431 Y20.927 E25.9807
G1 X-41.458 Y20.371 E26.00201
G1 X-41.405 Y19.817 E26.0233
G1 X-41.274 Y19.277 E26.04457
G1 X-41.016 Y18.662 E26.07009
G1 X-40.561 Y17.794 E26.1076
G1 X8.673 Y-72.453 E30.04183
G1 X9.018 Y-73.065 E30.06871
G1 X9.326 Y-73.529 E30.09003
G1 X9.696 Y-73.944 E30.11131
G1 X10.123 Y-74.301 E30.1326
G1 X10.596 Y-74.594 E30.1539
G1 X11.106 Y-74.817 E30.1752
G1 X11.642 Y-74.963 E30.19646
G1 X12.195 Y-75.032 E30.21779
G1 X12.751 Y-75.021 E30.23907
G1 X13.3 Y-74.93 E30.26037
G1 X13.83 Y-74.761 E30.28165
G1 X14.331 Y-74.518 E30.30296
G1 X14.792 Y-74.206 E30.32427
G1 X15.203 Y-73.832 E30.34553
G1 X15.556 Y-73.402 E30.36682
G1 X15.85 Y-72.928 E30.38817
G1 X16.051 Y-72.571 E30.40385
G1 X65.459 Y17.997 E34.35205
G1 X65.8 Y18.64 E34.37991
G1 X66.025 Y19.15 E34.40124
G1 X66.175 Y19.685 E34.4225
G1 X66.246 Y20.237 E34.4438
G1 X66.237 Y20.794 E34.46512
G1 X66.149 Y21.343 E34.4864
G1 X65.983 Y21.874 E34.50769
G1 X65.743 Y22.376 E34.52898
G1 X65.433 Y22.838 E34.55027
G1 X65.061 Y23.251 E34.57155
G1 X64.632 Y23.607 E34.59288
G1 X64.158 Y23.897 E34.61415
G1 X63.647 Y24.117 E34.63544
G1 X63.109 Y24.261 E34.65675
G1 X62.441 Y24.33 E34.68245
G1 X61.532 Y24.345 E34.71724
G1 X-36.95 Y24.345 E38.4861
G0 F2040 X-36.945 Y23.995
G1 F1020 X-37.63 Y23.986 E38.51232
G1 X-38.159 Y23.939 E38.53264
G1 X-38.674 Y23.813 E38.55293
G1 X-39.165 Y23.611 E38.57325
G1 X-39.62 Y23.338 E38.59356
G1 X-40.029 Y23 E38.61386
G1 X-40.383 Y22.604 E38.63419
G1 X-40.673 Y22.16 E38.65449
G1 X-40.893 Y21.677 E38.6748
G1 X-41.038 Y21.166 E38.69512
G1 X-41.104 Y20.64 E38.71541
G1 X-41.091 Y20.11 E38.7357
G1 X-40.999 Y19.587 E38.75602
G1 X-40.829 Y19.084 E38.77634
G1 X-40.706 Y18.825 E38.78731
G1 X-40.253 Y17.962 E38.82462
G1 X8.978 Y-72.281 E42.75866
G1 X9.323 Y-72.893 E42.78554
G1 X9.618 Y-73.334 E42.80585
G1 X9.976 Y-73.726 E42.82616
G1 X10.388 Y-74.06 E42.84646
G1 X10.846 Y-74.329 E42.86679
G1 X11.339 Y-74.525 E42.88709
G1 X11.855 Y-74.646 E42.90737
G1 X12.385 Y-74.687 E42.92772
G1 X12.914 Y-74.648 E42.94802
G1 X13.431 Y-74.531 E42.9683
G1 X13.925 Y-74.337 E42.98861
G1 X14.385 Y-74.071 E43.00895
G1 X14.799 Y-73.739 E43.02926
G1 X15.158 Y-73.349 E43.04954
G1 X15.507 Y-72.823 E43.0737
G1 X15.743 Y-72.403 E43.09214
G1 X65.15 Y18.161 E47.04019
G1 X65.491 Y18.804 E47.06804
G1 X65.704 Y19.291 E47.08838
G1 X65.841 Y19.803 E47.10867
G1 X65.9 Y20.331 E47.129
G1 X65.879 Y20.861 E47.1493
G1 X65.778 Y21.382 E47.16961
G1 X65.601 Y21.882 E47.18991
G1 X65.35 Y22.35 E47.21023
G1 X65.032 Y22.775 E47.23054
G1 X64.654 Y23.147 E47.25084
G1 X64.224 Y23.458 E47.27115
G1 X63.753 Y23.702 E47.29145
G1 X63.25 Y23.871 E47.31176
G1 X62.727 Y23.964 E47.33208
G1 X62.435 Y23.981 E47.34328
G1 X61.59 Y23.995 E47.37562
G1 X-36.945 Y23.995 E51.14651
G0 F2040 X-36.941 Y23.645
G1 F1020 X-37.626 Y23.636 E51.17272
G1 X-38.127 Y23.589 E51.19198
G1 X-38.615 Y23.464 E51.21126
G1 X-39.077 Y23.263 E51.23054
G1 X-39.501 Y22.992 E51.2498
G1 X-39.877 Y22.657 E51.26907
G1 X-40.195 Y22.267 E51.28833
G1 X-40.448 Y21.831 E51.30762
G1 X-40.629 Y21.361 E51.32689
G1 X-40.733 Y20.868 E51.34618
G1 X-40.758 Y20.365 E51.36545
G1 X-40.703 Y19.865 E51.3847
G1 X-40.569 Y19.379 E51.40399
G1 X-40.396 Y18.987 E51.42039
G1 X-39.946 Y18.129 E51.45747
G1 X9.283 Y-72.109 E55.3913
G1 X9.628 Y-72.721 E55.41819
G1 X9.91 Y-73.139 E55.43749
G1 X10.253 Y-73.507 E55.45674
G1 X10.651 Y-73.816 E55.47602
G1 X11.092 Y-74.058 E55.49527
G1 X11.567 Y-74.227 E55.51457
G1 X12.062 Y-74.32 E55.53384
G1 X12.565 Y-74.332 E55.5531
G1 X13.064 Y-74.265 E55.57237
G1 X13.547 Y-74.12 E55.59166
G1 X14 Y-73.901 E55.61092
G1 X14.413 Y-73.613 E55.63019
G1 X14.775 Y-73.263 E55.64946
G1 X15.127 Y-72.777 E55.67242
G1 X15.417 Y-72.27 E55.69478
G1 X64.841 Y18.325 E59.64418
G1 X65.182 Y18.968 E59.67203
G1 X65.382 Y19.431 E59.69134
G1 X65.506 Y19.919 E59.7106
G1 X65.552 Y20.42 E59.72986
G1 X65.518 Y20.923 E59.74915
G1 X65.404 Y21.413 E59.7684
G1 X65.215 Y21.88 E59.78768
G1 X64.954 Y22.311 E59.80697
G1 X64.628 Y22.695 E59.82624
G1 X64.246 Y23.023 E59.84551
G1 X63.817 Y23.286 E59.86477
G1 X63.351 Y23.478 E59.88406
G1 X62.861 Y23.594 E59.90333
G1 X62.43 Y23.631 E59.91988
G1 X61.585 Y23.645 E59.95223
G1 X-36.941 Y23.645 E63.72277
G1 F3600 E59.92277
;MESH:support_tri_0_070.stl
G0 F2040 X-36.941 Y21.135
G0 X-36.941 Y20.1
G0 X61.51 Y19.945
;TYPE:WALL-INNER
G1 F3600 E63.72277
G1 F1020 X-36.722 Y19.945 E67.48206
G1 X12.394 Y-70.085 E71.40684
G1 X61.51 Y19.945 E75.33162
G0 F2040 X62.057 Y20.27
;TYPE:WALL-OUTER
G1 F1020 X-37.269 Y20.27 E79.13277
G1 X12.394 Y-70.763 E83.10127
G1 X62.057 Y20.27 E87.06977
G0 F2040 X61.857 Y20.27
G0 X61.72 Y20.069
G0 X60.937 Y19.605
;TYPE:SKIN
G1 F1020 X-36.149 Y19.605 E90.78521
G1 X12.394 Y-69.374 E94.66418
G1 X60.937 Y19.605 E98.54314
G0 F2040 X-35.746 Y19.195
G1 F1020 X-35.494 Y19.447 E98.55678
G0 F2040 X-34.999 Y19.447
G1 F1020 X-35.571 Y18.875 E98.58774
G0 F2040 X-35.397 Y18.555
G1 F1020 X-34.504 Y19.447 E98.63604
G0 F2040 X-34.009 Y19.447
G1 F1020 X-35.222 Y18.234 E98.70169
G0 F2040 X-35.047 Y17.914
G1 F1020 X-33.514 Y19.447 E98.78466
G0 F2040 X-33.019 Y19.447
G1 F1020 X-34.873 Y17.594 E98.88497
G0 F2040 X-34.698 Y17.273
G1 F1020 X-32.524 Y19.447 E99.00263
G0 F2040 X-32.029 Y19.447
G1 F1020 X-34.523 Y16.953 E99.13761
G0 F2040 X-34.349 Y16.633
G1 F1020 X-31.534 Y19.447 E99.28994
G0 F2040 X-31.039 Y19.447
G1 F1020 X-34.174 Y16.312 E99.45961
G0 F2040 X-33.999 Y15.993
G1 F1020 X-30.544 Y19.447 E99.64657
G0 F2040 X-30.049 Y19.447
G1 F1020 X-33.824 Y15.673 E99.85085
G0 F2040 X-33.649 Y15.352
G1 F1020 X-29.554 Y19.447 E100.07247
G0 F2040 X-29.059 Y19.447
G1 F1020 X-33.475 Y15.032 E100.31145
G0 F2040 X-33.3 Y14.712
G1 F1020 X-28.564 Y19.447 E100.56774
G0 F2040 X-28.07 Y19.447
G1 F1020 X-33.125 Y14.391 E100.84135
G0 F2040 X-32.951 Y14.071
G1 F1020 X-27.575 Y19.447 E101.1323
G0 F2040 X-27.08 Y19.447
G1 F1020 X-32.776 Y13.751 E101.44058
G0 F2040 X-32.601 Y13.43
G1 F1020 X-26.585 Y19.447 E101.7662
G0 F2040 X-26.09 Y19.447
G1 F1020 X-32.427 Y13.11 E102.10917
G0 F2040 X-32.252 Y12.79
G1 F1020 X-25.595 Y19.447 E102.46945
G0 F2040 X-25.1 Y19.447
G1 F1020 X-32.077 Y12.469 E102.84708
G0 F2040 X-31.902 Y12.15
G1 F1020 X-24.605 Y19.447 E103.24201
G0 F2040 X-24.11 Y19.447
G1 F1020 X-31.727 Y11.829 E103.65427
G0 F2040 X-31.553 Y11.509
G1 F1020 X-23.615 Y19.447 E104.08389
G0 F2040 X-23.12 Y19.447
G1 F1020 X-31.378 Y11.189 E104.53082
G0 F2040 X-31.203 Y10.868
G1 F1020 X-22.625 Y19.447 E104.9951
G0 F2040 X-22.13 Y19.447
G1 F1020 X-31.029 Y10.548 E105.47673
G0 F2040 X-30.854 Y10.228
G1 F1020 X-21.635 Y19.447 E105.97567
G0 F2040 X-21.14 Y19.447
G1 F1020 X-30.679 Y9.907 E106.49196
G0 F2040 X-30.505 Y9.587
G1 F1020 X-20.645 Y19.447 E107.0256
G0 F2040 X-20.15 Y19.447
G1 F1020 X-30.33 Y9.267 E107.57655
G0 F2040 X-30.155 Y8.947
G1 F1020 X-19.655 Y19.447 E108.14482
G0 F2040 X-19.16 Y19.447
G1 F1020 X-29.98 Y8.627 E108.73042
G0 F2040 X-29.805 Y8.307
G1 F1020 X-18.665 Y19.447 E109.33333
G0 F2040 X-18.17 Y19.447
G1 F1020 X-29.631 Y7.986 E109.95361
G0 F2040 X-29.456 Y7.666
G1 F1020 X-17.675 Y19.447 E110.59121
G0 F2040 X-17.18 Y19.447
G1 F1020 X-29.281 Y7.346 E111.24614
G0 F2040 X-29.107 Y7.025
G1 F1020 X-16.685 Y19.447 E111.91843
G0 F2040 X-16.19 Y19.447
G1 F1020 X-28.932 Y6.705 E112.60804
G0 F2040 X-28.758 Y6.385
G1 F1020 X-15.695 Y19.447 E113.315
G0 F2040 X-15.2 Y19.447
G1 F1020 X-28.583 Y6.064 E114.03931
G0 F2040 X-28.408 Y5.744
G1 F1020 X-14.705 Y19.447 E114.78093
G0 F2040 X-14.21 Y19.447
G1 F1020 X-28.234 Y5.424 E115.5399
G0 F2040 X-28.059 Y5.103
G1 F1020 X-13.715 Y19.447 E116.31622
G0 F2040 X-13.22 Y19.447
G1 F1020 X-27.884 Y4.784 E117.10982
G0 F2040 X-27.709 Y4.463
G1 F1020 X-12.725 Y19.447 E117.92078
G0 F2040 X-12.23 Y19.447
G1 F1020 X-27.534 Y4.143 E118.74905
G0 F2040 X-27.36 Y3.823
G1 F1020 X-11.735 Y19.447 E119.59467
G0 F2040 X-11.24 Y19.447
G1 F1020 X-27.185 Y3.503 E120.4576
G0 F2040 X-27.01 Y3.182
G1 F1020 X-10.745 Y19.447 E121.33789
G0 F2040 X-10.25 Y19.447
G1 F1020 X-26.836 Y2.862 E122.23552
G0 F2040 X-26.661 Y2.542
G1 F1020 X-9.755 Y19.447 E123.15046
G0 F2040 X-9.26 Y19.447
G1 F1020 X-26.486 Y2.221 E124.08276
G0 F2040 X-26.312 Y1.901
G1 F1020 X-8.766 Y19.447 E125.03237
G0 F2040 X-8.271 Y19.447
G1 F1020 X-26.137 Y1.581 E125.9993
G0 F2040 X-25.962 Y1.261
G1 F1020 X-7.776 Y19.447 E126.98355
G0 F2040 X-7.281 Y19.447
G1 F1020 X-25.787 Y0.941 E127.98512
G0 F2040 X-25.612 Y0.62
G1 F1020 X-6.786 Y19.447 E129.00403
G0 F2040 X-6.291 Y19.447
G1 F1020 X-25.438 Y0.3 E130.04029
G0 F2040 X-25.263 Y-0.019
G1 F1020 X-5.796 Y19.447 E131.09384
G0 F2040 X-5.301 Y19.447
G1 F1020 X-25.088 Y-.34 E132.16474
G0 F2040 X-24.914 Y-.66
G1 F1020 X-4.806 Y19.447 E133.25298
G0 F2040 X-4.311 Y19.447
G1 F1020 X-24.739 Y-.98 E134.35855
G0 F2040 X-24.564 Y-1.301
G1 F1020 X-3.816 Y19.447 E135.48145
G0 F2040 X-3.321 Y19.447
G1 F1020 X-24.39 Y-1.621 E136.62171
G0 F2040 X-24.215 Y-1.941
G1 F1020 X-2.826 Y19.447 E137.77928
G0 F2040 X-2.331 Y19.447
G1 F1020 X-24.04 Y-2.261 E138.95417
G0 F2040 X-23.865 Y-2.581
G1 F1020 X-1.836 Y19.447 E140.14638
G0 F2040 X-1.341 Y19.447
G1 F1020 X-23.69 Y-2.901 E141.35591
G0 F2040 X-23.516 Y-3.222
G1 F1020 X-.846 Y19.447 E142.58281
G0 F2040 X-.351 Y19.447
G1 F1020 X-23.341 Y-3.542 E143.82704
G0 F2040 X-23.166 Y-3.862
G1 F1020 X0.143 Y19.447 E145.08855
G0 F2040 X0.638 Y19.447
G1 F1020 X-22.992 Y-4.183 E146.36743
G0 F2040 X-22.817 Y-4.503
G1 F1020 X1.133 Y19.447 E147.66364
G0 F2040 X1.628 Y19.447
G1 F1020 X-22.642 Y-4.823 E148.97716
G0 F2040 X-22.468 Y-5.144
G1 F1020 X2.123 Y19.447 E150.30806
G0 F2040 X2.618 Y19.447
G1 F1020 X-22.293 Y-5.464 E151.65627
G0 F2040 X-22.119 Y-5.784
G1 F1020 X3.113 Y19.447 E153.02183
G0 F2040 X3.608 Y19.447
G1 F1020 X-21.943 Y-6.104 E154.40469
G0 F2040 X-21.768 Y-6.424
G1 F1020 X4.103 Y19.447 E155.80486
G0 F2040 X4.598 Y19.447
G1 F1020 X-21.594 Y-6.745 E157.2224
G0 F2040 X-21.419 Y-7.065
G1 F1020 X5.093 Y19.447 E158.65727
G0 F2040 X5.588 Y19.447
G1 F1020 X-21.245 Y-7.385 E160.10947
G0 F2040 X-21.07 Y-7.706
G1 F1020 X6.083 Y19.447 E161.57903
G0 F2040 X6.578 Y19.447
G1 F1020 X-20.895 Y-8.026 E163.0659
G0 F2040 X-20.721 Y-8.346
G1 F1020 X7.073 Y19.447 E164.57012
G0 F2040 X7.568 Y19.447
G1 F1020 X-20.546 Y-8.667 E166.09169
G0 F2040 X-20.371 Y-8.987
G1 F1020 X8.063 Y19.447 E167.63057
G0 F2040 X8.558 Y19.447
G1 F1020 X-20.197 Y-9.307 E169.1868
G0 F2040 X-20.021 Y-9.627
G1 F1020 X9.053 Y19.447 E170.76032
G0 F2040 X9.548 Y19.447
G1 F1020 X-19.847 Y-9.947 E172.35119
G0 F2040 X-19.672 Y-10.267
G1 F1020 X10.043 Y19.447 E173.95938
G0 F2040 X10.538 Y19.447
G1 F1020 X-19.497 Y-10.588 E175.58491
G0 F2040 X-19.323 Y-10.908
G1 F1020 X11.032 Y19.447 E177.22776
G0 F2040 X11.527 Y19.447
G1 F1020 X-19.148 Y-11.228 E178.88793
G0 F2040 X-18.973 Y-11.549
G1 F1020 X12.022 Y19.447 E180.56545
G0 F2040 X12.517 Y19.447
G1 F1020 X-18.799 Y-11.869 E182.26031
G0 F2040 X-18.624 Y-12.189
G1 F1020 X13.012 Y19.447 E183.97249
G0 F2040 X13.507 Y19.447
G1 F1020 X-18.449 Y-12.51 E185.70202
G0 F2040 X-18.275 Y-12.83
G1 F1020 X14.002 Y19.447 E187.44889
G0 F2040 X14.497 Y19.447
G1 F1020 X-18.1 Y-13.15 E189.21308
G0 F2040 X-17.925 Y-13.47
G1 F1020 X14.992 Y19.447 E190.99459
G0 F2040 X15.487 Y19.447
G1 F1020 X-17.75 Y-13.79 E192.79342
G0 F2040 X-17.575 Y-14.111
G1 F1020 X15.982 Y19.447 E194.60959
G0 F2040 X16.477 Y19.447
G1 F1020 X-17.401 Y-14.431 E196.44312
G0 F2040 X-17.226 Y-14.751
G1 F1020 X16.972 Y19.447 E198.29395
G0 F2040 X17.467 Y19.447
G1 F1020 X-17.051 Y-15.071 E200.16211
G0 F2040 X-16.877 Y-15.392
G1 F1020 X17.962 Y19.447 E202.04764
G0 F2040 X18.457 Y19.447
G1 F1020 X-16.702 Y-15.712 E203.95049
G0 F2040 X-16.527 Y-16.032
G1 F1020 X18.952 Y19.447 E205.87066
G0 F2040 X19.447 Y19.447
G1 F1020 X-16.353 Y-16.353 E207.8082
G0 F2040 X-16.178 Y-16.673
G1 F1020 X19.942 Y19.447 E209.76306
G0 F2040 X20.437 Y19.447
G1 F1020 X-16.003 Y-16.993 E211.73524
G0 F2040 X-15.828 Y-17.313
G1 F1020 X20.932 Y19.447 E213.72474
G0 F2040 X21.427 Y19.447
G1 F1020 X-15.653 Y-17.633 E215.73156
G0 F2040 X-15.479 Y-17.954
G1 F1020 X21.922 Y19.447 E217.75575
G0 F2040 X22.417 Y19.447
G1 F1020 X-15.304 Y-18.274 E219.79726
G0 F2040 X-15.129 Y-18.594
