;FLAVOR:Marlin
;TIME:7352
;Filament used: 6.9281m
;Layer height: 0.2
;MINX:-42.056
;MINY:-71.125
;MINZ:0.26
;MAXX:67.058
;MAXY:25.885
;MAXZ:13.66
;Generated with Cura_SteamEngine 4.8.0
M82 ;absolute extrusion mode
;Gcode by Cura
G90
G28
M107
M109 R100
G30
M109 S215 U-55 X55 V-85 Y-85 W0.26 Z0.26
M82
G92 E0
G1 F200 E6
G92 E0
G1 F200 E-3.5
G0 Z0.15
G0 X10
G0 Z3
G1 F6000
G92 E0
G92 E0
G1 F3600 E-3.8
;LAYER_COUNT:68
;LAYER:0
M107
G0 F2040 X-36.86 Y25.885 Z0.26
;TYPE:SKIRT
G1 F3600 E0
G1 F1020 X-37.549 Y25.875 E0.02637
G1 X-38.152 Y25.826 E0.04952
G1 X-38.743 Y25.698 E0.07266
G1 X-39.312 Y25.493 E0.09581
G1 X-39.849 Y25.216 E0.11893
G1 X-40.345 Y24.869 E0.1421
G1 X-40.791 Y24.461 E0.16523
G1 X-41.178 Y23.997 E0.18835
G1 X-41.502 Y23.486 E0.21151
G1 X-41.755 Y22.937 E0.23464
G1 X-41.934 Y22.359 E0.2578
G1 X-42.034 Y21.763 E0.28093
G1 X-42.056 Y21.159 E0.30406
G1 X-41.997 Y20.557 E0.32721
G1 X-41.86 Y19.968 E0.35035
G1 X-41.558 Y19.219 E0.38125
G1 X-41.196 Y18.555 E0.4102
G1 X8.191 Y-68.261 E4.23257
G1 X8.551 Y-68.872 E4.25971
G1 X8.891 Y-69.372 E4.28285
G1 X9.295 Y-69.822 E4.30599
G1 X9.754 Y-70.215 E4.32912
G1 X10.261 Y-70.545 E4.35227
G1 X10.807 Y-70.804 E4.3754
G1 X11.383 Y-70.989 E4.39855
G1 X11.978 Y-71.097 E4.42169
G1 X12.582 Y-71.125 E4.44483
G1 X13.184 Y-71.073 E4.46795
G1 X13.775 Y-70.943 E4.49111
G1 X14.343 Y-70.735 E4.51426
G1 X14.878 Y-70.455 E4.53737
G1 X15.372 Y-70.106 E4.56052
G1 X15.816 Y-69.696 E4.58365
G1 X16.202 Y-69.23 E4.6068
G1 X16.42 Y-68.899 E4.62197
G1 X16.983 Y-67.955 E4.66403
G1 X66.16 Y18.493 E8.47019
G1 X66.489 Y19.089 E8.49625
G1 X66.746 Y19.637 E8.51941
G1 X66.928 Y20.213 E8.54253
G1 X67.033 Y20.809 E8.56569
G1 X67.058 Y21.413 E8.58882
G1 X67.003 Y22.015 E8.61196
G1 X66.869 Y22.605 E8.63511
G1 X66.659 Y23.171 E8.65821
G1 X66.375 Y23.706 E8.68139
G1 X66.024 Y24.198 E8.70452
G1 X65.611 Y24.639 E8.72765
G1 X65.143 Y25.023 E8.75081
G1 X64.629 Y25.341 E8.77394
G1 X64.078 Y25.588 E8.79705
G1 X63.498 Y25.761 E8.82021
G1 X62.655 Y25.872 E8.85275
G1 X61.998 Y25.885 E8.8779
G1 X-36.86 Y25.885 E12.66115
G0 F2040 X-36.855 Y25.535
G1 F1020 X-37.544 Y25.525 E12.68752
G1 X-38.123 Y25.476 E12.70976
G1 X-38.69 Y25.349 E12.73199
G1 X-39.234 Y25.145 E12.75423
G1 X-39.745 Y24.868 E12.77647
G1 X-40.213 Y24.524 E12.7987
G1 X-40.63 Y24.119 E12.82095
G1 X-40.987 Y23.661 E12.84317
G1 X-41.278 Y23.158 E12.86541
G1 X-41.497 Y22.619 E12.88767
G1 X-41.64 Y22.056 E12.9099
G1 X-41.704 Y21.479 E12.93212
G1 X-41.689 Y20.898 E12.95436
G1 X-41.594 Y20.325 E12.97659
G1 X-41.421 Y19.77 E12.99884
G1 X-41.198 Y19.285 E13.01927
G1 X-40.89 Y18.725 E13.04373
G1 X8.527 Y-68.143 E16.8684
G1 X8.852 Y-68.695 E16.89291
G1 X9.181 Y-69.174 E16.91515
G1 X9.572 Y-69.603 E16.93736
G1 X10.018 Y-69.975 E16.95959
G1 X10.512 Y-70.283 E16.98187
G1 X11.042 Y-70.519 E17.00407
G1 X11.6 Y-70.681 E17.02631
G1 X12.175 Y-70.764 E17.04854
G1 X12.756 Y-70.768 E17.07078
G1 X13.332 Y-70.692 E17.09301
G1 X13.893 Y-70.537 E17.11528
G1 X14.426 Y-70.308 E17.13748
G1 X14.923 Y-70.007 E17.15972
G1 X15.375 Y-69.641 E17.18198
G1 X15.771 Y-69.216 E17.20421
G1 X16.119 Y-68.719 E17.22743
G1 X16.678 Y-67.782 E17.26918
G1 X65.854 Y18.662 E21.07519
G1 X66.183 Y19.258 E21.10124
G1 X66.428 Y19.785 E21.12348
G1 X66.599 Y20.34 E21.14571
G1 X66.691 Y20.914 E21.16796
G1 X66.705 Y21.495 E21.1902
G1 X66.638 Y22.072 E21.21243
G1 X66.493 Y22.635 E21.23468
G1 X66.272 Y23.172 E21.2569
G1 X65.979 Y23.674 E21.27914
G1 X65.62 Y24.131 E21.30138
G1 X65.202 Y24.535 E21.32363
G1 X64.733 Y24.877 E21.34584
G1 X64.221 Y25.152 E21.36809
G1 X63.676 Y25.353 E21.39032
G1 X63.108 Y25.479 E21.41258
G1 X62.508 Y25.527 E21.43562
G1 X61.994 Y25.535 E21.45529
G1 X-36.855 Y25.535 E25.23819
G0 F2040 X-36.85 Y25.185
G1 F1020 X-37.539 Y25.175 E25.26456
G1 X-38.094 Y25.127 E25.28588
G1 X-38.635 Y25 E25.30715
G1 X-39.153 Y24.797 E25.32844
G1 X-39.637 Y24.521 E25.34976
G1 X-40.076 Y24.18 E25.37104
G1 X-40.462 Y23.778 E25.39236
G1 X-40.786 Y23.326 E25.41365
G1 X-41.042 Y22.832 E25.43494
G1 X-41.225 Y22.307 E25.45622
G1 X-41.331 Y21.761 E25.4775
G1 X-41.357 Y21.205 E25.4988
G1 X-41.303 Y20.651 E25.52011
G1 X-41.171 Y20.11 E25.54142
G1 X-40.934 Y19.538 E25.56511
G1 X-40.584 Y18.894 E25.59316
G1 X8.829 Y-67.965 E29.41746
G1 X9.154 Y-68.517 E29.44197
G1 X9.47 Y-68.975 E29.46327
G1 X9.848 Y-69.383 E29.48455
G1 X10.281 Y-69.733 E29.50586
G1 X10.759 Y-70.017 E29.52714
G1 X11.274 Y-70.229 E29.54845
G1 X11.813 Y-70.366 E29.56973
G1 X12.366 Y-70.424 E29.59101
G1 X12.922 Y-70.402 E29.61231
G1 X13.47 Y-70.301 E29.63363
G1 X13.997 Y-70.122 E29.65493
G1 X14.493 Y-69.87 E29.67622
G1 X14.947 Y-69.55 E29.69748
G1 X15.351 Y-69.167 E29.71878
G1 X15.819 Y-68.54 E29.74873
G1 X16.374 Y-67.609 E29.79021
G1 X65.547 Y18.831 E33.59602
G1 X65.876 Y19.427 E33.62208
G1 X66.11 Y19.932 E33.64338
G1 X66.268 Y20.466 E33.66469
G1 X66.349 Y21.016 E33.68596
G1 X66.349 Y21.573 E33.70728
G1 X66.27 Y22.124 E33.72858
G1 X66.113 Y22.657 E33.74985
G1 X65.882 Y23.163 E33.77113
G1 X65.58 Y23.631 E33.79245
G1 X65.214 Y24.05 E33.81374
G1 X64.792 Y24.413 E33.83504
G1 X64.322 Y24.711 E33.85634
G1 X63.815 Y24.939 E33.87761
G1 X63.28 Y25.092 E33.89891
G1 X62.628 Y25.172 E33.92405
G1 X61.989 Y25.185 E33.94851
G1 X-36.85 Y25.185 E37.73103
G0 F2040 X-36.845 Y24.835
G1 F1020 X-37.534 Y24.825 E37.7574
G1 X-38.063 Y24.777 E37.77773
G1 X-38.578 Y24.651 E37.79802
G1 X-39.069 Y24.448 E37.81835
G1 X-39.523 Y24.175 E37.83862
G1 X-39.932 Y23.836 E37.85895
G1 X-40.285 Y23.439 E37.87928
G1 X-40.574 Y22.995 E37.89956
G1 X-40.793 Y22.511 E37.91989
G1 X-40.938 Y22.001 E37.94018
G1 X-41.004 Y21.474 E37.9605
G1 X-40.99 Y20.944 E37.98079
G1 X-40.897 Y20.421 E38.00112
G1 X-40.622 Y19.697 E38.03076
G1 X-40.278 Y19.064 E38.05833
G1 X9.13 Y-67.787 E41.88227
G1 X9.455 Y-68.339 E41.90678
G1 X9.758 Y-68.775 E41.9271
G1 X10.123 Y-69.16 E41.9474
G1 X10.542 Y-69.487 E41.96774
G1 X11.005 Y-69.746 E41.98805
G1 X11.501 Y-69.934 E42.00835
G1 X12.02 Y-70.044 E42.02865
G1 X12.55 Y-70.076 E42.04897
G1 X13.078 Y-70.027 E42.06926
G1 X13.593 Y-69.9 E42.08956
G1 X14.084 Y-69.697 E42.1099
G1 X14.538 Y-69.422 E42.13021
G1 X14.946 Y-69.083 E42.15051
G1 X15.298 Y-68.686 E42.17081
G1 X15.518 Y-68.36 E42.18586
G1 X16.07 Y-67.436 E42.22705
G1 X65.241 Y19 E46.0327
G1 X65.57 Y19.596 E46.05876
G1 X65.791 Y20.079 E46.07908
G1 X65.937 Y20.589 E46.09938
G1 X66.004 Y21.116 E46.11971
G1 X65.992 Y21.646 E46.14
G1 X65.9 Y22.169 E46.16032
G1 X65.731 Y22.672 E46.18063
G1 X65.488 Y23.144 E46.20095
G1 X65.178 Y23.574 E46.22123
G1 X64.806 Y23.952 E46.24153
G1 X64.381 Y24.271 E46.26187
G1 X63.914 Y24.522 E46.28216
G1 X63.414 Y24.7 E46.30247
G1 X62.893 Y24.801 E46.32278
G1 X62.393 Y24.83 E46.34194
G1 X61.985 Y24.835 E46.35756
G1 X-36.845 Y24.835 E50.13974
G0 F2040 X-36.84 Y24.485
G1 F1020 X-37.529 Y24.475 E50.16611
G1 X-38.03 Y24.427 E50.18537
G1 X-38.518 Y24.302 E50.20465
G1 X-38.98 Y24.1 E50.22394
G1 X-39.404 Y23.828 E50.24322
G1 X-39.779 Y23.493 E50.26246
G1 X-40.097 Y23.102 E50.28175
G1 X-40.349 Y22.666 E50.30102
G1 X-40.529 Y22.196 E50.32028
G1 X-40.632 Y21.703 E50.33956
G1 X-40.656 Y21.2 E50.35883
G1 X-40.601 Y20.7 E50.37808
G1 X-40.467 Y20.214 E50.39737
G1 X-40.212 Y19.667 E50.42047
G1 X-39.955 Y19.203 E50.44077
G1 X9.432 Y-67.61 E54.26304
G1 X9.757 Y-68.162 E54.28756
G1 X10.046 Y-68.574 E54.30682
G1 X10.397 Y-68.936 E54.32611
G1 X10.8 Y-69.237 E54.34536
G1 X11.246 Y-69.471 E54.36464
G1 X11.724 Y-69.631 E54.38393
G1 X12.22 Y-69.714 E54.40317
G1 X12.724 Y-69.718 E54.42246
G1 X13.222 Y-69.641 E54.44175
G1 X13.701 Y-69.487 E54.461
G1 X14.15 Y-69.259 E54.48027
G1 X14.557 Y-68.963 E54.49953
G1 X14.913 Y-68.606 E54.51883
G1 X15.218 Y-68.18 E54.53888
G1 X15.766 Y-67.263 E54.57976
G1 X64.935 Y19.17 E58.38527
G1 X65.264 Y19.766 E58.41132
G1 X65.471 Y20.224 E58.43056
G1 X65.604 Y20.71 E58.44984
G1 X65.658 Y21.211 E58.46912
G1 X65.632 Y21.714 E58.4884
G1 X65.527 Y22.206 E58.50765
G1 X65.345 Y22.676 E58.52694
G1 X65.092 Y23.111 E58.5462
G1 X64.773 Y23.501 E58.56548
G1 X64.396 Y23.835 E58.58476
G1 X63.971 Y24.105 E58.60402
G1 X63.509 Y24.305 E58.62329
G1 X63.021 Y24.429 E58.64256
G1 X62.468 Y24.478 E58.66381
G1 X61.981 Y24.485 E58.68244
G1 X-36.84 Y24.485 E62.46428
G1 F3600 E58.66428
;MESH:support_tri_0_035.stl
G0 F2040 X-36.84 Y21.975
G0 X-36.84 Y20.94
G0 X61.598 Y20.785
;TYPE:WALL-INNER
G1 F3600 E62.46428
G1 F1020 X-36.598 Y20.785 E66.22219
G1 X12.5 Y-65.52 E70.0221
G1 X61.598 Y20.785 E73.82201
G0 F2040 X62.156 Y21.11
;TYPE:WALL-OUTER
G1 F1020 X-37.156 Y21.11 E77.62263
G1 X12.5 Y-66.177 E81.46576
G1 X62.156 Y21.11 E85.30889
G0 F2040 X61.956 Y21.11
G0 X61.813 Y20.91
G0 X61.013 Y20.445
;TYPE:SKIN
G1 F1020 X-36.013 Y20.445 E89.02203
G1 X12.5 Y-64.833 E92.77671
G1 X61.013 Y20.445 E96.53139
G0 F2040 X-35.706 Y20.225
G1 F1020 X-35.644 Y20.287 E96.53474
G0 F2040 X-35.527 Y19.909
G1 F1020 X-35.149 Y20.287 E96.5552
G0 F2040 X-34.654 Y20.287
G1 F1020 X-35.348 Y19.593 E96.59276
G0 F2040 X-35.168 Y19.278
G1 F1020 X-34.159 Y20.287 E96.64737
G0 F2040 X-33.664 Y20.287
G1 F1020 X-34.989 Y18.963 E96.71905
G0 F2040 X-34.809 Y18.647
G1 F1020 X-33.169 Y20.287 E96.80781
G0 F2040 X-32.674 Y20.287
G1 F1020 X-34.63 Y18.331 E96.91367
G0 F2040 X-34.45 Y18.016
G1 F1020 X-32.179 Y20.287 E97.03658
G0 F2040 X-31.684 Y20.287
G1 F1020 X-34.271 Y17.701 E97.17657
G0 F2040 X-34.091 Y17.385
G1 F1020 X-31.189 Y20.287 E97.33363
G0 F2040 X-30.694 Y20.287
G1 F1020 X-33.912 Y17.07 E97.50776
G0 F2040 X-33.732 Y16.754
G1 F1020 X-30.199 Y20.287 E97.69897
G0 F2040 X-29.704 Y20.287
G1 F1020 X-33.553 Y16.438 E97.90728
G0 F2040 X-33.374 Y16.123
G1 F1020 X-29.209 Y20.287 E98.13267
G0 F2040 X-28.714 Y20.287
G1 F1020 X-33.194 Y15.808 E98.37511
G0 F2040 X-33.014 Y15.492
G1 F1020 X-28.219 Y20.287 E98.63462
G0 F2040 X-27.724 Y20.287
G1 F1020 X-32.835 Y15.177 E98.91121
G0 F2040 X-32.655 Y14.861
G1 F1020 X-27.229 Y20.287 E99.20487
G0 F2040 X-26.735 Y20.287
G1 F1020 X-32.476 Y14.545 E99.51561
G0 F2040 X-32.297 Y14.23
G1 F1020 X-26.24 Y20.287 E99.84342
G0 F2040 X-25.745 Y20.287
G1 F1020 X-32.117 Y13.915 E100.18828
G0 F2040 X-31.937 Y13.599
G1 F1020 X-25.25 Y20.287 E100.55022
G0 F2040 X-24.755 Y20.287
G1 F1020 X-31.758 Y13.284 E100.92923
G0 F2040 X-31.579 Y12.968
G1 F1020 X-24.26 Y20.287 E101.32534
G0 F2040 X-23.765 Y20.287
G1 F1020 X-31.399 Y12.652 E101.73853
G0 F2040 X-31.22 Y12.337
G1 F1020 X-23.27 Y20.287 E102.16879
G0 F2040 X-22.775 Y20.287
G1 F1020 X-31.04 Y12.022 E102.61611
G0 F2040 X-30.86 Y11.706
G1 F1020 X-22.28 Y20.287 E103.08049
G0 F2040 X-21.785 Y20.287
G1 F1020 X-30.681 Y11.391 E103.56196
G0 F2040 X-30.502 Y11.075
G1 F1020 X-21.29 Y20.287 E104.06052
G0 F2040 X-20.795 Y20.287
G1 F1020 X-30.322 Y10.76 E104.57613
G0 F2040 X-30.143 Y10.444
G1 F1020 X-20.3 Y20.287 E105.10885
G0 F2040 X-19.805 Y20.287
G1 F1020 X-29.963 Y10.129 E105.65861
G0 F2040 X-29.784 Y9.813
G1 F1020 X-19.31 Y20.287 E106.22548
G0 F2040 X-18.815 Y20.287
G1 F1020 X-29.604 Y9.498 E106.80939
G0 F2040 X-29.425 Y9.182
G1 F1020 X-18.32 Y20.287 E107.41041
G0 F2040 X-17.825 Y20.287
G1 F1020 X-29.245 Y8.867 E108.02848
G0 F2040 X-29.066 Y8.551
G1 F1020 X-17.33 Y20.287 E108.66364
G0 F2040 X-16.835 Y20.287
G1 F1020 X-28.886 Y8.236 E109.31586
G0 F2040 X-28.707 Y7.921
G1 F1020 X-16.34 Y20.287 E109.98515
G0 F2040 X-15.845 Y20.287
G1 F1020 X-28.528 Y7.604 E110.67157
G0 F2040 X-28.348 Y7.289
G1 F1020 X-15.35 Y20.287 E111.37504
G0 F2040 X-14.855 Y20.287
G1 F1020 X-28.169 Y6.974 E112.09558
G0 F2040 X-27.989 Y6.658
G1 F1020 X-14.36 Y20.287 E112.8332
G0 F2040 X-13.865 Y20.287
G1 F1020 X-27.809 Y6.343 E113.58787
G0 F2040 X-27.63 Y6.028
G1 F1020 X-13.37 Y20.287 E114.35961
G0 F2040 X-12.875 Y20.287
G1 F1020 X-27.451 Y5.712 E115.14846
G0 F2040 X-27.271 Y5.396
G1 F1020 X-12.38 Y20.287 E115.95437
G0 F2040 X-11.885 Y20.287
G1 F1020 X-27.092 Y5.081 E116.77737
G0 F2040 X-26.912 Y4.765
G1 F1020 X-11.39 Y20.287 E117.61744
G0 F2040 X-10.895 Y20.287
G1 F1020 X-26.732 Y4.45 E118.47456
G0 F2040 X-26.553 Y4.135
G1 F1020 X-10.4 Y20.287 E119.34875
G0 F2040 X-9.905 Y20.287
G1 F1020 X-26.374 Y3.819 E120.24005
G0 F2040 X-26.194 Y3.503
G1 F1020 X-9.41 Y20.287 E121.14842
G0 F2040 X-8.915 Y20.287
G1 F1020 X-26.015 Y3.188 E122.07387
G0 F2040 X-25.835 Y2.872
G1 F1020 X-8.42 Y20.287 E123.01639
G0 F2040 X-7.925 Y20.287
G1 F1020 X-25.655 Y2.557 E123.97596
G0 F2040 X-25.477 Y2.241
G1 F1020 X-7.43 Y20.287 E124.95266
G0 F2040 X-6.936 Y20.287
G1 F1020 X-25.297 Y1.926 E125.94638
G0 F2040 X-25.117 Y1.61
G1 F1020 X-6.441 Y20.287 E126.95718
G0 F2040 X-5.946 Y20.287
G1 F1020 X-24.938 Y1.295 E127.98505
G0 F2040 X-24.758 Y0.98
G1 F1020 X-5.451 Y20.287 E129.02997
G0 F2040 X-4.956 Y20.287
G1 F1020 X-24.579 Y0.664 E130.09199
G0 F2040 X-24.4 Y0.348
G1 F1020 X-4.461 Y20.287 E131.17111
G0 F2040 X-3.966 Y20.287
G1 F1020 X-24.22 Y0.033 E132.26728
G0 F2040 X-24.04 Y-.282
G1 F1020 X-3.471 Y20.287 E133.38051
G0 F2040 X-2.976 Y20.287
G1 F1020 X-23.861 Y-.597 E134.5108
G0 F2040 X-23.681 Y-.912
G1 F1020 X-2.481 Y20.287 E135.65814
G0 F2040 X-1.986 Y20.287
G1 F1020 X-23.502 Y-1.228 E136.82259
G0 F2040 X-23.323 Y-1.544
G1 F1020 X-1.491 Y20.287 E138.00414
G0 F2040 X-.996 Y20.287
G1 F1020 X-23.143 Y-1.859 E139.20274
G0 F2040 X-22.963 Y-2.175
G1 F1020 X-.501 Y20.287 E140.41841
G0 F2040 X-0.006 Y20.287
G1 F1020 X-22.784 Y-2.49 E141.65116
G0 F2040 X-22.604 Y-2.805
G1 F1020 X0.488 Y20.287 E142.90092
G0 F2040 X0.983 Y20.287
G1 F1020 X-22.425 Y-3.121 E144.1678
G0 F2040 X-22.246 Y-3.437
G1 F1020 X1.478 Y20.287 E145.45177
G0 F2040 X1.973 Y20.287
G1 F1020 X-22.066 Y-3.752 E146.75279
G0 F2040 X-21.887 Y-4.067
G1 F1020 X2.468 Y20.287 E148.07089
G0 F2040 X2.963 Y20.287
G1 F1020 X-21.707 Y-4.383 E149.40606
G0 F2040 X-21.527 Y-4.698
G1 F1020 X3.458 Y20.287 E150.75828
G0 F2040 X3.953 Y20.287
G1 F1020 X-21.348 Y-5.014 E152.1276
G0 F2040 X-21.169 Y-5.33
G1 F1020 X4.448 Y20.287 E153.51403
G0 F2040 X4.943 Y20.287
G1 F1020 X-20.989 Y-5.645 E154.9175
G0 F2040 X-20.81 Y-5.96
G1 F1020 X5.438 Y20.287 E156.33805
G0 F2040 X5.933 Y20.287
G1 F1020 X-20.63 Y-6.276 E157.77567
G0 F2040 X-20.45 Y-6.591
G1 F1020 X6.428 Y20.287 E159.23034
G0 F2040 X6.923 Y20.287
G1 F1020 X-20.272 Y-6.907 E160.70214
G0 F2040 X-20.092 Y-7.223
G1 F1020 X7.418 Y20.287 E162.19102
G0 F2040 X7.913 Y20.287
G1 F1020 X-19.912 Y-7.538 E163.69694
G0 F2040 X-19.733 Y-7.853
G1 F1020 X8.408 Y20.287 E165.21994
G0 F2040 X8.903 Y20.287
G1 F1020 X-19.553 Y-8.169 E166.76002
G0 F2040 X-19.374 Y-8.485
G1 F1020 X9.398 Y20.287 E168.31719
G0 F2040 X9.893 Y20.287
G1 F1020 X-19.195 Y-8.8 E169.89145
G0 F2040 X-19.015 Y-9.116
G1 F1020 X10.388 Y20.287 E171.48278
G0 F2040 X10.883 Y20.287
G1 F1020 X-18.835 Y-9.431 E173.09115
G0 F2040 X-18.656 Y-9.746
G1 F1020 X11.378 Y20.287 E174.7166
G0 F2040 X11.873 Y20.287
G1 F1020 X-18.476 Y-10.062 E176.35913
G0 F2040 X-18.297 Y-10.378
G1 F1020 X12.368 Y20.287 E178.01876
G0 F2040 X12.862 Y20.287
G1 F1020 X-18.118 Y-10.693 E179.69543
G0 F2040 X-17.938 Y-11.008
G1 F1020 X13.357 Y20.287 E181.38916
G0 F2040 X13.852 Y20.287
G1 F1020 X-17.758 Y-11.324 E183.09996
G0 F2040 X-17.579 Y-11.639
G1 F1020 X14.347 Y20.287 E184.82784
G0 F2040 X14.842 Y20.287
G1 F1020 X-17.399 Y-11.955 E186.57279
G0 F2040 X-17.22 Y-12.271
G1 F1020 X15.337 Y20.287 E188.33484
G0 F2040 X15.832 Y20.287
G1 F1020 X-17.041 Y-12.586 E190.11397
G0 F2040 X-16.861 Y-12.901
G1 F1020 X16.327 Y20.287 E191.91015
G0 F2040 X16.822 Y20.287
G1 F1020 X-16.682 Y-13.217 E193.72343
G0 F2040 X-16.502 Y-13.532
G1 F1020 X17.317 Y20.287 E195.55375
G0 F2040 X17.812 Y20.287
G1 F1020 X-16.323 Y-13.848 E197.40118
G0 F2040 X-16.143 Y-14.164
G1 F1020 X18.307 Y20.287 E199.26569
G0 F2040 X18.802 Y20.287
G1 F1020 X-15.964 Y-14.479 E201.14727
G0 F2040 X-15.784 Y-14.794
G1 F1020 X19.297 Y20.287 E203.0459
G0 F2040 X19.792 Y20.287
G1 F1020 X-15.605 Y-15.11 E204.96163
G0 F2040 X-15.425 Y-15.425
G1 F1020 X20.287 Y20.287 E206.89441
G0 F2040 X20.782 Y20.287
G1 F1020 X-15.246 Y-15.741 E208.84429
G0 F2040 X-15.067 Y-16.056
G1 F1020 X21.277 Y20.287 E210.81124
G0 F2040 X21.772 Y20.287
G1 F1020 X-14.887 Y-16.372 E212.79528
G0 F2040 X-14.707 Y-16.687
G1 F1020 X22.267 Y20.287 E214.79636
G0 F2040 X22.762 Y20.287
G1 F1020 X-14.528 Y-17.003 E216.81454
G0 F2040 X-14.348 Y-17.318
