;FLAVOR:Marlin
;TIME:7854
;Filament used: 7.3408m
;Layer height: 0.2
;MINX:-66.345
;MINY:-75.339
;MINZ:0.26
;MAXX:43.883
;MAXY:23.203
;MAXZ:22.86
;Generated with Cura_SteamEngine 4.8.0
M82 ;absolute extrusion mode
;Gcode by Cura
G90
G28
M107
M109 R100
G30
M109 S215 U-55 X55 V-85 Y-85 W0.26 Z0.26
M82
G92 E0
G1 F200 E6
G92 E0
G1 F200 E-3.5
G0 Z0.15
G0 X10
G0 Z3
G1 F6000
G92 E0
G92 E0
G1 F3600 E-3.8
;LAYER_COUNT:114
;LAYER:0
M107
G0 F2040 X38.896 Y23.203 Z0.26
;TYPE:SKIRT
G1 F3600 E0
G1 F1020 X-61.141 Y23.203 E3.82837
G1 X-61.832 Y23.194 E3.85481
G1 X-62.434 Y23.146 E3.87793
G1 X-63.026 Y23.019 E3.9011
G1 X-63.595 Y22.815 E3.92423
G1 X-64.132 Y22.538 E3.94735
G1 X-64.628 Y22.193 E3.97048
G1 X-65.075 Y21.785 E3.99364
G1 X-65.463 Y21.322 E4.01675
G1 X-65.788 Y20.811 E4.03993
G1 X-66.042 Y20.262 E4.06308
G1 X-66.221 Y19.685 E4.0862
G1 X-66.323 Y19.089 E4.10934
G1 X-66.345 Y18.485 E4.13247
G1 X-66.287 Y17.883 E4.15561
G1 X-66.151 Y17.294 E4.17875
G1 X-65.938 Y16.728 E4.20189
G1 X-65.634 Y16.152 E4.22682
G1 X-65.414 Y15.781 E4.24332
G1 X-12.115 Y-72.637 E8.19427
G1 X-11.774 Y-73.185 E8.21897
G1 X-11.422 Y-73.676 E8.24209
G1 X-11.007 Y-74.117 E8.26527
G1 X-10.538 Y-74.498 E8.28839
G1 X-10.023 Y-74.815 E8.31154
G1 X-9.471 Y-75.061 E8.33466
G1 X-8.891 Y-75.232 E8.35781
G1 X-8.294 Y-75.325 E8.38093
G1 X-7.689 Y-75.339 E8.40409
G1 X-7.088 Y-75.272 E8.42723
G1 X-6.501 Y-75.127 E8.45037
G1 X-5.938 Y-74.906 E8.47351
G1 X-5.41 Y-74.612 E8.49664
G1 X-4.925 Y-74.252 E8.51976
G1 X-4.491 Y-73.83 E8.54292
G1 X-4.117 Y-73.355 E8.56606
G1 X-3.853 Y-72.924 E8.5854
G1 X-3.603 Y-72.464 E8.60544
G1 X43.077 Y15.925 E12.43079
G1 X43.39 Y16.538 E12.45713
G1 X43.628 Y17.093 E12.48024
G1 X43.792 Y17.675 E12.50338
G1 X43.877 Y18.274 E12.52653
G1 X43.883 Y18.878 E12.54965
G1 X43.808 Y19.478 E12.57279
G1 X43.656 Y20.064 E12.59596
G1 X43.427 Y20.623 E12.61908
G1 X43.127 Y21.148 E12.64222
G1 X42.76 Y21.629 E12.66537
G1 X42.333 Y22.057 E12.68851
G1 X41.853 Y22.425 E12.71165
G1 X41.329 Y22.726 E12.73478
G1 X40.769 Y22.956 E12.75795
G1 X40.185 Y23.11 E12.78106
G1 X39.479 Y23.19 E12.80825
G1 X38.896 Y23.203 E12.83057
G0 F2040 X38.892 Y22.853
G1 F1020 X-61.136 Y22.853 E16.65859
G1 X-61.827 Y22.844 E16.68504
G1 X-62.406 Y22.796 E16.70727
G1 X-62.973 Y22.67 E16.7295
G1 X-63.518 Y22.467 E16.75176
G1 X-64.029 Y22.191 E16.77398
G1 X-64.498 Y21.847 E16.79624
G1 X-64.915 Y21.443 E16.81846
G1 X-65.272 Y20.985 E16.84069
G1 X-65.564 Y20.482 E16.86294
G1 X-65.784 Y19.944 E16.88519
G1 X-65.928 Y19.381 E16.90743
G1 X-65.993 Y18.804 E16.92965
G1 X-65.978 Y18.223 E16.95189
G1 X-65.884 Y17.65 E16.97411
G1 X-65.713 Y17.095 E16.99634
G1 X-65.477 Y16.588 E17.01774
G1 X-65.131 Y15.99 E17.04418
G1 X-11.818 Y-72.452 E20.99619
G1 X-11.477 Y-73 E21.02089
G1 X-11.137 Y-73.471 E21.04312
G1 X-10.735 Y-73.891 E21.06537
G1 X-10.28 Y-74.252 E21.0876
G1 X-9.779 Y-74.547 E21.10985
G1 X-9.243 Y-74.77 E21.13207
G1 X-8.681 Y-74.918 E21.15431
G1 X-8.104 Y-74.988 E21.17655
G1 X-7.523 Y-74.977 E21.19879
G1 X-6.949 Y-74.887 E21.22102
G1 X-6.393 Y-74.719 E21.24325
G1 X-5.865 Y-74.476 E21.2655
G1 X-5.376 Y-74.163 E21.28772
G1 X-4.934 Y-73.786 E21.30995
G1 X-4.547 Y-73.352 E21.3322
G1 X-4.224 Y-72.868 E21.35447
G1 X-3.911 Y-72.298 E21.37936
G1 X42.765 Y16.084 E25.2044
G1 X43.078 Y16.697 E25.23074
G1 X43.306 Y17.231 E25.25296
G1 X43.458 Y17.792 E25.2752
G1 X43.533 Y18.368 E25.29743
G1 X43.527 Y18.949 E25.31967
G1 X43.442 Y19.524 E25.34191
G1 X43.278 Y20.081 E25.36413
G1 X43.04 Y20.611 E25.38637
G1 X42.732 Y21.104 E25.40861
G1 X42.358 Y21.549 E25.43086
G1 X41.927 Y21.939 E25.4531
G1 X41.447 Y22.266 E25.47533
G1 X40.926 Y22.524 E25.49758
G1 X40.375 Y22.708 E25.51981
G1 X39.804 Y22.815 E25.54204
G1 X39.272 Y22.847 E25.56244
G1 X38.892 Y22.853 E25.57698
G0 F2040 X38.888 Y22.503
G1 F1020 X-61.131 Y22.503 E29.40466
G1 X-61.822 Y22.494 E29.43111
G1 X-62.377 Y22.446 E29.45243
G1 X-62.919 Y22.32 E29.47372
G1 X-63.437 Y22.118 E29.495
G1 X-63.921 Y21.843 E29.5163
G1 X-64.361 Y21.502 E29.53761
G1 X-64.747 Y21.102 E29.55888
G1 X-65.072 Y20.65 E29.58019
G1 X-65.329 Y20.157 E29.60146
G1 X-65.512 Y19.631 E29.62278
G1 X-65.619 Y19.085 E29.64407
G1 X-65.646 Y18.53 E29.66533
G1 X-65.593 Y17.976 E29.68663
G1 X-65.462 Y17.435 E29.70793
G1 X-65.17 Y16.756 E29.73622
G1 X-64.83 Y16.168 E29.76221
G1 X-11.521 Y-72.267 E33.71392
G1 X-11.18 Y-72.815 E33.73862
G1 X-10.853 Y-73.265 E33.75991
G1 X-10.465 Y-73.664 E33.78121
G1 X-10.023 Y-74.003 E33.80252
G1 X-9.538 Y-74.275 E33.8238
G1 X-9.019 Y-74.475 E33.84509
G1 X-8.476 Y-74.598 E33.8664
G1 X-7.922 Y-74.643 E33.88767
G1 X-7.366 Y-74.607 E33.90899
G1 X-6.822 Y-74.493 E33.93026
G1 X-6.299 Y-74.301 E33.95158
G1 X-5.81 Y-74.037 E33.97285
G1 X-5.363 Y-73.706 E33.99413
G1 X-4.968 Y-73.313 E34.01546
G1 X-4.527 Y-72.694 E34.04454
G1 X-4.219 Y-72.132 E34.06907
G1 X42.429 Y16.195 E37.89175
G1 X42.766 Y16.856 E37.92014
G1 X42.983 Y17.368 E37.94143
G1 X43.124 Y17.906 E37.96271
G1 X43.187 Y18.459 E37.98401
G1 X43.17 Y19.016 E38.00534
G1 X43.073 Y19.563 E38.0266
G1 X42.899 Y20.092 E38.04791
G1 X42.651 Y20.59 E38.0692
G1 X42.334 Y21.047 E38.09048
G1 X41.955 Y21.455 E38.11179
G1 X41.521 Y21.804 E38.13311
G1 X41.042 Y22.087 E38.1544
G1 X40.528 Y22.298 E38.17566
G1 X39.988 Y22.434 E38.19697
G1 X39.454 Y22.491 E38.21752
G1 X38.888 Y22.503 E38.23919
G0 F2040 X38.885 Y22.153
G1 F1020 X-61.127 Y22.153 E42.0666
G1 X-61.818 Y22.144 E42.09305
G1 X-62.346 Y22.097 E42.11333
G1 X-62.862 Y21.971 E42.13366
G1 X-63.353 Y21.77 E42.15397
G1 X-63.808 Y21.497 E42.17427
G1 X-64.217 Y21.158 E42.1946
G1 X-64.57 Y20.763 E42.21487
G1 X-64.86 Y20.318 E42.2352
G1 X-65.081 Y19.835 E42.25553
G1 X-65.226 Y19.325 E42.27582
G1 X-65.292 Y18.798 E42.29615
G1 X-65.279 Y18.268 E42.31643
G1 X-65.187 Y17.745 E42.33676
G1 X-65.017 Y17.243 E42.35704
G1 X-64.789 Y16.79 E42.37645
G1 X-64.529 Y16.346 E42.39614
G1 X-11.224 Y-72.082 E46.34754
G1 X-10.883 Y-72.63 E46.37224
G1 X-10.569 Y-73.059 E46.39258
G1 X-10.195 Y-73.435 E46.41288
G1 X-9.769 Y-73.751 E46.43318
G1 X-9.3 Y-73.999 E46.45348
G1 X-8.799 Y-74.174 E46.47379
G1 X-8.277 Y-74.272 E46.49411
G1 X-7.747 Y-74.29 E46.51441
G1 X-7.22 Y-74.229 E46.53471
G1 X-6.708 Y-74.089 E46.55502
G1 X-6.223 Y-73.874 E46.57533
G1 X-5.775 Y-73.588 E46.59567
G1 X-5.376 Y-73.239 E46.61595
G1 X-5.034 Y-72.834 E46.63624
G1 X-4.764 Y-72.403 E46.6557
G1 X-4.513 Y-71.939 E46.67589
G1 X42.141 Y16.402 E50.49915
G1 X42.454 Y17.015 E50.52549
G1 X42.659 Y17.504 E50.54579
G1 X42.789 Y18.019 E50.56611
G1 X42.839 Y18.547 E50.58641
G1 X42.81 Y19.077 E50.60672
G1 X42.701 Y19.597 E50.62706
G1 X42.516 Y20.094 E50.64735
G1 X42.258 Y20.558 E50.66767
G1 X41.934 Y20.978 E50.68797
G1 X41.55 Y21.344 E50.70827
G1 X41.115 Y21.649 E50.7286
G1 X40.64 Y21.884 E50.74888
G1 X40.135 Y22.046 E50.76918
G1 X39.441 Y22.141 E50.79598
G1 X38.885 Y22.153 E50.81727
G0 F2040 X38.881 Y21.803
G1 F1020 X-61.122 Y21.803 E54.64433
G1 X-61.813 Y21.794 E54.67078
G1 X-62.315 Y21.747 E54.69008
G1 X-62.803 Y21.622 E54.70935
G1 X-63.264 Y21.421 E54.7286
G1 X-63.689 Y21.15 E54.74789
G1 X-64.065 Y20.815 E54.76716
G1 X-64.383 Y20.425 E54.78642
G1 X-64.636 Y19.99 E54.80568
G1 X-64.817 Y19.519 E54.82499
G1 X-64.921 Y19.027 E54.84423
G1 X-64.946 Y18.524 E54.86351
G1 X-64.891 Y18.023 E54.88279
G1 X-64.757 Y17.538 E54.90205
G1 X-64.482 Y16.958 E54.92662
G1 X-64.228 Y16.525 E54.94583
G1 X-10.927 Y-71.897 E58.89695
G1 X-10.586 Y-72.445 E58.92165
G1 X-10.287 Y-72.851 E58.94095
G1 X-9.927 Y-73.203 E58.96021
G1 X-9.516 Y-73.495 E58.97951
G1 X-9.065 Y-73.718 E58.99876
G1 X-8.584 Y-73.866 E59.01802
G1 X-8.085 Y-73.937 E59.03731
G1 X-7.582 Y-73.928 E59.05656
G1 X-7.086 Y-73.839 E59.07585
G1 X-6.61 Y-73.674 E59.09513
G1 X-6.167 Y-73.435 E59.11439
G1 X-5.767 Y-73.129 E59.13366
G1 X-5.42 Y-72.764 E59.15294
G1 X-5.135 Y-72.346 E59.1723
G1 X-4.835 Y-71.8 E59.19614
G1 X41.83 Y16.561 E63.02028
G1 X42.143 Y17.174 E63.04662
G1 X42.335 Y17.639 E63.06587
G1 X42.452 Y18.129 E63.08515
G1 X42.49 Y18.631 E63.10441
G1 X42.448 Y19.133 E63.12369
G1 X42.327 Y19.622 E63.14297
G1 X42.13 Y20.086 E63.16226
G1 X41.863 Y20.512 E63.1815
G1 X41.531 Y20.891 E63.20078
G1 X41.144 Y21.213 E63.22005
G1 X40.711 Y21.47 E63.23932
G1 X40.242 Y21.655 E63.25861
G1 X39.75 Y21.763 E63.27789
G1 X39.234 Y21.798 E63.29768
G1 X38.881 Y21.803 E63.31119
G1 F3600 E59.51119
;MESH:support_tri_0_077.stl
G0 F2040 X38.733 Y19.293
G0 X38.733 Y18.268
G0 X38.46 Y18.103
;TYPE:WALL-INNER
G1 F3600 E63.31119
G1 F1020 X-60.859 Y18.103 E67.11209
G1 X-7.921 Y-69.721 E71.03643
G1 X38.46 Y18.103 E74.83732
G0 F2040 X38.999 Y18.428
;TYPE:WALL-OUTER
G1 F1020 X-61.434 Y18.428 E78.68085
G1 X-7.902 Y-70.381 E82.64921
G1 X38.999 Y18.428 E86.49273
G0 F2040 X38.799 Y18.428
G0 X38.665 Y18.227
G0 X37.895 Y17.763
;TYPE:SKIN
G1 F1020 X-60.257 Y17.763 E90.24896
G1 X-7.941 Y-69.03 E94.12723
G1 X37.895 Y17.763 E97.88349
G0 F2040 X-59.84 Y17.375
G1 F1020 X-59.609 Y17.606 E97.89599
G0 F2040 X-59.114 Y17.606
G1 F1020 X-59.654 Y17.066 E97.92521
G0 F2040 X-59.467 Y16.758
G1 F1020 X-58.619 Y17.606 E97.97111
G0 F2040 X-58.124 Y17.606
G1 F1020 X-59.281 Y16.449 E98.03373
G0 F2040 X-59.095 Y16.14
G1 F1020 X-57.629 Y17.606 E98.11307
G0 F2040 X-57.134 Y17.606
G1 F1020 X-58.909 Y15.831 E98.20914
G0 F2040 X-58.723 Y15.523
G1 F1020 X-56.639 Y17.606 E98.3219
G0 F2040 X-56.144 Y17.606
G1 F1020 X-58.537 Y15.214 E98.45138
G0 F2040 X-58.351 Y14.905
G1 F1020 X-55.65 Y17.606 E98.59756
G0 F2040 X-55.155 Y17.606
G1 F1020 X-58.165 Y14.596 E98.76047
G0 F2040 X-57.978 Y14.287
G1 F1020 X-54.66 Y17.606 E98.94007
G0 F2040 X-54.165 Y17.606
G1 F1020 X-57.792 Y13.978 E99.13639
G0 F2040 X-57.606 Y13.669
G1 F1020 X-53.67 Y17.606 E99.34944
G0 F2040 X-53.175 Y17.606
G1 F1020 X-57.42 Y13.36 E99.57922
G0 F2040 X-57.233 Y13.052
G1 F1020 X-52.68 Y17.606 E99.82566
G0 F2040 X-52.185 Y17.606
G1 F1020 X-57.047 Y12.743 E100.08882
G0 F2040 X-56.861 Y12.434
G1 F1020 X-51.69 Y17.606 E100.36871
G0 F2040 X-51.195 Y17.606
G1 F1020 X-56.676 Y12.125 E100.66535
G0 F2040 X-56.489 Y11.817
G1 F1020 X-50.7 Y17.606 E100.97866
G0 F2040 X-50.205 Y17.606
G1 F1020 X-56.303 Y11.508 E101.30869
G0 F2040 X-56.117 Y11.199
G1 F1020 X-49.71 Y17.606 E101.65544
G0 F2040 X-49.215 Y17.606
G1 F1020 X-55.931 Y10.89 E102.01892
G0 F2040 X-55.744 Y10.581
G1 F1020 X-48.72 Y17.606 E102.3991
G0 F2040 X-48.225 Y17.606
G1 F1020 X-55.558 Y10.272 E102.79599
G0 F2040 X-55.372 Y9.963
G1 F1020 X-47.73 Y17.606 E103.20962
G0 F2040 X-47.235 Y17.606
G1 F1020 X-55.186 Y9.654 E103.63996
G0 F2040 X-55 Y9.346
G1 F1020 X-46.74 Y17.606 E104.087
G0 F2040 X-46.245 Y17.606
G1 F1020 X-54.814 Y9.037 E104.55077
G0 F2040 X-54.628 Y8.728
G1 F1020 X-45.75 Y17.606 E105.03126
G0 F2040 X-45.255 Y17.606
G1 F1020 X-54.442 Y8.419 E105.52847
G0 F2040 X-54.255 Y8.111
G1 F1020 X-44.76 Y17.606 E106.04235
G0 F2040 X-44.265 Y17.606
G1 F1020 X-54.069 Y7.802 E106.57296
G0 F2040 X-53.883 Y7.493
G1 F1020 X-43.77 Y17.606 E107.12028
G0 F2040 X-43.275 Y17.606
G1 F1020 X-53.696 Y7.184 E107.68431
G0 F2040 X-53.511 Y6.875
G1 F1020 X-42.78 Y17.606 E108.26508
G0 F2040 X-42.285 Y17.606
G1 F1020 X-53.325 Y6.566 E108.86258
G0 F2040 X-53.139 Y6.257
G1 F1020 X-41.79 Y17.606 E109.47681
G0 F2040 X-41.295 Y17.606
G1 F1020 X-52.952 Y5.949 E110.1077
G0 F2040 X-52.766 Y5.64
G1 F1020 X-40.8 Y17.606 E110.75531
G0 F2040 X-40.305 Y17.606
G1 F1020 X-52.58 Y5.331 E111.41965
G0 F2040 X-52.394 Y5.022
G1 F1020 X-39.81 Y17.606 E112.10071
G0 F2040 X-39.315 Y17.606
G1 F1020 X-52.207 Y4.714 E112.79844
G0 F2040 X-52.021 Y4.405
G1 F1020 X-38.82 Y17.606 E113.5129
G0 F2040 X-38.325 Y17.606
G1 F1020 X-51.835 Y4.096 E114.24408
G0 F2040 X-51.649 Y3.787
G1 F1020 X-37.83 Y17.606 E114.99198
G0 F2040 X-37.335 Y17.606
G1 F1020 X-51.463 Y3.478 E115.75661
G0 F2040 X-51.277 Y3.169
G1 F1020 X-36.84 Y17.606 E116.53795
G0 F2040 X-36.345 Y17.606
G1 F1020 X-51.091 Y2.86 E117.33603
G0 F2040 X-50.905 Y2.551
G1 F1020 X-35.851 Y17.606 E118.1508
G0 F2040 X-35.356 Y17.606
G1 F1020 X-50.718 Y2.243 E118.98223
G0 F2040 X-50.532 Y1.934
G1 F1020 X-34.861 Y17.606 E119.83039
G0 F2040 X-34.366 Y17.606
G1 F1020 X-50.346 Y1.625 E120.69528
G0 F2040 X-50.16 Y1.316
G1 F1020 X-33.871 Y17.606 E121.57689
G0 F2040 X-33.376 Y17.606
G1 F1020 X-49.974 Y1.008 E122.47519
G0 F2040 X-49.788 Y0.699
G1 F1020 X-32.881 Y17.606 E123.39022
G0 F2040 X-32.386 Y17.606
G1 F1020 X-49.602 Y0.39 E124.32197
G0 F2040 X-49.416 Y0.081
G1 F1020 X-31.891 Y17.606 E125.27045
G0 F2040 X-31.396 Y17.606
G1 F1020 X-49.229 Y-.226 E126.23557
G0 F2040 X-49.043 Y-.535
G1 F1020 X-30.901 Y17.606 E127.21741
G0 F2040 X-30.406 Y17.606
G1 F1020 X-48.857 Y-.844 E128.21597
G0 F2040 X-48.671 Y-1.153
G1 F1020 X-29.911 Y17.606 E129.23126
G0 F2040 X-29.416 Y17.606
G1 F1020 X-48.484 Y-1.462 E130.26324
G0 F2040 X-48.298 Y-1.771
G1 F1020 X-28.921 Y17.606 E131.31195
G0 F2040 X-28.426 Y17.606
G1 F1020 X-48.112 Y-2.08 E132.37738
G0 F2040 X-47.926 Y-2.388
G1 F1020 X-27.931 Y17.606 E133.45951
G0 F2040 X-27.436 Y17.606
G1 F1020 X-47.74 Y-2.697 E134.55836
G0 F2040 X-47.554 Y-3.006
G1 F1020 X-26.941 Y17.606 E135.67394
G0 F2040 X-26.446 Y17.606
G1 F1020 X-47.368 Y-3.315 E136.80624
G0 F2040 X-47.181 Y-3.623
G1 F1020 X-25.951 Y17.606 E137.9552
G0 F2040 X-25.456 Y17.606
G1 F1020 X-46.995 Y-3.932 E139.12089
G0 F2040 X-46.809 Y-4.241
G1 F1020 X-24.961 Y17.606 E140.30331
G0 F2040 X-24.466 Y17.606
G1 F1020 X-46.623 Y-4.55 E141.50245
G0 F2040 X-46.437 Y-4.859
G1 F1020 X-23.971 Y17.606 E142.71831
G0 F2040 X-23.476 Y17.606
G1 F1020 X-46.251 Y-5.168 E143.95089
G0 F2040 X-46.065 Y-5.477
G1 F1020 X-22.981 Y17.606 E145.2002
G0 F2040 X-22.486 Y17.606
G1 F1020 X-45.879 Y-5.786 E146.46623
G0 F2040 X-45.692 Y-6.094
G1 F1020 X-21.991 Y17.606 E147.74894
G0 F2040 X-21.496 Y17.606
G1 F1020 X-45.506 Y-6.403 E149.04836
G0 F2040 X-45.32 Y-6.712
G1 F1020 X-21.001 Y17.606 E150.36451
G0 F2040 X-20.506 Y17.606
G1 F1020 X-45.134 Y-7.021 E151.69738
G0 F2040 X-44.947 Y-7.329
G1 F1020 X-20.011 Y17.606 E153.04692
G0 F2040 X-19.516 Y17.606
G1 F1020 X-44.761 Y-7.638 E154.41319
G0 F2040 X-44.576 Y-7.947
G1 F1020 X-19.021 Y17.606 E155.7962
G0 F2040 X-18.526 Y17.606
G1 F1020 X-44.39 Y-8.256 E157.19594
G0 F2040 X-44.203 Y-8.565
G1 F1020 X-18.031 Y17.606 E158.61237
G0 F2040 X-17.536 Y17.606
G1 F1020 X-44.017 Y-8.874 E160.04553
G0 F2040 X-43.831 Y-9.183
G1 F1020 X-17.041 Y17.606 E161.49541
G0 F2040 X-16.547 Y17.606
G1 F1020 X-43.645 Y-9.492 E162.96199
G0 F2040 X-43.458 Y-9.8
G1 F1020 X-16.052 Y17.606 E164.44524
G0 F2040 X-15.557 Y17.606
G1 F1020 X-43.272 Y-10.109 E165.94521
G0 F2040 X-43.086 Y-10.418
G1 F1020 X-15.062 Y17.606 E167.46191
G0 F2040 X-14.567 Y17.606
G1 F1020 X-42.9 Y-10.727 E168.99532
G0 F2040 X-42.714 Y-11.035
G1 F1020 X-14.072 Y17.606 E170.54544
G0 F2040 X-13.577 Y17.606
G1 F1020 X-42.528 Y-11.344 E172.11228
G0 F2040 X-42.342 Y-11.653
G1 F1020 X-13.082 Y17.606 E173.69584
G0 F2040 X-12.587 Y17.606
G1 F1020 X-42.155 Y-11.962 E175.2961
G0 F2040 X-41.969 Y-12.271
G1 F1020 X-12.092 Y17.606 E176.91308
G0 F2040 X-11.597 Y17.606
G1 F1020 X-41.783 Y-12.58 E178.54678
G0 F2040 X-41.597 Y-12.889
G1 F1020 X-11.102 Y17.606 E180.19721
G0 F2040 X-10.607 Y17.606
G1 F1020 X-41.411 Y-13.197 E181.86433
G0 F2040 X-41.225 Y-13.506
G1 F1020 X-10.112 Y17.606 E183.54818
G0 F2040 X-9.617 Y17.606
G1 F1020 X-41.039 Y-13.815 E185.24875
G0 F2040 X-40.853 Y-14.124
G1 F1020 X-9.122 Y17.606 E186.96605
G0 F2040 X-8.627 Y17.606
G1 F1020 X-40.666 Y-14.432 E188.70001
G0 F2040 X-40.48 Y-14.741
G1 F1020 X-8.132 Y17.606 E190.4507
G0 F2040 X-7.637 Y17.606
G1 F1020 X-40.294 Y-15.05 E192.21811
G0 F2040 X-40.108 Y-15.359
G1 F1020 X-7.142 Y17.606 E194.00225
G0 F2040 X-6.647 Y17.606
G1 F1020 X-39.921 Y-15.668 E195.80308
G0 F2040 X-39.735 Y-15.977
G1 F1020 X-6.152 Y17.606 E197.62063
G0 F2040 X-5.657 Y17.606
G1 F1020 X-39.549 Y-16.286 E199.45491
G0 F2040 X-39.363 Y-16.595
G1 F1020 X-5.162 Y17.606 E201.30591
G0 F2040 X-4.667 Y17.606
G1 F1020 X-39.177 Y-16.903 E203.17361
G0 F2040 X-38.991 Y-17.212
G1 F1020 X-4.172 Y17.606 E205.05803
G0 F2040 X-3.677 Y17.606
G1 F1020 X-38.805 Y-17.521 E206.95918
G0 F2040 X-38.619 Y-17.83
G1 F1020 X-3.182 Y17.606 E208.87705
G0 F2040 X-2.687 Y17.606
G1 F1020 X-38.432 Y-18.138 E210.81159
G0 F2040 X-38.246 Y-18.447
