;FLAVOR:Marlin
;TIME:7863
;Filament used: 7.25373m
;Layer height: 0.2
;MINX:-41.727
;MINY:-25.723
;MINZ:0.26
;MAXX:68.499
;MAXY:70.328
;MAXZ:23.46
;Generated with Cura_SteamEngine 4.8.0
M82 ;absolute extrusion mode
;Gcode by Cura
G90
G28
M107
M109 R100
G30
M109 S215 U-55 X55 V-85 Y-85 W0.26 Z0.26
M82
G92 E0
G1 F200 E6
G92 E0
G1 F200 E-3.5
G0 Z0.15
G0 X10
G0 Z3
G1 F6000
G92 E0
G92 E0
G1 F3600 E-3.8
;LAYER_COUNT:117
;LAYER:0
M107
G0 F2040 X-36.135 Y-25.723 Z0.26
;TYPE:SKIRT
G1 F3600 E0
G1 F1020 X63.302 Y-25.723 E3.80541
G1 X63.992 Y-25.713 E3.83181
G1 X64.595 Y-25.664 E3.85497
G1 X65.186 Y-25.536 E3.87811
G1 X65.755 Y-25.332 E3.90124
G1 X66.292 Y-25.054 E3.92438
G1 X66.788 Y-24.707 E3.94755
G1 X67.233 Y-24.299 E3.97065
G1 X67.621 Y-23.835 E3.9938
G1 X67.945 Y-23.324 E4.01696
G1 X68.198 Y-22.775 E4.04009
G1 X68.377 Y-22.197 E4.06325
G1 X68.477 Y-21.601 E4.08637
G1 X68.499 Y-20.997 E4.1095
G1 X68.44 Y-20.395 E4.13265
G1 X68.303 Y-19.806 E4.15579
G1 X68.009 Y-19.074 E4.18598
G1 X67.659 Y-18.428 E4.2141
G1 X18.785 Y67.486 E7.99676
G1 X18.435 Y68.079 E8.02312
G1 X18.094 Y68.579 E8.04628
G1 X17.69 Y69.029 E8.06942
G1 X17.23 Y69.421 E8.09255
G1 X16.723 Y69.75 E8.11568
G1 X16.176 Y70.009 E8.13884
G1 X15.6 Y70.193 E8.16198
G1 X15.005 Y70.3 E8.18512
G1 X14.401 Y70.328 E8.20826
G1 X13.799 Y70.276 E8.23138
G1 X13.209 Y70.144 E8.25452
G1 X12.641 Y69.936 E8.27767
G1 X12.106 Y69.655 E8.30079
G1 X11.612 Y69.306 E8.32394
G1 X11.169 Y68.895 E8.34707
G1 X10.653 Y68.237 E8.37907
G1 X10.302 Y67.668 E8.40465
G1 X-40.749 Y-18.205 E12.22785
G1 X-41.116 Y-18.842 E12.25598
G1 X-41.382 Y-19.384 E12.27909
G1 X-41.575 Y-19.957 E12.30223
G1 X-41.691 Y-20.551 E12.32539
G1 X-41.727 Y-21.154 E12.3485
G1 X-41.683 Y-21.757 E12.37164
G1 X-41.56 Y-22.35 E12.39482
G1 X-41.361 Y-22.92 E12.41792
G1 X-41.087 Y-23.459 E12.44106
G1 X-40.745 Y-23.958 E12.46421
G1 X-40.34 Y-24.407 E12.48735
G1 X-39.88 Y-24.799 E12.51048
G1 X-39.371 Y-25.127 E12.53366
G1 X-38.824 Y-25.384 E12.55679
G1 X-38.248 Y-25.568 E12.57993
G1 X-37.653 Y-25.673 E12.60305
G1 X-37.251 Y-25.7 E12.61847
G1 X-36.135 Y-25.723 E12.66119
G0 F2040 X-36.135 Y-25.373
G1 F1020 X63.297 Y-25.373 E16.4664
G1 X63.987 Y-25.363 E16.49281
G1 X64.566 Y-25.314 E16.51505
G1 X65.133 Y-25.187 E16.53728
G1 X65.677 Y-24.983 E16.55952
G1 X66.188 Y-24.706 E16.58176
G1 X66.656 Y-24.362 E16.60399
G1 X67.073 Y-23.957 E16.62624
G1 X67.43 Y-23.499 E16.64846
G1 X67.721 Y-22.996 E16.6707
G1 X67.94 Y-22.458 E16.69293
G1 X68.083 Y-21.894 E16.71519
G1 X68.147 Y-21.317 E16.73741
G1 X68.132 Y-20.736 E16.75965
G1 X68.037 Y-20.163 E16.78188
G1 X67.864 Y-19.608 E16.80413
G1 X67.651 Y-19.143 E16.8237
G1 X67.353 Y-18.598 E16.84747
G1 X18.484 Y67.309 E20.62981
G1 X18.134 Y67.902 E20.65616
G1 X17.804 Y68.38 E20.67839
G1 X17.413 Y68.81 E20.70063
G1 X16.966 Y69.181 E20.72286
G1 X16.472 Y69.488 E20.74512
G1 X15.942 Y69.724 E20.76732
G1 X15.383 Y69.885 E20.78959
G1 X14.808 Y69.967 E20.81181
G1 X14.227 Y69.97 E20.83405
G1 X13.651 Y69.894 E20.85628
G1 X13.091 Y69.739 E20.87852
G1 X12.558 Y69.509 E20.90073
G1 X12.061 Y69.207 E20.92299
G1 X11.61 Y68.841 E20.94522
G1 X11.214 Y68.416 E20.96745
G1 X10.894 Y67.965 E20.98861
G1 X10.601 Y67.487 E21.01007
G1 X-40.477 Y-18.433 E24.83534
G1 X-40.813 Y-19.016 E24.86109
G1 X-41.067 Y-19.538 E24.8833
G1 X-41.248 Y-20.091 E24.90557
G1 X-41.351 Y-20.662 E24.92778
G1 X-41.375 Y-21.243 E24.95003
G1 X-41.319 Y-21.821 E24.97225
G1 X-41.185 Y-22.386 E24.99448
G1 X-40.974 Y-22.928 E25.01673
G1 X-40.69 Y-23.435 E25.03897
G1 X-40.34 Y-23.899 E25.06122
G1 X-39.929 Y-24.31 E25.08346
G1 X-39.466 Y-24.661 E25.1057
G1 X-38.959 Y-24.945 E25.12793
G1 X-38.418 Y-25.157 E25.15017
G1 X-37.853 Y-25.292 E25.1724
G1 X-37.243 Y-25.35 E25.19585
G1 X-36.135 Y-25.373 E25.23826
G0 F2040 X-36.135 Y-25.023
G1 F1020 X63.292 Y-25.023 E29.04329
G1 X63.982 Y-25.013 E29.0697
G1 X64.536 Y-24.965 E29.09098
G1 X65.078 Y-24.838 E29.11228
G1 X65.596 Y-24.635 E29.13357
G1 X66.08 Y-24.359 E29.15489
G1 X66.519 Y-24.018 E29.17617
G1 X66.905 Y-23.617 E29.19747
G1 X67.229 Y-23.164 E29.21878
G1 X67.485 Y-22.67 E29.24007
G1 X67.668 Y-22.145 E29.26135
G1 X67.774 Y-21.599 E29.28264
G1 X67.8 Y-21.043 E29.30394
G1 X67.746 Y-20.489 E29.32524
G1 X67.614 Y-19.949 E29.34651
G1 X67.384 Y-19.39 E29.36965
G1 X67.047 Y-18.767 E29.39675
G1 X18.182 Y67.131 E33.17871
G1 X17.832 Y67.724 E33.20507
G1 X17.516 Y68.181 E33.22633
G1 X17.137 Y68.589 E33.24764
G1 X16.704 Y68.938 E33.26892
G1 X16.225 Y69.221 E33.29021
G1 X15.71 Y69.433 E33.31153
G1 X15.171 Y69.57 E33.33281
G1 X14.617 Y69.627 E33.35412
G1 X14.061 Y69.605 E33.37542
G1 X13.514 Y69.503 E33.39671
G1 X12.988 Y69.324 E33.41798
G1 X12.492 Y69.071 E33.43929
G1 X12.037 Y68.75 E33.4606
G1 X11.634 Y68.367 E33.48187
G1 X11.241 Y67.857 E33.50651
G1 X10.9 Y67.305 E33.53134
G1 X-40.173 Y-18.608 E37.35628
G1 X-40.509 Y-19.191 E37.38203
G1 X-40.752 Y-19.692 E37.40334
G1 X-40.92 Y-20.222 E37.42462
G1 X-41.011 Y-20.771 E37.44592
G1 X-41.022 Y-21.328 E37.46724
G1 X-40.953 Y-21.88 E37.48853
G1 X-40.806 Y-22.416 E37.5098
G1 X-40.583 Y-22.926 E37.5311
G1 X-40.29 Y-23.399 E37.55239
G1 X-39.932 Y-23.825 E37.57369
G1 X-39.517 Y-24.196 E37.59499
G1 X-39.053 Y-24.503 E37.61628
G1 X-38.55 Y-24.74 E37.63756
G1 X-38.018 Y-24.903 E37.65886
G1 X-37.236 Y-25 E37.68901
G1 X-36.135 Y-25.023 E37.73116
G0 F2040 X-36.135 Y-24.673
G1 F1020 X63.287 Y-24.673 E41.53599
G1 X63.977 Y-24.663 E41.5624
G1 X64.506 Y-24.615 E41.58272
G1 X65.021 Y-24.489 E41.60301
G1 X65.512 Y-24.286 E41.62335
G1 X65.966 Y-24.013 E41.64362
G1 X66.375 Y-23.674 E41.66395
G1 X66.727 Y-23.277 E41.68426
G1 X67.017 Y-22.833 E41.70455
G1 X67.236 Y-22.349 E41.72488
G1 X67.381 Y-21.839 E41.74517
G1 X67.447 Y-21.312 E41.7655
G1 X67.433 Y-20.782 E41.78579
G1 X67.34 Y-20.259 E41.80612
G1 X67.072 Y-19.547 E41.83523
G1 X66.74 Y-18.937 E41.86181
G1 X17.881 Y66.953 E45.64339
G1 X17.531 Y67.546 E45.66974
G1 X17.227 Y67.981 E45.69005
G1 X16.862 Y68.366 E45.71035
G1 X16.443 Y68.692 E45.73067
G1 X15.98 Y68.951 E45.75097
G1 X15.483 Y69.138 E45.77129
G1 X14.964 Y69.248 E45.7916
G1 X14.434 Y69.278 E45.81191
G1 X13.906 Y69.229 E45.83221
G1 X13.391 Y69.102 E45.85251
G1 X12.901 Y68.898 E45.87282
G1 X12.447 Y68.623 E45.89313
G1 X12.04 Y68.283 E45.91343
G1 X11.688 Y67.886 E45.93373
G1 X11.199 Y67.123 E45.96841
G1 X-39.87 Y-18.783 E49.79305
G1 X-40.206 Y-19.366 E49.8188
G1 X-40.436 Y-19.844 E49.8391
G1 X-40.591 Y-20.352 E49.85942
G1 X-40.668 Y-20.877 E49.87973
G1 X-40.666 Y-21.407 E49.90001
G1 X-40.584 Y-21.932 E49.92035
G1 X-40.424 Y-22.438 E49.94066
G1 X-40.19 Y-22.914 E49.96096
G1 X-39.887 Y-23.35 E49.98127
G1 X-39.522 Y-23.735 E50.00158
G1 X-39.104 Y-24.061 E50.02186
G1 X-38.641 Y-24.321 E50.04219
G1 X-38.144 Y-24.508 E50.06251
G1 X-37.625 Y-24.619 E50.08282
G1 X-37.228 Y-24.65 E50.09806
G1 X-36.135 Y-24.673 E50.1399
G0 F2040 X-36.135 Y-24.323
G1 F1020 X63.282 Y-24.323 E53.94454
G1 X63.972 Y-24.313 E53.97094
G1 X64.473 Y-24.265 E53.99021
G1 X64.961 Y-24.14 E54.00948
G1 X65.423 Y-23.938 E54.02878
G1 X65.846 Y-23.666 E54.04803
G1 X66.222 Y-23.331 E54.0673
G1 X66.54 Y-22.94 E54.08659
G1 X66.792 Y-22.504 E54.10586
G1 X66.972 Y-22.034 E54.12512
G1 X67.075 Y-21.541 E54.14439
G1 X67.099 Y-21.038 E54.16366
G1 X67.044 Y-20.538 E54.18291
G1 X66.91 Y-20.052 E54.20221
G1 X66.657 Y-19.509 E54.22513
G1 X66.418 Y-19.077 E54.24403
G1 X17.579 Y66.775 E58.02397
G1 X17.229 Y67.368 E58.05032
G1 X16.94 Y67.78 E58.06958
G1 X16.589 Y68.141 E58.08885
G1 X16.185 Y68.442 E58.10813
G1 X15.739 Y68.675 E58.12738
G1 X15.261 Y68.835 E58.14667
G1 X14.764 Y68.918 E58.16596
G1 X14.261 Y68.92 E58.18521
G1 X13.763 Y68.843 E58.20449
G1 X13.284 Y68.689 E58.22375
G1 X12.835 Y68.46 E58.24304
G1 X12.428 Y68.164 E58.26229
G1 X12.073 Y67.807 E58.28156
G1 X11.775 Y67.395 E58.30102
G1 X11.482 Y66.914 E58.32258
G1 X-39.567 Y-18.958 E62.1457
G1 X-39.903 Y-19.541 E62.17145
G1 X-40.119 Y-19.995 E62.19069
G1 X-40.26 Y-20.479 E62.20998
G1 X-40.324 Y-20.978 E62.22924
G1 X-40.307 Y-21.482 E62.24853
G1 X-40.211 Y-21.976 E62.26779
G1 X-40.038 Y-22.449 E62.28707
G1 X-39.793 Y-22.889 E62.30634
G1 X-39.481 Y-23.284 E62.3256
G1 X-39.11 Y-23.625 E62.34489
G1 X-38.69 Y-23.903 E62.36416
G1 X-38.232 Y-24.112 E62.38343
G1 X-37.746 Y-24.245 E62.40271
G1 X-37.221 Y-24.3 E62.42291
G1 X-36.135 Y-24.323 E62.46448
G1 F3600 E58.66448
;MESH:support_tri_0_029.stl
G0 F2040 X-36.135 Y-21.813
G0 X-36.135 Y-20.778
G0 X14.486 Y64.728
;TYPE:WALL-INNER
G1 F3600 E62.46448
G1 F1020 X-36.253 Y-20.623 E66.26441
G1 X63.041 Y-20.623 E70.06434
G1 X14.486 Y64.728 E73.82224
G0 F2040 X14.492 Y65.374
;TYPE:WALL-OUTER
G1 F1020 X-36.824 Y-20.948 E77.66539
G1 X63.599 Y-20.948 E81.50853
G1 X14.492 Y65.374 E85.30917
G0 F2040 X14.39 Y65.203
G0 X14.489 Y64.976
G0 X14.479 Y64.052
;TYPE:SKIN
G1 F1020 X-35.656 Y-20.283 E89.06386
G1 X62.456 Y-20.283 E92.81856
G1 X14.479 Y64.052 E96.53172
G0 F2040 X14.57 Y63.573
G1 F1020 X14.091 Y63.093 E96.55768
G0 F2040 X14.749 Y63.257
G1 F1020 X13.365 Y61.873 E96.63258
G1 X13.303 Y61.811
G0 F2040 X12.64 Y60.652
G1 F1020 X14.929 Y62.941 E96.75646
G0 F2040 X15.108 Y62.626
G1 F1020 X11.914 Y59.432 E96.92933
G1 X11.852 Y59.37
G0 F2040 X11.189 Y58.211
G1 F1020 X15.288 Y62.31 E97.15117
G0 F2040 X15.467 Y61.995
G1 F1020 X10.463 Y56.991 E97.42199
G1 X10.401 Y56.929
G0 F2040 X9.738 Y55.77
G1 F1020 X15.647 Y61.68 E97.74182
G0 F2040 X15.826 Y61.364
G1 F1020 X9.012 Y54.549 E98.11063
G1 X8.95 Y54.487
G0 F2040 X8.286 Y53.329
G1 F1020 X16.006 Y61.048 E98.52842
G0 F2040 X16.185 Y60.733
G1 F1020 X7.561 Y52.108 E98.99519
G1 X7.499 Y52.046
G0 F2040 X6.835 Y50.888
G1 F1020 X16.365 Y60.418 E99.51097
G0 F2040 X16.544 Y60.102
G1 F1020 X6.11 Y49.667 E100.07569
G1 X6.048 Y49.605
G0 F2040 X5.384 Y48.447
G1 F1020 X16.724 Y59.787 E100.68943
G0 F2040 X16.903 Y59.471
G1 F1020 X4.659 Y47.226 E101.35212
G1 X4.597 Y47.164
G0 F2040 X3.933 Y46.006
G1 F1020 X17.082 Y59.155 E102.06376
G0 F2040 X17.262 Y58.84
G1 F1020 X3.208 Y44.786 E102.82438
G1 X3.146 Y44.724
G0 F2040 X2.482 Y43.565
G1 F1020 X17.442 Y58.525 E103.63403
G0 F2040 X17.621 Y58.209
G1 F1020 X1.756 Y42.344 E104.49267
G1 X1.694 Y42.282
G0 F2040 X1.03 Y41.123
G1 F1020 X17.8 Y57.893 E105.40028
G0 F2040 X17.98 Y57.578
G1 F1020 X0.305 Y39.903 E106.35687
G1 X0.243 Y39.841
G0 F2040 X-.42 Y38.682
G1 F1020 X18.159 Y57.262 E107.36242
G0 F2040 X18.339 Y56.947
G1 F1020 X-1.145 Y37.462 E108.41695
G1 X-1.207 Y37.4
G0 F2040 X-1.871 Y36.242
G1 F1020 X18.519 Y56.632 E109.52048
G0 F2040 X18.698 Y56.316
G1 F1020 X-2.596 Y35.021 E110.67296
G1 X-2.658 Y34.959
G0 F2040 X-3.321 Y33.801
G1 F1020 X18.877 Y56 E111.87438
G0 F2040 X19.057 Y55.685
G1 F1020 X-4.047 Y32.58 E113.12482
G1 X-4.109 Y32.518
G0 F2040 X-4.772 Y31.36
G1 F1020 X19.236 Y55.369 E114.42419
G0 F2040 X19.416 Y55.054
G1 F1020 X-5.499 Y30.139 E115.77262
G1 X-5.561 Y30.077
G0 F2040 X-6.224 Y28.918
G1 F1020 X19.596 Y54.739 E117.17006
G0 F2040 X19.775 Y54.423
G1 F1020 X-6.95 Y27.698 E118.61645
G1 X-7.012 Y27.636
G0 F2040 X-7.675 Y26.477
G1 F1020 X19.954 Y54.107 E120.1118
G0 F2040 X20.134 Y53.792
G1 F1020 X-8.401 Y25.257 E121.65615
G1 X-8.463 Y25.195
G0 F2040 X-9.126 Y24.036
G1 F1020 X20.313 Y53.477 E123.24948
G0 F2040 X20.493 Y53.161
G1 F1020 X-9.852 Y22.816 E124.89179
G1 X-9.914 Y22.754
G0 F2040 X-10.577 Y21.595
G1 F1020 X20.672 Y52.846 E126.58308
G0 F2040 X20.851 Y52.53
G1 F1020 X-11.303 Y20.375 E128.32332
G1 X-11.365 Y20.313
G0 F2040 X-12.028 Y19.154
G1 F1020 X21.031 Y52.214 E130.11254
G0 F2040 X21.211 Y51.899
G1 F1020 X-12.754 Y17.934 E131.95077
G1 X-12.816 Y17.872
G0 F2040 X-13.48 Y16.713
G1 F1020 X21.39 Y51.584 E133.83801
G0 F2040 X21.57 Y51.268
G1 F1020 X-14.205 Y15.492 E135.77422
G1 X-14.267 Y15.43
G0 F2040 X-14.931 Y14.272
G1 F1020 X21.749 Y50.953 E137.75942
G0 F2040 X21.928 Y50.637
G1 F1020 X-15.656 Y13.051 E139.79357
G1 X-15.718 Y12.989
G0 F2040 X-16.382 Y11.831
G1 F1020 X22.108 Y50.321 E141.87669
G0 F2040 X22.288 Y50.006
G1 F1020 X-17.107 Y10.61 E144.00883
G1 X-17.169 Y10.548
G0 F2040 X-17.833 Y9.39
G1 F1020 X22.467 Y49.691 E146.18994
G0 F2040 X22.647 Y49.375
G1 F1020 X-18.558 Y8.169 E148.42004
G1 X-18.62 Y8.107
G0 F2040 X-19.284 Y6.949
G1 F1020 X22.826 Y49.06 E150.69911
G0 F2040 X23.005 Y48.744
G1 F1020 X-20.009 Y5.728 E153.02714
G1 X-20.071 Y5.666
G0 F2040 X-20.735 Y4.507
G1 F1020 X23.185 Y48.429 E155.4042
G0 F2040 X23.364 Y48.113
G1 F1020 X-21.461 Y3.287 E157.83021
G1 X-21.523 Y3.225
G0 F2040 X-22.186 Y2.066
G1 F1020 X23.544 Y47.798 E160.30523
G0 F2040 X23.724 Y47.482
G1 F1020 X-22.912 Y0.846 E162.82923
G1 X-22.974 Y0.784
G0 F2040 X-23.637 Y-.374
G1 F1020 X23.903 Y47.166 E165.40216
G0 F2040 X24.082 Y46.851
G1 F1020 X-24.363 Y-1.594 E168.02406
G1 X-24.425 Y-1.656
G0 F2040 X-25.088 Y-2.814
G1 F1020 X24.262 Y46.536 E170.69495
G0 F2040 X24.441 Y46.22
G1 F1020 X-25.814 Y-4.035 E173.41481
G1 X-25.876 Y-4.097
G0 F2040 X-26.539 Y-5.255
G1 F1020 X24.621 Y45.905 E176.18365
G0 F2040 X24.801 Y45.59
G1 F1020 X-27.265 Y-6.476 E179.00153
G1 X-27.327 Y-6.538
G0 F2040 X-27.991 Y-7.697
G1 F1020 X24.979 Y45.273 E181.86834
G0 F2040 X25.159 Y44.958
G1 F1020 X-28.717 Y-8.918 E184.78417
G1 X-28.779 Y-8.98
G0 F2040 X-29.442 Y-10.138
G1 F1020 X25.339 Y44.643 E187.74899
G0 F2040 X25.518 Y44.327
G1 F1020 X-30.168 Y-11.358 E190.76276
G1 X-30.23 Y-11.42
G0 F2040 X-30.893 Y-12.579
G1 F1020 X25.698 Y44.012 E193.82554
G0 F2040 X25.877 Y43.697
G1 F1020 X-31.618 Y-13.799 E196.93727
G1 X-31.68 Y-13.861
G0 F2040 X-32.344 Y-15.02
G1 F1020 X26.056 Y43.381 E200.09798
G0 F2040 X26.236 Y43.065
G1 F1020 X-33.069 Y-16.24 E203.30764
G1 X-33.131 Y-16.302
G0 F2040 X-33.795 Y-17.461
G1 F1020 X26.416 Y42.75 E206.56634
G0 F2040 X26.595 Y42.434
G1 F1020 X-34.52 Y-18.681 E209.87396
G1 X-34.582 Y-18.743
G0 F2040 X-35.247 Y-19.902
G1 F1020 X26.775 Y42.119 E213.23064
G0 F2040 X26.954 Y41.803
G1 F1020 X-34.974 Y-20.125 E216.58226
G0 F2040 X-34.479 Y-20.125
G1 F1020 X27.133 Y41.488 E219.91681
G0 F2040 X27.313 Y41.172
G1 F1020 X-33.984 Y-20.125 E223.23428
G0 F2040 X-33.489 Y-20.125
G1 F1020 X27.493 Y40.857 E226.53471
G0 F2040 X27.672 Y40.541
G1 F1020 X-32.995 Y-20.125 E229.81805
G0 F2040 X-32.5 Y-20.125
G1 F1020 X27.852 Y40.226 E233.08435
G0 F2040 X28.031 Y39.91
G1 F1020 X-32.005 Y-20.125 E236.33355
G0 F2040 X-31.51 Y-20.125
G1 F1020 X28.21 Y39.595 E239.56567
G0 F2040 X28.39 Y39.279
G1 F1020 X-31.015 Y-20.125 E242.78072
G0 F2040 X-30.52 Y-20.125
G1 F1020 X28.569 Y38.964 E245.97869
G0 F2040 X28.749 Y38.649
G1 F1020 X-30.025 Y-20.125 E249.15962
G0 F2040 X-29.53 Y-20.125
G1 F1020 X28.929 Y38.333 E252.32347
G0 F2040 X29.108 Y38.017
G1 F1020 X-29.035 Y-20.125 E255.47021
G0 F2040 X-28.54 Y-20.125
G1 F1020 X29.287 Y37.702 E258.59988
G0 F2040 X29.467 Y37.386
G1 F1020 X-28.045 Y-20.125 E261.71248
G0 F2040 X-27.55 Y-20.125
G1 F1020 X29.646 Y37.071 E264.808
G0 F2040 X29.826 Y36.756
G1 F1020 X-27.055 Y-20.125 E267.88647
G0 F2040 X-26.56 Y-20.125
G1 F1020 X30.005 Y36.44 E270.94784
G0 F2040 X30.184 Y36.124
G1 F1020 X-26.065 Y-20.125 E273.99211
G0 F2040 X-25.57 Y-20.125
G1 F1020 X30.364 Y35.809 E277.01933
G0 F2040 X30.544 Y35.493
G1 F1020 X-25.075 Y-20.125 E280.02947
G0 F2040 X-24.58 Y-20.125
G1 F1020 X30.723 Y35.178 E283.02254
G0 F2040 X30.903 Y34.863
G1 F1020 X-24.085 Y-20.125 E285.99856
G0 F2040 X-23.59 Y-20.125
G1 F1020 X31.082 Y34.547 E288.95748
G0 F2040 X31.261 Y34.231
G1 F1020 X-23.095 Y-20.125 E291.8993
G0 F2040 X-22.6 Y-20.125
G1 F1020 X31.441 Y33.916 E294.82406
G0 F2040 X31.621 Y33.601
G1 F1020 X-22.105 Y-20.125 E297.73178
G0 F2040 X-21.61 Y-20.125
G1 F1020 X31.8 Y33.285 E300.6224
G0 F2040 X31.98 Y32.97
G1 F1020 X-21.115 Y-20.125 E303.49597
G0 F2040 X-20.62 Y-20.125
G1 F1020 X32.159 Y32.654 E306.35244
G0 F2040 X32.338 Y32.338
G1 F1020 X-20.125 Y-20.125 E309.1918
G0 F2040 X-19.63 Y-20.125
G1 F1020 X32.518 Y32.023 E312.01412
G0 F2040 X32.698 Y31.708
G1 F1020 X-19.135 Y-20.125 E314.81938
G0 F2040 X-18.64 Y-20.125
G1 F1020 X32.877 Y31.392 E317.60755
G0 F2040 X33.056 Y31.076
G1 F1020 X-18.145 Y-20.125 E320.37861
G0 F2040 X-17.65 Y-20.125
G1 F1020 X33.236 Y30.761 E323.13263
G0 F2040 X33.415 Y30.445
G1 F1020 X-17.155 Y-20.125 E325.86954
G0 F2040 X-16.66 Y-20.125
G1 F1020 X33.595 Y30.13 E328.58941
G0 F2040 X33.774 Y29.815
