;FLAVOR:Marlin
;TIME:7931
;Filament used: 7.3009m
;Layer height: 0.2
;MINX:-67
;MINY:-71.081
;MINZ:0.26
;MAXX:42.114
;MAXY:25.929
;MAXZ:23.66
;Generated with Cura_SteamEngine 4.8.0
M82 ;absolute extrusion mode
;Gcode by Cura
G90
G28
M107
M109 R100
G30
M109 S215 U-55 X55 V-85 Y-85 W0.26 Z0.26
M82
G92 E0
G1 F200 E6
G92 E0
G1 F200 E-3.5
G0 Z0.15
G0 X10
G0 Z3
G1 F6000
G92 E0
G92 E0
G1 F3600 E-3.8
;LAYER_COUNT:118
;LAYER:0
M107
G0 F2040 X41.216 Y18.537 Z0.26
;TYPE:SKIRT
G1 F3600 E0
G1 F1020 X41.545 Y19.133 E0.02605
G1 X41.802 Y19.681 E0.04922
G1 X41.984 Y20.257 E0.07233
G1 X42.089 Y20.853 E0.09549
G1 X42.114 Y21.457 E0.11863
G1 X42.059 Y22.059 E0.14176
G1 X41.925 Y22.649 E0.16492
G1 X41.715 Y23.215 E0.18802
G1 X41.431 Y23.75 E0.2112
G1 X41.08 Y24.242 E0.23433
G1 X40.667 Y24.683 E0.25745
G1 X40.199 Y25.067 E0.28062
G1 X39.685 Y25.385 E0.30375
G1 X39.134 Y25.632 E0.32686
G1 X38.554 Y25.805 E0.35002
G1 X37.711 Y25.916 E0.38256
G1 X37.054 Y25.929 E0.40771
G1 X-61.804 Y25.929 E4.19096
G1 X-62.493 Y25.919 E4.21733
G1 X-63.096 Y25.87 E4.24048
G1 X-63.687 Y25.742 E4.26362
G1 X-64.256 Y25.537 E4.28677
G1 X-64.793 Y25.26 E4.30989
G1 X-65.289 Y24.913 E4.33306
G1 X-65.735 Y24.505 E4.35619
G1 X-66.122 Y24.041 E4.37931
G1 X-66.446 Y23.53 E4.40247
G1 X-66.699 Y22.981 E4.4256
G1 X-66.878 Y22.403 E4.44876
G1 X-66.978 Y21.807 E4.47188
G1 X-67 Y21.203 E4.49501
G1 X-66.941 Y20.601 E4.51816
G1 X-66.804 Y20.012 E4.54131
G1 X-66.502 Y19.263 E4.57221
G1 X-66.14 Y18.599 E4.60115
G1 X-16.753 Y-68.217 E8.42353
G1 X-16.393 Y-68.828 E8.45067
G1 X-16.053 Y-69.328 E8.47381
G1 X-15.649 Y-69.778 E8.49695
G1 X-15.19 Y-70.171 E8.52008
G1 X-14.683 Y-70.501 E8.54323
G1 X-14.137 Y-70.76 E8.56635
G1 X-13.561 Y-70.945 E8.58951
G1 X-12.966 Y-71.053 E8.61265
G1 X-12.362 Y-71.081 E8.63579
G1 X-11.76 Y-71.029 E8.65891
G1 X-11.169 Y-70.899 E8.68207
G1 X-10.601 Y-70.691 E8.70522
G1 X-10.066 Y-70.411 E8.72833
G1 X-9.572 Y-70.062 E8.75147
G1 X-9.128 Y-69.652 E8.7746
G1 X-8.742 Y-69.186 E8.79776
G1 X-8.524 Y-68.855 E8.81293
G1 X-7.961 Y-67.911 E8.85499
G1 X41.216 Y18.537 E12.66115
G0 F2040 X40.91 Y18.706
G1 F1020 X41.239 Y19.302 E12.6872
G1 X41.484 Y19.829 E12.70944
G1 X41.655 Y20.384 E12.73167
G1 X41.747 Y20.958 E12.75392
G1 X41.761 Y21.539 E12.77616
G1 X41.694 Y22.116 E12.79839
G1 X41.549 Y22.679 E12.82064
G1 X41.328 Y23.216 E12.84286
G1 X41.035 Y23.718 E12.8651
G1 X40.676 Y24.175 E12.88734
G1 X40.258 Y24.579 E12.90959
G1 X39.789 Y24.921 E12.9318
G1 X39.277 Y25.196 E12.95405
G1 X38.732 Y25.397 E12.97628
G1 X38.164 Y25.523 E12.99854
G1 X37.564 Y25.571 E13.02158
G1 X37.05 Y25.579 E13.04125
G1 X-61.799 Y25.579 E16.82415
G1 X-62.488 Y25.569 E16.85052
G1 X-63.067 Y25.52 E16.87276
G1 X-63.634 Y25.393 E16.895
G1 X-64.178 Y25.189 E16.91723
G1 X-64.689 Y24.912 E16.93948
G1 X-65.157 Y24.568 E16.9617
G1 X-65.574 Y24.163 E16.98395
G1 X-65.931 Y23.705 E17.00617
G1 X-66.222 Y23.202 E17.02841
G1 X-66.441 Y22.663 E17.05068
G1 X-66.584 Y22.1 E17.07291
G1 X-66.648 Y21.523 E17.09512
G1 X-66.633 Y20.942 E17.11737
G1 X-66.538 Y20.369 E17.13959
G1 X-66.365 Y19.814 E17.16184
G1 X-66.142 Y19.329 E17.18227
G1 X-65.834 Y18.769 E17.20673
G1 X-16.417 Y-68.099 E21.0314
G1 X-16.092 Y-68.651 E21.05591
G1 X-15.763 Y-69.13 E21.07815
G1 X-15.372 Y-69.559 E21.10037
G1 X-14.926 Y-69.931 E21.12259
G1 X-14.432 Y-70.239 E21.14487
G1 X-13.902 Y-70.475 E21.16707
G1 X-13.344 Y-70.637 E21.18931
G1 X-12.769 Y-70.72 E21.21154
G1 X-12.188 Y-70.724 E21.23378
G1 X-11.612 Y-70.648 E21.25601
G1 X-11.051 Y-70.493 E21.27829
G1 X-10.518 Y-70.264 E21.30049
G1 X-10.021 Y-69.963 E21.32272
G1 X-9.569 Y-69.597 E21.34498
G1 X-9.173 Y-69.172 E21.36721
G1 X-8.825 Y-68.675 E21.39043
G1 X-8.266 Y-67.738 E21.43218
G1 X40.91 Y18.706 E25.23819
G0 F2040 X40.603 Y18.875
G1 F1020 X40.932 Y19.471 E25.26425
G1 X41.166 Y19.976 E25.28555
G1 X41.324 Y20.51 E25.30686
G1 X41.405 Y21.06 E25.32813
G1 X41.405 Y21.617 E25.34945
G1 X41.326 Y22.168 E25.37075
G1 X41.169 Y22.701 E25.39202
G1 X40.938 Y23.207 E25.4133
G1 X40.636 Y23.675 E25.43462
G1 X40.27 Y24.094 E25.45591
G1 X39.848 Y24.457 E25.47721
G1 X39.378 Y24.755 E25.49851
G1 X38.871 Y24.983 E25.51978
G1 X38.336 Y25.136 E25.54108
G1 X37.684 Y25.216 E25.56622
G1 X37.045 Y25.229 E25.59068
G1 X-61.794 Y25.229 E29.3732
G1 X-62.483 Y25.219 E29.39957
G1 X-63.038 Y25.171 E29.42089
G1 X-63.579 Y25.044 E29.44215
G1 X-64.097 Y24.841 E29.46344
G1 X-64.581 Y24.565 E29.48477
G1 X-65.02 Y24.224 E29.50604
G1 X-65.406 Y23.822 E29.52737
G1 X-65.73 Y23.37 E29.54865
G1 X-65.986 Y22.876 E29.56994
G1 X-66.169 Y22.351 E29.59122
G1 X-66.275 Y21.805 E29.61251
G1 X-66.301 Y21.249 E29.63381
G1 X-66.247 Y20.695 E29.65511
G1 X-66.115 Y20.154 E29.67642
G1 X-65.878 Y19.582 E29.70012
G1 X-65.528 Y18.938 E29.72817
G1 X-16.115 Y-67.921 E33.55246
G1 X-15.79 Y-68.473 E33.57698
G1 X-15.474 Y-68.931 E33.59827
G1 X-15.096 Y-69.339 E33.61956
G1 X-14.663 Y-69.689 E33.64086
G1 X-14.185 Y-69.973 E33.66214
G1 X-13.67 Y-70.185 E33.68345
G1 X-13.131 Y-70.322 E33.70474
G1 X-12.578 Y-70.38 E33.72602
G1 X-12.022 Y-70.358 E33.74731
G1 X-11.474 Y-70.257 E33.76864
G1 X-10.947 Y-70.078 E33.78994
G1 X-10.451 Y-69.826 E33.81123
G1 X-9.997 Y-69.506 E33.83248
G1 X-9.593 Y-69.123 E33.85379
G1 X-9.125 Y-68.496 E33.88373
G1 X-8.57 Y-67.565 E33.92521
G1 X40.603 Y18.875 E37.73103
G0 F2040 X40.297 Y19.044
G1 F1020 X40.626 Y19.64 E37.75708
G1 X40.847 Y20.123 E37.77741
G1 X40.993 Y20.633 E37.79771
G1 X41.06 Y21.16 E37.81804
G1 X41.048 Y21.69 E37.83833
G1 X40.956 Y22.213 E37.85865
G1 X40.787 Y22.716 E37.87896
G1 X40.544 Y23.188 E37.89927
G1 X40.234 Y23.618 E37.91956
G1 X39.862 Y23.996 E37.93986
G1 X39.437 Y24.315 E37.96019
G1 X38.97 Y24.566 E37.98048
G1 X38.47 Y24.744 E38.00079
G1 X37.949 Y24.845 E38.0211
G1 X37.449 Y24.874 E38.04027
G1 X37.041 Y24.879 E38.05589
G1 X-61.789 Y24.879 E41.83806
G1 X-62.478 Y24.869 E41.86443
G1 X-63.007 Y24.821 E41.88476
G1 X-63.522 Y24.695 E41.90505
G1 X-64.013 Y24.492 E41.92538
G1 X-64.467 Y24.219 E41.94566
G1 X-64.876 Y23.88 E41.96599
G1 X-65.229 Y23.483 E41.98632
G1 X-65.518 Y23.039 E42.00659
G1 X-65.737 Y22.555 E42.02692
G1 X-65.882 Y22.045 E42.04721
G1 X-65.948 Y21.518 E42.06754
G1 X-65.934 Y20.988 E42.08783
G1 X-65.841 Y20.465 E42.10816
G1 X-65.566 Y19.741 E42.1378
G1 X-65.222 Y19.108 E42.16537
G1 X-15.814 Y-67.743 E45.9893
G1 X-15.489 Y-68.295 E46.01382
G1 X-15.186 Y-68.731 E46.03414
G1 X-14.821 Y-69.116 E46.05444
G1 X-14.402 Y-69.443 E46.07478
G1 X-13.939 Y-69.702 E46.09508
G1 X-13.443 Y-69.89 E46.11538
G1 X-12.924 Y-70 E46.13568
G1 X-12.394 Y-70.032 E46.156
G1 X-11.866 Y-69.983 E46.1763
G1 X-11.351 Y-69.856 E46.1966
G1 X-10.86 Y-69.653 E46.21693
G1 X-10.406 Y-69.378 E46.23724
G1 X-9.998 Y-69.039 E46.25754
G1 X-9.646 Y-68.642 E46.27785
G1 X-9.426 Y-68.316 E46.2929
G1 X-8.874 Y-67.392 E46.33409
G1 X40.297 Y19.044 E50.13974
G0 F2040 X39.991 Y19.214
G1 F1020 X40.32 Y19.81 E50.16579
G1 X40.527 Y20.268 E50.18502
G1 X40.66 Y20.754 E50.20431
G1 X40.714 Y21.255 E50.22359
G1 X40.688 Y21.758 E50.24287
G1 X40.583 Y22.25 E50.26212
G1 X40.401 Y22.72 E50.28141
G1 X40.148 Y23.155 E50.30066
G1 X39.829 Y23.545 E50.31995
G1 X39.452 Y23.879 E50.33922
G1 X39.027 Y24.149 E50.35849
G1 X38.565 Y24.349 E50.37776
G1 X38.077 Y24.473 E50.39703
G1 X37.524 Y24.522 E50.41827
G1 X37.037 Y24.529 E50.43691
G1 X-61.784 Y24.529 E54.21874
G1 X-62.473 Y24.519 E54.24511
G1 X-62.974 Y24.471 E54.26438
G1 X-63.462 Y24.346 E54.28365
G1 X-63.924 Y24.144 E54.30295
G1 X-64.348 Y23.872 E54.32223
G1 X-64.723 Y23.537 E54.34147
G1 X-65.041 Y23.146 E54.36076
G1 X-65.293 Y22.71 E54.38003
G1 X-65.473 Y22.24 E54.39929
G1 X-65.576 Y21.747 E54.41857
G1 X-65.6 Y21.244 E54.43784
G1 X-65.545 Y20.744 E54.45709
G1 X-65.411 Y20.258 E54.47638
G1 X-65.156 Y19.711 E54.49948
G1 X-64.899 Y19.247 E54.51978
G1 X-15.512 Y-67.566 E58.34205
G1 X-15.187 Y-68.118 E58.36657
G1 X-14.898 Y-68.53 E58.38582
G1 X-14.547 Y-68.892 E58.40512
G1 X-14.144 Y-69.193 E58.42437
G1 X-13.698 Y-69.427 E58.44365
G1 X-13.22 Y-69.587 E58.46294
G1 X-12.724 Y-69.67 E58.48218
G1 X-12.22 Y-69.674 E58.50147
G1 X-11.722 Y-69.597 E58.52075
G1 X-11.243 Y-69.443 E58.54001
G1 X-10.794 Y-69.215 E58.55928
G1 X-10.387 Y-68.919 E58.57854
G1 X-10.031 Y-68.562 E58.59783
G1 X-9.726 Y-68.136 E58.61789
G1 X-9.178 Y-67.219 E58.65877
G1 X39.991 Y19.214 E62.46428
G1 F3600 E58.66428
;MESH:support_tri_0.stl
G0 F2040 X37.808 Y20.454
G0 X36.927 Y20.956
G0 X36.654 Y20.829
;TYPE:WALL-INNER
G1 F3600 E62.46428
G1 F1020 X-61.542 Y20.829 E66.22219
G1 X-12.444 Y-65.476 E70.0221
G1 X36.654 Y20.829 E73.82201
G0 F2040 X37.212 Y21.154
;TYPE:WALL-OUTER
G1 F1020 X-62.1 Y21.154 E77.62263
G1 X-12.444 Y-66.133 E81.46576
G1 X37.212 Y21.154 E85.30889
G0 F2040 X37.012 Y21.154
G0 X36.869 Y20.954
G0 X36.069 Y20.489
;TYPE:SKIN
G1 F1020 X-60.957 Y20.489 E89.02203
G1 X-12.444 Y-64.789 E92.77671
G1 X36.069 Y20.489 E96.53139
G0 F2040 X-60.564 Y20.116
G1 F1020 X-60.348 Y20.332 E96.54308
G0 F2040 X-59.853 Y20.332
G1 F1020 X-60.384 Y19.801 E96.57181
G0 F2040 X-60.205 Y19.485
G1 F1020 X-59.358 Y20.332 E96.61766
G0 F2040 X-58.863 Y20.332
G1 F1020 X-60.026 Y19.169 E96.6806
G0 F2040 X-59.846 Y18.854
G1 F1020 X-58.368 Y20.332 E96.76059
G0 F2040 X-57.873 Y20.332
G1 F1020 X-59.667 Y18.538 E96.85768
G0 F2040 X-59.487 Y18.223
G1 F1020 X-57.378 Y20.332 E96.97183
G0 F2040 X-56.883 Y20.332
G1 F1020 X-59.307 Y17.908 E97.10302
G0 F2040 X-59.128 Y17.592
G1 F1020 X-56.388 Y20.332 E97.25131
G0 F2040 X-55.893 Y20.332
G1 F1020 X-58.949 Y17.276 E97.4167
G0 F2040 X-58.769 Y16.961
G1 F1020 X-55.398 Y20.332 E97.59914
G0 F2040 X-54.904 Y20.332
G1 F1020 X-58.59 Y16.646 E97.79864
G0 F2040 X-58.41 Y16.33
G1 F1020 X-54.409 Y20.332 E98.0152
G0 F2040 X-53.914 Y20.332
G1 F1020 X-58.23 Y16.015 E98.24882
G0 F2040 X-58.052 Y15.699
G1 F1020 X-53.419 Y20.332 E98.49956
G0 F2040 X-52.924 Y20.332
G1 F1020 X-57.872 Y15.383 E98.76738
G0 F2040 X-57.692 Y15.068
G1 F1020 X-52.429 Y20.332 E99.05225
G0 F2040 X-51.934 Y20.332
G1 F1020 X-57.513 Y14.753 E99.35419
G0 F2040 X-57.333 Y14.437
G1 F1020 X-51.439 Y20.332 E99.67321
G0 F2040 X-50.944 Y20.332
G1 F1020 X-57.154 Y14.121 E100.00933
G0 F2040 X-56.975 Y13.806
G1 F1020 X-50.449 Y20.332 E100.36252
G0 F2040 X-49.954 Y20.332
G1 F1020 X-56.795 Y13.49 E100.73279
G0 F2040 X-56.615 Y13.175
G1 F1020 X-49.459 Y20.332 E101.12011
G0 F2040 X-48.964 Y20.332
G1 F1020 X-56.436 Y12.86 E101.52451
G0 F2040 X-56.256 Y12.544
G1 F1020 X-48.469 Y20.332 E101.94598
G0 F2040 X-47.974 Y20.332
G1 F1020 X-56.077 Y12.228 E102.38455
G0 F2040 X-55.898 Y11.913
G1 F1020 X-47.479 Y20.332 E102.84019
G0 F2040 X-46.984 Y20.332
G1 F1020 X-55.718 Y11.597 E103.31292
G0 F2040 X-55.538 Y11.282
G1 F1020 X-46.489 Y20.332 E103.80269
G0 F2040 X-45.994 Y20.332
G1 F1020 X-55.359 Y10.967 E104.30953
G0 F2040 X-55.179 Y10.651
G1 F1020 X-45.499 Y20.332 E104.83345
G0 F2040 X-45.004 Y20.332
G1 F1020 X-55 Y10.335 E105.37448
G0 F2040 X-54.821 Y10.02
G1 F1020 X-44.509 Y20.332 E105.93258
G0 F2040 X-44.014 Y20.332
G1 F1020 X-54.641 Y9.705 E106.50772
G0 F2040 X-54.462 Y9.389
G1 F1020 X-43.519 Y20.332 E107.09997
G0 F2040 X-43.024 Y20.332
G1 F1020 X-54.282 Y9.074 E107.70927
G0 F2040 X-54.103 Y8.758
G1 F1020 X-42.529 Y20.332 E108.33567
G0 F2040 X-42.034 Y20.332
G1 F1020 X-53.923 Y8.442 E108.97914
G0 F2040 X-53.744 Y8.127
G1 F1020 X-41.539 Y20.332 E109.63969
G0 F2040 X-41.044 Y20.332
G1 F1020 X-53.564 Y7.812 E110.31729
G0 F2040 X-53.385 Y7.496
G1 F1020 X-40.549 Y20.332 E111.01199
G0 F2040 X-40.054 Y20.332
G1 F1020 X-53.205 Y7.181 E111.72374
G0 F2040 X-53.026 Y6.865
G1 F1020 X-39.559 Y20.332 E112.45259
G0 F2040 X-39.064 Y20.332
G1 F1020 X-52.847 Y6.549 E113.19855
G0 F2040 X-52.667 Y6.234
G1 F1020 X-38.569 Y20.332 E113.96155
G0 F2040 X-38.074 Y20.332
G1 F1020 X-52.487 Y5.919 E114.7416
G0 F2040 X-52.308 Y5.603
G1 F1020 X-37.579 Y20.332 E115.53875
G0 F2040 X-37.084 Y20.332
G1 F1020 X-52.128 Y5.288 E116.35295
G0 F2040 X-51.949 Y4.972
G1 F1020 X-36.589 Y20.332 E117.18425
G0 F2040 X-36.094 Y20.332
G1 F1020 X-51.77 Y4.657 E118.03263
G0 F2040 X-51.59 Y4.341
G1 F1020 X-35.599 Y20.332 E118.89809
G0 F2040 X-35.105 Y20.332
G1 F1020 X-51.41 Y4.026 E119.78056
G0 F2040 X-51.231 Y3.71
G1 F1020 X-34.61 Y20.332 E120.68014
G0 F2040 X-34.115 Y20.332
G1 F1020 X-51.052 Y3.394 E121.59682
G0 F2040 X-50.872 Y3.079
G1 F1020 X-33.62 Y20.332 E122.53054
G0 F2040 X-33.125 Y20.332
G1 F1020 X-50.693 Y2.764 E123.48135
G0 F2040 X-50.513 Y2.448
G1 F1020 X-32.63 Y20.332 E124.44922
G0 F2040 X-32.135 Y20.332
G1 F1020 X-50.333 Y2.133 E125.43415
G0 F2040 X-50.154 Y1.817
G1 F1020 X-31.64 Y20.332 E126.43618
G0 F2040 X-31.145 Y20.332
G1 F1020 X-49.975 Y1.501 E127.45531
G0 F2040 X-49.795 Y1.186
G1 F1020 X-30.65 Y20.332 E128.49149
G0 F2040 X-30.155 Y20.332
G1 F1020 X-49.616 Y0.871 E129.54474
G0 F2040 X-49.436 Y0.555
G1 F1020 X-29.66 Y20.332 E130.61507
G0 F2040 X-29.165 Y20.332
G1 F1020 X-49.257 Y0.24 E131.70248
G0 F2040 X-49.077 Y-0.074
G1 F1020 X-28.67 Y20.332 E132.8069
G0 F2040 X-28.175 Y20.332
G1 F1020 X-48.898 Y-.391 E133.92846
G0 F2040 X-48.718 Y-.706
G1 F1020 X-27.68 Y20.332 E135.06706
G0 F2040 X-27.185 Y20.332
G1 F1020 X-48.539 Y-1.021 E136.22274
G0 F2040 X-48.359 Y-1.337
G1 F1020 X-26.69 Y20.332 E137.39549
G0 F2040 X-26.195 Y20.332
G1 F1020 X-48.18 Y-1.652 E138.58532
G0 F2040 X-48.001 Y-1.968
G1 F1020 X-25.7 Y20.332 E139.79225
G0 F2040 X-25.205 Y20.332
G1 F1020 X-47.821 Y-2.283 E141.01623
G0 F2040 X-47.642 Y-2.599
G1 F1020 X-24.71 Y20.332 E142.25731
G0 F2040 X-24.215 Y20.332
G1 F1020 X-47.462 Y-2.914 E143.51544
G0 F2040 X-47.282 Y-3.23
G1 F1020 X-23.72 Y20.332 E144.79065
G0 F2040 X-23.225 Y20.332
G1 F1020 X-47.103 Y-3.545 E146.08293
G0 F2040 X-46.924 Y-3.861
G1 F1020 X-22.73 Y20.332 E147.39231
G0 F2040 X-22.235 Y20.332
G1 F1020 X-46.744 Y-4.176 E148.71874
G0 F2040 X-46.565 Y-4.492
G1 F1020 X-21.74 Y20.332 E150.06228
G0 F2040 X-21.245 Y20.332
G1 F1020 X-46.385 Y-4.807 E151.42286
G0 F2040 X-46.205 Y-5.122
G1 F1020 X-20.75 Y20.332 E152.80049
G0 F2040 X-20.255 Y20.332
G1 F1020 X-46.026 Y-5.438 E154.19522
G0 F2040 X-45.847 Y-5.754
G1 F1020 X-19.76 Y20.332 E155.60706
G0 F2040 X-19.265 Y20.332
G1 F1020 X-45.667 Y-6.069 E157.03594
G0 F2040 X-45.488 Y-6.385
G1 F1020 X-18.77 Y20.332 E158.48193
G0 F2040 X-18.275 Y20.332
G1 F1020 X-45.308 Y-6.7 E159.94496
G0 F2040 X-45.128 Y-7.015
G1 F1020 X-17.78 Y20.332 E161.42504
G0 F2040 X-17.285 Y20.332
G1 F1020 X-44.95 Y-7.331 E162.92225
G0 F2040 X-44.77 Y-7.647
G1 F1020 X-16.79 Y20.332 E164.43654
G0 F2040 X-16.295 Y20.332
G1 F1020 X-44.59 Y-7.962 E165.96787
G0 F2040 X-44.411 Y-8.278
G1 F1020 X-15.801 Y20.332 E167.51628
G0 F2040 X-15.306 Y20.332
G1 F1020 X-44.231 Y-8.593 E169.08174
G0 F2040 X-44.052 Y-8.908
G1 F1020 X-14.811 Y20.332 E170.66427
G0 F2040 X-14.316 Y20.332
G1 F1020 X-43.873 Y-9.224 E172.26391
G0 F2040 X-43.693 Y-9.54
G1 F1020 X-13.821 Y20.332 E173.88062
G0 F2040 X-13.326 Y20.332
G1 F1020 X-43.513 Y-9.855 E175.51438
G0 F2040 X-43.334 Y-10.171
G1 F1020 X-12.831 Y20.332 E177.16524
G0 F2040 X-12.336 Y20.332
G1 F1020 X-43.154 Y-10.486 E178.83315
G0 F2040 X-42.975 Y-10.802
G1 F1020 X-11.841 Y20.332 E180.51816
G0 F2040 X-11.346 Y20.332
G1 F1020 X-42.796 Y-11.117 E182.22025
G0 F2040 X-42.616 Y-11.433
G1 F1020 X-10.851 Y20.332 E183.93941
G0 F2040 X-10.356 Y20.332
G1 F1020 X-42.437 Y-11.748 E185.67565
G0 F2040 X-42.257 Y-12.063
G1 F1020 X-9.861 Y20.332 E187.42893
G0 F2040 X-9.366 Y20.332
G1 F1020 X-42.077 Y-12.379 E189.19929
G0 F2040 X-41.898 Y-12.695
G1 F1020 X-8.871 Y20.332 E190.98676
G0 F2040 X-8.376 Y20.332
G1 F1020 X-41.719 Y-13.01 E192.79129
G0 F2040 X-41.539 Y-13.326
G1 F1020 X-7.881 Y20.332 E194.61291
G0 F2040 X-7.386 Y20.332
G1 F1020 X-41.36 Y-13.641 E196.4516
G0 F2040 X-41.18 Y-13.956
G1 F1020 X-6.891 Y20.332 E198.30734
G0 F2040 X-6.396 Y20.332
G1 F1020 X-41 Y-14.272 E200.18015
G0 F2040 X-40.821 Y-14.588
G1 F1020 X-5.901 Y20.332 E202.07006
G0 F2040 X-5.406 Y20.332
G1 F1020 X-40.642 Y-14.903 E203.97705
G0 F2040 X-40.462 Y-15.219
G1 F1020 X-4.911 Y20.332 E205.90112
G0 F2040 X-4.416 Y20.332
G1 F1020 X-40.283 Y-15.534 E207.84226
G0 F2040 X-40.103 Y-15.849
G1 F1020 X-3.921 Y20.332 E209.80045
G0 F2040 X-3.426 Y20.332
G1 F1020 X-39.924 Y-16.165 E211.77574
G0 F2040 X-39.745 Y-16.481
