;FLAVOR:Marlin
;TIME:7852
;Filament used: 7.25126m
;Layer height: 0.2
;MINX:-41.717
;MINY:-70.325
;MINZ:0.26
;MAXX:68.502
;MAXY:25.722
;MAXZ:23.46
;Generated with Cura_SteamEngine 4.8.0
M82 ;absolute extrusion mode
;Gcode by Cura
G90
G28
M107
M109 R100
G30
M109 S215 U-55 X55 V-85 Y-85 W0.26 Z0.26
M82
G92 E0
G1 F200 E6
G92 E0
G1 F200 E-3.5
G0 Z0.15
G0 X10
G0 Z3
G1 F6000
G92 E0
G92 E0
G1 F3600 E-3.8
;LAYER_COUNT:117
;LAYER:0
M107
G0 F2040 X-40.572 Y17.907 Z0.26
;TYPE:SKIRT
G1 F3600 E0
G1 F1020 X10.268 Y-67.61 E3.80736
G1 X10.601 Y-68.151 E3.83167
G1 X10.951 Y-68.644 E3.85481
G1 X11.363 Y-69.086 E3.87793
G1 X11.83 Y-69.47 E3.90107
G1 X12.344 Y-69.79 E3.92424
G1 X12.895 Y-70.038 E3.94736
G1 X13.474 Y-70.212 E3.9705
G1 X14.071 Y-70.308 E3.99364
G1 X14.676 Y-70.325 E4.0168
G1 X15.277 Y-70.261 E4.03993
G1 X15.865 Y-70.119 E4.06308
G1 X16.428 Y-69.9 E4.0862
G1 X16.958 Y-69.609 E4.10934
G1 X17.445 Y-69.251 E4.13247
G1 X17.881 Y-68.832 E4.15561
G1 X18.388 Y-68.159 E4.18786
G1 X18.696 Y-67.643 E4.21086
G1 X67.576 Y18.28 E7.99393
G1 X67.932 Y18.924 E8.02209
G1 X68.189 Y19.471 E8.04522
G1 X68.371 Y20.047 E8.06834
G1 X68.476 Y20.643 E8.0915
G1 X68.502 Y21.247 E8.11464
G1 X68.447 Y21.849 E8.13777
G1 X68.314 Y22.439 E8.16092
G1 X68.104 Y23.006 E8.18406
G1 X67.821 Y23.54 E8.20718
G1 X67.47 Y24.033 E8.23034
G1 X67.057 Y24.475 E8.25349
G1 X66.59 Y24.858 E8.27661
G1 X66.076 Y25.177 E8.29976
G1 X65.524 Y25.424 E8.3229
G1 X64.945 Y25.598 E8.34604
G1 X64.101 Y25.709 E8.37862
G1 X63.442 Y25.722 E8.40384
G1 X-36.536 Y25.721 E12.22995
G1 X-37.212 Y25.711 E12.25582
G1 X-37.814 Y25.663 E12.27894
G1 X-38.405 Y25.535 E12.30208
G1 X-38.974 Y25.33 E12.32522
G1 X-39.511 Y25.052 E12.34836
G1 X-40.007 Y24.706 E12.37151
G1 X-40.452 Y24.297 E12.39464
G1 X-40.84 Y23.833 E12.41779
G1 X-41.163 Y23.322 E12.44092
G1 X-41.417 Y22.773 E12.46407
G1 X-41.595 Y22.195 E12.48721
G1 X-41.696 Y21.599 E12.51035
G1 X-41.717 Y20.995 E12.53348
G1 X-41.658 Y20.393 E12.55663
G1 X-41.521 Y19.804 E12.57977
G1 X-41.307 Y19.239 E12.60289
G1 X-41.125 Y18.883 E12.61819
G1 X-40.572 Y17.907 E12.66112
G0 F2040 X-40.271 Y18.086
G1 F1020 X10.566 Y-67.427 E16.46829
G1 X10.899 Y-67.968 E16.4926
G1 X11.237 Y-68.44 E16.51482
G1 X11.636 Y-68.862 E16.53704
G1 X12.09 Y-69.225 E16.55929
G1 X12.589 Y-69.523 E16.58153
G1 X13.124 Y-69.749 E16.60376
G1 X13.686 Y-69.899 E16.62602
G1 X14.262 Y-69.971 E16.64823
G1 X14.843 Y-69.964 E16.67047
G1 X15.418 Y-69.876 E16.69273
G1 X15.975 Y-69.711 E16.71496
G1 X16.504 Y-69.471 E16.73719
G1 X16.995 Y-69.161 E16.75941
G1 X17.439 Y-68.786 E16.78165
G1 X17.827 Y-68.353 E16.8039
G1 X18.159 Y-67.865 E16.82649
G1 X18.419 Y-67.421 E16.84618
G1 X67.27 Y18.449 E20.62695
G1 X67.626 Y19.093 E20.65511
G1 X67.871 Y19.62 E20.67735
G1 X68.042 Y20.175 E20.69957
G1 X68.135 Y20.748 E20.72179
G1 X68.149 Y21.329 E20.74403
G1 X68.082 Y21.907 E20.7663
G1 X67.937 Y22.469 E20.78851
G1 X67.717 Y23.007 E20.81075
G1 X67.424 Y23.509 E20.833
G1 X67.066 Y23.966 E20.85521
G1 X66.648 Y24.37 E20.87746
G1 X66.179 Y24.713 E20.8997
G1 X65.667 Y24.988 E20.92194
G1 X65.122 Y25.19 E20.94418
G1 X64.555 Y25.315 E20.9664
G1 X63.956 Y25.364 E20.9894
G1 X63.438 Y25.372 E21.00923
G1 X-36.53 Y25.372 E24.83496
G1 X-37.206 Y25.362 E24.86083
G1 X-37.785 Y25.313 E24.88307
G1 X-38.352 Y25.186 E24.9053
G1 X-38.896 Y24.981 E24.92755
G1 X-39.407 Y24.705 E24.94978
G1 X-39.875 Y24.36 E24.97203
G1 X-40.292 Y23.955 E24.99427
G1 X-40.649 Y23.497 E25.0165
G1 X-40.939 Y22.994 E25.03872
G1 X-41.158 Y22.455 E25.06098
G1 X-41.301 Y21.892 E25.08321
G1 X-41.365 Y21.315 E25.10543
G1 X-41.35 Y20.734 E25.12767
G1 X-41.255 Y20.161 E25.1499
G1 X-41.082 Y19.606 E25.17215
G1 X-40.821 Y19.055 E25.19548
G1 X-40.271 Y18.086 E25.23812
G0 F2040 X-39.97 Y18.265
G1 F1020 X10.864 Y-67.243 E29.04506
G1 X11.197 Y-67.784 E29.06937
G1 X11.522 Y-68.236 E29.09068
G1 X11.908 Y-68.636 E29.11195
G1 X12.348 Y-68.977 E29.13326
G1 X12.832 Y-69.252 E29.15456
G1 X13.35 Y-69.454 E29.17584
G1 X13.892 Y-69.58 E29.19713
G1 X14.447 Y-69.628 E29.21845
G1 X15.002 Y-69.595 E29.23973
G1 X15.547 Y-69.483 E29.26102
G1 X16.07 Y-69.294 E29.2823
G1 X16.561 Y-69.032 E29.3036
G1 X17.01 Y-68.703 E29.3249
G1 X17.406 Y-68.313 E29.34617
G1 X17.793 Y-67.791 E29.37104
G1 X18.091 Y-67.289 E29.39338
G1 X66.963 Y18.618 E33.17578
G1 X67.319 Y19.262 E33.20394
G1 X67.553 Y19.767 E33.22524
G1 X67.712 Y20.301 E33.24656
G1 X67.792 Y20.851 E33.26783
G1 X67.794 Y21.408 E33.28914
G1 X67.715 Y21.958 E33.31041
G1 X67.558 Y22.492 E33.33171
G1 X67.327 Y22.998 E33.353
G1 X67.025 Y23.466 E33.37431
G1 X66.66 Y23.885 E33.39558
G1 X66.238 Y24.248 E33.41688
G1 X65.768 Y24.547 E33.4382
G1 X65.261 Y24.775 E33.45947
G1 X64.726 Y24.929 E33.48078
G1 X64.075 Y25.009 E33.50588
G1 X63.433 Y25.022 E33.53045
G1 X-36.525 Y25.022 E37.3558
G1 X-37.201 Y25.012 E37.38167
G1 X-37.756 Y24.963 E37.40299
G1 X-38.297 Y24.836 E37.42426
G1 X-38.815 Y24.633 E37.44555
G1 X-39.299 Y24.358 E37.46685
G1 X-39.738 Y24.016 E37.48815
G1 X-40.123 Y23.615 E37.50942
G1 X-40.448 Y23.162 E37.53076
G1 X-40.704 Y22.668 E37.55205
G1 X-40.886 Y22.143 E37.57332
G1 X-40.992 Y21.596 E37.59464
G1 X-41.018 Y21.041 E37.6159
G1 X-40.964 Y20.487 E37.63721
G1 X-40.832 Y19.946 E37.65852
G1 X-40.516 Y19.228 E37.68854
G1 X-39.97 Y18.265 E37.7309
G0 F2040 X-39.707 Y18.508
G1 F1020 X11.162 Y-67.06 E41.54051
G1 X11.495 Y-67.601 E41.56482
G1 X11.806 Y-68.03 E41.5851
G1 X12.179 Y-68.409 E41.60545
G1 X12.604 Y-68.726 E41.62574
G1 X13.072 Y-68.977 E41.64606
G1 X13.572 Y-69.154 E41.66636
G1 X14.093 Y-69.255 E41.68667
G1 X14.623 Y-69.276 E41.70697
G1 X15.15 Y-69.217 E41.72726
G1 X15.663 Y-69.08 E41.74758
G1 X16.149 Y-68.867 E41.76789
G1 X16.598 Y-68.584 E41.7882
G1 X16.999 Y-68.236 E41.80852
G1 X17.343 Y-67.832 E41.82882
G1 X17.789 Y-67.112 E41.86124
G1 X66.657 Y18.788 E45.64332
G1 X67.013 Y19.432 E45.67148
G1 X67.234 Y19.914 E45.69177
G1 X67.38 Y20.424 E45.71208
G1 X67.448 Y20.95 E45.73237
G1 X67.436 Y21.481 E45.7527
G1 X67.345 Y22.004 E45.77301
G1 X67.176 Y22.507 E45.79332
G1 X66.934 Y22.979 E45.81362
G1 X66.623 Y23.409 E45.83393
G1 X66.251 Y23.788 E45.85425
G1 X65.827 Y24.107 E45.87456
G1 X65.36 Y24.358 E45.89485
G1 X64.86 Y24.537 E45.91517
G1 X64.339 Y24.638 E45.93548
G1 X63.839 Y24.667 E45.95465
G1 X63.429 Y24.672 E45.97034
G1 X-36.52 Y24.672 E49.79534
G1 X-37.196 Y24.662 E49.82121
G1 X-37.725 Y24.614 E49.84154
G1 X-38.24 Y24.487 E49.86184
G1 X-38.731 Y24.285 E49.88216
G1 X-39.185 Y24.011 E49.90245
G1 X-39.593 Y23.672 E49.92275
G1 X-39.946 Y23.276 E49.94305
G1 X-40.235 Y22.831 E49.96336
G1 X-40.455 Y22.347 E49.98371
G1 X-40.599 Y21.837 E50.00399
G1 X-40.665 Y21.31 E50.02431
G1 X-40.651 Y20.78 E50.0446
G1 X-40.557 Y20.257 E50.06494
G1 X-40.387 Y19.755 E50.08522
G1 X-40.212 Y19.4 E50.10037
G1 X-39.707 Y18.508 E50.1396
G0 F2040 X-39.368 Y18.623
G1 F1020 X11.46 Y-66.876 E53.94613
G1 X11.793 Y-67.417 E53.97044
G1 X12.09 Y-67.824 E53.98972
G1 X12.448 Y-68.178 E54.00899
G1 X12.857 Y-68.472 E54.02826
G1 X13.308 Y-68.697 E54.04755
G1 X13.788 Y-68.848 E54.06681
G1 X14.286 Y-68.921 E54.08607
G1 X14.79 Y-68.914 E54.10536
G1 X15.286 Y-68.828 E54.12463
G1 X15.762 Y-68.665 E54.14388
G1 X16.207 Y-68.428 E54.16318
G1 X16.608 Y-68.124 E54.18243
G1 X16.957 Y-67.761 E54.2017
G1 X17.266 Y-67.312 E54.22256
G1 X17.507 Y-66.902 E54.24076
G1 X66.351 Y18.957 E58.02103
G1 X66.707 Y19.601 E58.04919
G1 X66.915 Y20.06 E58.06847
G1 X67.047 Y20.545 E58.08771
G1 X67.102 Y21.046 E58.107
G1 X67.076 Y21.549 E58.12627
G1 X66.971 Y22.042 E58.14556
G1 X66.79 Y22.511 E58.1648
G1 X66.537 Y22.947 E58.18409
G1 X66.218 Y23.336 E58.20335
G1 X65.841 Y23.671 E58.22265
G1 X65.417 Y23.941 E58.24188
G1 X64.955 Y24.141 E58.26115
G1 X64.467 Y24.266 E58.28043
G1 X63.916 Y24.315 E58.3016
G1 X63.425 Y24.322 E58.32039
G1 X-36.515 Y24.322 E62.14505
G1 X-37.191 Y24.312 E62.17092
G1 X-37.692 Y24.264 E62.19018
G1 X-38.18 Y24.138 E62.20947
G1 X-38.641 Y23.937 E62.22871
G1 X-39.065 Y23.665 E62.24799
G1 X-39.441 Y23.329 E62.26729
G1 X-39.758 Y22.938 E62.28655
G1 X-40.01 Y22.502 E62.30583
G1 X-40.19 Y22.032 E62.32509
G1 X-40.293 Y21.539 E62.34436
G1 X-40.317 Y21.036 E62.36363
G1 X-40.262 Y20.536 E62.38288
G1 X-40.127 Y20.05 E62.40219
G1 X-39.907 Y19.573 E62.42229
G1 X-39.368 Y18.623 E62.46409
G1 F3600 E58.66409
;MESH:support_tri_0_027.stl
G0 F2040 X-37.212 Y19.908
G0 X-36.322 Y20.436
G0 X63.042 Y20.622
;TYPE:WALL-INNER
G1 F3600 E62.46409
G1 F1020 X-36.252 Y20.622 E66.26402
G1 X14.487 Y-64.728 E70.06391
G1 X63.042 Y20.622 E73.82178
G0 F2040 X63.6 Y20.947
;TYPE:WALL-OUTER
G1 F1020 X-36.823 Y20.947 E77.66492
G1 X14.493 Y-65.374 E81.50803
G1 X63.6 Y20.947 E85.30864
G0 F2040 X63.4 Y20.947
G0 X63.257 Y20.747
G0 X62.457 Y20.282
;TYPE:SKIN
G1 F1020 X-35.655 Y20.282 E89.06334
G1 X14.48 Y-64.052 E92.818
G1 X62.457 Y20.282 E96.53113
G0 F2040 X14.287 Y-63.423
G1 F1020 X15.143 Y-62.567 E96.57746
G1 X15.205 Y-62.505
G0 F2040 X14.103 Y-63.112
G1 F1020 X15.796 Y-61.42 E96.66906
G1 X15.858 Y-61.358
G0 F2040 X16.449 Y-60.271
G1 F1020 X13.918 Y-62.802 E96.80604
G0 F2040 X13.734 Y-62.491
G1 F1020 X17.102 Y-59.123 E96.98832
G1 X17.164 Y-59.061
G0 F2040 X17.756 Y-57.974
G1 F1020 X13.549 Y-62.181 E97.21601
G0 F2040 X13.365 Y-61.871
G1 F1020 X18.408 Y-56.827 E97.48897
G1 X18.47 Y-56.765
G0 F2040 X19.062 Y-55.679
G1 F1020 X13.18 Y-61.56 E97.80728
G0 F2040 X12.995 Y-61.25
G1 F1020 X19.715 Y-54.53 E98.17098
G1 X19.777 Y-54.468
G0 F2040 X20.368 Y-53.382
G1 F1020 X12.811 Y-60.939 E98.57997
G0 F2040 X12.626 Y-60.629
G1 F1020 X21.021 Y-52.234 E99.03432
G1 X21.083 Y-52.172
G0 F2040 X21.674 Y-51.086
G1 F1020 X12.442 Y-60.319 E99.534
G0 F2040 X12.257 Y-60.008
G1 F1020 X22.328 Y-49.938 E100.07902
G1 X22.39 Y-49.876
G0 F2040 X22.98 Y-48.79
G1 F1020 X12.073 Y-59.698 E100.66935
G0 F2040 X11.889 Y-59.387
G1 F1020 X23.634 Y-47.642 E101.30501
G1 X23.696 Y-47.58
G0 F2040 X24.287 Y-46.493
G1 F1020 X11.704 Y-59.076 E101.98601
G0 F2040 X11.52 Y-58.766
G1 F1020 X24.941 Y-45.345 E102.71238
G1 X25.003 Y-45.283
G0 F2040 X25.593 Y-44.197
G1 F1020 X11.335 Y-58.455 E103.48404
G0 F2040 X11.151 Y-58.145
G1 F1020 X26.247 Y-43.049 E104.30105
G1 X26.309 Y-42.987
G0 F2040 X26.9 Y-41.901
G1 F1020 X10.966 Y-57.834 E105.16339
G0 F2040 X10.781 Y-57.524
G1 F1020 X27.553 Y-40.752 E106.07111
G1 X27.615 Y-40.69
G0 F2040 X28.206 Y-39.605
G1 F1020 X10.597 Y-57.214 E107.02414
G0 F2040 X10.412 Y-56.903
G1 F1020 X28.859 Y-38.456 E108.02251
G1 X28.921 Y-38.394
G0 F2040 X29.513 Y-37.308
G1 F1020 X10.228 Y-56.593 E109.06624
G0 F2040 X10.043 Y-56.282
G1 F1020 X30.166 Y-36.16 E110.1553
G1 X30.228 Y-36.098
G0 F2040 X30.819 Y-35.012
G1 F1020 X9.859 Y-55.972 E111.28968
G0 F2040 X9.674 Y-55.662
G1 F1020 X31.472 Y-33.864 E112.46941
G1 X31.534 Y-33.802
G0 F2040 X32.125 Y-32.715
G1 F1020 X9.49 Y-55.351 E113.69448
G0 F2040 X9.305 Y-55.041
G1 F1020 X32.778 Y-31.568 E114.96486
G1 X32.84 Y-31.506
G0 F2040 X33.432 Y-30.419
G1 F1020 X9.12 Y-54.73 E116.28063
G0 F2040 X8.936 Y-54.42
G1 F1020 X34.085 Y-29.271 E117.64173
G1 X34.147 Y-29.209
G0 F2040 X34.738 Y-28.123
G1 F1020 X8.751 Y-54.109 E119.04815
G0 F2040 X8.567 Y-53.799
G1 F1020 X35.391 Y-26.975 E120.4999
G1 X35.453 Y-26.913
G0 F2040 X36.044 Y-25.827
G1 F1020 X8.382 Y-53.489 E121.997
G0 F2040 X8.198 Y-53.178
G1 F1020 X36.698 Y-24.678 E123.53946
G1 X36.76 Y-24.616
G0 F2040 X37.351 Y-23.53
G1 F1020 X8.013 Y-52.868 E125.12727
G0 F2040 X7.829 Y-52.557
G1 F1020 X38.004 Y-22.382 E126.76038
G1 X38.066 Y-22.32
G0 F2040 X38.657 Y-21.234
G1 F1020 X7.644 Y-52.247 E128.43884
G0 F2040 X7.459 Y-51.936
G1 F1020 X39.31 Y-20.086 E130.16263
G1 X39.372 Y-20.024
G0 F2040 X39.964 Y-18.937
G1 F1020 X7.275 Y-51.626 E131.9318
G0 F2040 X7.09 Y-51.316
G1 F1020 X40.616 Y-17.79 E133.74627
G1 X40.678 Y-17.728
G0 F2040 X41.27 Y-16.641
G1 F1020 X6.906 Y-51.005 E135.6061
G0 F2040 X6.721 Y-50.695
G1 F1020 X41.923 Y-15.493 E137.51127
G1 X41.985 Y-15.431
G0 F2040 X42.576 Y-14.345
G1 F1020 X6.537 Y-50.384 E139.46175
G0 F2040 X6.352 Y-50.074
G1 F1020 X43.229 Y-13.197 E141.45758
G1 X43.291 Y-13.135
G0 F2040 X43.883 Y-12.049
G1 F1020 X6.168 Y-49.764 E143.49876
G0 F2040 X5.983 Y-49.453
G1 F1020 X44.536 Y-10.9 E145.5853
G1 X44.598 Y-10.838
G0 F2040 X45.189 Y-9.753
G1 F1020 X5.798 Y-49.143 E147.71716
G0 F2040 X5.614 Y-48.832
G1 F1020 X45.842 Y-8.604 E149.89436
G1 X45.904 Y-8.542
G0 F2040 X46.495 Y-7.456
G1 F1020 X5.429 Y-48.522 E152.1169
G0 F2040 X5.245 Y-48.211
G1 F1020 X47.149 Y-6.308 E154.38477
G1 X47.211 Y-6.246
G0 F2040 X47.801 Y-5.16
G1 F1020 X5.06 Y-47.901 E156.69797
G0 F2040 X4.876 Y-47.591
G1 F1020 X48.455 Y-4.012 E159.05652
G1 X48.517 Y-3.95
G0 F2040 X49.108 Y-2.863
G1 F1020 X4.691 Y-47.28 E161.46042
G0 F2040 X4.507 Y-46.97
G1 F1020 X49.761 Y-1.716 E163.90963
G1 X49.823 Y-1.654
G0 F2040 X50.414 Y-.567
G1 F1020 X4.322 Y-46.659 E166.40419
G0 F2040 X4.137 Y-46.349
G1 F1020 X51.067 Y0.58 E168.94407
G1 X51.129 Y0.642
G0 F2040 X51.721 Y1.728
G1 F1020 X3.953 Y-46.039 E171.52931
G0 F2040 X3.768 Y-45.728
G1 F1020 X52.373 Y2.876 E174.15984
G1 X52.435 Y2.938
G0 F2040 X53.027 Y4.024
G1 F1020 X3.584 Y-45.418 E176.83574
G0 F2040 X3.399 Y-45.107
G1 F1020 X53.68 Y5.173 E179.55698
G1 X53.742 Y5.235
G0 F2040 X54.334 Y6.321
G1 F1020 X3.215 Y-44.797 E182.32358
G0 F2040 X3.03 Y-44.486
G1 F1020 X54.986 Y7.469 E185.13548
G1 X55.048 Y7.531
G0 F2040 X55.64 Y8.617
G1 F1020 X2.846 Y-44.176 E187.99273
G0 F2040 X2.661 Y-43.866
G1 F1020 X56.293 Y9.765 E190.89533
G1 X56.355 Y9.827
G0 F2040 X56.946 Y10.914
G1 F1020 X2.476 Y-43.555 E193.84329
G0 F2040 X2.292 Y-43.245
G1 F1020 X57.599 Y12.061 E196.83655
G1 X57.661 Y12.123
G0 F2040 X58.252 Y13.21
G1 F1020 X2.107 Y-42.934 E199.87516
G0 F2040 X1.923 Y-42.624
G1 F1020 X58.906 Y14.358 E202.95913
G1 X58.968 Y14.42
G0 F2040 X59.558 Y15.506
G1 F1020 X1.738 Y-42.313 E206.08839
G0 F2040 X1.554 Y-42.003
G1 F1020 X60.212 Y16.654 E209.26301
G1 X60.274 Y16.716
G0 F2040 X60.865 Y17.802
G1 F1020 X1.369 Y-41.693 E212.48298
G0 F2040 X1.185 Y-41.382
G1 F1020 X61.518 Y18.951 E215.74828
G1 X61.58 Y19.013
G0 F2040 X61.702 Y20.124
G1 F1020 X0.816 Y-40.761 E219.04348
G0 F2040 X0.631 Y-40.451
G1 F1020 X61.207 Y20.124 E222.32191
G0 F2040 X60.712 Y20.124
G1 F1020 X0.447 Y-40.14 E225.5835
G0 F2040 X0.263 Y-39.829
G1 F1020 X60.217 Y20.124 E228.82826
G0 F2040 X59.722 Y20.124
G1 F1020 X0.078 Y-39.519 E232.05624
G0 F2040 X-.106 Y-39.209
G1 F1020 X59.227 Y20.124 E235.26742
G0 F2040 X58.732 Y20.124
G1 F1020 X-.29 Y-38.898 E238.46176
G0 F2040 X-.475 Y-38.588
G1 F1020 X58.238 Y20.124 E241.63936
G0 F2040 X57.743 Y20.124
G1 F1020 X-.659 Y-38.277 E244.80012
G0 F2040 X-.844 Y-37.967
G1 F1020 X57.248 Y20.124 E247.94411
G0 F2040 X56.753 Y20.124
G1 F1020 X-1.028 Y-37.656 E251.07126
G0 F2040 X-1.213 Y-37.346
G1 F1020 X56.258 Y20.124 E254.18164
G0 F2040 X55.763 Y20.124
G1 F1020 X-1.397 Y-37.036 E257.27521
G0 F2040 X-1.582 Y-36.725
G1 F1020 X55.268 Y20.124 E260.35198
G0 F2040 X54.773 Y20.124
G1 F1020 X-1.767 Y-36.415 E263.41197
G0 F2040 X-1.951 Y-36.104
G1 F1020 X54.278 Y20.124 E266.45513
G0 F2040 X53.783 Y20.124
G1 F1020 X-2.136 Y-35.794 E269.48151
G0 F2040 X-2.32 Y-35.484
G1 F1020 X53.288 Y20.124 E272.49108
G0 F2040 X52.793 Y20.124
G1 F1020 X-2.505 Y-35.173 E275.48385
G0 F2040 X-2.689 Y-34.863
G1 F1020 X52.298 Y20.124 E278.45982
G0 F2040 X51.803 Y20.124
G1 F1020 X-2.874 Y-34.552 E281.41898
G0 F2040 X-3.058 Y-34.242
G1 F1020 X51.308 Y20.124 E284.36134
G0 F2040 X50.813 Y20.124
G1 F1020 X-3.243 Y-33.931 E287.28689
G0 F2040 X-3.428 Y-33.621
G1 F1020 X50.318 Y20.124 E290.19567
G0 F2040 X49.823 Y20.124
G1 F1020 X-3.612 Y-33.311 E293.08764
G0 F2040 X-3.797 Y-33
G1 F1020 X49.328 Y20.124 E295.9628
G0 F2040 X48.833 Y20.124
G1 F1020 X-3.981 Y-32.69 E298.82116
G0 F2040 X-4.166 Y-32.379
G1 F1020 X48.338 Y20.124 E301.66272
G0 F2040 X47.843 Y20.124
G1 F1020 X-4.35 Y-32.069 E304.48747
G0 F2040 X-4.535 Y-31.758
G1 F1020 X47.348 Y20.124 E307.29542
G0 F2040 X46.853 Y20.124
G1 F1020 X-4.719 Y-31.448 E310.08656
G0 F2040 X-4.904 Y-31.138
G1 F1020 X46.358 Y20.124 E312.86093
G0 F2040 X45.863 Y20.124
G1 F1020 X-5.089 Y-30.827 E315.61849
G0 F2040 X-5.273 Y-30.517
G1 F1020 X45.368 Y20.124 E318.35924
G0 F2040 X44.873 Y20.124
G1 F1020 X-5.458 Y-30.206 E321.08319
G0 F2040 X-5.642 Y-29.896
