;FLAVOR:Marlin
;TIME:7968
;Filament used: 7.38209m
;Layer height: 0.2
;MINX:-64.273
;MINY:-23.041
;MINZ:0.26
;MAXX:49.237
;MAXY:73.873
;MAXZ:22.66
;Generated with Cura_SteamEngine 4.8.0
M82 ;absolute extrusion mode
;Gcode by Cura
G90
G28
M107
M109 R100
G30
M109 S215 U-55 X55 V-85 Y-85 W0.26 Z0.26
M82
G92 E0
G1 F200 E6
G92 E0
G1 F200 E-3.5
G0 Z0.15
G0 X10
G0 Z3
G1 F6000
G92 E0
G92 E0
G1 F3600 E-3.8
;LAYER_COUNT:113
;LAYER:0
M107
G0 F2040 X44.045 Y-23.041 Z0.26
;TYPE:SKIRT
G1 F3600 E0
G1 F1020 X44.731 Y-23.031 E0.02626
G1 X45.333 Y-22.982 E0.04937
G1 X45.924 Y-22.854 E0.07251
G1 X46.493 Y-22.649 E0.09566
G1 X47.03 Y-22.371 E0.1188
G1 X47.526 Y-22.025 E0.14194
G1 X47.972 Y-21.617 E0.16508
G1 X48.36 Y-21.153 E0.18822
G1 X48.683 Y-20.642 E0.21136
G1 X48.936 Y-20.093 E0.23449
G1 X49.115 Y-19.515 E0.25765
G1 X49.216 Y-18.919 E0.28078
G1 X49.237 Y-18.315 E0.30391
G1 X49.178 Y-17.713 E0.32706
G1 X49.041 Y-17.124 E0.3502
G1 X48.717 Y-16.333 E0.38291
G1 X48.307 Y-15.553 E0.41664
G1 X1.136 Y70.914 E4.18607
G1 X0.784 Y71.54 E4.21355
G1 X0.453 Y72.047 E4.23672
G1 X0.059 Y72.505 E4.25984
G1 X-.393 Y72.907 E4.28299
G1 X-.893 Y73.246 E4.30611
G1 X-1.434 Y73.517 E4.32927
G1 X-2.006 Y73.713 E4.35241
G1 X-2.599 Y73.833 E4.37556
G1 X-3.202 Y73.873 E4.39869
G1 X-3.805 Y73.833 E4.42181
G1 X-4.398 Y73.714 E4.44496
G1 X-4.97 Y73.518 E4.4681
G1 X-5.511 Y73.249 E4.49122
G1 X-6.012 Y72.91 E4.51437
G1 X-6.464 Y72.508 E4.53752
G1 X-7.008 Y71.84 E4.57049
G1 X-7.506 Y71.093 E4.60485
G1 X-63.214 Y-15.445 E8.54349
G1 X-63.583 Y-16.037 E8.57018
G1 X-63.868 Y-16.57 E8.59331
G1 X-64.08 Y-17.136 E8.61644
G1 X-64.216 Y-17.725 E8.63958
G1 X-64.273 Y-18.327 E8.66272
G1 X-64.25 Y-18.932 E8.68589
G1 X-64.148 Y-19.527 E8.70899
G1 X-63.968 Y-20.105 E8.73216
G1 X-63.713 Y-20.653 E8.75529
G1 X-63.389 Y-21.163 E8.77841
G1 X-63 Y-21.626 E8.80156
G1 X-62.553 Y-22.034 E8.82472
G1 X-62.056 Y-22.379 E8.84787
G1 X-61.519 Y-22.655 E8.87098
G1 X-60.949 Y-22.858 E8.89413
G1 X-60.358 Y-22.984 E8.91726
G1 X-59.839 Y-23.03 E8.9372
G1 X-59.258 Y-23.041 E8.95944
G1 X44.045 Y-23.041 E12.91279
G0 F2040 X44.04 Y-22.691
G1 F1020 X44.726 Y-22.681 E12.93905
G1 X45.305 Y-22.632 E12.96128
G1 X45.871 Y-22.505 E12.98348
G1 X46.416 Y-22.301 E13.00575
G1 X46.926 Y-22.024 E13.02796
G1 X47.395 Y-21.68 E13.05022
G1 X47.811 Y-21.275 E13.07244
G1 X48.168 Y-20.816 E13.0947
G1 X48.459 Y-20.313 E13.11693
G1 X48.678 Y-19.775 E13.13916
G1 X48.821 Y-19.212 E13.16139
G1 X48.885 Y-18.635 E13.18361
G1 X48.87 Y-18.054 E13.20585
G1 X48.775 Y-17.481 E13.22808
G1 X48.602 Y-16.926 E13.25033
G1 X48.407 Y-16.495 E13.26843
G1 X48 Y-15.721 E13.3019
G1 X0.831 Y70.743 E17.07119
G1 X0.479 Y71.369 E17.09867
G1 X0.16 Y71.854 E17.12089
G1 X-.223 Y72.292 E17.14316
G1 X-.662 Y72.673 E17.1654
G1 X-1.149 Y72.989 E17.18762
G1 X-1.675 Y73.236 E17.20986
G1 X-2.229 Y73.409 E17.23207
G1 X-2.803 Y73.504 E17.25433
G1 X-3.383 Y73.519 E17.27654
G1 X-3.961 Y73.455 E17.29879
G1 X-4.524 Y73.311 E17.32103
G1 X-5.062 Y73.092 E17.34326
G1 X-5.565 Y72.802 E17.36548
G1 X-6.024 Y72.445 E17.38773
G1 X-6.429 Y72.028 E17.40998
G1 X-6.717 Y71.645 E17.42832
G1 X-7.212 Y70.904 E17.46242
G1 X-62.917 Y-15.63 E21.40087
G1 X-63.286 Y-16.222 E21.42757
G1 X-63.558 Y-16.735 E21.44979
G1 X-63.758 Y-17.281 E21.47204
G1 X-63.881 Y-17.849 E21.49428
G1 X-63.925 Y-18.428 E21.5165
G1 X-63.889 Y-19.008 E21.53874
G1 X-63.774 Y-19.577 E21.56096
G1 X-63.581 Y-20.126 E21.58323
G1 X-63.316 Y-20.642 E21.60543
G1 X-62.982 Y-21.118 E21.62768
G1 X-62.586 Y-21.543 E21.64991
G1 X-62.135 Y-21.91 E21.67216
G1 X-61.638 Y-22.211 E21.6944
G1 X-61.105 Y-22.442 E21.71663
G1 X-60.545 Y-22.597 E21.73887
G1 X-59.828 Y-22.68 E21.76649
G1 X-59.254 Y-22.691 E21.78846
G1 X44.04 Y-22.691 E25.74147
G0 F2040 X44.034 Y-22.341
G1 F1020 X44.72 Y-22.331 E25.76773
G1 X45.275 Y-22.283 E25.78905
G1 X45.817 Y-22.156 E25.81035
G1 X46.335 Y-21.952 E25.83166
G1 X46.818 Y-21.677 E25.85293
G1 X47.257 Y-21.335 E25.87422
G1 X47.643 Y-20.934 E25.89552
G1 X47.967 Y-20.482 E25.91681
G1 X48.223 Y-19.988 E25.9381
G1 X48.406 Y-19.463 E25.95938
G1 X48.512 Y-18.916 E25.9807
G1 X48.538 Y-18.361 E26.00196
G1 X48.484 Y-17.807 E26.02327
G1 X48.352 Y-17.266 E26.04458
G1 X48.097 Y-16.658 E26.06981
G1 X47.693 Y-15.888 E26.10309
G1 X0.526 Y70.571 E29.87217
G1 X0.174 Y71.197 E29.89966
G1 X-.133 Y71.661 E29.92095
G1 X-.503 Y72.077 E29.94226
G1 X-.929 Y72.435 E29.96355
G1 X-1.402 Y72.728 E29.98484
G1 X-1.912 Y72.951 E30.00615
G1 X-2.448 Y73.099 E30.02743
G1 X-3 Y73.168 E30.04871
G1 X-3.557 Y73.157 E30.07003
G1 X-4.106 Y73.067 E30.09133
G1 X-4.636 Y72.899 E30.1126
G1 X-5.137 Y72.656 E30.13391
G1 X-5.598 Y72.345 E30.15519
G1 X-6.01 Y71.971 E30.17649
G1 X-6.426 Y71.451 E30.20197
G1 X-6.917 Y70.714 E30.23586
G1 X-62.619 Y-15.815 E34.17409
G1 X-62.988 Y-16.407 E34.20079
G1 X-63.248 Y-16.899 E34.22208
G1 X-63.435 Y-17.424 E34.24341
G1 X-63.544 Y-17.969 E34.26468
G1 X-63.574 Y-18.525 E34.28599
G1 X-63.525 Y-19.079 E34.30727
G1 X-63.396 Y-19.62 E34.32856
G1 X-63.192 Y-20.138 E34.34986
G1 X-62.915 Y-20.62 E34.37114
G1 X-62.572 Y-21.059 E34.39246
G1 X-62.17 Y-21.443 E34.41373
G1 X-61.717 Y-21.766 E34.43502
G1 X-61.222 Y-22.021 E34.45633
G1 X-60.696 Y-22.202 E34.47762
G1 X-60.149 Y-22.306 E34.49893
G1 X-59.582 Y-22.337 E34.52066
G1 X-59.25 Y-22.341 E34.53337
G1 X44.034 Y-22.341 E38.486
G0 F2040 X44.029 Y-21.991
G1 F1020 X44.715 Y-21.981 E38.51225
G1 X45.244 Y-21.933 E38.53258
G1 X45.759 Y-21.807 E38.55287
G1 X46.25 Y-21.604 E38.5732
G1 X46.704 Y-21.33 E38.5935
G1 X47.113 Y-20.992 E38.6138
G1 X47.466 Y-20.595 E38.63413
G1 X47.755 Y-20.15 E38.65444
G1 X47.974 Y-19.667 E38.67473
G1 X48.119 Y-19.157 E38.69502
G1 X48.185 Y-18.63 E38.71535
G1 X48.171 Y-18.1 E38.73564
G1 X48.078 Y-17.577 E38.75597
G1 X47.907 Y-17.075 E38.77626
G1 X47.786 Y-16.82 E38.78707
G1 X47.385 Y-16.056 E38.82009
G1 X0.221 Y70.4 E42.58902
G1 X-.131 Y71.026 E42.6165
G1 X-.426 Y71.467 E42.63681
G1 X-.783 Y71.86 E42.65713
G1 X-1.195 Y72.194 E42.67742
G1 X-1.652 Y72.463 E42.69772
G1 X-2.145 Y72.66 E42.71804
G1 X-2.662 Y72.781 E42.73836
G1 X-3.191 Y72.823 E42.75866
G1 X-3.72 Y72.785 E42.77896
G1 X-4.238 Y72.668 E42.79928
G1 X-4.732 Y72.475 E42.81958
G1 X-5.191 Y72.209 E42.83988
G1 X-5.606 Y71.878 E42.8602
G1 X-5.966 Y71.488 E42.88051
G1 X-6.135 Y71.256 E42.89149
G1 X-6.623 Y70.525 E42.92513
G1 X-62.322 Y-16 E46.86316
G1 X-62.691 Y-16.592 E46.88986
G1 X-62.937 Y-17.063 E46.9102
G1 X-63.11 Y-17.564 E46.93048
G1 X-63.205 Y-18.086 E46.95078
G1 X-63.221 Y-18.617 E46.97112
G1 X-63.157 Y-19.144 E46.99143
G1 X-63.015 Y-19.655 E47.01173
G1 X-62.798 Y-20.139 E47.03203
G1 X-62.51 Y-20.585 E47.05234
G1 X-62.159 Y-20.983 E47.07265
G1 X-61.752 Y-21.323 E47.09295
G1 X-61.298 Y-21.599 E47.11328
G1 X-60.809 Y-21.803 E47.13356
G1 X-60.294 Y-21.932 E47.15388
G1 X-59.642 Y-21.985 E47.17891
G1 X-59.245 Y-21.991 E47.1941
G1 X44.029 Y-21.991 E51.14635
G0 F2040 X44.024 Y-21.641
G1 F1020 X44.71 Y-21.631 E51.17261
G1 X45.212 Y-21.583 E51.19191
G1 X45.699 Y-21.457 E51.21116
G1 X46.161 Y-21.256 E51.23044
G1 X46.585 Y-20.984 E51.24972
G1 X46.96 Y-20.649 E51.26896
G1 X47.278 Y-20.258 E51.28825
G1 X47.53 Y-19.822 E51.30752
G1 X47.71 Y-19.352 E51.32678
G1 X47.813 Y-18.859 E51.34605
G1 X47.837 Y-18.356 E51.36533
G1 X47.782 Y-17.855 E51.38461
G1 X47.647 Y-17.37 E51.40388
G1 X47.476 Y-16.983 E51.42007
G1 X47.078 Y-16.223 E51.4529
G1 X-0.085 Y70.228 E55.22165
G1 X-.437 Y70.854 E55.24913
G1 X-.717 Y71.272 E55.26839
G1 X-1.061 Y71.64 E55.28767
G1 X-1.458 Y71.95 E55.30694
G1 X-1.899 Y72.193 E55.32621
G1 X-2.373 Y72.362 E55.34547
G1 X-2.868 Y72.455 E55.36474
G1 X-3.372 Y72.469 E55.38404
G1 X-3.871 Y72.402 E55.40331
G1 X-4.353 Y72.258 E55.42256
G1 X-4.807 Y72.039 E55.44185
G1 X-5.22 Y71.751 E55.46112
G1 X-5.583 Y71.401 E55.48042
G1 X-5.844 Y71.062 E55.49679
G1 X-6.329 Y70.336 E55.5302
G1 X-62.001 Y-16.146 E59.46629
G1 X-62.394 Y-16.778 E59.49477
G1 X-62.626 Y-17.225 E59.51405
G1 X-62.784 Y-17.703 E59.53331
G1 X-62.865 Y-18.2 E59.55259
G1 X-62.865 Y-18.704 E59.57187
G1 X-62.787 Y-19.201 E59.59113
G1 X-62.63 Y-19.68 E59.61042
G1 X-62.4 Y-20.127 E59.62965
G1 X-62.102 Y-20.533 E59.64893
G1 X-61.743 Y-20.887 E59.66822
G1 X-61.334 Y-21.18 E59.68748
G1 X-60.882 Y-21.404 E59.70678
G1 X-60.402 Y-21.553 E59.72602
G1 X-59.796 Y-21.631 E59.7494
G1 X-59.241 Y-21.641 E59.77064
G1 X44.024 Y-21.641 E63.72254
G1 F3600 E59.92254
;MESH:support_tri_0_039.stl
G0 F2040 X44.024 Y-19.131
G0 X44.024 Y-18.096
G0 X-3.244 Y68.293
;TYPE:WALL-INNER
G1 F3600 E63.72254
G1 F1020 X-58.756 Y-17.941 E67.64734
G1 X43.801 Y-17.941 E71.57215
G1 X-3.244 Y68.293 E75.33144
G0 F2040 X-3.221 Y68.929
;TYPE:WALL-OUTER
G1 F1020 X-59.352 Y-18.266 E79.29998
G1 X44.348 Y-18.266 E83.26853
G1 X-3.221 Y68.929 E87.06972
G0 F2040 X-3.329 Y68.761
G0 X-3.235 Y68.536
G0 X-3.269 Y67.627
;TYPE:SKIN
G1 F1020 X-58.132 Y-17.601 E90.9487
G1 X43.228 Y-17.601 E94.8277
G1 X-3.269 Y67.627 E98.54315
G0 F2040 X-3.169 Y67.116
G1 F1020 X-3.845 Y66.44 E98.57974
G1 X-3.907 Y66.378
G0 F2040 X-2.995 Y66.796
G1 F1020 X-4.74 Y65.05 E98.6742
G1 X-4.802 Y64.988
G0 F2040 X-5.634 Y63.661
G1 F1020 X-2.82 Y66.475 E98.8265
G0 F2040 X-2.645 Y66.155
G1 F1020 X-6.528 Y62.272 E99.03665
G1 X-6.59 Y62.21
G0 F2040 X-7.423 Y60.883
G1 F1020 X-2.471 Y65.835 E99.30466
G0 F2040 X-2.296 Y65.514
G1 F1020 X-8.317 Y59.493 E99.63053
G1 X-8.379 Y59.431
G0 F2040 X-9.212 Y58.104
G1 F1020 X-2.122 Y65.194 E100.01425
G0 F2040 X-1.947 Y64.874
G1 F1020 X-10.105 Y56.715 E100.45579
G1 X-10.167 Y56.653
G0 F2040 X-11 Y55.326
G1 F1020 X-1.772 Y64.553 E100.9552
G0 F2040 X-1.598 Y64.233
G1 F1020 X-11.894 Y53.936 E101.51246
G1 X-11.956 Y53.874
G0 F2040 X-12.789 Y52.547
G1 F1020 X-1.423 Y63.913 E102.1276
G0 F2040 X-1.248 Y63.593
G1 F1020 X-13.683 Y51.158 E102.8006
G1 X-13.745 Y51.096
G0 F2040 X-14.577 Y49.769
G1 F1020 X-1.073 Y63.273 E103.53145
G0 F2040 X-.898 Y62.953
G1 F1020 X-15.472 Y48.379 E104.32022
G1 X-15.534 Y48.317
G0 F2040 X-16.366 Y46.99
G1 F1020 X-.724 Y62.632 E105.16678
G0 F2040 X-.549 Y62.312
G1 F1020 X-17.26 Y45.601 E106.0712
G1 X-17.322 Y45.539
G0 F2040 X-18.154 Y44.211
G1 F1020 X-.374 Y61.992 E107.03351
G0 F2040 X-.2 Y61.671
G1 F1020 X-19.049 Y42.822 E108.05364
G1 X-19.111 Y42.76
G0 F2040 X-19.943 Y41.432
G1 F1020 X-0.025 Y61.351 E109.13165
G0 F2040 X0.149 Y61.031
G1 F1020 X-20.837 Y40.044 E110.26747
G1 X-20.899 Y39.982
G0 F2040 X-21.732 Y38.654
G1 F1020 X0.323 Y60.71 E111.46114
G0 F2040 X0.498 Y60.39
G1 F1020 X-22.626 Y37.265 E112.71267
G1 X-22.688 Y37.203
G0 F2040 X-23.521 Y35.875
G1 F1020 X0.673 Y60.07 E114.0221
G0 F2040 X0.848 Y59.75
G1 F1020 X-24.414 Y34.487 E115.38934
G1 X-24.476 Y34.425
G0 F2040 X-25.309 Y33.097
G1 F1020 X1.023 Y59.43 E116.81449
G0 F2040 X1.197 Y59.109
G1 F1020 X-26.203 Y31.708 E118.29744
G1 X-26.265 Y31.646
G0 F2040 X-27.098 Y30.318
G1 F1020 X1.372 Y58.789 E119.8383
G0 F2040 X1.547 Y58.469
G1 F1020 X-27.992 Y28.929 E121.43702
G1 X-28.054 Y28.867
G0 F2040 X-28.886 Y27.54
G1 F1020 X1.721 Y58.148 E123.09353
G0 F2040 X1.896 Y57.828
G1 F1020 X-29.781 Y26.15 E124.80796
G1 X-29.843 Y26.088
G0 F2040 X-30.675 Y24.761
G1 F1020 X2.071 Y57.508 E126.58024
G0 F2040 X2.245 Y57.187
G1 F1020 X-31.569 Y23.372 E128.41033
G1 X-31.631 Y23.31
G0 F2040 X-32.463 Y21.983
G1 F1020 X2.42 Y56.867 E130.29827
G0 F2040 X2.595 Y56.548
G1 F1020 X-33.358 Y20.593 E132.24414
G1 X-33.42 Y20.531
G0 F2040 X-34.252 Y19.204
G1 F1020 X2.77 Y56.227 E134.24785
G0 F2040 X2.945 Y55.907
G1 F1020 X-35.146 Y17.815 E136.30941
G1 X-35.208 Y17.753
G0 F2040 X-36.041 Y16.426
G1 F1020 X3.119 Y55.587 E138.42882
G0 F2040 X3.294 Y55.266
G1 F1020 X-36.935 Y15.036 E140.6061
G1 X-36.997 Y14.974
G0 F2040 X-37.83 Y13.647
G1 F1020 X3.469 Y54.946 E142.84125
G0 F2040 X3.643 Y54.626
G1 F1020 X-38.723 Y12.258 E145.13421
G1 X-38.785 Y12.196
G0 F2040 X-39.618 Y10.868
G1 F1020 X3.818 Y54.305 E147.48504
G0 F2040 X3.993 Y53.985
G1 F1020 X-40.512 Y9.479 E149.89374
G1 X-40.574 Y9.417
G0 F2040 X-41.407 Y8.09
G1 F1020 X4.167 Y53.665 E152.36029
G0 F2040 X4.342 Y53.344
G1 F1020 X-42.301 Y6.701 E154.88467
G1 X-42.363 Y6.639
G0 F2040 X-43.195 Y5.311
G1 F1020 X4.517 Y53.025 E157.46696
G0 F2040 X4.692 Y52.704
G1 F1020 X-44.09 Y3.922 E160.1071
G1 X-44.152 Y3.86
G0 F2040 X-44.984 Y2.533
G1 F1020 X4.867 Y52.384 E162.8051
G0 F2040 X5.041 Y52.064
G1 F1020 X-45.878 Y1.144 E165.56093
G1 X-45.94 Y1.082
G0 F2040 X-46.772 Y-.245
G1 F1020 X5.216 Y51.743 E168.37458
G0 F2040 X5.39 Y51.423
G1 F1020 X-47.667 Y-1.634 E171.2461
G1 X-47.729 Y-1.696
G0 F2040 X-48.561 Y-3.023
G1 F1020 X5.565 Y51.103 E174.17546
G0 F2040 X5.74 Y50.782
G1 F1020 X-49.455 Y-4.413 E177.16269
G1 X-49.517 Y-4.475
G0 F2040 X-50.35 Y-5.802
G1 F1020 X5.914 Y50.462 E180.20777
G0 F2040 X6.089 Y50.142
G1 F1020 X-51.244 Y-7.191 E183.3107
G1 X-51.306 Y-7.253
G0 F2040 X-52.138 Y-8.58
G1 F1020 X6.264 Y49.822 E186.47149
G0 F2040 X6.439 Y49.502
G1 F1020 X-53.033 Y-9.97 E189.69019
G1 X-53.095 Y-10.032
G0 F2040 X-53.927 Y-11.359
G1 F1020 X6.614 Y49.182 E192.96675
G0 F2040 X6.788 Y48.861
G1 F1020 X-54.821 Y-12.749 E196.30113
G1 X-54.883 Y-12.811
G0 F2040 X-55.715 Y-14.137
G1 F1020 X6.963 Y48.541 E199.69335
G0 F2040 X7.138 Y48.221
G1 F1020 X-56.61 Y-15.527 E203.14347
G1 X-56.672 Y-15.589
G0 F2040 X-57.504 Y-16.916
G1 F1020 X7.312 Y47.9 E206.6514
G0 F2040 X7.487 Y47.58
G1 F1020 X-57.537 Y-17.444 E210.17058
G0 F2040 X-57.042 Y-17.444
G1 F1020 X7.662 Y47.26 E213.67244
G0 F2040 X7.836 Y46.939
G1 F1020 X-56.547 Y-17.444 E217.15693
G0 F2040 X-56.052 Y-17.444
G1 F1020 X8.011 Y46.619 E220.6241
G0 F2040 X8.186 Y46.299
G1 F1020 X-55.557 Y-17.444 E224.07395
G0 F2040 X-55.062 Y-17.444
G1 F1020 X8.361 Y45.979 E227.50649
G0 F2040 X8.536 Y45.659
G1 F1020 X-54.567 Y-17.444 E230.9217
G0 F2040 X-54.072 Y-17.444
G1 F1020 X8.71 Y45.338 E234.31954
G0 F2040 X8.885 Y45.018
G1 F1020 X-53.577 Y-17.444 E237.70007
G0 F2040 X-53.082 Y-17.444
G1 F1020 X9.06 Y44.698 E241.06327
G0 F2040 X9.234 Y44.378
G1 F1020 X-52.587 Y-17.444 E244.40913
G0 F2040 X-52.092 Y-17.444
G1 F1020 X9.409 Y44.057 E247.73764
G0 F2040 X9.584 Y43.737
G1 F1020 X-51.597 Y-17.444 E251.04884
G0 F2040 X-51.102 Y-17.444
G1 F1020 X9.758 Y43.417 E254.34268
G0 F2040 X9.933 Y43.096
G1 F1020 X-50.607 Y-17.444 E257.61919
G0 F2040 X-50.112 Y-17.444
G1 F1020 X10.108 Y42.776 E260.87837
G0 F2040 X10.283 Y42.456
G1 F1020 X-49.617 Y-17.444 E264.12023
G0 F2040 X-49.122 Y-17.444
G1 F1020 X10.458 Y42.136 E267.34478
G0 F2040 X10.632 Y41.816
G1 F1020 X-48.627 Y-17.444 E270.55198
G0 F2040 X-48.132 Y-17.444
G1 F1020 X10.807 Y41.495 E273.74183
G0 F2040 X10.982 Y41.175
G1 F1020 X-47.637 Y-17.444 E276.91437
G0 F2040 X-47.142 Y-17.444
G1 F1020 X11.156 Y40.855 E280.06956
G0 F2040 X11.331 Y40.534
G1 F1020 X-46.647 Y-17.444 E283.2074
G0 F2040 X-46.152 Y-17.444
G1 F1020 X11.506 Y40.214 E286.32792
G0 F2040 X11.68 Y39.894
G1 F1020 X-45.657 Y-17.444 E289.4311
G0 F2040 X-45.162 Y-17.444
G1 F1020 X11.855 Y39.573 E292.51693
G0 F2040 X12.03 Y39.253
G1 F1020 X-44.667 Y-17.444 E295.58545
G0 F2040 X-44.172 Y-17.444
G1 F1020 X12.205 Y38.934 E298.63667
G0 F2040 X12.38 Y38.613
G1 F1020 X-43.677 Y-17.444 E301.67055
G0 F2040 X-43.183 Y-17.444
G1 F1020 X12.554 Y38.293 E304.6871
G0 F2040 X12.729 Y37.973
G1 F1020 X-42.688 Y-17.444 E307.68634
G0 F2040 X-42.193 Y-17.444
G1 F1020 X12.903 Y37.652 E310.66821
G0 F2040 X13.078 Y37.332
G1 F1020 X-41.698 Y-17.444 E313.63276
G0 F2040 X-41.203 Y-17.444
G1 F1020 X13.253 Y37.012 E316.57998
G0 F2040 X13.427 Y36.691
G1 F1020 X-40.708 Y-17.444 E319.50984
G0 F2040 X-40.213 Y-17.444
G1 F1020 X13.602 Y36.371 E322.42238
G0 F2040 X13.777 Y36.051
G1 F1020 X-39.718 Y-17.444 E325.31759
G0 F2040 X-39.223 Y-17.444
G1 F1020 X13.951 Y35.73 E328.19544
G0 F2040 X14.127 Y35.411
G1 F1020 X-38.728 Y-17.444 E331.05602
G0 F2040 X-38.233 Y-17.444
G1 F1020 X14.301 Y35.09 E333.89922
G0 F2040 X14.476 Y34.77
G1 F1020 X-37.738 Y-17.444 E336.72511
G0 F2040 X-37.243 Y-17.444
G1 F1020 X14.651 Y34.45 E339.53368
G0 F2040 X14.825 Y34.129
G1 F1020 X-36.748 Y-17.444 E342.32488
G0 F2040 X-36.253 Y-17.444
G1 F1020 X15 Y33.809 E345.09876
G0 F2040 X15.175 Y33.489
G1 F1020 X-35.758 Y-17.444 E347.85532
G0 F2040 X-35.263 Y-17.444
G1 F1020 X15.349 Y33.168 E350.5945
G0 F2040 X15.524 Y32.848
