;FLAVOR:Marlin
;TIME:7413
;Filament used: 7.0113m
;Layer height: 0.2
;MINX:-53.983
;MINY:-44.634
;MINZ:0.26
;MAXX:56.249
;MAXY:53.908
;MAXZ:13.26
;Generated with Cura_SteamEngine 4.8.0
M82 ;absolute extrusion mode
;Gcode by Cura
G90
G28
M107
M109 R100
G30
M109 S215 U-55 X55 V-85 Y-85 W0.26 Z0.26
M82
G92 E0
G1 F200 E6
G92 E0
G1 F200 E-3.5
G0 Z0.15
G0 X10
G0 Z3
G1 F6000
G92 E0
G92 E0
G1 F3600 E-3.8
;LAYER_COUNT:66
;LAYER:0
M107
G0 F2040 X0.31 Y51.315 Z0.26
;TYPE:SKIRT
G1 F3600 E0
G1 F1020 X-53.001 Y-37.128 E3.95201
G1 X-53.361 Y-37.746 E3.97938
G1 X-53.63 Y-38.288 E4.00253
G1 X-53.826 Y-38.86 E4.02567
G1 X-53.944 Y-39.453 E4.04881
G1 X-53.983 Y-40.056 E4.07194
G1 X-53.942 Y-40.659 E4.09507
G1 X-53.822 Y-41.252 E4.11822
G1 X-53.625 Y-41.824 E4.14137
G1 X-53.354 Y-42.364 E4.16449
G1 X-53.014 Y-42.864 E4.18763
G1 X-52.611 Y-43.315 E4.21078
G1 X-52.153 Y-43.709 E4.2339
G1 X-51.646 Y-44.039 E4.25705
G1 X-51.1 Y-44.3 E4.28021
G1 X-50.525 Y-44.486 E4.30334
G1 X-49.93 Y-44.594 E4.32648
G1 X-49.372 Y-44.628 E4.34788
G1 X-48.992 Y-44.634 E4.36242
G1 X51.052 Y-44.634 E8.19106
G1 X51.742 Y-44.624 E8.21746
G1 X52.345 Y-44.575 E8.24062
G1 X52.936 Y-44.447 E8.26376
G1 X53.505 Y-44.243 E8.28689
G1 X54.042 Y-43.965 E8.31003
G1 X54.538 Y-43.618 E8.3332
G1 X54.983 Y-43.21 E8.3563
G1 X55.371 Y-42.746 E8.37945
G1 X55.695 Y-42.235 E8.40261
G1 X55.948 Y-41.686 E8.42574
G1 X56.127 Y-41.108 E8.44889
G1 X56.227 Y-40.512 E8.47202
G1 X56.249 Y-39.908 E8.49515
G1 X56.19 Y-39.306 E8.5183
G1 X56.053 Y-38.717 E8.54144
G1 X55.8 Y-38.068 E8.5681
G1 X55.526 Y-37.521 E8.59151
G1 X8.823 Y50.91 E12.4187
G1 X8.488 Y51.524 E12.44547
G1 X8.164 Y52.035 E12.46862
G1 X7.776 Y52.498 E12.49174
G1 X7.329 Y52.906 E12.5149
G1 X6.833 Y53.252 E12.53804
G1 X6.296 Y53.529 E12.56117
G1 X5.727 Y53.733 E12.5843
G1 X5.135 Y53.86 E12.60747
G1 X4.533 Y53.908 E12.63058
G1 X3.929 Y53.876 E12.65373
G1 X3.335 Y53.764 E12.67686
G1 X2.76 Y53.576 E12.70001
G1 X2.216 Y53.313 E12.72314
G1 X1.71 Y52.98 E12.74632
G1 X1.254 Y52.584 E12.76943
G1 X0.693 Y51.911 E12.80296
G1 X0.31 Y51.315 E12.83007
G0 F2040 X0.608 Y51.132
G1 F1020 X-52.699 Y-37.304 E16.78177
G1 X-53.059 Y-37.922 E16.80914
G1 X-53.316 Y-38.443 E16.83137
G1 X-53.499 Y-38.995 E16.85363
G1 X-53.605 Y-39.566 E16.87586
G1 X-53.632 Y-40.146 E16.89808
G1 X-53.579 Y-40.725 E16.92033
G1 X-53.446 Y-41.291 E16.94258
G1 X-53.238 Y-41.833 E16.96479
G1 X-52.957 Y-42.342 E16.98704
G1 X-52.609 Y-42.807 E17.00927
G1 X-52.2 Y-43.22 E17.03152
G1 X-51.739 Y-43.573 E17.05374
G1 X-51.233 Y-43.859 E17.07598
G1 X-50.693 Y-44.074 E17.09822
G1 X-50.129 Y-44.212 E17.12044
G1 X-49.557 Y-44.271 E17.14245
G1 X-48.988 Y-44.284 E17.16423
G1 X51.047 Y-44.284 E20.99252
G1 X51.737 Y-44.274 E21.01893
G1 X52.316 Y-44.225 E21.04117
G1 X52.883 Y-44.098 E21.0634
G1 X53.427 Y-43.894 E21.08564
G1 X53.938 Y-43.617 E21.10788
G1 X54.406 Y-43.273 E21.13011
G1 X54.823 Y-42.868 E21.15236
G1 X55.18 Y-42.41 E21.17458
G1 X55.471 Y-41.907 E21.19682
G1 X55.69 Y-41.369 E21.21905
G1 X55.833 Y-40.805 E21.24132
G1 X55.897 Y-40.228 E21.26353
G1 X55.882 Y-39.647 E21.28577
G1 X55.787 Y-39.074 E21.308
G1 X55.614 Y-38.519 E21.33025
G1 X55.398 Y-38.04 E21.35036
G1 X55.196 Y-37.645 E21.36734
G1 X8.516 Y50.743 E25.19265
G1 X8.181 Y51.357 E25.21942
G1 X7.868 Y51.846 E25.24164
G1 X7.491 Y52.288 E25.26387
G1 X7.057 Y52.675 E25.28613
G1 X6.574 Y52.998 E25.30836
G1 X6.052 Y53.252 E25.33058
G1 X5.499 Y53.431 E25.35282
G1 X4.927 Y53.533 E25.37506
G1 X4.346 Y53.556 E25.39731
G1 X3.768 Y53.499 E25.41954
G1 X3.203 Y53.363 E25.44178
G1 X2.662 Y53.151 E25.46401
G1 X2.156 Y52.866 E25.48624
G1 X1.693 Y52.515 E25.50847
G1 X1.283 Y52.104 E25.53069
G1 X0.879 Y51.563 E25.55653
G1 X0.608 Y51.132 E25.57601
G0 F2040 X0.907 Y50.949
G1 F1020 X-52.367 Y-37.431 E29.52523
G1 X-52.756 Y-38.099 E29.55481
G1 X-53.001 Y-38.598 E29.57608
G1 X-53.172 Y-39.128 E29.59739
G1 X-53.265 Y-39.676 E29.61867
G1 X-53.279 Y-40.233 E29.63999
G1 X-53.212 Y-40.785 E29.66127
G1 X-53.068 Y-41.322 E29.68255
G1 X-52.848 Y-41.833 E29.70384
G1 X-52.557 Y-42.308 E29.72515
G1 X-52.201 Y-42.735 E29.74643
G1 X-51.787 Y-43.108 E29.76776
G1 X-51.325 Y-43.417 E29.78903
G1 X-50.823 Y-43.657 E29.81032
G1 X-50.291 Y-43.822 E29.83164
G1 X-49.545 Y-43.922 E29.86044
G1 X-48.984 Y-43.934 E29.88192
G1 X51.042 Y-43.934 E33.70986
G1 X51.732 Y-43.924 E33.73627
G1 X52.286 Y-43.876 E33.75755
G1 X52.828 Y-43.749 E33.77886
G1 X53.346 Y-43.546 E33.80015
G1 X53.83 Y-43.27 E33.82147
G1 X54.269 Y-42.929 E33.84274
G1 X54.655 Y-42.528 E33.86404
G1 X54.979 Y-42.075 E33.88536
G1 X55.235 Y-41.581 E33.90665
G1 X55.418 Y-41.056 E33.92793
G1 X55.524 Y-40.51 E33.94921
G1 X55.55 Y-39.954 E33.97051
G1 X55.496 Y-39.4 E33.99182
G1 X55.364 Y-38.86 E34.01309
G1 X55.169 Y-38.371 E34.03324
G1 X54.904 Y-37.841 E34.05591
G1 X8.209 Y50.575 E37.88245
G1 X7.874 Y51.189 E37.90921
G1 X7.573 Y51.657 E37.93051
G1 X7.208 Y52.077 E37.9518
G1 X6.787 Y52.441 E37.9731
G1 X6.318 Y52.74 E37.99439
G1 X5.811 Y52.969 E38.01568
G1 X5.276 Y53.124 E38.03699
G1 X4.725 Y53.2 E38.05828
G1 X4.169 Y53.196 E38.07956
G1 X3.618 Y53.113 E38.10088
G1 X3.086 Y52.952 E38.12215
G1 X2.582 Y52.716 E38.14345
G1 X2.117 Y52.41 E38.16475
G1 X1.7 Y52.041 E38.18606
G1 X1.271 Y51.517 E38.21198
G1 X0.907 Y50.949 E38.2378
G0 F2040 X1.189 Y50.74
G1 F1020 X-52.094 Y-37.657 E42.18774
G1 X-52.454 Y-38.275 E42.21511
G1 X-52.686 Y-38.752 E42.23541
G1 X-52.843 Y-39.259 E42.25573
G1 X-52.923 Y-39.783 E42.27601
G1 X-52.923 Y-40.314 E42.29633
G1 X-52.843 Y-40.839 E42.31666
G1 X-52.686 Y-41.345 E42.33693
G1 X-52.454 Y-41.823 E42.35726
G1 X-52.153 Y-42.26 E42.37757
G1 X-51.79 Y-42.647 E42.39788
G1 X-51.373 Y-42.975 E42.41818
G1 X-50.912 Y-43.237 E42.43847
G1 X-50.416 Y-43.427 E42.4588
G1 X-49.898 Y-43.54 E42.47909
G1 X-49.335 Y-43.579 E42.50069
G1 X-48.98 Y-43.584 E42.51427
G1 X51.037 Y-43.584 E46.34188
G1 X51.727 Y-43.574 E46.36829
G1 X52.256 Y-43.526 E46.38861
G1 X52.771 Y-43.4 E46.4089
G1 X53.262 Y-43.197 E46.42924
G1 X53.716 Y-42.924 E46.44951
G1 X54.125 Y-42.585 E46.46984
G1 X54.477 Y-42.188 E46.49014
G1 X54.767 Y-41.744 E46.51044
G1 X54.986 Y-41.26 E46.53077
G1 X55.131 Y-40.75 E46.55106
G1 X55.197 Y-40.223 E46.57139
G1 X55.183 Y-39.693 E46.59168
G1 X55.09 Y-39.17 E46.612
G1 X54.853 Y-38.522 E46.63841
G1 X54.593 Y-38.002 E46.66066
G1 X7.901 Y50.407 E50.4869
G1 X7.566 Y51.021 E50.51367
G1 X7.278 Y51.467 E50.53399
G1 X6.926 Y51.864 E50.55429
G1 X6.518 Y52.203 E50.57459
G1 X6.064 Y52.478 E50.59491
G1 X5.574 Y52.681 E50.6152
G1 X5.059 Y52.809 E50.63551
G1 X4.53 Y52.858 E50.65584
G1 X4.001 Y52.826 E50.67612
G1 X3.482 Y52.716 E50.69643
G1 X2.985 Y52.529 E50.71675
G1 X2.522 Y52.27 E50.73705
G1 X2.103 Y51.944 E50.75737
G1 X1.738 Y51.558 E50.7777
G1 X1.366 Y51.028 E50.80248
G1 X1.189 Y50.74 E50.81542
G0 F2040 X1.489 Y50.559
G1 F1020 X-51.791 Y-37.833 E54.76514
G1 X-52.151 Y-38.451 E54.79251
G1 X-52.37 Y-38.905 E54.8118
G1 X-52.513 Y-39.387 E54.83104
G1 X-52.579 Y-39.887 E54.85034
G1 X-52.565 Y-40.39 E54.8696
G1 X-52.471 Y-40.885 E54.88888
G1 X-52.3 Y-41.359 E54.90816
G1 X-52.057 Y-41.799 E54.9274
G1 X-51.747 Y-42.196 E54.94668
G1 X-51.378 Y-42.539 E54.96596
G1 X-50.959 Y-42.819 E54.98524
G1 X-50.502 Y-43.03 E55.00451
G1 X-50.017 Y-43.165 E55.02377
G1 X-49.52 Y-43.222 E55.04292
G1 X-48.976 Y-43.234 E55.06374
G1 X51.032 Y-43.234 E58.891
G1 X51.722 Y-43.224 E58.91741
G1 X52.223 Y-43.176 E58.93667
G1 X52.711 Y-43.051 E58.95595
G1 X53.173 Y-42.849 E58.97524
G1 X53.596 Y-42.577 E58.99449
G1 X53.972 Y-42.242 E59.01376
G1 X54.29 Y-41.851 E59.03305
G1 X54.542 Y-41.415 E59.05232
G1 X54.722 Y-40.945 E59.07158
G1 X54.825 Y-40.452 E59.09086
G1 X54.849 Y-39.949 E59.11013
G1 X54.794 Y-39.449 E59.12938
G1 X54.66 Y-38.963 E59.14867
G1 X54.452 Y-38.495 E59.16827
G1 X54.268 Y-38.135 E59.18374
G1 X7.594 Y50.24 E63.00851
G1 X7.259 Y50.854 E63.03528
G1 X6.984 Y51.275 E63.05452
G1 X6.645 Y51.648 E63.07381
G1 X6.252 Y51.962 E63.09306
G1 X5.814 Y52.211 E63.11234
G1 X5.342 Y52.387 E63.13162
G1 X4.848 Y52.486 E63.1509
G1 X4.345 Y52.505 E63.17017
G1 X3.845 Y52.445 E63.18944
G1 X3.36 Y52.307 E63.20874
G1 X2.904 Y52.094 E63.228
G1 X2.487 Y51.811 E63.24728
G1 X2.121 Y51.466 E63.26653
G1 X1.746 Y50.971 E63.2903
G1 X1.489 Y50.559 E63.30888
G1 F3600 E59.50888
;MESH:support_tri_0_061.stl
G0 F2040 X3.636 Y49.257
G0 X4.376 Y48.811
G0 X4.44 Y48.29
;TYPE:WALL-INNER
G1 F3600 E63.30888
G1 F1020 X-48.497 Y-39.534 E67.23321
G1 X50.822 Y-39.534 E71.0341
G1 X4.44 Y48.29 E74.83501
G0 F2040 X4.459 Y48.95
;TYPE:WALL-OUTER
G1 F1020 X-49.072 Y-39.859 E78.80336
G1 X51.361 Y-39.859 E82.64688
G1 X4.459 Y48.95 E86.49041
G0 F2040 X4.356 Y48.779
G0 X4.442 Y48.728
G0 X4.42 Y47.599
;TYPE:SKIN
G1 F1020 X-47.895 Y-39.194 E90.36866
G1 X50.257 Y-39.194 E94.12489
G1 X4.42 Y47.599 E97.88117
G0 F2040 X4.514 Y47.082
G1 F1020 X3.954 Y46.522 E97.91148
G1 X3.892 Y46.46
G0 F2040 X4.685 Y46.758
G1 F1020 X3.203 Y45.276 E97.99168
G1 X3.141 Y45.214
G0 F2040 X2.452 Y44.03
G1 F1020 X4.857 Y46.434 E98.12182
G0 F2040 X5.028 Y46.111
G1 F1020 X1.702 Y42.784 E98.30185
G1 X1.64 Y42.722
G0 F2040 X0.951 Y41.538
G1 F1020 X5.199 Y45.787 E98.53179
G0 F2040 X5.37 Y45.463
G1 F1020 X0.2 Y40.293 E98.81159
G1 X0.138 Y40.231
G0 F2040 X-.55 Y39.047
G1 F1020 X5.541 Y45.139 E99.14127
G0 F2040 X5.712 Y44.815
G1 F1020 X-1.301 Y37.801 E99.52085
G1 X-1.363 Y37.739
G0 F2040 X-2.052 Y36.555
G1 F1020 X5.883 Y44.491 E99.95033
G0 F2040 X6.054 Y44.167
G1 F1020 X-2.804 Y35.308 E100.42977
G1 X-2.866 Y35.246
G0 F2040 X-3.555 Y34.062
G1 F1020 X6.225 Y43.843 E100.9591
G0 F2040 X6.396 Y43.519
G1 F1020 X-4.306 Y32.816 E101.53833
G1 X-4.368 Y32.754
G0 F2040 X-5.057 Y31.57
G1 F1020 X6.567 Y43.195 E102.16746
G0 F2040 X6.738 Y42.871
G1 F1020 X-5.808 Y30.324 E102.8465
G1 X-5.87 Y30.262
G0 F2040 X-6.559 Y29.079
G1 F1020 X6.909 Y42.548 E103.57543
G0 F2040 X7.08 Y42.224
G1 F1020 X-7.31 Y27.833 E104.35426
G1 X-7.372 Y27.771
G0 F2040 X-8.061 Y26.587
G1 F1020 X7.252 Y41.9 E105.18302
G0 F2040 X7.423 Y41.576
G1 F1020 X-8.811 Y25.341 E106.06165
G1 X-8.873 Y25.279
G0 F2040 X-9.562 Y24.095
G1 F1020 X7.594 Y41.252 E106.99018
G0 F2040 X7.765 Y40.928
G1 F1020 X-10.314 Y22.848 E107.96867
G1 X-10.376 Y22.786
G0 F2040 X-11.065 Y21.602
G1 F1020 X7.936 Y40.604 E108.99706
G0 F2040 X8.107 Y40.281
G1 F1020 X-11.816 Y20.356 E110.07537
G1 X-11.878 Y20.294
G0 F2040 X-12.567 Y19.11
G1 F1020 X8.278 Y39.956 E111.20355
G0 F2040 X8.449 Y39.632
G1 F1020 X-13.318 Y17.865 E112.38161
G1 X-13.38 Y17.803
G0 F2040 X-14.069 Y16.619
G1 F1020 X8.62 Y39.308 E113.60957
G0 F2040 X8.791 Y38.984
G1 F1020 X-14.82 Y15.373 E114.88743
G1 X-14.882 Y15.311
G0 F2040 X-15.571 Y14.127
G1 F1020 X8.962 Y38.661 E116.21521
G0 F2040 X9.133 Y38.337
G1 F1020 X-16.322 Y12.881 E117.59289
G1 X-16.384 Y12.819
G0 F2040 X-17.073 Y11.634
G1 F1020 X9.304 Y38.013 E119.0205
G0 F2040 X9.475 Y37.689
G1 F1020 X-17.824 Y10.388 E120.49802
G1 X-17.886 Y10.326
G0 F2040 X-18.575 Y9.142
G1 F1020 X9.647 Y37.365 E122.02545
G0 F2040 X9.818 Y37.041
G1 F1020 X-19.326 Y7.896 E123.60279
G1 X-19.388 Y7.834
G0 F2040 X-20.077 Y6.651
G1 F1020 X9.989 Y36.717 E125.23
G0 F2040 X10.16 Y36.394
G1 F1020 X-20.828 Y5.405 E126.90714
G1 X-20.89 Y5.343
G0 F2040 X-21.579 Y4.159
G1 F1020 X10.33 Y36.069 E128.63412
G0 F2040 X10.501 Y35.745
G1 F1020 X-22.33 Y2.913 E130.411
G1 X-22.392 Y2.851
G0 F2040 X-23.081 Y1.667
G1 F1020 X10.673 Y35.421 E132.23781
G0 F2040 X10.844 Y35.097
G1 F1020 X-23.832 Y0.421 E134.11452
G1 X-23.894 Y0.359
G0 F2040 X-24.583 Y-.825
G1 F1020 X11.015 Y34.774 E136.04116
G0 F2040 X11.186 Y34.45
G1 F1020 X-25.334 Y-2.071 E138.01769
G1 X-25.396 Y-2.133
G0 F2040 X-26.085 Y-3.317
G1 F1020 X11.357 Y34.126 E140.04413
G0 F2040 X11.528 Y33.802
G1 F1020 X-26.836 Y-4.562 E142.12044
G1 X-26.898 Y-4.624
G0 F2040 X-27.587 Y-5.808
G1 F1020 X11.699 Y33.478 E144.24665
G0 F2040 X11.87 Y33.154
G1 F1020 X-28.338 Y-7.054 E146.42276
G1 X-28.4 Y-7.116
G0 F2040 X-29.089 Y-8.3
G1 F1020 X12.042 Y32.83 E148.64879
G0 F2040 X12.213 Y32.507
G1 F1020 X-29.84 Y-9.546 E150.92475
G1 X-29.902 Y-9.608
G0 F2040 X-30.591 Y-10.792
G1 F1020 X12.383 Y32.182 E153.25056
G0 F2040 X12.554 Y31.858
G1 F1020 X-31.342 Y-12.038 E155.62627
G1 X-31.404 Y-12.1
G0 F2040 X-32.094 Y-13.285
G1 F1020 X12.725 Y31.534 E158.05193
G0 F2040 X12.896 Y31.21
G1 F1020 X-32.845 Y-14.531 E160.52749
G1 X-32.907 Y-14.593
G0 F2040 X-33.596 Y-15.776
G1 F1020 X13.068 Y30.887 E163.05298
G0 F2040 X13.239 Y30.563
G1 F1020 X-34.347 Y-17.022 E165.62837
G1 X-34.409 Y-17.084
G0 F2040 X-35.097 Y-18.268
G1 F1020 X13.41 Y30.239 E168.25363
G0 F2040 X13.581 Y29.915
G1 F1020 X-35.848 Y-19.514 E170.92879
G1 X-35.91 Y-19.576
G0 F2040 X-36.599 Y-20.76
G1 F1020 X13.752 Y29.591 E173.65385
G0 F2040 X13.923 Y29.267
G1 F1020 X-37.35 Y-22.006 E176.42881
G1 X-37.412 Y-22.068
G0 F2040 X-38.101 Y-23.252
G1 F1020 X14.094 Y28.944 E179.25369
G0 F2040 X14.265 Y28.62
G1 F1020 X-38.852 Y-24.498 E182.12848
G1 X-38.914 Y-24.56
G0 F2040 X-39.604 Y-25.745
G1 F1020 X14.436 Y28.295 E185.0532
G0 F2040 X14.607 Y27.971
G1 F1020 X-40.355 Y-26.99 E188.02778
G1 X-40.417 Y-27.052
G0 F2040 X-41.106 Y-28.236
G1 F1020 X14.778 Y27.647 E191.05227
G0 F2040 X14.949 Y27.324
G1 F1020 X-41.857 Y-29.482 E194.12668
G1 X-41.919 Y-29.544
G0 F2040 X-42.608 Y-30.728
G1 F1020 X15.12 Y27 E197.25099
G0 F2040 X15.291 Y26.676
G1 F1020 X-43.359 Y-31.974 E200.42521
G1 X-43.421 Y-32.036
G0 F2040 X-44.11 Y-33.22
G1 F1020 X15.463 Y26.352 E203.64935
G0 F2040 X15.634 Y26.028
G1 F1020 X-44.86 Y-34.466 E206.92336
G1 X-44.922 Y-34.528
G0 F2040 X-45.611 Y-35.712
G1 F1020 X15.805 Y25.704 E210.24727
G0 F2040 X15.976 Y25.38
G1 F1020 X-46.362 Y-36.958 E213.62108
G1 X-46.424 Y-37.02
G0 F2040 X-47.114 Y-38.204
G1 F1020 X16.147 Y25.057 E217.04485
G0 F2040 X16.318 Y24.733
G1 F1020 X-47.451 Y-39.036 E220.49611
G0 F2040 X-46.956 Y-39.036
G1 F1020 X16.489 Y24.409 E223.92983
G0 F2040 X16.66 Y24.084
G1 F1020 X-46.461 Y-39.036 E227.34599
G0 F2040 X-45.966 Y-39.036
G1 F1020 X16.831 Y23.76 E230.74462
G0 F2040 X17.002 Y23.437
G1 F1020 X-45.471 Y-39.036 E234.12574
G0 F2040 X-44.976 Y-39.036
G1 F1020 X17.173 Y23.113 E237.48932
G0 F2040 X17.344 Y22.789
G1 F1020 X-44.481 Y-39.036 E240.83537
G0 F2040 X-43.986 Y-39.036
G1 F1020 X17.515 Y22.465 E244.16388
G0 F2040 X17.686 Y22.141
G1 F1020 X-43.491 Y-39.036 E247.47486
G0 F2040 X-42.996 Y-39.036
G1 F1020 X17.857 Y21.817 E250.7683
G0 F2040 X18.029 Y21.493
G1 F1020 X-42.501 Y-39.036 E254.04424
G0 F2040 X-42.006 Y-39.036
G1 F1020 X18.2 Y21.17 E257.30266
G0 F2040 X18.371 Y20.846
G1 F1020 X-41.511 Y-39.036 E260.54355
G0 F2040 X-41.016 Y-39.036
G1 F1020 X18.542 Y20.522 E263.76691
G0 F2040 X18.712 Y20.197
G1 F1020 X-40.521 Y-39.036 E266.97267
G0 F2040 X-40.026 Y-39.036
G1 F1020 X18.883 Y19.873 E270.1609
G0 F2040 X19.055 Y19.55
G1 F1020 X-39.531 Y-39.036 E273.33165
G0 F2040 X-39.036 Y-39.036
G1 F1020 X19.226 Y19.226 E276.48486
G0 F2040 X19.397 Y18.902
G1 F1020 X-38.541 Y-39.036 E279.62054
G0 F2040 X-38.046 Y-39.036
G1 F1020 X19.568 Y18.578 E282.73869
G0 F2040 X19.739 Y18.254
G1 F1020 X-37.551 Y-39.036 E285.83929
G0 F2040 X-37.056 Y-39.036
G1 F1020 X19.91 Y17.93 E288.92237
G0 F2040 X20.081 Y17.606
G1 F1020 X-36.561 Y-39.036 E291.9879
G0 F2040 X-36.066 Y-39.036
G1 F1020 X20.252 Y17.283 E295.03593
G0 F2040 X20.424 Y16.959
G1 F1020 X-35.571 Y-39.036 E298.06645
G0 F2040 X-35.076 Y-39.036
G1 F1020 X20.595 Y16.635 E301.07944
G0 F2040 X20.765 Y16.31
G1 F1020 X-34.581 Y-39.036 E304.07483
G0 F2040 X-34.086 Y-39.036
G1 F1020 X20.936 Y15.986 E307.05269
G0 F2040 X21.107 Y15.663
G1 F1020 X-33.591 Y-39.036 E310.01305
G0 F2040 X-33.096 Y-39.036
G1 F1020 X21.278 Y15.339 E312.95586
G0 F2040 X21.45 Y15.015
G1 F1020 X-32.601 Y-39.036 E315.88117
G0 F2040 X-32.106 Y-39.036
G1 F1020 X21.621 Y14.691 E318.78895
G0 F2040 X21.792 Y14.367
G1 F1020 X-31.611 Y-39.036 E321.67919
G0 F2040 X-31.116 Y-39.036
G1 F1020 X21.963 Y14.043 E324.55189
G0 F2040 X22.134 Y13.719
G1 F1020 X-30.621 Y-39.036 E327.40706
G0 F2040 X-30.126 Y-39.036
G1 F1020 X22.305 Y13.396 E330.24472
G0 F2040 X22.476 Y13.072
G1 F1020 X-29.632 Y-39.036 E333.06487
G0 F2040 X-29.137 Y-39.036
G1 F1020 X22.647 Y12.748 E335.86748
G0 F2040 X22.819 Y12.424
G1 F1020 X-28.642 Y-39.036 E338.65259
G0 F2040 X-28.147 Y-39.036
