;FLAVOR:Marlin
;TIME:7414
;Filament used: 7.01136m
;Layer height: 0.2
;MINX:-66.345
;MINY:-23.203
;MINZ:0.26
;MAXX:43.887
;MAXY:75.339
;MAXZ:13.26
;Generated with Cura_SteamEngine 4.8.0
M82 ;absolute extrusion mode
;Gcode by Cura
G90
G28
M107
M109 R100
G30
M109 S215 U-55 X55 V-85 Y-85 W0.26 Z0.26
M82
G92 E0
G1 F200 E6
G92 E0
G1 F200 E-3.5
G0 Z0.15
G0 X10
G0 Z3
G1 F6000
G92 E0
G92 E0
G1 F3600 E-3.8
;LAYER_COUNT:66
;LAYER:0
M107
G0 F2040 X38.69 Y-23.203 Z0.26
;TYPE:SKIRT
G1 F3600 E0
G1 F1020 X39.38 Y-23.193 E0.02641
G1 X39.983 Y-23.144 E0.04956
G1 X40.574 Y-23.016 E0.0727
G1 X41.143 Y-22.812 E0.09584
G1 X41.68 Y-22.534 E0.11898
G1 X42.176 Y-22.187 E0.14214
G1 X42.621 Y-21.779 E0.16525
G1 X43.009 Y-21.315 E0.18839
G1 X43.333 Y-20.804 E0.21155
G1 X43.586 Y-20.255 E0.23468
G1 X43.765 Y-19.677 E0.25784
G1 X43.865 Y-19.081 E0.28097
G1 X43.887 Y-18.477 E0.3041
G1 X43.828 Y-17.875 E0.32725
G1 X43.691 Y-17.286 E0.35039
G1 X43.438 Y-16.637 E0.37705
G1 X43.164 Y-16.09 E0.40046
G1 X-3.539 Y72.341 E4.22764
G1 X-3.874 Y72.955 E4.25441
G1 X-4.198 Y73.466 E4.27756
G1 X-4.586 Y73.929 E4.30068
G1 X-5.033 Y74.337 E4.32384
G1 X-5.529 Y74.683 E4.34699
G1 X-6.066 Y74.96 E4.37011
G1 X-6.635 Y75.164 E4.39324
G1 X-7.227 Y75.291 E4.41641
G1 X-7.829 Y75.339 E4.43953
G1 X-8.433 Y75.307 E4.46267
G1 X-9.027 Y75.195 E4.48581
G1 X-9.602 Y75.007 E4.50896
G1 X-10.146 Y74.744 E4.53208
G1 X-10.652 Y74.411 E4.55526
G1 X-11.108 Y74.015 E4.57838
G1 X-11.669 Y73.342 E4.61191
G1 X-12.052 Y72.746 E4.63902
G1 X-65.363 Y-15.697 E8.59102
G1 X-65.723 Y-16.315 E8.6184
G1 X-65.992 Y-16.857 E8.64155
G1 X-66.188 Y-17.429 E8.66469
G1 X-66.306 Y-18.022 E8.68783
G1 X-66.345 Y-18.625 E8.71095
G1 X-66.304 Y-19.228 E8.73408
G1 X-66.184 Y-19.821 E8.75724
G1 X-65.987 Y-20.393 E8.78039
G1 X-65.716 Y-20.933 E8.80351
G1 X-65.376 Y-21.433 E8.82665
G1 X-64.973 Y-21.884 E8.8498
G1 X-64.515 Y-22.278 E8.87292
G1 X-64.008 Y-22.608 E8.89607
G1 X-63.462 Y-22.869 E8.91923
G1 X-62.887 Y-23.055 E8.94236
G1 X-62.292 Y-23.163 E8.9655
G1 X-61.734 Y-23.197 E8.98689
G1 X-61.354 Y-23.203 E9.00144
G1 X38.69 Y-23.203 E12.83007
G0 F2040 X38.685 Y-22.853
G1 F1020 X39.375 Y-22.843 E12.85648
G1 X39.954 Y-22.794 E12.87872
G1 X40.521 Y-22.667 E12.90096
G1 X41.065 Y-22.463 E12.92319
G1 X41.576 Y-22.186 E12.94543
G1 X42.044 Y-21.842 E12.96766
G1 X42.461 Y-21.437 E12.98991
G1 X42.818 Y-20.979 E13.01213
G1 X43.109 Y-20.476 E13.03437
G1 X43.328 Y-19.938 E13.0566
G1 X43.471 Y-19.374 E13.07887
G1 X43.535 Y-18.797 E13.10108
G1 X43.52 Y-18.216 E13.12333
G1 X43.425 Y-17.643 E13.14555
G1 X43.252 Y-17.088 E13.1678
G1 X43.036 Y-16.609 E13.18791
G1 X42.834 Y-16.214 E13.20489
G1 X-3.846 Y72.174 E17.03021
G1 X-4.181 Y72.788 E17.05697
G1 X-4.494 Y73.277 E17.07919
G1 X-4.871 Y73.719 E17.10142
G1 X-5.305 Y74.106 E17.12368
G1 X-5.788 Y74.429 E17.14591
G1 X-6.31 Y74.683 E17.16813
G1 X-6.863 Y74.862 E17.19037
G1 X-7.435 Y74.964 E17.21261
G1 X-8.016 Y74.987 E17.23486
G1 X-8.594 Y74.93 E17.25709
G1 X-9.159 Y74.794 E17.27933
G1 X-9.7 Y74.582 E17.30157
G1 X-10.206 Y74.297 E17.32379
G1 X-10.669 Y73.946 E17.34603
G1 X-11.079 Y73.535 E17.36824
G1 X-11.483 Y72.994 E17.39408
G1 X-11.754 Y72.563 E17.41357
G1 X-65.061 Y-15.873 E21.36526
G1 X-65.421 Y-16.491 E21.39263
G1 X-65.678 Y-17.012 E21.41487
G1 X-65.861 Y-17.564 E21.43712
G1 X-65.967 Y-18.135 E21.45935
G1 X-65.994 Y-18.715 E21.48157
G1 X-65.941 Y-19.294 E21.50382
G1 X-65.808 Y-19.86 E21.52607
G1 X-65.6 Y-20.402 E21.54829
G1 X-65.319 Y-20.911 E21.57054
G1 X-64.971 Y-21.376 E21.59276
G1 X-64.562 Y-21.789 E21.61501
G1 X-64.101 Y-22.142 E21.63723
G1 X-63.595 Y-22.428 E21.65947
G1 X-63.055 Y-22.643 E21.68171
G1 X-62.491 Y-22.781 E21.70394
G1 X-61.919 Y-22.84 E21.72594
G1 X-61.35 Y-22.853 E21.74772
G1 X38.685 Y-22.853 E25.57601
G0 F2040 X38.68 Y-22.503
G1 F1020 X39.37 Y-22.493 E25.60242
G1 X39.924 Y-22.445 E25.6237
G1 X40.466 Y-22.318 E25.64501
G1 X40.984 Y-22.115 E25.6663
G1 X41.468 Y-21.839 E25.68762
G1 X41.907 Y-21.498 E25.70889
G1 X42.293 Y-21.097 E25.7302
G1 X42.617 Y-20.644 E25.75151
G1 X42.873 Y-20.15 E25.7728
G1 X43.056 Y-19.625 E25.79408
G1 X43.162 Y-19.079 E25.81536
G1 X43.188 Y-18.523 E25.83667
G1 X43.134 Y-17.969 E25.85797
G1 X43.002 Y-17.429 E25.87924
G1 X42.807 Y-16.94 E25.89939
G1 X42.542 Y-16.41 E25.92207
G1 X-4.153 Y72.006 E29.7486
G1 X-4.488 Y72.62 E29.77537
G1 X-4.789 Y73.088 E29.79666
G1 X-5.154 Y73.508 E29.81796
G1 X-5.575 Y73.872 E29.83925
G1 X-6.044 Y74.171 E29.86054
G1 X-6.551 Y74.4 E29.88183
G1 X-7.086 Y74.555 E29.90315
G1 X-7.637 Y74.631 E29.92443
G1 X-8.193 Y74.627 E29.94571
G1 X-8.744 Y74.544 E29.96703
G1 X-9.276 Y74.383 E29.98831
G1 X-9.78 Y74.147 E30.0096
G1 X-10.245 Y73.841 E30.03091
G1 X-10.662 Y73.472 E30.05222
G1 X-11.091 Y72.948 E30.07813
G1 X-11.455 Y72.38 E30.10395
G1 X-64.729 Y-16 E34.05316
G1 X-65.118 Y-16.668 E34.08274
G1 X-65.363 Y-17.167 E34.10402
G1 X-65.534 Y-17.697 E34.12533
G1 X-65.627 Y-18.245 E34.1466
G1 X-65.641 Y-18.802 E34.16792
G1 X-65.574 Y-19.354 E34.1892
G1 X-65.43 Y-19.891 E34.21048
G1 X-65.21 Y-20.402 E34.23177
G1 X-64.919 Y-20.877 E34.25309
G1 X-64.563 Y-21.304 E34.27437
G1 X-64.149 Y-21.677 E34.29569
G1 X-63.687 Y-21.986 E34.31696
G1 X-63.185 Y-22.226 E34.33826
G1 X-62.653 Y-22.391 E34.35957
G1 X-61.907 Y-22.491 E34.38838
G1 X-61.346 Y-22.503 E34.40985
G1 X38.68 Y-22.503 E38.2378
G0 F2040 X38.675 Y-22.153
G1 F1020 X39.365 Y-22.143 E38.26421
G1 X39.894 Y-22.095 E38.28453
G1 X40.409 Y-21.969 E38.30482
G1 X40.9 Y-21.766 E38.32516
G1 X41.354 Y-21.493 E38.34543
G1 X41.763 Y-21.154 E38.36576
G1 X42.115 Y-20.757 E38.38607
G1 X42.405 Y-20.313 E38.40636
G1 X42.624 Y-19.829 E38.42669
G1 X42.769 Y-19.319 E38.44698
G1 X42.835 Y-18.792 E38.46731
G1 X42.821 Y-18.262 E38.4876
G1 X42.728 Y-17.739 E38.50793
G1 X42.491 Y-17.091 E38.53433
G1 X42.231 Y-16.571 E38.55658
G1 X-4.461 Y71.838 E42.38282
G1 X-4.796 Y72.452 E42.40959
G1 X-5.084 Y72.898 E42.42991
G1 X-5.436 Y73.295 E42.45021
G1 X-5.844 Y73.634 E42.47051
G1 X-6.298 Y73.909 E42.49083
G1 X-6.788 Y74.112 E42.51112
G1 X-7.303 Y74.24 E42.53143
G1 X-7.832 Y74.289 E42.55176
G1 X-8.361 Y74.257 E42.57205
G1 X-8.88 Y74.147 E42.59235
G1 X-9.377 Y73.96 E42.61267
G1 X-9.84 Y73.701 E42.63297
G1 X-10.259 Y73.375 E42.65329
G1 X-10.624 Y72.989 E42.67362
G1 X-10.996 Y72.459 E42.6984
G1 X-11.173 Y72.171 E42.71134
G1 X-64.456 Y-16.226 E46.66128
G1 X-64.816 Y-16.844 E46.68865
G1 X-65.048 Y-17.321 E46.70895
G1 X-65.205 Y-17.828 E46.72926
G1 X-65.285 Y-18.352 E46.74955
G1 X-65.285 Y-18.883 E46.76987
G1 X-65.205 Y-19.408 E46.79019
G1 X-65.048 Y-19.914 E46.81047
G1 X-64.816 Y-20.392 E46.8308
G1 X-64.515 Y-20.829 E46.85111
G1 X-64.152 Y-21.216 E46.87142
G1 X-63.735 Y-21.544 E46.89172
G1 X-63.274 Y-21.806 E46.91201
G1 X-62.778 Y-21.996 E46.93234
G1 X-62.26 Y-22.109 E46.95263
G1 X-61.697 Y-22.148 E46.97423
G1 X-61.342 Y-22.153 E46.98781
G1 X38.675 Y-22.153 E50.81542
G0 F2040 X38.67 Y-21.803
G1 F1020 X39.36 Y-21.793 E50.84182
G1 X39.861 Y-21.745 E50.86109
G1 X40.349 Y-21.62 E50.88036
G1 X40.811 Y-21.418 E50.89966
G1 X41.234 Y-21.146 E50.91891
G1 X41.61 Y-20.811 E50.93818
G1 X41.928 Y-20.42 E50.95747
G1 X42.18 Y-19.984 E50.97674
G1 X42.36 Y-19.514 E50.996
G1 X42.463 Y-19.021 E51.01527
G1 X42.487 Y-18.518 E51.03454
G1 X42.432 Y-18.018 E51.05379
G1 X42.298 Y-17.532 E51.07309
G1 X42.09 Y-17.064 E51.09269
G1 X41.906 Y-16.704 E51.10816
G1 X-4.768 Y71.671 E54.93293
G1 X-5.103 Y72.285 E54.9597
G1 X-5.378 Y72.706 E54.97894
G1 X-5.717 Y73.079 E54.99823
G1 X-6.11 Y73.393 E55.01748
G1 X-6.548 Y73.642 E55.03676
G1 X-7.02 Y73.818 E55.05604
G1 X-7.514 Y73.917 E55.07532
G1 X-8.017 Y73.936 E55.09459
G1 X-8.517 Y73.876 E55.11386
G1 X-9.002 Y73.738 E55.13315
G1 X-9.458 Y73.525 E55.15242
G1 X-9.875 Y73.242 E55.1717
G1 X-10.241 Y72.897 E55.19095
G1 X-10.616 Y72.402 E55.21472
G1 X-10.873 Y71.99 E55.2333
G1 X-64.153 Y-16.402 E59.18302
G1 X-64.513 Y-17.02 E59.21039
G1 X-64.732 Y-17.474 E59.22968
G1 X-64.875 Y-17.956 E59.24892
G1 X-64.941 Y-18.456 E59.26822
G1 X-64.927 Y-18.959 E59.28748
G1 X-64.833 Y-19.454 E59.30676
G1 X-64.662 Y-19.928 E59.32605
G1 X-64.419 Y-20.368 E59.34528
G1 X-64.109 Y-20.765 E59.36456
G1 X-63.74 Y-21.108 E59.38384
G1 X-63.321 Y-21.388 E59.40313
G1 X-62.864 Y-21.599 E59.42239
G1 X-62.379 Y-21.734 E59.44165
G1 X-61.882 Y-21.791 E59.4608
G1 X-61.338 Y-21.803 E59.48162
G1 X38.67 Y-21.803 E63.30888
G1 F3600 E59.50888
;MESH:support_tri_0_076.stl
G0 F2040 X38.67 Y-19.293
G0 X38.67 Y-18.258
G0 X-7.922 Y69.721
;TYPE:WALL-INNER
G1 F3600 E63.30888
G1 F1020 X-60.859 Y-18.103 E67.23321
G1 X38.46 Y-18.103 E71.0341
G1 X-7.922 Y69.721 E74.83501
G0 F2040 X-7.903 Y70.381
;TYPE:WALL-OUTER
G1 F1020 X-61.434 Y-18.428 E78.80336
G1 X38.999 Y-18.428 E82.64688
G1 X-7.903 Y70.381 E86.49041
G0 F2040 X-8.006 Y70.21
G0 X-7.92 Y70.159
G0 X-7.942 Y69.03
;TYPE:SKIN
G1 F1020 X-60.257 Y-17.763 E90.36866
G1 X37.895 Y-17.763 E94.12489
G1 X-7.942 Y69.03 E97.88117
G0 F2040 X-7.8 Y68.426
G1 F1020 X-8.61 Y67.615 E97.92503
G1 X-8.672 Y67.553
G0 F2040 X-7.628 Y68.102
G1 F1020 X-9.361 Y66.369 E98.01883
G1 X-9.423 Y66.307
G0 F2040 X-10.112 Y65.123
G1 F1020 X-7.457 Y67.778 E98.16252
G0 F2040 X-7.286 Y67.454
G1 F1020 X-10.863 Y63.877 E98.35611
G1 X-10.925 Y63.815
G0 F2040 X-11.614 Y62.631
G1 F1020 X-7.115 Y67.13 E98.5996
G0 F2040 X-6.945 Y66.806
G1 F1020 X-12.365 Y61.385 E98.89297
G1 X-12.427 Y61.323
G0 F2040 X-13.116 Y60.139
G1 F1020 X-6.774 Y66.482 E99.23623
G0 F2040 X-6.602 Y66.158
G1 F1020 X-13.867 Y58.893 E99.62942
G1 X-13.929 Y58.831
G0 F2040 X-14.618 Y57.647
G1 F1020 X-6.431 Y65.834 E100.07251
G0 F2040 X-6.26 Y65.51
G1 F1020 X-15.369 Y56.401 E100.5655
G1 X-15.431 Y56.339
G0 F2040 X-16.121 Y55.155
G1 F1020 X-6.089 Y65.186 E101.10842
G0 F2040 X-5.918 Y64.862
G1 F1020 X-16.872 Y53.909 E101.70124
G1 X-16.934 Y53.847
G0 F2040 X-17.623 Y52.663
G1 F1020 X-5.747 Y64.539 E102.34398
G0 F2040 X-5.576 Y64.215
G1 F1020 X-18.374 Y51.417 E103.03663
G1 X-18.436 Y51.355
G0 F2040 X-19.125 Y50.171
G1 F1020 X-5.405 Y63.891 E103.77917
G0 F2040 X-5.234 Y63.567
G1 F1020 X-19.876 Y48.925 E104.57161
G1 X-19.938 Y48.863
G0 F2040 X-20.627 Y47.678
G1 F1020 X-5.062 Y63.243 E105.41401
G0 F2040 X-4.892 Y62.919
G1 F1020 X-21.378 Y46.432 E106.30628
G1 X-21.44 Y46.37
G0 F2040 X-22.129 Y45.186
G1 F1020 X-4.721 Y62.595 E107.24845
G0 F2040 X-4.55 Y62.271
G1 F1020 X-22.88 Y43.941 E108.24049
G1 X-22.942 Y43.879
G0 F2040 X-23.631 Y42.695
G1 F1020 X-4.379 Y61.947 E109.28244
G0 F2040 X-4.207 Y61.623
G1 F1020 X-24.382 Y41.449 E110.37431
G1 X-24.444 Y41.387
G0 F2040 X-25.134 Y40.202
G1 F1020 X-4.036 Y61.299 E111.51613
G0 F2040 X-3.865 Y60.975
G1 F1020 X-25.885 Y38.956 E112.70785
G1 X-25.947 Y38.894
G0 F2040 X-26.636 Y37.71
G1 F1020 X-3.694 Y60.652 E113.9495
G0 F2040 X-3.523 Y60.328
G1 F1020 X-27.386 Y36.464 E115.24103
G1 X-27.448 Y36.402
G0 F2040 X-28.137 Y35.218
G1 F1020 X-3.352 Y60.004 E116.58245
G0 F2040 X-3.181 Y59.68
G1 F1020 X-28.888 Y33.972 E117.97377
G1 X-28.95 Y33.91
G0 F2040 X-29.639 Y32.727
G1 F1020 X-3.01 Y59.355 E119.41494
G0 F2040 X-2.839 Y59.032
G1 F1020 X-30.391 Y31.48 E120.90609
G1 X-30.453 Y31.418
G0 F2040 X-31.142 Y30.234
G1 F1020 X-2.668 Y58.708 E122.44714
G0 F2040 X-2.497 Y58.384
G1 F1020 X-31.893 Y28.988 E124.03809
G1 X-31.955 Y28.926
G0 F2040 X-32.644 Y27.742
G1 F1020 X-2.326 Y58.06 E125.67894
G0 F2040 X-2.155 Y57.736
G1 F1020 X-33.395 Y26.496 E127.36969
G1 X-33.457 Y26.434
G0 F2040 X-34.146 Y25.25
G1 F1020 X-1.984 Y57.412 E129.11033
G0 F2040 X-1.813 Y57.088
G1 F1020 X-34.897 Y24.004 E130.90088
G1 X-34.959 Y23.942
G0 F2040 X-35.648 Y22.758
G1 F1020 X-1.641 Y56.765 E132.74138
G0 F2040 X-1.47 Y56.441
G1 F1020 X-36.399 Y21.512 E134.63179
G1 X-36.461 Y21.45
G0 F2040 X-37.15 Y20.266
G1 F1020 X-1.299 Y56.117 E136.57209
G0 F2040 X-1.128 Y55.793
G1 F1020 X-37.901 Y19.02 E138.56229
G1 X-37.963 Y18.958
G0 F2040 X-38.652 Y17.774
G1 F1020 X-.958 Y55.468 E140.60234
G0 F2040 X-.787 Y55.145
G1 F1020 X-39.404 Y16.527 E142.69237
G1 X-39.466 Y16.465
G0 F2040 X-40.155 Y15.281
G1 F1020 X-.615 Y54.821 E144.83232
G0 F2040 X-.444 Y54.497
G1 F1020 X-40.906 Y14.036 E147.02215
G1 X-40.968 Y13.974
G0 F2040 X-41.657 Y12.79
G1 F1020 X-.273 Y54.173 E149.26188
G0 F2040 X-.102 Y53.849
G1 F1020 X-42.408 Y11.544 E151.5515
G1 X-42.47 Y11.482
G0 F2040 X-43.158 Y10.298
G1 F1020 X0.068 Y53.525 E153.89098
G0 F2040 X0.239 Y53.202
G1 F1020 X-43.91 Y9.051 E156.28043
G1 X-43.972 Y8.989
G0 F2040 X-44.661 Y7.805
G1 F1020 X0.41 Y52.878 E158.71979
G0 F2040 X0.581 Y52.554
G1 F1020 X-45.412 Y6.559 E161.20904
G1 X-45.474 Y6.497
G0 F2040 X-46.163 Y5.313
G1 F1020 X0.753 Y52.23 E163.74822
G0 F2040 X0.924 Y51.906
G1 F1020 X-46.914 Y4.067 E166.3373
G1 X-46.976 Y4.005
G0 F2040 X-47.665 Y2.822
G1 F1020 X1.094 Y51.582 E168.97623
G0 F2040 X1.265 Y51.258
G1 F1020 X-48.416 Y1.576 E171.66505
G1 X-48.478 Y1.514
G0 F2040 X-49.167 Y0.329
G1 F1020 X1.436 Y50.934 E174.40381
G0 F2040 X1.607 Y50.61
G1 F1020 X-49.918 Y-.916 E177.19243
G1 X-49.98 Y-.978
G0 F2040 X-50.669 Y-2.162
G1 F1020 X1.779 Y50.286 E180.03098
G0 F2040 X1.95 Y49.962
G1 F1020 X-51.42 Y-3.408 E182.91944
G1 X-51.482 Y-3.47
G0 F2040 X-52.171 Y-4.654
G1 F1020 X2.121 Y49.638 E185.85779
G0 F2040 X2.292 Y49.315
G1 F1020 X-52.922 Y-5.9 E188.84607
G1 X-52.984 Y-5.962
G0 F2040 X-53.674 Y-7.146
G1 F1020 X2.463 Y48.991 E191.88427
G0 F2040 X2.634 Y48.667
G1 F1020 X-54.425 Y-8.392 E194.97238
G1 X-54.487 Y-8.454
G0 F2040 X-55.176 Y-9.638
G1 F1020 X2.805 Y48.343 E198.11039
G0 F2040 X2.976 Y48.019
G1 F1020 X-55.927 Y-10.884 E201.29829
G1 X-55.989 Y-10.946
G0 F2040 X-56.678 Y-12.13
G1 F1020 X3.147 Y47.695 E204.5361
G0 F2040 X3.318 Y47.371
G1 F1020 X-57.429 Y-13.376 E207.8238
G1 X-57.491 Y-13.438
G0 F2040 X-58.18 Y-14.622
G1 F1020 X3.489 Y47.047 E211.16141
G0 F2040 X3.66 Y46.723
G1 F1020 X-58.931 Y-15.868 E214.54891
G1 X-58.993 Y-15.93
G0 F2040 X-59.682 Y-17.114
G1 F1020 X3.831 Y46.399 E217.98632
G0 F2040 X4.002 Y46.075
G1 F1020 X-59.679 Y-17.606 E221.43281
G0 F2040 X-59.184 Y-17.606
G1 F1020 X4.174 Y45.751 E224.8618
G0 F2040 X4.345 Y45.428
G1 F1020 X-58.689 Y-17.606 E228.27328
G0 F2040 X-58.194 Y-17.606
G1 F1020 X4.516 Y45.104 E231.66723
G0 F2040 X4.687 Y44.78
G1 F1020 X-57.699 Y-17.606 E235.04364
G0 F2040 X-57.204 Y-17.606
G1 F1020 X4.858 Y44.456 E238.40251
G0 F2040 X5.028 Y44.131
G1 F1020 X-56.709 Y-17.606 E241.7438
G0 F2040 X-56.214 Y-17.606
G1 F1020 X5.2 Y43.808 E245.0676
G0 F2040 X5.371 Y43.484
G1 F1020 X-55.719 Y-17.606 E248.37387
G0 F2040 X-55.224 Y-17.606
G1 F1020 X5.542 Y43.16 E251.6626
G0 F2040 X5.713 Y42.836
G1 F1020 X-54.729 Y-17.606 E254.9338
G0 F2040 X-54.234 Y-17.606
G1 F1020 X5.884 Y42.512 E258.18746
G0 F2040 X6.055 Y42.188
G1 F1020 X-53.739 Y-17.606 E261.42359
G0 F2040 X-53.244 Y-17.606
G1 F1020 X6.226 Y41.864 E264.64218
G0 F2040 X6.397 Y41.541
G1 F1020 X-52.749 Y-17.606 E267.84327
G0 F2040 X-52.254 Y-17.606
G1 F1020 X6.569 Y41.217 E271.02684
G0 F2040 X6.74 Y40.893
G1 F1020 X-51.759 Y-17.606 E274.19288
G0 F2040 X-51.264 Y-17.606
G1 F1020 X6.911 Y40.569 E277.34139
G0 F2040 X7.081 Y40.244
G1 F1020 X-50.769 Y-17.606 E280.4723
G0 F2040 X-50.274 Y-17.606
G1 F1020 X7.252 Y39.921 E283.58571
G0 F2040 X7.423 Y39.597
G1 F1020 X-49.779 Y-17.606 E286.68158
G0 F2040 X-49.284 Y-17.606
G1 F1020 X7.595 Y39.273 E289.75995
G0 F2040 X7.766 Y38.949
G1 F1020 X-48.789 Y-17.606 E292.82077
G0 F2040 X-48.294 Y-17.606
G1 F1020 X7.937 Y38.625 E295.86407
G0 F2040 X8.108 Y38.301
G1 F1020 X-47.799 Y-17.606 E298.88983
G0 F2040 X-47.304 Y-17.606
G1 F1020 X8.279 Y37.977 E301.89805
G0 F2040 X8.45 Y37.654
G1 F1020 X-46.809 Y-17.606 E304.88876
G0 F2040 X-46.314 Y-17.606
G1 F1020 X8.621 Y37.33 E307.86194
G0 F2040 X8.792 Y37.006
G1 F1020 X-45.819 Y-17.606 E310.81759
G0 F2040 X-45.324 Y-17.606
G1 F1020 X8.963 Y36.682 E313.7557
G0 F2040 X9.134 Y36.358
G1 F1020 X-44.829 Y-17.606 E316.67627
G0 F2040 X-44.334 Y-17.606
G1 F1020 X9.305 Y36.034 E319.57931
G0 F2040 X9.476 Y35.71
G1 F1020 X-43.839 Y-17.606 E322.46481
G0 F2040 X-43.344 Y-17.606
G1 F1020 X9.647 Y35.386 E325.33278
G0 F2040 X9.818 Y35.062
G1 F1020 X-42.849 Y-17.606 E328.18321
G0 F2040 X-42.354 Y-17.606
G1 F1020 X9.99 Y34.738 E331.01613
G0 F2040 X10.161 Y34.414
G1 F1020 X-41.86 Y-17.606 E333.83155
G0 F2040 X-41.365 Y-17.606
