;FLAVOR:Marlin
;TIME:7878
;Filament used: 7.38213m
;Layer height: 0.2
;MINX:-52.407
;MINY:-44.793
;MINZ:0.26
;MAXX:61.104
;MAXY:52.119
;MAXZ:22.66
;Generated with Cura_SteamEngine 4.8.0
M82 ;absolute extrusion mode
;Gcode by Cura
G90
G28
M107
M109 R100
G30
M109 S215 U-55 X55 V-85 Y-85 W0.26 Z0.26
M82
G92 E0
G1 F200 E6
G92 E0
G1 F200 E-3.5
G0 Z0.15
G0 X10
G0 Z3
G1 F6000
G92 E0
G92 E0
G1 F3600 E-3.8
;LAYER_COUNT:113
;LAYER:0
M107
G0 F2040 X4.344 Y49.315 Z0.26
;TYPE:SKIRT
G1 F3600 E0
G1 F1020 X-51.346 Y-37.195 E3.93737
G1 X-51.715 Y-37.786 E3.96403
G1 X-52 Y-38.319 E3.98716
G1 X-52.213 Y-38.885 E4.0103
G1 X-52.35 Y-39.474 E4.03345
G1 X-52.407 Y-40.076 E4.05659
G1 X-52.385 Y-40.68 E4.07972
G1 X-52.283 Y-41.276 E4.10286
G1 X-52.103 Y-41.853 E4.12599
G1 X-51.849 Y-42.402 E4.14914
G1 X-51.525 Y-42.912 E4.17226
G1 X-51.136 Y-43.376 E4.19543
G1 X-50.69 Y-43.783 E4.21854
G1 X-50.193 Y-44.129 E4.24172
G1 X-49.656 Y-44.406 E4.26484
G1 X-49.086 Y-44.609 E4.28799
G1 X-48.495 Y-44.736 E4.31113
G1 X-47.864 Y-44.786 E4.33535
G1 X-47.387 Y-44.793 E4.35361
G1 X55.911 Y-44.793 E8.30677
G1 X56.598 Y-44.783 E8.33307
G1 X57.2 Y-44.734 E8.35618
G1 X57.791 Y-44.606 E8.37932
G1 X58.36 Y-44.401 E8.40247
G1 X58.897 Y-44.124 E8.42559
G1 X59.393 Y-43.777 E8.44876
G1 X59.839 Y-43.369 E8.47189
G1 X60.227 Y-42.905 E8.49504
G1 X60.55 Y-42.394 E8.51817
G1 X60.803 Y-41.845 E8.54131
G1 X60.982 Y-41.267 E8.56446
G1 X61.083 Y-40.671 E8.5876
G1 X61.104 Y-40.067 E8.61073
G1 X61.045 Y-39.465 E8.63387
G1 X60.908 Y-38.876 E8.65702
G1 X60.584 Y-38.085 E8.68973
G1 X60.174 Y-37.305 E8.72345
G1 X13.013 Y49.141 E12.49199
G1 X12.648 Y49.789 E12.52046
G1 X12.317 Y50.295 E12.54359
G1 X11.922 Y50.753 E12.56674
G1 X11.471 Y51.155 E12.58986
G1 X10.97 Y51.494 E12.61301
G1 X10.429 Y51.764 E12.63615
G1 X9.857 Y51.96 E12.65929
G1 X9.264 Y52.079 E12.68244
G1 X8.661 Y52.119 E12.70556
G1 X8.057 Y52.079 E12.72873
G1 X7.465 Y51.96 E12.75184
G1 X6.893 Y51.763 E12.77499
G1 X6.352 Y51.493 E12.79813
G1 X5.851 Y51.154 E12.82128
G1 X5.4 Y50.752 E12.8444
G1 X4.858 Y50.085 E12.87729
G1 X4.344 Y49.315 E12.91272
G0 F2040 X4.638 Y49.126
G1 F1020 X-51.049 Y-37.38 E16.84989
G1 X-51.418 Y-37.971 E16.87656
G1 X-51.691 Y-38.484 E16.8988
G1 X-51.891 Y-39.03 E16.92105
G1 X-52.015 Y-39.597 E16.94326
G1 X-52.059 Y-40.177 E16.96552
G1 X-52.023 Y-40.757 E16.98776
G1 X-51.909 Y-41.326 E17.00997
G1 X-51.717 Y-41.875 E17.03223
G1 X-51.451 Y-42.392 E17.05448
G1 X-51.118 Y-42.867 E17.07668
G1 X-50.722 Y-43.293 E17.09894
G1 X-50.272 Y-43.66 E17.12116
G1 X-49.775 Y-43.962 E17.14341
G1 X-49.242 Y-44.193 E17.16565
G1 X-48.682 Y-44.348 E17.18788
G1 X-47.988 Y-44.431 E17.21463
G1 X-47.383 Y-44.443 E17.23779
G1 X55.905 Y-44.443 E21.19057
G1 X56.592 Y-44.433 E21.21686
G1 X57.172 Y-44.384 E21.23914
G1 X57.738 Y-44.257 E21.26134
G1 X58.282 Y-44.053 E21.28357
G1 X58.793 Y-43.776 E21.30582
G1 X59.262 Y-43.432 E21.32808
G1 X59.678 Y-43.027 E21.35029
G1 X60.035 Y-42.569 E21.37252
G1 X60.326 Y-42.065 E21.39479
G1 X60.545 Y-41.527 E21.41702
G1 X60.688 Y-40.964 E21.43925
G1 X60.752 Y-40.387 E21.46147
G1 X60.737 Y-39.806 E21.48371
G1 X60.642 Y-39.233 E21.50594
G1 X60.469 Y-38.678 E21.52818
G1 X60.274 Y-38.247 E21.54629
G1 X59.867 Y-37.473 E21.57975
G1 X12.708 Y48.97 E25.34816
G1 X12.343 Y49.618 E25.37662
G1 X12.024 Y50.103 E25.39883
G1 X11.641 Y50.54 E25.42107
G1 X11.202 Y50.92 E25.44329
G1 X10.715 Y51.237 E25.46553
G1 X10.189 Y51.484 E25.48777
G1 X9.634 Y51.656 E25.51001
G1 X9.06 Y51.75 E25.53226
G1 X8.479 Y51.765 E25.55451
G1 X7.902 Y51.7 E25.57673
G1 X7.339 Y51.557 E25.59896
G1 X6.801 Y51.337 E25.6212
G1 X6.298 Y51.046 E25.64344
G1 X5.84 Y50.688 E25.66569
G1 X5.435 Y50.272 E25.68791
G1 X5.149 Y49.891 E25.70614
G1 X4.638 Y49.126 E25.74134
G0 F2040 X4.933 Y48.936
G1 F1020 X-50.752 Y-37.566 E29.67835
G1 X-51.121 Y-38.157 E29.70501
G1 X-51.381 Y-38.649 E29.72631
G1 X-51.568 Y-39.173 E29.7476
G1 X-51.678 Y-39.718 E29.76888
G1 X-51.708 Y-40.274 E29.79019
G1 X-51.659 Y-40.828 E29.81147
G1 X-51.531 Y-41.369 E29.83275
G1 X-51.327 Y-41.887 E29.85405
G1 X-51.05 Y-42.37 E29.87536
G1 X-50.708 Y-42.808 E29.89663
G1 X-50.306 Y-43.193 E29.91793
G1 X-49.853 Y-43.516 E29.93922
G1 X-49.359 Y-43.772 E29.96051
G1 X-48.833 Y-43.953 E29.9818
G1 X-48.286 Y-44.058 E30.00312
G1 X-47.74 Y-44.089 E30.02405
G1 X-47.379 Y-44.093 E30.03786
G1 X55.9 Y-44.093 E33.9903
G1 X56.587 Y-44.083 E34.01659
G1 X57.142 Y-44.035 E34.03791
G1 X57.683 Y-43.908 E34.05918
G1 X58.201 Y-43.704 E34.08048
G1 X58.685 Y-43.429 E34.10179
G1 X59.124 Y-43.087 E34.12308
G1 X59.51 Y-42.686 E34.14439
G1 X59.834 Y-42.234 E34.16567
G1 X60.09 Y-41.74 E34.18696
G1 X60.273 Y-41.215 E34.20824
G1 X60.379 Y-40.668 E34.22956
G1 X60.405 Y-40.113 E34.25082
G1 X60.351 Y-39.559 E34.27213
G1 X60.219 Y-39.018 E34.29344
G1 X59.964 Y-38.41 E34.31867
G1 X59.56 Y-37.64 E34.35195
G1 X12.403 Y48.798 E38.12014
G1 X12.038 Y49.446 E38.14861
G1 X11.731 Y49.91 E38.1699
G1 X11.361 Y50.325 E38.19118
G1 X10.935 Y50.683 E38.21247
G1 X10.462 Y50.976 E38.23376
G1 X9.952 Y51.198 E38.25505
G1 X9.415 Y51.345 E38.27636
G1 X8.863 Y51.414 E38.29765
G1 X8.306 Y51.403 E38.31897
G1 X7.757 Y51.312 E38.34026
G1 X7.227 Y51.144 E38.36154
G1 X6.726 Y50.901 E38.38285
G1 X6.266 Y50.589 E38.40412
G1 X5.854 Y50.214 E38.42544
G1 X5.44 Y49.697 E38.45079
G1 X4.933 Y48.936 E38.48578
G0 F2040 X5.227 Y48.747
G1 F1020 X-50.455 Y-37.751 E42.4226
G1 X-50.824 Y-38.342 E42.44926
G1 X-51.07 Y-38.812 E42.46956
G1 X-51.243 Y-39.314 E42.48988
G1 X-51.339 Y-39.836 E42.51019
G1 X-51.355 Y-40.366 E42.53049
G1 X-51.292 Y-40.893 E42.5508
G1 X-51.15 Y-41.404 E42.57109
G1 X-50.933 Y-41.889 E42.59143
G1 X-50.646 Y-42.335 E42.61173
G1 X-50.295 Y-42.733 E42.63203
G1 X-49.888 Y-43.074 E42.65235
G1 X-49.435 Y-43.35 E42.67265
G1 X-48.945 Y-43.554 E42.69297
G1 X-48.431 Y-43.683 E42.71325
G1 X-47.826 Y-43.737 E42.73649
G1 X-47.375 Y-43.743 E42.75375
G1 X55.895 Y-43.743 E46.70585
G1 X56.582 Y-43.733 E46.73214
G1 X57.111 Y-43.685 E46.75247
G1 X57.626 Y-43.559 E46.77276
G1 X58.117 Y-43.356 E46.79309
G1 X58.571 Y-43.082 E46.81338
G1 X58.98 Y-42.744 E46.83369
G1 X59.333 Y-42.347 E46.85402
G1 X59.622 Y-41.902 E46.87433
G1 X59.841 Y-41.419 E46.89462
G1 X59.986 Y-40.909 E46.91491
G1 X60.052 Y-40.382 E46.93524
G1 X60.038 Y-39.852 E46.95553
G1 X59.945 Y-39.329 E46.97586
G1 X59.774 Y-38.827 E46.99615
G1 X59.653 Y-38.572 E47.00695
G1 X59.252 Y-37.808 E47.03997
G1 X12.098 Y48.626 E50.80798
G1 X11.733 Y49.274 E50.83645
G1 X11.439 Y49.715 E50.85673
G1 X11.081 Y50.108 E50.87708
G1 X10.669 Y50.442 E50.89737
G1 X10.211 Y50.71 E50.91768
G1 X9.719 Y50.907 E50.93796
G1 X9.202 Y51.027 E50.95827
G1 X8.673 Y51.069 E50.97858
G1 X8.143 Y51.031 E50.99892
G1 X7.626 Y50.913 E51.01921
G1 X7.132 Y50.72 E51.03951
G1 X6.672 Y50.454 E51.05984
G1 X6.258 Y50.122 E51.08015
G1 X5.898 Y49.732 E51.10046
G1 X5.731 Y49.502 E51.11134
G1 X5.227 Y48.747 E51.14608
G0 F2040 X5.521 Y48.558
G1 F1020 X-50.158 Y-37.936 E55.0827
G1 X-50.527 Y-38.527 E55.10937
G1 X-50.759 Y-38.974 E55.12864
G1 X-50.918 Y-39.452 E55.14792
G1 X-50.998 Y-39.95 E55.16722
G1 X-51 Y-40.453 E55.18647
G1 X-50.921 Y-40.951 E55.20577
G1 X-50.765 Y-41.429 E55.22501
G1 X-50.535 Y-41.877 E55.24428
G1 X-50.238 Y-42.284 E55.26356
G1 X-49.879 Y-42.637 E55.28283
G1 X-49.47 Y-42.93 E55.30209
G1 X-49.019 Y-43.155 E55.32137
G1 X-48.538 Y-43.305 E55.34066
G1 X-47.95 Y-43.382 E55.36335
G1 X-47.371 Y-43.393 E55.38551
G1 X55.89 Y-43.393 E59.33726
G1 X56.577 Y-43.383 E59.36356
G1 X57.079 Y-43.335 E59.38285
G1 X57.566 Y-43.21 E59.4021
G1 X58.028 Y-43.008 E59.42139
G1 X58.452 Y-42.736 E59.44067
G1 X58.827 Y-42.401 E59.45991
G1 X59.145 Y-42.01 E59.4792
G1 X59.397 Y-41.574 E59.49847
G1 X59.577 Y-41.104 E59.51773
G1 X59.68 Y-40.611 E59.53701
G1 X59.704 Y-40.108 E59.55628
G1 X59.649 Y-39.607 E59.57557
G1 X59.515 Y-39.122 E59.59482
G1 X59.343 Y-38.735 E59.61103
G1 X58.945 Y-37.975 E59.64386
G1 X11.793 Y48.454 E63.41167
G1 X11.428 Y49.102 E63.44013
G1 X11.147 Y49.52 E63.45941
G1 X10.803 Y49.888 E63.47868
G1 X10.406 Y50.197 E63.49794
G1 X9.965 Y50.44 E63.51721
G1 X9.49 Y50.609 E63.5365
G1 X8.995 Y50.701 E63.55577
G1 X8.492 Y50.714 E63.57502
G1 X7.993 Y50.648 E63.59429
G1 X7.51 Y50.503 E63.61359
G1 X7.057 Y50.283 E63.63286
G1 X6.644 Y49.995 E63.65213
G1 X6.282 Y49.645 E63.6714
G1 X6.022 Y49.308 E63.68769
G1 X5.521 Y48.558 E63.7222
G1 F3600 E59.9222
;MESH:support_tri_0_104.stl
G0 F2040 X7.633 Y47.201
G0 X8.502 Y46.641
G0 X8.622 Y46.54
;TYPE:WALL-INNER
G1 F3600 E63.7222
G1 F1020 X-46.889 Y-39.693 E67.64695
G1 X55.668 Y-39.693 E71.57175
G1 X8.622 Y46.54 E75.33103
G0 F2040 X8.645 Y47.176
;TYPE:WALL-OUTER
G1 F1020 X-47.485 Y-40.018 E79.29952
G1 X56.215 Y-40.018 E83.26807
G1 X8.645 Y47.176 E87.06924
G0 F2040 X8.537 Y47.008
G0 X8.631 Y46.783
G0 X8.597 Y45.874
;TYPE:SKIN
G1 F1020 X-46.265 Y-39.353 E90.94817
G1 X55.095 Y-39.353 E94.82717
G1 X8.597 Y45.874 E98.5426
G0 F2040 X8.709 Y45.337
G1 F1020 X7.948 Y44.576 E98.58379
G1 X7.886 Y44.514
G0 F2040 X8.884 Y45.017
G1 F1020 X7.054 Y43.187 E98.68283
G1 X6.992 Y43.125
G0 F2040 X6.159 Y41.797
G1 F1020 X9.058 Y44.696 E98.83973
G0 F2040 X9.234 Y44.377
G1 F1020 X5.265 Y40.409 E99.05451
G1 X5.203 Y40.347
G0 F2040 X4.371 Y39.019
G1 F1020 X9.408 Y44.056 E99.32712
G0 F2040 X9.583 Y43.736
G1 F1020 X3.477 Y37.63 E99.65758
G1 X3.415 Y37.568
G0 F2040 X2.583 Y36.241
G1 F1020 X9.758 Y43.416 E100.0459
G0 F2040 X9.932 Y43.096
G1 F1020 X1.688 Y34.851 E100.49211
G1 X1.626 Y34.789
G0 F2040 X0.794 Y33.463
G1 F1020 X10.107 Y42.775 E100.99611
G0 F2040 X10.282 Y42.455
G1 F1020 X-0.099 Y32.073 E101.55797
G1 X-.161 Y32.011
G0 F2040 X-.994 Y30.684
G1 F1020 X10.456 Y42.135 E102.17769
G0 F2040 X10.631 Y41.814
G1 F1020 X-1.887 Y29.295 E102.8552
G1 X-1.949 Y29.233
G0 F2040 X-2.782 Y27.905
G1 F1020 X10.806 Y41.494 E103.59063
G0 F2040 X10.981 Y41.174
G1 F1020 X-3.676 Y26.516 E104.38391
G1 X-3.738 Y26.454
G0 F2040 X-4.57 Y25.127
G1 F1020 X11.156 Y40.854 E105.23505
G0 F2040 X11.33 Y40.534
G1 F1020 X-5.465 Y23.738 E106.14404
G1 X-5.527 Y23.676
G0 F2040 X-6.359 Y22.348
G1 F1020 X11.505 Y40.213 E107.11089
G0 F2040 X11.679 Y39.893
G1 F1020 X-7.253 Y20.96 E108.13555
G1 X-7.315 Y20.898
G0 F2040 X-8.147 Y19.57
G1 F1020 X11.854 Y39.573 E109.21808
G0 F2040 X12.029 Y39.252
G1 F1020 X-9.042 Y18.181 E110.35847
G1 X-9.104 Y18.119
G0 F2040 X-9.936 Y16.792
G1 F1020 X12.203 Y38.932 E111.55669
G0 F2040 X12.378 Y38.612
G1 F1020 X-10.83 Y15.402 E112.81279
G1 X-10.892 Y15.34
G0 F2040 X-11.725 Y14.013
G1 F1020 X12.553 Y38.291 E114.12674
G0 F2040 X12.727 Y37.971
G1 F1020 X-12.619 Y12.624 E115.49853
G1 X-12.681 Y12.562
G0 F2040 X-13.513 Y11.235
G1 F1020 X12.903 Y37.652 E116.92822
G0 F2040 X13.077 Y37.331
G1 F1020 X-14.408 Y9.845 E118.41577
G1 X-14.47 Y9.783
G0 F2040 X-15.301 Y8.456
G1 F1020 X13.252 Y37.011 E119.96115
G0 F2040 X13.427 Y36.691
G1 F1020 X-16.196 Y7.067 E121.56441
G1 X-16.258 Y7.005
G0 F2040 X-17.09 Y5.678
G1 F1020 X13.601 Y36.37 E123.22548
G0 F2040 X13.776 Y36.05
G1 F1020 X-17.984 Y4.289 E124.9444
G1 X-18.046 Y4.227
G0 F2040 X-18.879 Y2.899
G1 F1020 X13.951 Y35.73 E126.72122
G0 F2040 X14.125 Y35.409
G1 F1020 X-19.773 Y1.51 E128.55585
G1 X-19.835 Y1.448
G0 F2040 X-20.667 Y0.121
G1 F1020 X14.3 Y35.089 E130.44834
G0 F2040 X14.475 Y34.769
G1 F1020 X-21.561 Y-1.267 E132.39865
G1 X-21.623 Y-1.329
G0 F2040 X-22.456 Y-2.657
G1 F1020 X14.65 Y34.449 E134.40688
G0 F2040 X14.825 Y34.129
G1 F1020 X-23.35 Y-4.046 E136.47296
G1 X-23.412 Y-4.108
G0 F2040 X-24.244 Y-5.435
G1 F1020 X14.999 Y33.808 E138.59684
G0 F2040 X15.174 Y33.488
G1 F1020 X-25.138 Y-6.824 E140.77858
G1 X-25.2 Y-6.886
G0 F2040 X-26.032 Y-8.213
G1 F1020 X15.349 Y33.168 E143.01817
G0 F2040 X15.523 Y32.847
G1 F1020 X-26.927 Y-9.603 E145.31562
G1 X-26.989 Y-9.665
G0 F2040 X-27.821 Y-10.991
G1 F1020 X15.698 Y32.527 E147.67089
G0 F2040 X15.873 Y32.207
G1 F1020 X-28.715 Y-12.381 E150.08405
G1 X-28.777 Y-12.443
G0 F2040 X-29.61 Y-13.77
G1 F1020 X16.047 Y31.886 E152.55504
G0 F2040 X16.222 Y31.566
G1 F1020 X-30.503 Y-15.159 E155.08386
G1 X-30.565 Y-15.221
G0 F2040 X-31.398 Y-16.549
G1 F1020 X16.397 Y31.246 E157.67058
G0 F2040 X16.572 Y30.926
G1 F1020 X-32.292 Y-17.938 E160.31516
G1 X-32.354 Y-18
G0 F2040 X-33.186 Y-19.327
G1 F1020 X16.747 Y30.606 E163.0176
G0 F2040 X16.921 Y30.286
G1 F1020 X-34.081 Y-20.716 E165.7779
G1 X-34.143 Y-20.778
G0 F2040 X-34.975 Y-22.106
G1 F1020 X17.096 Y29.965 E168.59604
G0 F2040 X17.271 Y29.645
G1 F1020 X-35.869 Y-23.495 E171.47205
G1 X-35.931 Y-23.557
G0 F2040 X-36.763 Y-24.884
G1 F1020 X17.445 Y29.325 E174.40588
G0 F2040 X17.62 Y29.004
G1 F1020 X-37.658 Y-26.273 E177.39757
G1 X-37.72 Y-26.335
G0 F2040 X-38.552 Y-27.662
G1 F1020 X17.795 Y28.684 E180.44712
G0 F2040 X17.969 Y28.364
G1 F1020 X-39.446 Y-29.052 E183.55452
G1 X-39.508 Y-29.114
G0 F2040 X-40.341 Y-30.441
G1 F1020 X18.144 Y28.043 E186.71977
G0 F2040 X18.319 Y27.724
G1 F1020 X-41.234 Y-31.83 E189.94288
G1 X-41.296 Y-31.892
G0 F2040 X-42.129 Y-33.219
G1 F1020 X18.494 Y27.403 E193.22385
G0 F2040 X18.669 Y27.083
G1 F1020 X-43.023 Y-34.609 E196.5627
G1 X-43.085 Y-34.671
G0 F2040 X-43.917 Y-35.998
G1 F1020 X18.843 Y26.763 E199.95938
G0 F2040 X19.018 Y26.442
G1 F1020 X-44.812 Y-37.387 E203.41391
G1 X-44.874 Y-37.449
G0 F2040 X-45.706 Y-38.777
G1 F1020 X19.192 Y26.122 E206.9263
G0 F2040 X19.367 Y25.802
G1 F1020 X-45.63 Y-39.195 E210.44402
G0 F2040 X-45.135 Y-39.195
G1 F1020 X19.542 Y25.482 E213.94442
G0 F2040 X19.716 Y25.161
G1 F1020 X-44.64 Y-39.195 E217.42745
G0 F2040 X-44.145 Y-39.195
G1 F1020 X19.891 Y24.841 E220.89316
G0 F2040 X20.066 Y24.521
G1 F1020 X-43.65 Y-39.195 E224.34155
G0 F2040 X-43.155 Y-39.195
G1 F1020 X20.241 Y24.201 E227.77262
G0 F2040 X20.416 Y23.881
G1 F1020 X-42.66 Y-39.195 E231.18638
G0 F2040 X-42.165 Y-39.195
G1 F1020 X20.59 Y23.56 E234.58276
G0 F2040 X20.765 Y23.24
G1 F1020 X-41.67 Y-39.195 E237.96182
G0 F2040 X-41.175 Y-39.195
G1 F1020 X20.94 Y22.92 E241.32356
G0 F2040 X21.114 Y22.599
G1 F1020 X-40.68 Y-39.195 E244.66793
G0 F2040 X-40.185 Y-39.195
G1 F1020 X21.289 Y22.279 E247.99498
G0 F2040 X21.464 Y21.959
G1 F1020 X-39.69 Y-39.195 E251.30472
G0 F2040 X-39.195 Y-39.195
G1 F1020 X21.638 Y21.638 E254.59708
G0 F2040 X21.813 Y21.318
G1 F1020 X-38.7 Y-39.195 E257.87212
G0 F2040 X-38.205 Y-39.195
G1 F1020 X21.988 Y20.998 E261.12984
G0 F2040 X22.163 Y20.678
G1 F1020 X-37.71 Y-39.195 E264.37024
G0 F2040 X-37.215 Y-39.195
G1 F1020 X22.338 Y20.358 E267.59333
G0 F2040 X22.512 Y20.037
G1 F1020 X-36.72 Y-39.195 E270.79904
G0 F2040 X-36.225 Y-39.195
G1 F1020 X22.687 Y19.717 E273.98743
G0 F2040 X22.862 Y19.397
G1 F1020 X-35.73 Y-39.195 E277.1585
G0 F2040 X-35.235 Y-39.195
G1 F1020 X23.036 Y19.077 E280.31223
G0 F2040 X23.211 Y18.756
G1 F1020 X-34.74 Y-39.195 E283.44861
G0 F2040 X-34.245 Y-39.195
G1 F1020 X23.386 Y18.436 E286.56768
G0 F2040 X23.56 Y18.116
G1 F1020 X-33.75 Y-39.195 E289.66939
G0 F2040 X-33.255 Y-39.195
G1 F1020 X23.735 Y17.795 E292.75377
G0 F2040 X23.91 Y17.476
G1 F1020 X-32.76 Y-39.195 E295.82084
G0 F2040 X-32.265 Y-39.195
G1 F1020 X24.085 Y17.155 E298.87058
G0 F2040 X24.26 Y16.835
G1 F1020 X-31.771 Y-39.195 E301.90302
G0 F2040 X-31.276 Y-39.195
G1 F1020 X24.434 Y16.515 E304.91812
G0 F2040 X24.609 Y16.194
G1 F1020 X-30.781 Y-39.195 E307.91587
G0 F2040 X-30.286 Y-39.195
G1 F1020 X24.784 Y15.874 E310.8963
G0 F2040 X24.958 Y15.554
G1 F1020 X-29.791 Y-39.195 E313.85938
G0 F2040 X-29.296 Y-39.195
G1 F1020 X25.133 Y15.233 E316.80512
G0 F2040 X25.308 Y14.913
G1 F1020 X-28.801 Y-39.195 E319.73355
G0 F2040 X-28.306 Y-39.195
G1 F1020 X25.482 Y14.593 E322.64462
G0 F2040 X25.658 Y14.273
G1 F1020 X-27.811 Y-39.195 E325.5384
G0 F2040 X-27.316 Y-39.195
G1 F1020 X25.832 Y13.953 E328.41484
G0 F2040 X26.007 Y13.633
G1 F1020 X-26.821 Y-39.195 E331.27396
G0 F2040 X-26.326 Y-39.195
G1 F1020 X26.182 Y13.312 E334.11573
G0 F2040 X26.356 Y12.992
G1 F1020 X-25.831 Y-39.195 E336.94016
G0 F2040 X-25.336 Y-39.195
G1 F1020 X26.531 Y12.672 E339.74727
G0 F2040 X26.706 Y12.351
G1 F1020 X-24.841 Y-39.195 E342.53703
G0 F2040 X-24.346 Y-39.195
G1 F1020 X26.88 Y12.031 E345.30945
G0 F2040 X27.055 Y11.711
G1 F1020 X-23.851 Y-39.195 E348.06454
G0 F2040 X-23.356 Y-39.195
G1 F1020 X27.229 Y11.39 E350.80227
G0 F2040 X27.404 Y11.07
