;FLAVOR:Marlin
;TIME:7953
;Filament used: 7.38165m
;Layer height: 0.2
;MINX:-54.552
;MINY:-55.578
;MINZ:0.26
;MAXX:54.553
;MAXY:45.203
;MAXZ:22.66
;Generated with Cura_SteamEngine 4.8.0
M82 ;absolute extrusion mode
;Gcode by Cura
G90
G28
M107
M109 R100
G30
M109 S215 U-55 X55 V-85 Y-85 W0.26 Z0.26
M82
G92 E0
G1 F200 E6
G92 E0
G1 F200 E-3.5
G0 Z0.15
G0 X10
G0 Z3
G1 F6000
G92 E0
G92 E0
G1 F3600 E-3.8
;LAYER_COUNT:113
;LAYER:0
M107
G0 F2040 X-4.324 Y-52.65 Z0.26
;TYPE:SKIRT
G1 F3600 E0
G1 F1020 X-3.985 Y-53.251 E0.02641
G1 X-3.654 Y-53.757 E0.04955
G1 X-3.259 Y-54.214 E0.07266
G1 X-2.807 Y-54.616 E0.09581
G1 X-2.306 Y-54.955 E0.11896
G1 X-1.764 Y-55.224 E0.14212
G1 X-1.192 Y-55.42 E0.16526
G1 X-.599 Y-55.539 E0.1884
G1 X0.004 Y-55.578 E0.21153
G1 X0.607 Y-55.538 E0.23466
G1 X1.2 Y-55.418 E0.25781
G1 X1.772 Y-55.221 E0.28096
G1 X2.312 Y-54.951 E0.30407
G1 X2.813 Y-54.611 E0.32724
G1 X3.264 Y-54.209 E0.35036
G1 X3.658 Y-53.75 E0.37351
G1 X3.946 Y-53.318 E0.39338
G1 X4.219 Y-52.841 E0.41441
G1 X53.725 Y37.904 E4.37036
G1 X54.028 Y38.478 E4.3952
G1 X54.274 Y39.03 E4.41832
G1 X54.446 Y39.61 E4.44148
G1 X54.539 Y40.208 E4.46464
G1 X54.553 Y40.812 E4.48776
G1 X54.487 Y41.413 E4.5109
G1 X54.342 Y42 E4.53403
G1 X54.121 Y42.563 E4.55718
G1 X53.828 Y43.092 E4.58032
G1 X53.467 Y43.578 E4.60349
G1 X53.046 Y44.011 E4.6266
G1 X52.571 Y44.386 E4.64976
G1 X52.051 Y44.694 E4.67289
G1 X51.495 Y44.931 E4.69602
G1 X50.913 Y45.093 E4.71914
G1 X50.058 Y45.188 E4.75207
G1 X49.138 Y45.203 E4.78728
G1 X-49.353 Y45.203 E8.55648
G1 X-50.039 Y45.194 E8.58274
G1 X-50.642 Y45.146 E8.60589
G1 X-51.233 Y45.019 E8.62902
G1 X-51.802 Y44.815 E8.65215
G1 X-52.34 Y44.538 E8.67531
G1 X-52.836 Y44.192 E8.69845
G1 X-53.282 Y43.784 E8.72159
G1 X-53.671 Y43.321 E8.74473
G1 X-53.995 Y42.811 E8.76785
G1 X-54.249 Y42.262 E8.791
G1 X-54.428 Y41.685 E8.81412
G1 X-54.53 Y41.089 E8.83726
G1 X-54.552 Y40.484 E8.86043
G1 X-54.494 Y39.882 E8.88357
G1 X-54.358 Y39.293 E8.90671
G1 X-54.032 Y38.497 E8.93963
G1 X-53.616 Y37.704 E8.9739
G1 X-4.324 Y-52.65 E12.91279
G0 F2040 X-4.019 Y-52.478
G1 F1020 X-3.68 Y-53.079 E12.93919
G1 X-3.36 Y-53.564 E12.96143
G1 X-2.977 Y-54.001 E12.98367
G1 X-2.538 Y-54.381 E13.00589
G1 X-2.05 Y-54.697 E13.02814
G1 X-1.524 Y-54.944 E13.05037
G1 X-.969 Y-55.115 E13.0726
G1 X-.396 Y-55.209 E13.09482
G1 X0.185 Y-55.224 E13.11706
G1 X0.762 Y-55.159 E13.13928
G1 X1.325 Y-55.015 E13.16152
G1 X1.863 Y-54.795 E13.18377
G1 X2.366 Y-54.503 E13.20602
G1 X2.824 Y-54.146 E13.22825
G1 X3.228 Y-53.729 E13.25047
G1 X3.644 Y-53.141 E13.27803
G1 X3.915 Y-52.669 E13.29886
G1 X53.415 Y38.068 E17.25443
G1 X53.718 Y38.642 E17.27927
G1 X53.954 Y39.173 E17.30151
G1 X54.114 Y39.731 E17.32372
G1 X54.196 Y40.307 E17.34599
G1 X54.198 Y40.888 E17.36822
G1 X54.121 Y41.464 E17.39046
G1 X53.965 Y42.023 E17.41267
G1 X53.734 Y42.556 E17.4349
G1 X53.432 Y43.053 E17.45716
G1 X53.065 Y43.503 E17.47938
G1 X52.639 Y43.899 E17.50164
G1 X52.163 Y44.232 E17.52387
G1 X51.646 Y44.497 E17.5461
G1 X51.098 Y44.689 E17.56832
G1 X50.528 Y44.804 E17.59058
G1 X50.052 Y44.838 E17.60884
G1 X49.138 Y44.853 E17.64382
G1 X-49.348 Y44.853 E21.41284
G1 X-50.034 Y44.844 E21.43909
G1 X-50.614 Y44.796 E21.46136
G1 X-51.181 Y44.67 E21.48359
G1 X-51.725 Y44.466 E21.50583
G1 X-52.236 Y44.19 E21.52805
G1 X-52.705 Y43.847 E21.55029
G1 X-53.122 Y43.442 E21.57253
G1 X-53.48 Y42.985 E21.59475
G1 X-53.771 Y42.482 E21.61699
G1 X-53.991 Y41.944 E21.63923
G1 X-54.135 Y41.381 E21.66147
G1 X-54.2 Y40.804 E21.68369
G1 X-54.185 Y40.223 E21.70594
G1 X-54.091 Y39.65 E21.72816
G1 X-53.919 Y39.094 E21.75043
G1 X-53.722 Y38.66 E21.76867
G1 X-53.309 Y37.872 E21.80272
G1 X-4.019 Y-52.478 E25.74143
G0 F2040 X-3.714 Y-52.306
G1 F1020 X-3.375 Y-52.907 E25.76784
G1 X-3.068 Y-53.371 E25.78913
G1 X-2.697 Y-53.785 E25.81041
G1 X-2.271 Y-54.143 E25.8317
G1 X-1.798 Y-54.436 E25.853
G1 X-1.287 Y-54.658 E25.87432
G1 X-.751 Y-54.805 E25.89559
G1 X-.198 Y-54.873 E25.91691
G1 X0.358 Y-54.861 E25.93819
G1 X0.907 Y-54.77 E25.95949
G1 X1.437 Y-54.602 E25.98077
G1 X1.938 Y-54.359 E26.00208
G1 X2.398 Y-54.047 E26.02335
G1 X2.809 Y-53.672 E26.04464
G1 X3.163 Y-53.242 E26.06595
G1 X3.43 Y-52.814 E26.08526
G1 X3.636 Y-52.45 E26.10127
G1 X53.106 Y38.231 E30.0544
G1 X53.409 Y38.805 E30.07924
G1 X53.633 Y39.314 E30.10052
G1 X53.781 Y39.851 E30.12184
G1 X53.851 Y40.403 E30.14313
G1 X53.842 Y40.959 E30.16442
G1 X53.752 Y41.508 E30.18571
G1 X53.585 Y42.039 E30.20701
G1 X53.344 Y42.54 E30.22828
G1 X53.034 Y43.002 E30.24958
G1 X52.66 Y43.415 E30.2709
G1 X52.231 Y43.769 E30.29218
G1 X51.756 Y44.059 E30.31348
G1 X51.245 Y44.278 E30.33476
G1 X50.707 Y44.421 E30.35606
G1 X50.046 Y44.488 E30.38149
G1 X49.138 Y44.503 E30.41624
G1 X-49.344 Y44.503 E34.1851
G1 X-50.03 Y44.494 E34.21136
G1 X-50.584 Y44.446 E34.23264
G1 X-51.126 Y44.32 E34.25393
G1 X-51.644 Y44.118 E34.27521
G1 X-52.128 Y43.843 E34.29651
G1 X-52.568 Y43.502 E34.31782
G1 X-52.954 Y43.102 E34.33909
G1 X-53.279 Y42.65 E34.36039
G1 X-53.536 Y42.156 E34.3817
G1 X-53.72 Y41.631 E34.40299
G1 X-53.826 Y41.085 E34.42428
G1 X-53.853 Y40.529 E34.44558
G1 X-53.8 Y39.975 E34.46688
G1 X-53.669 Y39.435 E34.48815
G1 X-53.412 Y38.822 E34.51358
G1 X-53.002 Y38.039 E34.54741
G1 X-3.714 Y-52.306 E38.48592
G0 F2040 X-3.409 Y-52.134
G1 F1020 X-3.07 Y-52.735 E38.51233
G1 X-2.775 Y-53.176 E38.53263
G1 X-2.418 Y-53.568 E38.55292
G1 X-2.005 Y-53.902 E38.57325
G1 X-1.547 Y-54.17 E38.59356
G1 X-1.055 Y-54.367 E38.61384
G1 X-.538 Y-54.487 E38.63415
G1 X-0.009 Y-54.528 E38.65446
G1 X0.521 Y-54.489 E38.67479
G1 X1.038 Y-54.372 E38.69508
G1 X1.532 Y-54.178 E38.71539
G1 X1.991 Y-53.912 E38.73569
G1 X2.405 Y-53.58 E38.756
G1 X2.765 Y-53.19 E38.77631
G1 X3.128 Y-52.637 E38.80163
G1 X3.328 Y-52.282 E38.81722
G1 X52.796 Y38.394 E42.77015
G1 X53.099 Y38.968 E42.79499
G1 X53.311 Y39.455 E42.81532
G1 X53.447 Y39.968 E42.83563
G1 X53.505 Y40.495 E42.85592
G1 X53.483 Y41.026 E42.87626
G1 X53.381 Y41.546 E42.89654
G1 X53.203 Y42.046 E42.91685
G1 X52.951 Y42.514 E42.93719
G1 X52.633 Y42.938 E42.95747
G1 X52.254 Y43.309 E42.97777
G1 X51.823 Y43.62 E42.99811
G1 X51.351 Y43.862 E43.01841
G1 X50.848 Y44.031 E43.03871
G1 X50.325 Y44.122 E43.05903
G1 X50.04 Y44.139 E43.06996
G1 X49.196 Y44.153 E43.10226
G1 X-49.339 Y44.153 E46.87315
G1 X-50.025 Y44.144 E46.8994
G1 X-50.554 Y44.097 E46.91973
G1 X-51.069 Y43.971 E46.94002
G1 X-51.56 Y43.769 E46.96034
G1 X-52.015 Y43.496 E46.98064
G1 X-52.424 Y43.158 E47.00095
G1 X-52.778 Y42.762 E47.02127
G1 X-53.068 Y42.318 E47.04157
G1 X-53.288 Y41.835 E47.06188
G1 X-53.433 Y41.325 E47.08217
G1 X-53.499 Y40.798 E47.1025
G1 X-53.486 Y40.268 E47.12279
G1 X-53.394 Y39.745 E47.14311
G1 X-53.224 Y39.242 E47.16343
G1 X-53.102 Y38.984 E47.17435
G1 X-52.694 Y38.207 E47.20794
G1 X-3.409 Y-52.134 E51.14626
G0 F2040 X-3.104 Y-51.962
G1 F1020 X-2.765 Y-52.563 E51.17267
G1 X-2.484 Y-52.98 E51.19191
G1 X-2.14 Y-53.348 E51.21119
G1 X-1.742 Y-53.657 E51.23047
G1 X-1.301 Y-53.899 E51.24972
G1 X-.826 Y-54.069 E51.26903
G1 X-.331 Y-54.161 E51.2883
G1 X0.172 Y-54.173 E51.30755
G1 X0.671 Y-54.106 E51.32682
G1 X1.153 Y-53.961 E51.34608
G1 X1.607 Y-53.742 E51.36537
G1 X2.019 Y-53.453 E51.38463
G1 X2.381 Y-53.103 E51.4039
G1 X2.739 Y-52.61 E51.42722
G1 X3 Y-52.153 E51.44736
G1 X52.487 Y38.558 E55.40181
G1 X52.79 Y39.132 E55.42665
G1 X52.989 Y39.594 E55.4459
G1 X53.112 Y40.083 E55.4652
G1 X53.157 Y40.584 E55.48445
G1 X53.122 Y41.087 E55.50375
G1 X53.007 Y41.577 E55.52301
G1 X52.817 Y42.043 E55.54227
G1 X52.555 Y42.474 E55.56157
G1 X52.229 Y42.857 E55.58082
G1 X51.846 Y43.184 E55.60009
G1 X51.416 Y43.447 E55.61938
G1 X50.95 Y43.638 E55.63865
G1 X50.46 Y43.753 E55.65792
G1 X50.035 Y43.789 E55.67424
G1 X49.191 Y43.803 E55.70654
G1 X-49.335 Y43.803 E59.47709
G1 X-50.021 Y43.794 E59.50334
G1 X-50.522 Y43.747 E59.5226
G1 X-51.01 Y43.622 E59.54188
G1 X-51.472 Y43.421 E59.56116
G1 X-51.896 Y43.15 E59.58042
G1 X-52.272 Y42.815 E59.59969
G1 X-52.59 Y42.425 E59.61895
G1 X-52.843 Y41.989 E59.63824
G1 X-53.024 Y41.519 E59.65751
G1 X-53.128 Y41.026 E59.67679
G1 X-53.153 Y40.523 E59.69607
G1 X-53.098 Y40.023 E59.71532
G1 X-52.964 Y39.537 E59.73461
G1 X-52.792 Y39.147 E59.75092
G1 X-52.387 Y38.374 E59.78432
G1 X-3.104 Y-51.962 E63.72244
G1 F3600 E59.92244
;MESH:support_tri_0_059.stl
G0 F2040 X-.912 Y-50.74
G0 X0.021 Y-50.232
G0 X49.116 Y40.103
;TYPE:WALL-INNER
G1 F3600 E63.72244
G1 F1020 X-49.116 Y40.103 E67.48173
G1 X0.00 Y-49.926 E71.40647
G1 X49.116 Y40.103 E75.33122
G0 F2040 X49.663 Y40.428
;TYPE:WALL-OUTER
G1 F1020 X-49.663 Y40.428 E79.13238
G1 X0.00 Y-50.604 E83.10084
G1 X49.663 Y40.428 E87.06931
G0 F2040 X49.463 Y40.428
G0 X49.326 Y40.227
G0 X48.543 Y39.763
;TYPE:SKIN
G1 F1020 X-48.543 Y39.763 E90.78474
G1 X0.00 Y-49.215 E94.66368
G1 X48.543 Y39.763 E98.54261
G0 F2040 X-48.181 Y39.428
G1 F1020 X-48.004 Y39.605 E98.55219
G0 F2040 X-47.509 Y39.605
G1 F1020 X-48.006 Y39.108 E98.57909
G0 F2040 X-47.832 Y38.788
G1 F1020 X-47.014 Y39.605 E98.62333
G0 F2040 X-46.519 Y39.605
G1 F1020 X-47.657 Y38.468 E98.6849
G0 F2040 X-47.482 Y38.147
G1 F1020 X-46.024 Y39.605 E98.7638
G0 F2040 X-45.529 Y39.605
G1 F1020 X-47.308 Y37.827 E98.86006
G0 F2040 X-47.133 Y37.507
G1 F1020 X-45.034 Y39.605 E98.97363
G0 F2040 X-44.539 Y39.605
G1 F1020 X-46.958 Y37.186 E99.10455
G0 F2040 X-46.784 Y36.866
G1 F1020 X-44.044 Y39.605 E99.25282
G0 F2040 X-43.549 Y39.605
G1 F1020 X-46.608 Y36.546 E99.41837
G0 F2040 X-46.434 Y36.226
G1 F1020 X-43.055 Y39.605 E99.60125
G0 F2040 X-42.56 Y39.605
G1 F1020 X-46.259 Y35.906 E99.80144
G0 F2040 X-46.084 Y35.585
G1 F1020 X-42.065 Y39.605 E100.01898
G0 F2040 X-41.57 Y39.605
G1 F1020 X-45.91 Y35.265 E100.25387
G0 F2040 X-45.735 Y34.945
G1 F1020 X-41.075 Y39.605 E100.50608
G0 F2040 X-40.58 Y39.605
G1 F1020 X-45.561 Y34.624 E100.77565
G0 F2040 X-45.386 Y34.304
G1 F1020 X-40.085 Y39.605 E101.06255
G0 F2040 X-39.59 Y39.605
G1 F1020 X-45.211 Y33.984 E101.36677
G0 F2040 X-45.037 Y33.663
G1 F1020 X-39.095 Y39.605 E101.68836
G0 F2040 X-38.6 Y39.605
G1 F1020 X-44.862 Y33.343 E102.02726
G0 F2040 X-44.687 Y33.024
G1 F1020 X-38.105 Y39.605 E102.38346
G0 F2040 X-37.61 Y39.605
G1 F1020 X-44.512 Y32.703 E102.75701
G0 F2040 X-44.337 Y32.383
G1 F1020 X-37.115 Y39.605 E103.14787
G0 F2040 X-36.62 Y39.605
G1 F1020 X-44.163 Y32.063 E103.55608
G0 F2040 X-43.988 Y31.742
G1 F1020 X-36.125 Y39.605 E103.98164
G0 F2040 X-35.63 Y39.605
G1 F1020 X-43.813 Y31.422 E104.42451
G0 F2040 X-43.639 Y31.102
G1 F1020 X-35.135 Y39.605 E104.88473
G0 F2040 X-34.64 Y39.605
G1 F1020 X-43.464 Y30.781 E105.3623
G0 F2040 X-43.289 Y30.461
G1 F1020 X-34.145 Y39.605 E105.85718
G0 F2040 X-33.65 Y39.605
G1 F1020 X-43.115 Y30.141 E106.36941
G0 F2040 X-42.94 Y29.82
G1 F1020 X-33.155 Y39.605 E106.89899
G0 F2040 X-32.66 Y39.605
G1 F1020 X-42.765 Y29.501 E107.44586
G0 F2040 X-42.59 Y29.18
G1 F1020 X-32.165 Y39.605 E108.01007
G0 F2040 X-31.67 Y39.605
G1 F1020 X-42.415 Y28.86 E108.5916
G0 F2040 X-42.241 Y28.54
G1 F1020 X-31.175 Y39.605 E109.19048
G0 F2040 X-30.68 Y39.605
G1 F1020 X-42.066 Y28.219 E109.80671
G0 F2040 X-41.891 Y27.899
G1 F1020 X-30.185 Y39.605 E110.44025
G0 F2040 X-29.69 Y39.605
G1 F1020 X-41.717 Y27.579 E111.09114
G0 F2040 X-41.542 Y27.258
G1 F1020 X-29.195 Y39.605 E111.75938
G0 F2040 X-28.7 Y39.605
G1 F1020 X-41.367 Y26.938 E112.44493
G0 F2040 X-41.193 Y26.618
G1 F1020 X-28.205 Y39.605 E113.14783
G0 F2040 X-27.71 Y39.605
G1 F1020 X-41.018 Y26.298 E113.86805
G0 F2040 X-40.843 Y25.978
G1 F1020 X-27.215 Y39.605 E114.60559
G0 F2040 X-26.72 Y39.605
G1 F1020 X-40.668 Y25.658 E115.36044
G0 F2040 X-40.493 Y25.337
G1 F1020 X-26.225 Y39.605 E116.13265
G0 F2040 X-25.73 Y39.605
G1 F1020 X-40.319 Y25.017 E116.92219
G0 F2040 X-40.144 Y24.697
G1 F1020 X-25.235 Y39.605 E117.72906
G0 F2040 X-24.74 Y39.605
G1 F1020 X-39.969 Y24.376 E118.55327
G0 F2040 X-39.795 Y24.056
G1 F1020 X-24.245 Y39.605 E119.39483
G0 F2040 X-23.751 Y39.605
G1 F1020 X-39.62 Y23.736 E120.25368
G0 F2040 X-39.445 Y23.415
G1 F1020 X-23.256 Y39.605 E121.12988
G0 F2040 X-22.761 Y39.605
G1 F1020 X-39.271 Y23.095 E122.02342
G0 F2040 X-39.096 Y22.775
G1 F1020 X-22.266 Y39.605 E122.93428
G0 F2040 X-21.771 Y39.605
G1 F1020 X-38.921 Y22.455 E123.86246
G0 F2040 X-38.746 Y22.135
G1 F1020 X-21.276 Y39.605 E124.80796
G0 F2040 X-20.781 Y39.605
G1 F1020 X-38.571 Y21.814 E125.77081
G0 F2040 X-38.397 Y21.494
G1 F1020 X-20.286 Y39.605 E126.751
G0 F2040 X-19.791 Y39.605
G1 F1020 X-38.222 Y21.174 E127.74851
G0 F2040 X-38.048 Y20.853
G1 F1020 X-19.296 Y39.605 E128.76339
G0 F2040 X-18.801 Y39.605
G1 F1020 X-37.873 Y20.533 E129.79559
G0 F2040 X-37.698 Y20.213
G1 F1020 X-18.306 Y39.605 E130.84511
G0 F2040 X-17.811 Y39.605
G1 F1020 X-37.524 Y19.893 E131.91197
G0 F2040 X-37.349 Y19.572
G1 F1020 X-17.316 Y39.605 E132.99619
G0 F2040 X-16.821 Y39.605
G1 F1020 X-37.174 Y19.252 E134.09772
G0 F2040 X-36.999 Y18.932
G1 F1020 X-16.326 Y39.605 E135.21657
G0 F2040 X-15.831 Y39.605
G1 F1020 X-36.824 Y18.612 E136.35273
G0 F2040 X-36.65 Y18.292
G1 F1020 X-15.336 Y39.605 E137.50625
G0 F2040 X-14.841 Y39.605
G1 F1020 X-36.475 Y17.971 E138.67711
G0 F2040 X-36.3 Y17.651
G1 F1020 X-14.346 Y39.605 E139.86529
G0 F2040 X-13.851 Y39.605
G1 F1020 X-36.126 Y17.331 E141.07081
G0 F2040 X-35.951 Y17.01
G1 F1020 X-13.356 Y39.605 E142.29368
G0 F2040 X-12.861 Y39.605
G1 F1020 X-35.776 Y16.69 E143.53387
G0 F2040 X-35.602 Y16.37
G1 F1020 X-12.366 Y39.605 E144.7914
G0 F2040 X-11.871 Y39.605
G1 F1020 X-35.427 Y16.049 E146.06628
G0 F2040 X-35.252 Y15.73
G1 F1020 X-11.376 Y39.605 E147.35846
G0 F2040 X-10.881 Y39.605
G1 F1020 X-35.077 Y15.409 E148.66798
G0 F2040 X-34.902 Y15.089
G1 F1020 X-10.386 Y39.605 E149.99481
G0 F2040 X-9.891 Y39.605
G1 F1020 X-34.728 Y14.769 E151.339
G0 F2040 X-34.553 Y14.449
G1 F1020 X-9.396 Y39.605 E152.7005
G0 F2040 X-8.901 Y39.605
G1 F1020 X-34.378 Y14.128 E154.07935
G0 F2040 X-34.204 Y13.808
G1 F1020 X-8.406 Y39.605 E155.47554
G0 F2040 X-7.911 Y39.605
G1 F1020 X-34.029 Y13.488 E156.88905
G0 F2040 X-33.854 Y13.167
G1 F1020 X-7.416 Y39.605 E158.31991
G0 F2040 X-6.921 Y39.605
G1 F1020 X-33.68 Y12.847 E159.76811
G0 F2040 X-33.505 Y12.527
G1 F1020 X-6.426 Y39.605 E161.23364
G0 F2040 X-5.931 Y39.605
G1 F1020 X-33.33 Y12.207 E162.71648
G0 F2040 X-33.155 Y11.887
G1 F1020 X-5.436 Y39.605 E164.21664
G0 F2040 X-4.941 Y39.605
G1 F1020 X-32.98 Y11.566 E165.73414
G0 F2040 X-32.806 Y11.246
G1 F1020 X-4.446 Y39.605 E167.269
G0 F2040 X-3.952 Y39.605
G1 F1020 X-32.631 Y10.926 E168.82114
G0 F2040 X-32.456 Y10.605
G1 F1020 X-3.457 Y39.605 E170.39063
G0 F2040 X-2.962 Y39.605
G1 F1020 X-32.282 Y10.285 E171.97747
G0 F2040 X-32.107 Y9.965
G1 F1020 X-2.467 Y39.605 E173.58162
G0 F2040 X-1.972 Y39.605
G1 F1020 X-31.932 Y9.644 E175.20312
G0 F2040 X-31.758 Y9.324
G1 F1020 X-1.477 Y39.605 E176.84197
G0 F2040 X-.982 Y39.605
G1 F1020 X-31.583 Y9.004 E178.49813
G0 F2040 X-31.408 Y8.684
G1 F1020 X-.487 Y39.605 E180.17162
G0 F2040 X0.007 Y39.605
G1 F1020 X-31.233 Y8.364 E181.86239
G0 F2040 X-31.058 Y8.044
G1 F1020 X0.502 Y39.605 E183.57049
G0 F2040 X0.997 Y39.605
G1 F1020 X-30.884 Y7.723 E185.29595
G0 F2040 X-30.709 Y7.403
G1 F1020 X1.492 Y39.605 E187.03874
G0 F2040 X1.987 Y39.605
G1 F1020 X-30.534 Y7.083 E188.79885
G0 F2040 X-30.36 Y6.762
G1 F1020 X2.482 Y39.605 E190.57632
G0 F2040 X2.977 Y39.605
G1 F1020 X-30.185 Y6.442 E192.37112
G0 F2040 X-30.011 Y6.122
G1 F1020 X3.472 Y39.605 E194.18326
G0 F2040 X3.967 Y39.605
G1 F1020 X-29.836 Y5.801 E196.01275
G0 F2040 X-29.661 Y5.481
G1 F1020 X4.462 Y39.605 E197.85956
G0 F2040 X4.957 Y39.605
G1 F1020 X-29.486 Y5.161 E199.72369
G0 F2040 X-29.311 Y4.841
G1 F1020 X5.452 Y39.605 E201.60513
G0 F2040 X5.947 Y39.605
G1 F1020 X-29.137 Y4.521 E203.50392
G0 F2040 X-28.962 Y4.2
G1 F1020 X6.442 Y39.605 E205.42006
G0 F2040 X6.937 Y39.605
G1 F1020 X-28.787 Y3.88 E207.35351
G0 F2040 X-28.613 Y3.56
G1 F1020 X7.432 Y39.605 E209.30431
G0 F2040 X7.927 Y39.605
G1 F1020 X-28.438 Y3.239 E211.27246
G0 F2040 X-28.263 Y2.919
G1 F1020 X8.422 Y39.605 E213.25793
G0 F2040 X8.917 Y39.605
G1 F1020 X-28.089 Y2.599 E215.26074
G0 F2040 X-27.914 Y2.279
G1 F1020 X9.412 Y39.605 E217.28087
G0 F2040 X9.907 Y39.605
G1 F1020 X-27.739 Y1.958 E219.31835
G0 F2040 X-27.564 Y1.639
