;FLAVOR:Marlin
;TIME:7960
;Filament used: 7.34064m
;Layer height: 0.2
;MINX:-53.983
;MINY:-44.452
;MINZ:0.26
;MAXX:56.249
;MAXY:54.09
;MAXZ:22.86
;Generated with Cura_SteamEngine 4.8.0
M82 ;absolute extrusion mode
;Gcode by Cura
G90
G28
M107
M109 R100
G30
M109 S215 U-55 X55 V-85 Y-85 W0.26 Z0.26
M82
G92 E0
G1 F200 E6
G92 E0
G1 F200 E-3.5
G0 Z0.15
G0 X10
G0 Z3
G1 F6000
G92 E0
G92 E0
G1 F3600 E-3.8
;LAYER_COUNT:114
;LAYER:0
M107
G0 F2040 X0.31 Y51.497 Z0.26
;TYPE:SKIRT
G1 F3600 E0
G1 F1020 X-53.001 Y-36.946 E3.95201
G1 X-53.361 Y-37.564 E3.97938
G1 X-53.63 Y-38.106 E4.00253
G1 X-53.826 Y-38.678 E4.02567
G1 X-53.944 Y-39.271 E4.04881
G1 X-53.983 Y-39.874 E4.07194
G1 X-53.942 Y-40.477 E4.09507
G1 X-53.822 Y-41.07 E4.11822
G1 X-53.625 Y-41.642 E4.14137
G1 X-53.354 Y-42.182 E4.16449
G1 X-53.014 Y-42.682 E4.18763
G1 X-52.611 Y-43.133 E4.21078
G1 X-52.153 Y-43.527 E4.2339
G1 X-51.646 Y-43.857 E4.25705
G1 X-51.1 Y-44.118 E4.28021
G1 X-50.525 Y-44.304 E4.30334
G1 X-49.93 Y-44.412 E4.32648
G1 X-49.372 Y-44.446 E4.34788
G1 X-48.992 Y-44.452 E4.36242
G1 X51.052 Y-44.452 E8.19106
G1 X51.742 Y-44.442 E8.21746
G1 X52.345 Y-44.393 E8.24062
G1 X52.936 Y-44.265 E8.26376
G1 X53.505 Y-44.061 E8.28689
G1 X54.042 Y-43.783 E8.31003
G1 X54.538 Y-43.436 E8.3332
G1 X54.983 Y-43.028 E8.3563
G1 X55.371 Y-42.564 E8.37945
G1 X55.695 Y-42.053 E8.40261
G1 X55.948 Y-41.504 E8.42574
G1 X56.127 Y-40.926 E8.44889
G1 X56.227 Y-40.33 E8.47202
G1 X56.249 Y-39.726 E8.49515
G1 X56.19 Y-39.124 E8.5183
G1 X56.053 Y-38.535 E8.54144
G1 X55.8 Y-37.886 E8.5681
G1 X55.526 Y-37.339 E8.59151
G1 X8.823 Y51.092 E12.4187
G1 X8.488 Y51.706 E12.44547
G1 X8.164 Y52.217 E12.46862
G1 X7.776 Y52.68 E12.49174
G1 X7.329 Y53.088 E12.5149
G1 X6.833 Y53.434 E12.53804
G1 X6.296 Y53.711 E12.56117
G1 X5.727 Y53.915 E12.5843
G1 X5.135 Y54.042 E12.60747
G1 X4.533 Y54.09 E12.63058
G1 X3.929 Y54.058 E12.65373
G1 X3.335 Y53.946 E12.67686
G1 X2.76 Y53.758 E12.70001
G1 X2.216 Y53.495 E12.72314
G1 X1.71 Y53.162 E12.74632
G1 X1.254 Y52.766 E12.76943
G1 X0.693 Y52.093 E12.80296
G1 X0.31 Y51.497 E12.83007
G0 F2040 X0.608 Y51.314
G1 F1020 X-52.699 Y-37.122 E16.78177
G1 X-53.059 Y-37.74 E16.80914
G1 X-53.316 Y-38.261 E16.83137
G1 X-53.499 Y-38.813 E16.85363
G1 X-53.605 Y-39.384 E16.87586
G1 X-53.632 Y-39.964 E16.89808
G1 X-53.579 Y-40.543 E16.92033
G1 X-53.446 Y-41.109 E16.94258
G1 X-53.238 Y-41.651 E16.96479
G1 X-52.957 Y-42.16 E16.98704
G1 X-52.609 Y-42.625 E17.00927
G1 X-52.2 Y-43.038 E17.03152
G1 X-51.739 Y-43.391 E17.05374
G1 X-51.233 Y-43.677 E17.07598
G1 X-50.693 Y-43.892 E17.09822
G1 X-50.129 Y-44.03 E17.12044
G1 X-49.557 Y-44.089 E17.14245
G1 X-48.988 Y-44.102 E17.16423
G1 X51.047 Y-44.102 E20.99252
G1 X51.737 Y-44.092 E21.01893
G1 X52.316 Y-44.043 E21.04117
G1 X52.883 Y-43.916 E21.0634
G1 X53.427 Y-43.712 E21.08564
G1 X53.938 Y-43.435 E21.10788
G1 X54.406 Y-43.091 E21.13011
G1 X54.823 Y-42.686 E21.15236
G1 X55.18 Y-42.228 E21.17458
G1 X55.471 Y-41.725 E21.19682
G1 X55.69 Y-41.187 E21.21905
G1 X55.833 Y-40.623 E21.24132
G1 X55.897 Y-40.046 E21.26353
G1 X55.882 Y-39.465 E21.28577
G1 X55.787 Y-38.892 E21.308
G1 X55.614 Y-38.337 E21.33025
G1 X55.398 Y-37.858 E21.35036
G1 X55.196 Y-37.463 E21.36734
G1 X8.516 Y50.925 E25.19265
G1 X8.181 Y51.539 E25.21942
G1 X7.868 Y52.028 E25.24164
G1 X7.491 Y52.47 E25.26387
G1 X7.057 Y52.857 E25.28613
G1 X6.574 Y53.18 E25.30836
G1 X6.052 Y53.434 E25.33058
G1 X5.499 Y53.613 E25.35282
G1 X4.927 Y53.715 E25.37506
G1 X4.346 Y53.738 E25.39731
G1 X3.768 Y53.681 E25.41954
G1 X3.203 Y53.545 E25.44178
G1 X2.662 Y53.333 E25.46401
G1 X2.156 Y53.048 E25.48624
G1 X1.693 Y52.697 E25.50847
G1 X1.283 Y52.286 E25.53069
G1 X0.879 Y51.745 E25.55653
G1 X0.608 Y51.314 E25.57601
G0 F2040 X0.907 Y51.131
G1 F1020 X-52.367 Y-37.249 E29.52523
G1 X-52.756 Y-37.917 E29.55481
G1 X-53.001 Y-38.416 E29.57608
G1 X-53.172 Y-38.946 E29.59739
G1 X-53.265 Y-39.494 E29.61867
G1 X-53.279 Y-40.051 E29.63999
G1 X-53.212 Y-40.603 E29.66127
G1 X-53.068 Y-41.14 E29.68255
G1 X-52.848 Y-41.651 E29.70384
G1 X-52.557 Y-42.126 E29.72515
G1 X-52.201 Y-42.553 E29.74643
G1 X-51.787 Y-42.926 E29.76776
G1 X-51.325 Y-43.235 E29.78903
G1 X-50.823 Y-43.475 E29.81032
G1 X-50.291 Y-43.64 E29.83164
G1 X-49.545 Y-43.74 E29.86044
G1 X-48.984 Y-43.752 E29.88192
G1 X51.042 Y-43.752 E33.70986
G1 X51.732 Y-43.742 E33.73627
G1 X52.286 Y-43.694 E33.75755
G1 X52.828 Y-43.567 E33.77886
G1 X53.346 Y-43.364 E33.80015
G1 X53.83 Y-43.088 E33.82147
G1 X54.269 Y-42.747 E33.84274
G1 X54.655 Y-42.346 E33.86404
G1 X54.979 Y-41.893 E33.88536
G1 X55.235 Y-41.399 E33.90665
G1 X55.418 Y-40.874 E33.92793
G1 X55.524 Y-40.328 E33.94921
G1 X55.55 Y-39.772 E33.97051
G1 X55.496 Y-39.218 E33.99182
G1 X55.364 Y-38.678 E34.01309
G1 X55.169 Y-38.189 E34.03324
G1 X54.904 Y-37.659 E34.05591
G1 X8.209 Y50.757 E37.88245
G1 X7.874 Y51.371 E37.90921
G1 X7.573 Y51.839 E37.93051
G1 X7.208 Y52.259 E37.9518
G1 X6.787 Y52.623 E37.9731
G1 X6.318 Y52.922 E37.99439
G1 X5.811 Y53.151 E38.01568
G1 X5.276 Y53.306 E38.03699
G1 X4.725 Y53.382 E38.05828
G1 X4.169 Y53.378 E38.07956
G1 X3.618 Y53.295 E38.10088
G1 X3.086 Y53.134 E38.12215
G1 X2.582 Y52.898 E38.14345
G1 X2.117 Y52.592 E38.16475
G1 X1.7 Y52.223 E38.18606
G1 X1.271 Y51.699 E38.21198
G1 X0.907 Y51.131 E38.2378
G0 F2040 X1.189 Y50.922
G1 F1020 X-52.094 Y-37.475 E42.18774
G1 X-52.454 Y-38.093 E42.21511
G1 X-52.686 Y-38.57 E42.23541
G1 X-52.843 Y-39.077 E42.25573
G1 X-52.923 Y-39.601 E42.27601
G1 X-52.923 Y-40.132 E42.29633
G1 X-52.843 Y-40.657 E42.31666
G1 X-52.686 Y-41.163 E42.33693
G1 X-52.454 Y-41.641 E42.35726
G1 X-52.153 Y-42.078 E42.37757
G1 X-51.79 Y-42.465 E42.39788
G1 X-51.373 Y-42.793 E42.41818
G1 X-50.912 Y-43.055 E42.43847
G1 X-50.416 Y-43.245 E42.4588
G1 X-49.898 Y-43.358 E42.47909
G1 X-49.335 Y-43.397 E42.50069
G1 X-48.98 Y-43.402 E42.51427
G1 X51.037 Y-43.402 E46.34188
G1 X51.727 Y-43.392 E46.36829
G1 X52.256 Y-43.344 E46.38861
G1 X52.771 Y-43.218 E46.4089
G1 X53.262 Y-43.015 E46.42924
G1 X53.716 Y-42.742 E46.44951
G1 X54.125 Y-42.403 E46.46984
G1 X54.477 Y-42.006 E46.49014
G1 X54.767 Y-41.562 E46.51044
G1 X54.986 Y-41.078 E46.53077
G1 X55.131 Y-40.568 E46.55106
G1 X55.197 Y-40.041 E46.57139
G1 X55.183 Y-39.511 E46.59168
G1 X55.09 Y-38.988 E46.612
G1 X54.853 Y-38.34 E46.63841
G1 X54.593 Y-37.82 E46.66066
G1 X7.901 Y50.589 E50.4869
G1 X7.566 Y51.203 E50.51367
G1 X7.278 Y51.649 E50.53399
G1 X6.926 Y52.046 E50.55429
G1 X6.518 Y52.385 E50.57459
G1 X6.064 Y52.66 E50.59491
G1 X5.574 Y52.863 E50.6152
G1 X5.059 Y52.991 E50.63551
G1 X4.53 Y53.04 E50.65584
G1 X4.001 Y53.008 E50.67612
G1 X3.482 Y52.898 E50.69643
G1 X2.985 Y52.711 E50.71675
G1 X2.522 Y52.452 E50.73705
G1 X2.103 Y52.126 E50.75737
G1 X1.738 Y51.74 E50.7777
G1 X1.366 Y51.21 E50.80248
G1 X1.189 Y50.922 E50.81542
G0 F2040 X1.489 Y50.741
G1 F1020 X-51.791 Y-37.651 E54.76514
G1 X-52.151 Y-38.269 E54.79251
G1 X-52.37 Y-38.723 E54.8118
G1 X-52.513 Y-39.205 E54.83104
G1 X-52.579 Y-39.705 E54.85034
G1 X-52.565 Y-40.208 E54.8696
G1 X-52.471 Y-40.703 E54.88888
G1 X-52.3 Y-41.177 E54.90816
G1 X-52.057 Y-41.617 E54.9274
G1 X-51.747 Y-42.014 E54.94668
G1 X-51.378 Y-42.357 E54.96596
G1 X-50.959 Y-42.637 E54.98524
G1 X-50.502 Y-42.848 E55.00451
G1 X-50.017 Y-42.983 E55.02377
G1 X-49.52 Y-43.04 E55.04292
G1 X-48.976 Y-43.052 E55.06374
G1 X51.032 Y-43.052 E58.891
G1 X51.722 Y-43.042 E58.91741
G1 X52.223 Y-42.994 E58.93667
G1 X52.711 Y-42.869 E58.95595
G1 X53.173 Y-42.667 E58.97524
G1 X53.596 Y-42.395 E58.99449
G1 X53.972 Y-42.06 E59.01376
G1 X54.29 Y-41.669 E59.03305
G1 X54.542 Y-41.233 E59.05232
G1 X54.722 Y-40.763 E59.07158
G1 X54.825 Y-40.27 E59.09086
G1 X54.849 Y-39.767 E59.11013
G1 X54.794 Y-39.267 E59.12938
G1 X54.66 Y-38.781 E59.14867
G1 X54.452 Y-38.313 E59.16827
G1 X54.268 Y-37.953 E59.18374
G1 X7.594 Y50.422 E63.00851
G1 X7.259 Y51.036 E63.03528
G1 X6.984 Y51.457 E63.05452
G1 X6.645 Y51.83 E63.07381
G1 X6.252 Y52.144 E63.09306
G1 X5.814 Y52.393 E63.11234
G1 X5.342 Y52.569 E63.13162
G1 X4.848 Y52.668 E63.1509
G1 X4.345 Y52.687 E63.17017
G1 X3.845 Y52.627 E63.18944
G1 X3.36 Y52.489 E63.20874
G1 X2.904 Y52.276 E63.228
G1 X2.487 Y51.993 E63.24728
G1 X2.121 Y51.648 E63.26653
G1 X1.746 Y51.153 E63.2903
G1 X1.489 Y50.741 E63.30888
G1 F3600 E59.50888
;MESH:support_tri_0_096.stl
G0 F2040 X3.636 Y49.439
G0 X4.376 Y48.993
G0 X4.44 Y48.472
;TYPE:WALL-INNER
G1 F3600 E63.30888
G1 F1020 X-48.497 Y-39.352 E67.23321
G1 X50.822 Y-39.352 E71.0341
G1 X4.44 Y48.472 E74.83501
G0 F2040 X4.459 Y49.132
;TYPE:WALL-OUTER
G1 F1020 X-49.072 Y-39.677 E78.80336
G1 X51.361 Y-39.677 E82.64688
G1 X4.459 Y49.132 E86.49041
G0 F2040 X4.356 Y48.961
G0 X4.442 Y48.91
G0 X4.42 Y47.781
;TYPE:SKIN
G1 F1020 X-47.895 Y-39.012 E90.36866
G1 X50.257 Y-39.012 E94.12489
G1 X4.42 Y47.781 E97.88117
G0 F2040 X4.577 Y47.145
G1 F1020 X3.681 Y46.249 E97.92966
G1 X3.619 Y46.187
G0 F2040 X4.748 Y46.821
G1 F1020 X2.93 Y45.003 E98.02805
G1 X2.868 Y44.941
G0 F2040 X2.179 Y43.757
G1 F1020 X4.92 Y46.497 E98.17637
G0 F2040 X5.091 Y46.174
G1 F1020 X1.427 Y42.51 E98.37467
G1 X1.365 Y42.448
G0 F2040 X0.676 Y41.264
G1 F1020 X5.262 Y45.85 E98.62287
G0 F2040 X5.433 Y45.526
G1 F1020 X-0.074 Y40.018 E98.92095
G1 X-.136 Y39.956
G0 F2040 X-.825 Y38.772
G1 F1020 X5.604 Y45.202 E99.26892
G0 F2040 X5.775 Y44.878
G1 F1020 X-1.576 Y37.526 E99.66679
G1 X-1.638 Y37.464
G0 F2040 X-2.327 Y36.28
G1 F1020 X5.946 Y44.554 E100.11456
G0 F2040 X6.117 Y44.23
G1 F1020 X-3.078 Y35.034 E100.61224
G1 X-3.14 Y34.972
G0 F2040 X-3.829 Y33.788
G1 F1020 X6.289 Y43.907 E101.15986
G0 F2040 X6.459 Y43.582
G1 F1020 X-4.58 Y32.542 E101.75733
G1 X-4.642 Y32.48
G0 F2040 X-5.331 Y31.296
G1 F1020 X6.63 Y43.258 E102.40471
G0 F2040 X6.801 Y42.934
G1 F1020 X-6.082 Y30.05 E103.10198
G1 X-6.144 Y29.988
G0 F2040 X-6.833 Y28.804
G1 F1020 X6.972 Y42.61 E103.84915
G0 F2040 X7.143 Y42.287
G1 F1020 X-7.585 Y27.558 E104.64627
G1 X-7.647 Y27.496
G0 F2040 X-8.336 Y26.312
G1 F1020 X7.315 Y41.963 E105.49333
G0 F2040 X7.486 Y41.639
G1 F1020 X-9.087 Y25.066 E106.39028
G1 X-9.149 Y25.004
G0 F2040 X-9.837 Y23.82
G1 F1020 X7.657 Y41.315 E107.3371
G0 F2040 X7.828 Y40.991
G1 F1020 X-10.588 Y22.574 E108.33383
G1 X-10.65 Y22.512
G0 F2040 X-11.339 Y21.328
G1 F1020 X7.999 Y40.667 E109.38045
G0 F2040 X8.17 Y40.343
G1 F1020 X-12.091 Y20.081 E110.47703
G1 X-12.153 Y20.019
G0 F2040 X-12.842 Y18.835
G1 F1020 X8.341 Y40.02 E111.62353
G0 F2040 X8.512 Y39.695
G1 F1020 X-13.593 Y17.589 E112.81991
G1 X-13.655 Y17.527
G0 F2040 X-14.344 Y16.344
G1 F1020 X8.683 Y39.371 E114.06616
G0 F2040 X8.854 Y39.047
G1 F1020 X-15.095 Y15.098 E115.36231
G1 X-15.157 Y15.036
G0 F2040 X-15.846 Y13.852
G1 F1020 X9.025 Y38.723 E116.70836
G0 F2040 X9.196 Y38.4
G1 F1020 X-16.597 Y12.606 E118.10434
G1 X-16.659 Y12.544
G0 F2040 X-17.348 Y11.359
G1 F1020 X9.367 Y38.076 E119.55024
G0 F2040 X9.538 Y37.752
G1 F1020 X-18.099 Y10.113 E121.04605
G1 X-18.161 Y10.051
G0 F2040 X-18.85 Y8.867
G1 F1020 X9.709 Y37.428 E122.59175
G0 F2040 X9.881 Y37.104
G1 F1020 X-19.601 Y7.621 E124.18738
G1 X-19.663 Y7.559
G0 F2040 X-20.352 Y6.375
G1 F1020 X10.052 Y36.78 E125.83291
G0 F2040 X10.223 Y36.457
G1 F1020 X-21.103 Y5.13 E127.52834
G1 X-21.165 Y5.068
G0 F2040 X-21.855 Y3.883
G1 F1020 X10.394 Y36.133 E129.27373
G0 F2040 X10.564 Y35.808
G1 F1020 X-22.606 Y2.637 E131.06896
G1 X-22.668 Y2.575
G0 F2040 X-23.357 Y1.391
G1 F1020 X10.736 Y35.484 E132.91411
G0 F2040 X10.907 Y35.16
G1 F1020 X-24.108 Y0.145 E134.80917
G1 X-24.17 Y0.083
G0 F2040 X-24.859 Y-1.1
G1 F1020 X11.078 Y34.837 E136.75413
G0 F2040 X11.249 Y34.513
G1 F1020 X-25.609 Y-2.346 E138.74895
G1 X-25.671 Y-2.408
G0 F2040 X-26.361 Y-3.592
G1 F1020 X11.42 Y34.189 E140.79371
G0 F2040 X11.591 Y33.865
G1 F1020 X-27.112 Y-4.838 E142.88837
G1 X-27.174 Y-4.9
G0 F2040 X-27.863 Y-6.084
G1 F1020 X11.762 Y33.541 E145.03292
G0 F2040 X11.933 Y33.217
G1 F1020 X-28.614 Y-7.33 E147.22738
G1 X-28.676 Y-7.392
G0 F2040 X-29.365 Y-8.576
G1 F1020 X12.104 Y32.893 E149.47173
G0 F2040 X12.276 Y32.57
G1 F1020 X-30.116 Y-9.822 E151.76604
G1 X-30.178 Y-9.884
G0 F2040 X-30.868 Y-11.069
G1 F1020 X12.447 Y32.246 E154.1103
G0 F2040 X12.617 Y31.921
G1 F1020 X-31.618 Y-12.314 E156.50436
G1 X-31.68 Y-12.376
G0 F2040 X-32.369 Y-13.56
G1 F1020 X12.788 Y31.597 E158.94831
G0 F2040 X12.959 Y31.273
G1 F1020 X-33.12 Y-14.806 E161.44217
G1 X-33.182 Y-14.868
G0 F2040 X-33.871 Y-16.052
G1 F1020 X13.13 Y30.95 E163.98595
G0 F2040 X13.302 Y30.626
G1 F1020 X-34.622 Y-17.298 E166.57966
G1 X-34.684 Y-17.36
G0 F2040 X-35.373 Y-18.544
G1 F1020 X13.473 Y30.302 E169.22326
G0 F2040 X13.644 Y29.978
G1 F1020 X-36.125 Y-19.791 E171.91683
G1 X-36.187 Y-19.853
G0 F2040 X-36.876 Y-21.037
G1 F1020 X13.815 Y29.654 E174.66029
G0 F2040 X13.986 Y29.33
G1 F1020 X-37.627 Y-22.283 E177.45365
G1 X-37.689 Y-22.345
G0 F2040 X-38.378 Y-23.528
G1 F1020 X14.157 Y29.006 E180.29688
G0 F2040 X14.328 Y28.683
G1 F1020 X-39.129 Y-24.774 E183.19004
G1 X-39.191 Y-24.836
G0 F2040 X-39.88 Y-26.02
G1 F1020 X14.499 Y28.359 E186.1331
G0 F2040 X14.67 Y28.034
G1 F1020 X-40.631 Y-27.267 E189.12606
G1 X-40.693 Y-27.329
G0 F2040 X-41.382 Y-28.513
G1 F1020 X14.841 Y27.71 E192.16892
G0 F2040 X15.012 Y27.386
G1 F1020 X-42.133 Y-29.759 E195.26169
G1 X-42.195 Y-29.821
G0 F2040 X-42.884 Y-31.005
G1 F1020 X15.183 Y27.063 E198.40437
G0 F2040 X15.354 Y26.739
G1 F1020 X-43.635 Y-32.251 E201.59696
G1 X-43.697 Y-32.313
G0 F2040 X-44.386 Y-33.497
G1 F1020 X15.525 Y26.415 E204.83945
G0 F2040 X15.697 Y26.091
G1 F1020 X-45.138 Y-34.743 E208.13189
G1 X-45.2 Y-34.805
G0 F2040 X-45.889 Y-35.989
G1 F1020 X15.868 Y25.767 E211.47423
G0 F2040 X16.039 Y25.443
G1 F1020 X-46.64 Y-37.235 E214.86647
G1 X-46.702 Y-37.297
G0 F2040 X-47.391 Y-38.481
G1 F1020 X16.21 Y25.119 E218.30861
G0 F2040 X16.381 Y24.796
G1 F1020 X-47.27 Y-38.855 E221.75348
G0 F2040 X-46.775 Y-38.855
G1 F1020 X16.552 Y24.472 E225.18082
G0 F2040 X16.723 Y24.147
G1 F1020 X-46.28 Y-38.855 E228.59059
G0 F2040 X-45.785 Y-38.855
G1 F1020 X16.894 Y23.823 E231.98283
G0 F2040 X17.065 Y23.499
G1 F1020 X-45.29 Y-38.855 E235.35754
G0 F2040 X-44.795 Y-38.855
G1 F1020 X17.236 Y23.176 E238.71474
G0 F2040 X17.407 Y22.852
G1 F1020 X-44.3 Y-38.855 E242.0544
G0 F2040 X-43.805 Y-38.855
G1 F1020 X17.578 Y22.528 E245.37652
G0 F2040 X17.749 Y22.204
G1 F1020 X-43.31 Y-38.855 E248.68111
G0 F2040 X-42.815 Y-38.855
G1 F1020 X17.92 Y21.88 E251.96817
G0 F2040 X18.092 Y21.556
G1 F1020 X-42.32 Y-38.855 E255.23772
G0 F2040 X-41.825 Y-38.855
G1 F1020 X18.263 Y21.233 E258.48976
G0 F2040 X18.434 Y20.909
G1 F1020 X-41.33 Y-38.855 E261.72426
G0 F2040 X-40.835 Y-38.855
G1 F1020 X18.604 Y20.584 E264.94117
G0 F2040 X18.775 Y20.26
G1 F1020 X-40.34 Y-38.855 E268.14055
G0 F2040 X-39.845 Y-38.855
G1 F1020 X18.946 Y19.936 E271.3224
G0 F2040 X19.118 Y19.613
G1 F1020 X-39.35 Y-38.855 E274.48676
G0 F2040 X-38.855 Y-38.855
G1 F1020 X19.289 Y19.289 E277.63359
G0 F2040 X19.46 Y18.965
G1 F1020 X-38.36 Y-38.855 E280.76288
G0 F2040 X-37.865 Y-38.855
G1 F1020 X19.631 Y18.641 E283.87464
G0 F2040 X19.802 Y18.317
G1 F1020 X-37.37 Y-38.855 E286.96886
G0 F2040 X-36.875 Y-38.855
G1 F1020 X19.973 Y17.993 E290.04554
G0 F2040 X20.144 Y17.669
G1 F1020 X-36.38 Y-38.855 E293.1047
G0 F2040 X-35.885 Y-38.855
G1 F1020 X20.315 Y17.346 E296.14634
G0 F2040 X20.487 Y17.022
G1 F1020 X-35.39 Y-38.855 E299.17047
G0 F2040 X-34.895 Y-38.855
G1 F1020 X20.657 Y16.697 E302.17702
G0 F2040 X20.828 Y16.373
G1 F1020 X-34.4 Y-38.855 E305.16603
G0 F2040 X-33.905 Y-38.855
G1 F1020 X20.999 Y16.049 E308.1375
G0 F2040 X21.17 Y15.726
G1 F1020 X-33.41 Y-38.855 E311.09147
G0 F2040 X-32.915 Y-38.855
G1 F1020 X21.341 Y15.402 E314.0279
G0 F2040 X21.513 Y15.078
G1 F1020 X-32.42 Y-38.855 E316.94682
G0 F2040 X-31.925 Y-38.855
G1 F1020 X21.684 Y14.754 E319.84821
G0 F2040 X21.855 Y14.43
G1 F1020 X-31.43 Y-38.855 E322.73206
G0 F2040 X-30.935 Y-38.855
G1 F1020 X22.026 Y14.106 E325.59838
G0 F2040 X22.197 Y13.782
G1 F1020 X-30.44 Y-38.855 E328.44716
G0 F2040 X-29.945 Y-38.855
G1 F1020 X22.368 Y13.459 E331.27843
G0 F2040 X22.539 Y13.135
G1 F1020 X-29.45 Y-38.855 E334.09217
G0 F2040 X-28.956 Y-38.855
G1 F1020 X22.71 Y12.81 E336.88837
G0 F2040 X22.881 Y12.486
G1 F1020 X-28.461 Y-38.855 E339.66704
