;FLAVOR:Marlin
;TIME:6260
;Filament used: 8.00845m
;Layer height: 0.3
;MINX:-65.062
;MINY:-72.612
;MINZ:0.26
;MAXX:47.116
;MAXY:23.95
;MAXZ:22.76
;Generated with Cura_SteamEngine 4.9.1
M82 ;absolute extrusion mode
;Gcode by Cura
G90
G28
M107
M109 R100
G30
M109 S215 U-55 X55 V-85 Y-85 W0.26 Z0.26
M82
G92 E0
G1 F200 E6
G92 E0
G1 F200 E-3.5
G0 Z0.15
G0 X10
G0 Z3
G1 F6000
G92 E0
G92 E0
G1 F3600 E-3.8
;LAYER_COUNT:76
;LAYER:0
M107
G0 F2040 X41.56 Y23.95 Z0.26
;TYPE:SKIRT
G1 F3600 E0
G1 F1020 X-59.873 Y23.95 E3.88179
G1 X-60.556 Y23.94 E3.90793
G1 X-61.159 Y23.891 E3.93109
G1 X-61.75 Y23.763 E3.95423
G1 X-62.319 Y23.558 E3.97737
G1 X-62.856 Y23.28 E4.00051
G1 X-63.351 Y22.934 E4.02363
G1 X-63.797 Y22.525 E4.04679
G1 X-64.185 Y22.062 E4.0699
G1 X-64.508 Y21.551 E4.09304
G1 X-64.761 Y21.002 E4.11617
G1 X-64.94 Y20.424 E4.13933
G1 X-65.041 Y19.828 E4.16246
G1 X-65.062 Y19.223 E4.18563
G1 X-65.003 Y18.622 E4.20874
G1 X-64.866 Y18.033 E4.23188
G1 X-64.652 Y17.467 E4.25504
G1 X-64.411 Y17.01 E4.27481
G1 X-63.91 Y16.177 E4.31201
G1 X-10.187 Y-69.91 E8.1954
G1 X-9.803 Y-70.51 E8.22266
G1 X-9.445 Y-70.997 E8.24579
G1 X-9.025 Y-71.432 E8.26894
G1 X-8.551 Y-71.808 E8.29209
G1 X-8.032 Y-72.118 E8.31522
G1 X-7.476 Y-72.357 E8.33838
G1 X-6.894 Y-72.52 E8.36151
G1 X-6.296 Y-72.606 E8.38464
G1 X-5.691 Y-72.612 E8.40779
G1 X-5.091 Y-72.538 E8.43093
G1 X-4.506 Y-72.385 E8.45407
G1 X-3.946 Y-72.157 E8.4772
G1 X-3.421 Y-71.857 E8.50035
G1 X-2.941 Y-71.49 E8.52347
G1 X-2.512 Y-71.063 E8.54663
G1 X-1.996 Y-70.346 E8.58044
G1 X-1.457 Y-69.418 E8.62151
G1 X46.251 Y16.588 E12.38539
G1 X46.574 Y17.189 E12.4115
G1 X46.824 Y17.74 E12.43465
G1 X47 Y18.318 E12.45778
G1 X47.098 Y18.915 E12.48093
G1 X47.116 Y19.519 E12.50405
G1 X47.054 Y20.121 E12.52721
G1 X46.914 Y20.709 E12.55035
G1 X46.697 Y21.273 E12.57347
G1 X46.408 Y21.804 E12.59661
G1 X46.051 Y22.292 E12.61975
G1 X45.633 Y22.729 E12.64289
G1 X45.161 Y23.107 E12.66603
G1 X44.644 Y23.42 E12.68916
G1 X44.089 Y23.661 E12.71232
G1 X43.508 Y23.827 E12.73544
G1 X42.637 Y23.929 E12.769
G1 X41.56 Y23.95 E12.81022
G0 F2040 X41.56 Y23.6
G1 F1020 X-59.868 Y23.6 E16.69183
G1 X-60.551 Y23.59 E16.71797
G1 X-61.13 Y23.541 E16.7402
G1 X-61.697 Y23.414 E16.76244
G1 X-62.241 Y23.21 E16.78467
G1 X-62.752 Y22.933 E16.80692
G1 X-63.22 Y22.589 E16.82915
G1 X-63.636 Y22.184 E16.85137
G1 X-63.993 Y21.725 E16.87362
G1 X-64.284 Y21.222 E16.89586
G1 X-64.503 Y20.684 E16.91809
G1 X-64.646 Y20.121 E16.94032
G1 X-64.71 Y19.543 E16.96257
G1 X-64.695 Y18.962 E16.98481
G1 X-64.6 Y18.389 E17.00704
G1 X-64.427 Y17.834 E17.02929
G1 X-64.111 Y17.19 E17.05674
G1 X-63.613 Y16.362 E17.09372
G1 X-9.893 Y-69.722 E20.97695
G1 X-9.509 Y-70.322 E21.00421
G1 X-9.162 Y-70.788 E21.02645
G1 X-8.756 Y-71.203 E21.04867
G1 X-8.296 Y-71.558 E21.0709
G1 X-7.791 Y-71.847 E21.09317
G1 X-7.252 Y-72.063 E21.11539
G1 X-6.688 Y-72.204 E21.13764
G1 X-6.111 Y-72.266 E21.15985
G1 X-5.53 Y-72.248 E21.18209
G1 X-4.957 Y-72.151 E21.20433
G1 X-4.403 Y-71.976 E21.22657
G1 X-3.878 Y-71.726 E21.24882
G1 X-3.393 Y-71.407 E21.27104
G1 X-2.956 Y-71.025 E21.29325
G1 X-2.575 Y-70.586 E21.3155
G1 X-2.299 Y-70.17 E21.3346
G1 X-1.763 Y-69.248 E21.37541
G1 X45.943 Y16.754 E25.13912
G1 X46.266 Y17.355 E25.16523
G1 X46.505 Y17.884 E25.18745
G1 X46.669 Y18.442 E25.2097
G1 X46.755 Y19.016 E25.23192
G1 X46.762 Y19.597 E25.25415
G1 X46.689 Y20.174 E25.27641
G1 X46.537 Y20.735 E25.29865
G1 X46.31 Y21.269 E25.32086
G1 X46.012 Y21.768 E25.3431
G1 X45.648 Y22.221 E25.36534
G1 X45.226 Y22.62 E25.38757
G1 X44.752 Y22.957 E25.40982
G1 X44.237 Y23.226 E25.43206
G1 X43.69 Y23.422 E25.4543
G1 X43.121 Y23.54 E25.47653
G1 X42.63 Y23.579 E25.49538
G1 X41.56 Y23.6 E25.53634
G0 F2040 X41.56 Y23.25
G1 F1020 X-59.863 Y23.25 E29.41775
G1 X-60.546 Y23.24 E29.44389
G1 X-61.1 Y23.192 E29.46517
G1 X-61.642 Y23.065 E29.48648
G1 X-62.16 Y22.861 E29.50778
G1 X-62.643 Y22.586 E29.52905
G1 X-63.082 Y22.244 E29.55035
G1 X-63.468 Y21.843 E29.57165
G1 X-63.792 Y21.391 E29.59293
G1 X-64.048 Y20.897 E29.61422
G1 X-64.231 Y20.371 E29.63554
G1 X-64.337 Y19.825 E29.65682
G1 X-64.363 Y19.269 E29.67812
G1 X-64.309 Y18.715 E29.69943
G1 X-64.177 Y18.175 E29.7207
G1 X-63.968 Y17.659 E29.742
G1 X-63.811 Y17.37 E29.75459
G1 X-63.316 Y16.548 E29.79131
G1 X-9.598 Y-69.533 E33.67441
G1 X-9.214 Y-70.133 E33.70167
G1 X-8.881 Y-70.579 E33.72297
G1 X-8.488 Y-70.972 E33.74424
G1 X-8.042 Y-71.306 E33.76556
G1 X-7.553 Y-71.572 E33.78687
G1 X-7.032 Y-71.765 E33.80813
G1 X-6.488 Y-71.882 E33.82942
G1 X-5.932 Y-71.919 E33.85075
G1 X-5.378 Y-71.877 E33.87201
G1 X-4.835 Y-71.755 E33.89331
G1 X-4.315 Y-71.557 E33.9146
G1 X-3.828 Y-71.287 E33.93591
G1 X-3.386 Y-70.949 E33.95721
G1 X-2.996 Y-70.552 E33.97851
G1 X-2.601 Y-69.994 E34.00467
G1 X-2.069 Y-69.079 E34.04517
G1 X45.634 Y16.92 E37.80872
G1 X45.957 Y17.521 E37.83484
G1 X46.185 Y18.028 E37.85611
G1 X46.337 Y18.563 E37.87739
G1 X46.412 Y19.115 E37.89871
G1 X46.406 Y19.671 E37.91999
G1 X46.321 Y20.221 E37.94129
G1 X46.158 Y20.753 E37.96258
G1 X45.92 Y21.256 E37.98388
G1 X45.613 Y21.72 E38.00517
G1 X45.243 Y22.136 E38.02648
G1 X44.817 Y22.493 E38.04775
G1 X44.344 Y22.787 E38.06906
G1 X43.834 Y23.009 E38.09035
G1 X43.297 Y23.156 E38.11165
G1 X42.623 Y23.229 E38.1376
G1 X41.56 Y23.25 E38.17829
G0 F2040 X41.56 Y22.9
G1 F1020 X-59.858 Y22.9 E42.05951
G1 X-60.541 Y22.89 E42.08565
G1 X-61.069 Y22.842 E42.10594
G1 X-61.584 Y22.715 E42.12624
G1 X-62.075 Y22.513 E42.14655
G1 X-62.53 Y22.239 E42.16688
G1 X-62.938 Y21.9 E42.18718
G1 X-63.291 Y21.504 E42.20748
G1 X-63.58 Y21.059 E42.22779
G1 X-63.799 Y20.576 E42.24808
G1 X-63.944 Y20.065 E42.26841
G1 X-64.01 Y19.539 E42.2887
G1 X-63.996 Y19.008 E42.30903
G1 X-63.903 Y18.486 E42.32932
G1 X-63.732 Y17.983 E42.34965
G1 X-63.511 Y17.55 E42.36825
G1 X-63.019 Y16.733 E42.40475
G1 X-9.303 Y-69.344 E46.28768
G1 X-8.919 Y-69.944 E46.31494
G1 X-8.6 Y-70.368 E46.33524
G1 X-8.221 Y-70.74 E46.35557
G1 X-7.791 Y-71.05 E46.37585
G1 X-7.319 Y-71.292 E46.39615
G1 X-6.815 Y-71.461 E46.4165
G1 X-6.293 Y-71.552 E46.43677
G1 X-5.762 Y-71.564 E46.4571
G1 X-5.236 Y-71.496 E46.4774
G1 X-4.726 Y-71.35 E46.4977
G1 X-4.243 Y-71.128 E46.51804
G1 X-3.8 Y-70.837 E46.53833
G1 X-3.405 Y-70.483 E46.55863
G1 X-3.068 Y-70.073 E46.57894
G1 X-2.904 Y-69.818 E46.59054
G1 X-2.375 Y-68.909 E46.63079
G1 X45.326 Y17.085 E50.39413
G1 X45.649 Y17.686 E50.42025
G1 X45.864 Y18.171 E50.44055
G1 X46.004 Y18.683 E50.46086
G1 X46.066 Y19.21 E50.48117
G1 X46.048 Y19.741 E50.5015
G1 X45.95 Y20.262 E50.52179
G1 X45.776 Y20.763 E50.54209
G1 X45.527 Y21.232 E50.56241
G1 X45.212 Y21.659 E50.58271
G1 X44.836 Y22.033 E50.60301
G1 X44.408 Y22.347 E50.62332
G1 X43.938 Y22.593 E50.64363
G1 X43.436 Y22.765 E50.66393
G1 X42.914 Y22.861 E50.68424
G1 X42.616 Y22.879 E50.69567
G1 X41.56 Y22.9 E50.73609
G0 F2040 X41.56 Y22.55
G1 F1020 X-59.852 Y22.55 E54.61708
G1 X-60.535 Y22.54 E54.64322
G1 X-61.037 Y22.492 E54.66252
G1 X-61.524 Y22.366 E54.68177
G1 X-61.986 Y22.165 E54.70105
G1 X-62.41 Y21.893 E54.72033
G1 X-62.785 Y21.558 E54.73957
G1 X-63.103 Y21.167 E54.75886
G1 X-63.355 Y20.731 E54.77813
G1 X-63.535 Y20.261 E54.79739
G1 X-63.638 Y19.768 E54.81667
G1 X-63.662 Y19.265 E54.83594
G1 X-63.607 Y18.764 E54.85523
G1 X-63.472 Y18.279 E54.87449
G1 X-63.211 Y17.73 E54.89776
G1 X-62.723 Y16.918 E54.93401
G1 X-9.008 Y-69.155 E58.81679
G1 X-8.624 Y-69.755 E58.84405
G1 X-8.32 Y-70.157 E58.86334
G1 X-7.956 Y-70.505 E58.88261
G1 X-7.542 Y-70.791 E58.90186
G1 X-7.087 Y-71.008 E58.92116
G1 X-6.604 Y-71.151 E58.94043
G1 X-6.105 Y-71.215 E58.95969
G1 X-5.602 Y-71.2 E58.97894
G1 X-5.107 Y-71.105 E58.99823
G1 X-4.634 Y-70.933 E59.01749
G1 X-4.193 Y-70.689 E59.03678
G1 X-3.797 Y-70.378 E59.05605
G1 X-3.455 Y-70.008 E59.07533
G1 X-3.206 Y-69.642 E59.09227
G1 X-2.714 Y-68.797 E59.12969
G1 X45.018 Y17.251 E62.89542
G1 X45.341 Y17.852 E62.92153
G1 X45.543 Y18.313 E62.9408
G1 X45.67 Y18.8 E62.96006
G1 X45.719 Y19.302 E62.97936
G1 X45.687 Y19.804 E62.99861
G1 X45.577 Y20.296 E63.0179
G1 X45.39 Y20.763 E63.03715
G1 X45.131 Y21.195 E63.05643
G1 X44.808 Y21.581 E63.07569
G1 X44.427 Y21.911 E63.09498
G1 X43.999 Y22.177 E63.11427
G1 X43.535 Y22.371 E63.13351
G1 X43.046 Y22.49 E63.15277
G1 X42.609 Y22.529 E63.16956
G1 X41.56 Y22.55 E63.20972
G1 F3600 E59.40972
;MESH:support_tri_0_106.stl
G0 F2040 X41.56 Y20.04
G0 X41.56 Y19.005
G0 X-6.124 Y-66.788
;TYPE:WALL-INNER
G1 F3600 E63.20972
G1 F1020 X-5.968 Y-67.038 E63.22099
G1 X-5.825 Y-66.779 E63.22743
G1 X-4.762 Y-64.86 E63.31139
G1 X41.53 Y18.591 E66.96347
G1 X41.674 Y18.85 E66.97481
G1 X41.378 Y18.85 E66.98126
G1 X41.377 Y18.85 E66.9813
G1 X-59.251 Y18.85 E70.83229
G1 X-59.252 Y18.85 E70.83232
G1 X-59.566 Y18.85 E70.84434
G1 X-59.4 Y18.583 E70.85111
G1 X-6.125 Y-66.787 E74.70215
G1 X-6.124 Y-66.788 E74.7022
G0 F2040 X-6.108 Y-67.428
;TYPE:WALL-OUTER
G1 F1020 X-5.952 Y-67.678 E74.71348
G1 X-5.809 Y-67.419 E74.71992
G1 X-4.478 Y-65.017 E74.82501
G1 X42.081 Y18.916 E78.49819
G1 X42.225 Y19.175 E78.50953
G1 X41.929 Y19.175 E78.51597
G1 X41.928 Y19.175 E78.51601
G1 X-60.152 Y19.175 E82.42257
G1 X-6.109 Y-67.427 E86.32916
G1 X-6.108 Y-67.428 E86.32921
G0 F2040 X-6.002 Y-67.598
G0 X-5.961 Y-67.284
G0 X-5.985 Y-66.368
;TYPE:SKIN
G1 F1020 X-5.059 Y-64.695 E86.40239
G1 X41.097 Y18.51 E90.04372
G1 X-58.954 Y18.51 E93.87263
G1 X-5.985 Y-66.368 E97.70149
G0 F2040 X-6.059 Y-65.951
G1 F1020 X-5.778 Y-65.67 E97.7167
G0 F2040 X-6.249 Y-65.646
G1 F1020 X-5.164 Y-64.56 E97.77545
G1 X-5.102 Y-64.498
G0 F2040 X-4.547 Y-63.449
G1 F1020 X-6.439 Y-65.341 E97.87784
G0 F2040 X-6.629 Y-65.036
G1 F1020 X-3.93 Y-62.337 E98.02392
G1 X-3.868 Y-62.275
G0 F2040 X-3.313 Y-61.225
G1 F1020 X-6.82 Y-64.732 E98.21372
G0 F2040 X-7.01 Y-64.427
G1 F1020 X-2.696 Y-60.113 E98.4472
G1 X-2.634 Y-60.051
G0 F2040 X-2.08 Y-59.002
G1 F1020 X-7.2 Y-64.122 E98.7243
G0 F2040 X-7.39 Y-63.817
G1 F1020 X-1.463 Y-57.89 E99.04508
G1 X-1.401 Y-57.828
G0 F2040 X-.847 Y-56.779
G1 F1020 X-7.58 Y-63.513 E99.4095
G0 F2040 X-7.771 Y-63.208
G1 F1020 X-.23 Y-55.667 E99.81763
G1 X-.168 Y-55.605
G0 F2040 X0.386 Y-54.556
G1 F1020 X-7.961 Y-62.903 E100.26938
G0 F2040 X-8.151 Y-62.598
G1 F1020 X1.002 Y-53.444 E100.76478
G1 X1.064 Y-53.382
G0 F2040 X1.619 Y-52.332
G1 F1020 X-8.341 Y-62.293 E101.30386
G0 F2040 X-8.531 Y-61.989
G1 F1020 X2.235 Y-51.221 E101.88658
G1 X2.297 Y-51.159
G0 F2040 X2.852 Y-50.109
G1 F1020 X-8.722 Y-61.684 E102.51301
G0 F2040 X-8.912 Y-61.379
G1 F1020 X3.469 Y-48.998 E103.18308
G1 X3.531 Y-48.936
G0 F2040 X4.085 Y-47.886
G1 F1020 X-9.102 Y-61.074 E103.89681
G0 F2040 X-9.292 Y-60.77
G1 F1020 X4.702 Y-46.775 E104.65421
G1 X4.764 Y-46.713
G0 F2040 X5.318 Y-45.663
G1 F1020 X-9.483 Y-60.465 E105.45528
G0 F2040 X-9.673 Y-60.16
G1 F1020 X5.936 Y-44.551 E106.30006
G1 X5.998 Y-44.489
G0 F2040 X6.552 Y-43.439
G1 F1020 X-9.863 Y-59.855 E107.18849
G0 F2040 X-10.053 Y-59.551
G1 F1020 X7.169 Y-42.328 E108.12059
G1 X7.231 Y-42.266
G0 F2040 X7.785 Y-41.216
G1 F1020 X-10.243 Y-59.246 E109.09634
G0 F2040 X-10.434 Y-58.941
G1 F1020 X8.402 Y-40.104 E110.1158
G1 X8.464 Y-40.042
G0 F2040 X9.019 Y-38.993
G1 F1020 X-10.624 Y-58.636 E111.1789
G0 F2040 X-10.814 Y-58.332
G1 F1020 X9.635 Y-37.881 E112.28568
G1 X9.697 Y-37.819
G0 F2040 X10.252 Y-36.77
G1 F1020 X-11.004 Y-58.027 E113.43611
G0 F2040 X-11.194 Y-57.722
G1 F1020 X10.868 Y-35.658 E114.63019
G1 X10.93 Y-35.596
G0 F2040 X11.485 Y-34.547
G1 F1020 X-11.385 Y-57.417 E115.86794
G0 F2040 X-11.575 Y-57.113
G1 F1020 X12.102 Y-33.435 E117.1494
G1 X12.164 Y-33.373
G0 F2040 X12.718 Y-32.323
G1 F1020 X-11.765 Y-56.808 E118.47451
G0 F2040 X-11.955 Y-56.503
G1 F1020 X13.335 Y-31.212 E119.84326
G1 X13.397 Y-31.15
G0 F2040 X13.951 Y-30.1
G1 F1020 X-12.145 Y-56.198 E121.25566
G0 F2040 X-12.336 Y-55.893
G1 F1020 X14.568 Y-28.989 E122.71174
G1 X14.63 Y-28.927
G0 F2040 X15.185 Y-27.876
G1 F1020 X-12.526 Y-55.589 E124.21155
G0 F2040 X-12.716 Y-55.284
G1 F1020 X15.802 Y-26.765 E125.75501
G1 X15.864 Y-26.703
G0 F2040 X16.419 Y-25.653
G1 F1020 X-12.906 Y-54.979 E127.34214
G0 F2040 X-13.097 Y-54.674
G1 F1020 X17.035 Y-24.542 E128.97292
G1 X17.097 Y-24.48
G0 F2040 X17.652 Y-23.43
G1 F1020 X-13.287 Y-54.37 E130.64741
G0 F2040 X-13.477 Y-54.065
G1 F1020 X18.268 Y-22.319 E132.36552
G1 X18.33 Y-22.257
G0 F2040 X18.885 Y-21.207
G1 F1020 X-13.667 Y-53.76 E134.1273
G0 F2040 X-13.857 Y-53.455
G1 F1020 X19.502 Y-20.095 E135.93276
G1 X19.564 Y-20.033
G0 F2040 X20.118 Y-18.984
G1 F1020 X-14.048 Y-53.151 E137.78189
G0 F2040 X-14.238 Y-52.846
G1 F1020 X20.735 Y-17.872 E139.6747
G1 X20.797 Y-17.81
G0 F2040 X21.351 Y-16.761
G1 F1020 X-14.428 Y-52.541 E141.61113
G0 F2040 X-14.618 Y-52.236
G1 F1020 X21.968 Y-15.649 E143.59124
G1 X22.03 Y-15.587
G0 F2040 X22.584 Y-14.538
G1 F1020 X-14.808 Y-51.932 E145.615
G0 F2040 X-14.999 Y-51.627
G1 F1020 X23.201 Y-13.426 E147.68246
G1 X23.263 Y-13.364
G0 F2040 X23.818 Y-12.314
G1 F1020 X-15.189 Y-51.322 E149.79359
G0 F2040 X-15.378 Y-51.017
G1 F1020 X24.435 Y-11.202 E151.94838
G1 X24.497 Y-11.14
G0 F2040 X25.052 Y-10.091
G1 F1020 X-15.569 Y-50.712 E154.14684
G0 F2040 X-15.759 Y-50.407
G1 F1020 X25.668 Y-8.979 E156.38895
G1 X25.73 Y-8.917
G0 F2040 X26.285 Y-7.867
G1 F1020 X-15.949 Y-50.102 E158.67473
G0 F2040 X-16.139 Y-49.797
G1 F1020 X26.901 Y-6.756 E161.00414
G1 X26.963 Y-6.694
G0 F2040 X27.518 Y-5.644
G1 F1020 X-16.329 Y-49.493 E163.37725
G0 F2040 X-16.52 Y-49.188
G1 F1020 X28.135 Y-4.533 E165.79404
G1 X28.197 Y-4.471
G0 F2040 X28.751 Y-3.421
G1 F1020 X-16.71 Y-48.883 E168.25447
G0 F2040 X-16.9 Y-48.578
G1 F1020 X29.368 Y-2.31 E170.75855
G1 X29.43 Y-2.248
G0 F2040 X29.984 Y-1.198
G1 F1020 X-17.09 Y-48.274 E173.30631
G0 F2040 X-17.28 Y-47.969
G1 F1020 X30.601 Y-0.086 E175.89775
G1 X30.663 Y-0.024
G0 F2040 X31.218 Y1.024
G1 F1020 X-17.471 Y-47.664 E178.53283
G0 F2040 X-17.661 Y-47.359
G1 F1020 X31.834 Y2.136 E181.21156
G1 X31.896 Y2.198
G0 F2040 X32.451 Y3.247
G1 F1020 X-17.851 Y-47.055 E183.93397
G0 F2040 X-18.041 Y-46.75
G1 F1020 X33.067 Y4.359 E186.70003
G1 X33.129 Y4.421
G0 F2040 X33.685 Y5.471
G1 F1020 X-18.232 Y-46.445 E189.50982
G0 F2040 X-18.422 Y-46.14
G1 F1020 X34.301 Y6.583 E192.36325
G1 X34.363 Y6.645
G0 F2040 X34.918 Y7.694
G1 F1020 X-18.612 Y-45.836 E195.26036
G0 F2040 X-18.802 Y-45.531
G1 F1020 X35.534 Y8.806 E198.20112
G1 X35.596 Y8.868
G0 F2040 X36.151 Y9.917
G1 F1020 X-18.992 Y-45.226 E201.18553
G0 F2040 X-19.183 Y-44.921
G1 F1020 X36.768 Y11.029 E204.21365
G1 X36.83 Y11.091
G0 F2040 X37.384 Y12.141
G1 F1020 X-19.373 Y-44.617 E207.28543
G0 F2040 X-19.563 Y-44.312
G1 F1020 X38.001 Y13.252 E210.40087
G1 X38.063 Y13.314
G0 F2040 X38.617 Y14.364
G1 F1020 X-19.753 Y-44.007 E213.55996
G0 F2040 X-19.943 Y-43.702
G1 F1020 X39.234 Y15.475 E216.76269
G1 X39.296 Y15.537
G0 F2040 X39.851 Y16.587
G1 F1020 X-20.134 Y-43.397 E220.00913
G0 F2040 X-20.324 Y-43.093
G1 F1020 X40.467 Y17.698 E223.29922
G0 F2040 X40.626 Y18.352
G1 F1020 X-20.514 Y-42.788 E226.60819
G0 F2040 X-20.704 Y-42.483
G1 F1020 X40.131 Y18.352 E229.90066
G0 F2040 X39.636 Y18.352
G1 F1020 X-20.895 Y-42.178 E233.17665
G0 F2040 X-21.085 Y-41.874
G1 F1020 X39.141 Y18.352 E236.43615
G0 F2040 X38.646 Y18.352
G1 F1020 X-21.275 Y-41.569 E239.67915
G0 F2040 X-21.465 Y-41.264
G1 F1020 X38.151 Y18.352 E242.90565
G0 F2040 X37.656 Y18.352
G1 F1020 X-21.655 Y-40.959 E246.11563
G0 F2040 X-21.846 Y-40.655
G1 F1020 X37.161 Y18.352 E249.30917
G0 F2040 X36.667 Y18.352
G1 F1020 X-22.036 Y-40.35 E252.48622
G0 F2040 X-22.226 Y-40.045
G1 F1020 X36.172 Y18.352 E255.64677
G0 F2040 X35.677 Y18.352
G1 F1020 X-22.416 Y-39.74 E258.79081
G0 F2040 X-22.606 Y-39.436
G1 F1020 X35.182 Y18.352 E261.91837
G0 F2040 X34.687 Y18.352
G1 F1020 X-22.797 Y-39.131 E265.02945
G0 F2040 X-22.987 Y-38.826
G1 F1020 X34.192 Y18.352 E268.12402
G0 F2040 X33.697 Y18.352
G1 F1020 X-23.177 Y-38.521 E271.20209
G0 F2040 X-23.367 Y-38.217
G1 F1020 X33.202 Y18.352 E274.26368
G0 F2040 X32.707 Y18.352
G1 F1020 X-23.557 Y-37.912 E277.30876
G0 F2040 X-23.748 Y-37.607
G1 F1020 X32.212 Y18.352 E280.33736
G0 F2040 X31.717 Y18.352
G1 F1020 X-23.938 Y-37.302 E283.34945
G0 F2040 X-24.128 Y-36.997
G1 F1020 X31.222 Y18.352 E286.34503
G0 F2040 X30.727 Y18.352
