;FLAVOR:Marlin
;TIME:7884
;Filament used: 7.25305m
;Layer height: 0.2
;MINX:-67
;MINY:-71.093
;MINZ:0.26
;MAXX:42.114
;MAXY:25.917
;MAXZ:23.46
;Generated with Cura_SteamEngine 4.8.0
M82 ;absolute extrusion mode
;Gcode by Cura
G90
G28
M107
M109 R100
G30
M109 S215 U-55 X55 V-85 Y-85 W0.26 Z0.26
M82
G92 E0
G1 F200 E6
G92 E0
G1 F200 E-3.5
G0 Z0.15
G0 X10
G0 Z3
G1 F6000
G92 E0
G92 E0
G1 F3600 E-3.8
;LAYER_COUNT:117
;LAYER:0
M107
G0 F2040 X41.216 Y18.525 Z0.26
;TYPE:SKIRT
G1 F3600 E0
G1 F1020 X41.545 Y19.121 E0.02605
G1 X41.802 Y19.669 E0.04922
G1 X41.984 Y20.245 E0.07233
G1 X42.089 Y20.841 E0.09549
G1 X42.114 Y21.445 E0.11863
G1 X42.059 Y22.047 E0.14176
G1 X41.925 Y22.637 E0.16492
G1 X41.715 Y23.203 E0.18802
G1 X41.431 Y23.738 E0.2112
G1 X41.08 Y24.23 E0.23433
G1 X40.667 Y24.671 E0.25745
G1 X40.199 Y25.055 E0.28062
G1 X39.685 Y25.373 E0.30375
G1 X39.134 Y25.62 E0.32686
G1 X38.554 Y25.793 E0.35002
G1 X37.711 Y25.904 E0.38256
G1 X37.054 Y25.917 E0.40771
G1 X-61.804 Y25.917 E4.19096
G1 X-62.493 Y25.907 E4.21733
G1 X-63.096 Y25.858 E4.24048
G1 X-63.687 Y25.73 E4.26362
G1 X-64.256 Y25.525 E4.28677
G1 X-64.793 Y25.248 E4.30989
G1 X-65.289 Y24.901 E4.33306
G1 X-65.735 Y24.493 E4.35619
G1 X-66.122 Y24.029 E4.37931
G1 X-66.446 Y23.518 E4.40247
G1 X-66.699 Y22.969 E4.4256
G1 X-66.878 Y22.391 E4.44876
G1 X-66.978 Y21.795 E4.47188
G1 X-67 Y21.191 E4.49501
G1 X-66.941 Y20.589 E4.51816
G1 X-66.804 Y20 E4.54131
G1 X-66.502 Y19.251 E4.57221
G1 X-66.14 Y18.587 E4.60115
G1 X-16.753 Y-68.229 E8.42353
G1 X-16.393 Y-68.84 E8.45067
G1 X-16.053 Y-69.34 E8.47381
G1 X-15.649 Y-69.79 E8.49695
G1 X-15.19 Y-70.183 E8.52008
G1 X-14.683 Y-70.513 E8.54323
G1 X-14.137 Y-70.772 E8.56635
G1 X-13.561 Y-70.957 E8.58951
G1 X-12.966 Y-71.065 E8.61265
G1 X-12.362 Y-71.093 E8.63579
G1 X-11.76 Y-71.041 E8.65891
G1 X-11.169 Y-70.911 E8.68207
G1 X-10.601 Y-70.703 E8.70522
G1 X-10.066 Y-70.423 E8.72833
G1 X-9.572 Y-70.074 E8.75147
G1 X-9.128 Y-69.664 E8.7746
G1 X-8.742 Y-69.198 E8.79776
G1 X-8.524 Y-68.867 E8.81293
G1 X-7.961 Y-67.923 E8.85499
G1 X41.216 Y18.525 E12.66115
G0 F2040 X40.91 Y18.694
G1 F1020 X41.239 Y19.29 E12.6872
G1 X41.484 Y19.817 E12.70944
G1 X41.655 Y20.372 E12.73167
G1 X41.747 Y20.946 E12.75392
G1 X41.761 Y21.527 E12.77616
G1 X41.694 Y22.104 E12.79839
G1 X41.549 Y22.667 E12.82064
G1 X41.328 Y23.204 E12.84286
G1 X41.035 Y23.706 E12.8651
G1 X40.676 Y24.163 E12.88734
G1 X40.258 Y24.567 E12.90959
G1 X39.789 Y24.909 E12.9318
G1 X39.277 Y25.184 E12.95405
G1 X38.732 Y25.385 E12.97628
G1 X38.164 Y25.511 E12.99854
G1 X37.564 Y25.559 E13.02158
G1 X37.05 Y25.567 E13.04125
G1 X-61.799 Y25.567 E16.82415
G1 X-62.488 Y25.557 E16.85052
G1 X-63.067 Y25.508 E16.87276
G1 X-63.634 Y25.381 E16.895
G1 X-64.178 Y25.177 E16.91723
G1 X-64.689 Y24.9 E16.93948
G1 X-65.157 Y24.556 E16.9617
G1 X-65.574 Y24.151 E16.98395
G1 X-65.931 Y23.693 E17.00617
G1 X-66.222 Y23.19 E17.02841
G1 X-66.441 Y22.651 E17.05068
G1 X-66.584 Y22.088 E17.07291
G1 X-66.648 Y21.511 E17.09512
G1 X-66.633 Y20.93 E17.11737
G1 X-66.538 Y20.357 E17.13959
G1 X-66.365 Y19.802 E17.16184
G1 X-66.142 Y19.317 E17.18227
G1 X-65.834 Y18.757 E17.20673
G1 X-16.417 Y-68.111 E21.0314
G1 X-16.092 Y-68.663 E21.05591
G1 X-15.763 Y-69.142 E21.07815
G1 X-15.372 Y-69.571 E21.10037
G1 X-14.926 Y-69.943 E21.12259
G1 X-14.432 Y-70.251 E21.14487
G1 X-13.902 Y-70.487 E21.16707
G1 X-13.344 Y-70.649 E21.18931
G1 X-12.769 Y-70.732 E21.21154
G1 X-12.188 Y-70.736 E21.23378
G1 X-11.612 Y-70.66 E21.25601
G1 X-11.051 Y-70.505 E21.27829
G1 X-10.518 Y-70.276 E21.30049
G1 X-10.021 Y-69.975 E21.32272
G1 X-9.569 Y-69.609 E21.34498
G1 X-9.173 Y-69.184 E21.36721
G1 X-8.825 Y-68.687 E21.39043
G1 X-8.266 Y-67.75 E21.43218
G1 X40.91 Y18.694 E25.23819
G0 F2040 X40.603 Y18.863
G1 F1020 X40.932 Y19.459 E25.26425
G1 X41.166 Y19.964 E25.28555
G1 X41.324 Y20.498 E25.30686
G1 X41.405 Y21.048 E25.32813
G1 X41.405 Y21.605 E25.34945
G1 X41.326 Y22.156 E25.37075
G1 X41.169 Y22.689 E25.39202
G1 X40.938 Y23.195 E25.4133
G1 X40.636 Y23.663 E25.43462
G1 X40.27 Y24.082 E25.45591
G1 X39.848 Y24.445 E25.47721
G1 X39.378 Y24.743 E25.49851
G1 X38.871 Y24.971 E25.51978
G1 X38.336 Y25.124 E25.54108
G1 X37.684 Y25.204 E25.56622
G1 X37.045 Y25.217 E25.59068
G1 X-61.794 Y25.217 E29.3732
G1 X-62.483 Y25.207 E29.39957
G1 X-63.038 Y25.159 E29.42089
G1 X-63.579 Y25.032 E29.44215
G1 X-64.097 Y24.829 E29.46344
G1 X-64.581 Y24.553 E29.48477
G1 X-65.02 Y24.212 E29.50604
G1 X-65.406 Y23.81 E29.52737
G1 X-65.73 Y23.358 E29.54865
G1 X-65.986 Y22.864 E29.56994
G1 X-66.169 Y22.339 E29.59122
G1 X-66.275 Y21.793 E29.61251
G1 X-66.301 Y21.237 E29.63381
G1 X-66.247 Y20.683 E29.65511
G1 X-66.115 Y20.142 E29.67642
G1 X-65.878 Y19.57 E29.70012
G1 X-65.528 Y18.926 E29.72817
G1 X-16.115 Y-67.933 E33.55246
G1 X-15.79 Y-68.485 E33.57698
G1 X-15.474 Y-68.943 E33.59827
G1 X-15.096 Y-69.351 E33.61956
G1 X-14.663 Y-69.701 E33.64086
G1 X-14.185 Y-69.985 E33.66214
G1 X-13.67 Y-70.197 E33.68345
G1 X-13.131 Y-70.334 E33.70474
G1 X-12.578 Y-70.392 E33.72602
G1 X-12.022 Y-70.37 E33.74731
G1 X-11.474 Y-70.269 E33.76864
G1 X-10.947 Y-70.09 E33.78994
G1 X-10.451 Y-69.838 E33.81123
G1 X-9.997 Y-69.518 E33.83248
G1 X-9.593 Y-69.135 E33.85379
G1 X-9.125 Y-68.508 E33.88373
G1 X-8.57 Y-67.577 E33.92521
G1 X40.603 Y18.863 E37.73103
G0 F2040 X40.297 Y19.032
G1 F1020 X40.626 Y19.628 E37.75708
G1 X40.847 Y20.111 E37.77741
G1 X40.993 Y20.621 E37.79771
G1 X41.06 Y21.148 E37.81804
G1 X41.048 Y21.678 E37.83833
G1 X40.956 Y22.201 E37.85865
G1 X40.787 Y22.704 E37.87896
G1 X40.544 Y23.176 E37.89927
G1 X40.234 Y23.606 E37.91956
G1 X39.862 Y23.984 E37.93986
G1 X39.437 Y24.303 E37.96019
G1 X38.97 Y24.554 E37.98048
G1 X38.47 Y24.732 E38.00079
G1 X37.949 Y24.833 E38.0211
G1 X37.449 Y24.862 E38.04027
G1 X37.041 Y24.867 E38.05589
G1 X-61.789 Y24.867 E41.83806
G1 X-62.478 Y24.857 E41.86443
G1 X-63.007 Y24.809 E41.88476
G1 X-63.522 Y24.683 E41.90505
G1 X-64.013 Y24.48 E41.92538
G1 X-64.467 Y24.207 E41.94566
G1 X-64.876 Y23.868 E41.96599
G1 X-65.229 Y23.471 E41.98632
G1 X-65.518 Y23.027 E42.00659
G1 X-65.737 Y22.543 E42.02692
G1 X-65.882 Y22.033 E42.04721
G1 X-65.948 Y21.506 E42.06754
G1 X-65.934 Y20.976 E42.08783
G1 X-65.841 Y20.453 E42.10816
G1 X-65.566 Y19.729 E42.1378
G1 X-65.222 Y19.096 E42.16537
G1 X-15.814 Y-67.755 E45.9893
G1 X-15.489 Y-68.307 E46.01382
G1 X-15.186 Y-68.743 E46.03414
G1 X-14.821 Y-69.128 E46.05444
G1 X-14.402 Y-69.455 E46.07478
G1 X-13.939 Y-69.714 E46.09508
G1 X-13.443 Y-69.902 E46.11538
G1 X-12.924 Y-70.012 E46.13568
G1 X-12.394 Y-70.044 E46.156
G1 X-11.866 Y-69.995 E46.1763
G1 X-11.351 Y-69.868 E46.1966
G1 X-10.86 Y-69.665 E46.21693
G1 X-10.406 Y-69.39 E46.23724
G1 X-9.998 Y-69.051 E46.25754
G1 X-9.646 Y-68.654 E46.27785
G1 X-9.426 Y-68.328 E46.2929
G1 X-8.874 Y-67.404 E46.33409
G1 X40.297 Y19.032 E50.13974
G0 F2040 X39.991 Y19.202
G1 F1020 X40.32 Y19.798 E50.16579
G1 X40.527 Y20.256 E50.18502
G1 X40.66 Y20.742 E50.20431
G1 X40.714 Y21.243 E50.22359
G1 X40.688 Y21.746 E50.24287
G1 X40.583 Y22.238 E50.26212
G1 X40.401 Y22.708 E50.28141
G1 X40.148 Y23.143 E50.30066
G1 X39.829 Y23.533 E50.31995
G1 X39.452 Y23.867 E50.33922
G1 X39.027 Y24.137 E50.35849
G1 X38.565 Y24.337 E50.37776
G1 X38.077 Y24.461 E50.39703
G1 X37.524 Y24.51 E50.41827
G1 X37.037 Y24.517 E50.43691
G1 X-61.784 Y24.517 E54.21874
G1 X-62.473 Y24.507 E54.24511
G1 X-62.974 Y24.459 E54.26438
G1 X-63.462 Y24.334 E54.28365
G1 X-63.924 Y24.132 E54.30295
G1 X-64.348 Y23.86 E54.32223
G1 X-64.723 Y23.525 E54.34147
G1 X-65.041 Y23.134 E54.36076
G1 X-65.293 Y22.698 E54.38003
G1 X-65.473 Y22.228 E54.39929
G1 X-65.576 Y21.735 E54.41857
G1 X-65.6 Y21.232 E54.43784
G1 X-65.545 Y20.732 E54.45709
G1 X-65.411 Y20.246 E54.47638
G1 X-65.156 Y19.699 E54.49948
G1 X-64.899 Y19.235 E54.51978
G1 X-15.512 Y-67.578 E58.34205
G1 X-15.187 Y-68.13 E58.36657
G1 X-14.898 Y-68.542 E58.38582
G1 X-14.547 Y-68.904 E58.40512
G1 X-14.144 Y-69.205 E58.42437
G1 X-13.698 Y-69.439 E58.44365
G1 X-13.22 Y-69.599 E58.46294
G1 X-12.724 Y-69.682 E58.48218
G1 X-12.22 Y-69.686 E58.50147
G1 X-11.722 Y-69.609 E58.52075
G1 X-11.243 Y-69.455 E58.54001
G1 X-10.794 Y-69.227 E58.55928
G1 X-10.387 Y-68.931 E58.57854
G1 X-10.031 Y-68.574 E58.59783
G1 X-9.726 Y-68.148 E58.61789
G1 X-9.178 Y-67.231 E58.65877
G1 X39.991 Y19.202 E62.46428
G1 F3600 E58.66428
;MESH:support_tri_0_021.stl
G0 F2040 X37.808 Y20.442
G0 X36.927 Y20.944
G0 X36.654 Y20.817
;TYPE:WALL-INNER
G1 F3600 E62.46428
G1 F1020 X-61.542 Y20.817 E66.22219
G1 X-12.444 Y-65.488 E70.0221
G1 X36.654 Y20.817 E73.82201
G0 F2040 X37.212 Y21.142
;TYPE:WALL-OUTER
G1 F1020 X-62.1 Y21.142 E77.62263
G1 X-12.444 Y-66.145 E81.46576
G1 X37.212 Y21.142 E85.30889
G0 F2040 X37.012 Y21.142
G0 X36.869 Y20.942
G0 X36.069 Y20.477
;TYPE:SKIN
G1 F1020 X-60.957 Y20.477 E89.02203
G1 X-12.444 Y-64.801 E92.77671
G1 X36.069 Y20.477 E96.53139
G0 F2040 X-60.568 Y20.112
G1 F1020 X-60.36 Y20.32 E96.54264
G0 F2040 X-59.865 Y20.32
G1 F1020 X-60.389 Y19.796 E96.571
G0 F2040 X-60.209 Y19.481
G1 F1020 X-59.37 Y20.32 E96.61641
G0 F2040 X-58.875 Y20.32
G1 F1020 X-60.029 Y19.166 E96.67887
G0 F2040 X-59.85 Y18.85
G1 F1020 X-58.38 Y20.32 E96.75842
G0 F2040 X-57.885 Y20.32
G1 F1020 X-59.671 Y18.534 E96.85509
G0 F2040 X-59.491 Y18.219
G1 F1020 X-57.39 Y20.32 E96.96879
G0 F2040 X-56.895 Y20.32
G1 F1020 X-59.312 Y17.903 E97.09961
G0 F2040 X-59.132 Y17.588
G1 F1020 X-56.4 Y20.32 E97.24746
G0 F2040 X-55.905 Y20.32
G1 F1020 X-58.952 Y17.273 E97.41237
G0 F2040 X-58.773 Y16.957
G1 F1020 X-55.411 Y20.32 E97.59436
G0 F2040 X-54.916 Y20.32
G1 F1020 X-58.594 Y16.641 E97.79344
G0 F2040 X-58.414 Y16.326
G1 F1020 X-54.421 Y20.32 E98.00957
G0 F2040 X-53.926 Y20.32
G1 F1020 X-58.235 Y16.011 E98.24278
G0 F2040 X-58.055 Y15.695
G1 F1020 X-53.431 Y20.32 E98.49307
G0 F2040 X-52.936 Y20.32
G1 F1020 X-57.875 Y15.38 E98.7604
G0 F2040 X-57.697 Y15.064
G1 F1020 X-52.441 Y20.32 E99.04486
G0 F2040 X-51.946 Y20.32
G1 F1020 X-57.517 Y14.748 E99.3464
G0 F2040 X-57.337 Y14.433
G1 F1020 X-51.451 Y20.32 E99.66498
G0 F2040 X-50.956 Y20.32
G1 F1020 X-57.158 Y14.118 E100.00064
G0 F2040 X-56.978 Y13.802
G1 F1020 X-50.461 Y20.32 E100.35338
G0 F2040 X-49.966 Y20.32
G1 F1020 X-56.799 Y13.487 E100.72319
G0 F2040 X-56.62 Y13.171
G1 F1020 X-49.471 Y20.32 E101.1101
G0 F2040 X-48.976 Y20.32
G1 F1020 X-56.44 Y12.855 E101.51409
G0 F2040 X-56.26 Y12.54
G1 F1020 X-48.481 Y20.32 E101.93512
G0 F2040 X-47.986 Y20.32
G1 F1020 X-56.081 Y12.225 E102.37324
G0 F2040 X-55.901 Y11.909
G1 F1020 X-47.491 Y20.32 E102.82842
G0 F2040 X-46.996 Y20.32
G1 F1020 X-55.722 Y11.594 E103.30069
G0 F2040 X-55.543 Y11.278
G1 F1020 X-46.501 Y20.32 E103.79005
G0 F2040 X-46.006 Y20.32
G1 F1020 X-55.363 Y10.962 E104.29649
G0 F2040 X-55.184 Y10.647
G1 F1020 X-45.511 Y20.32 E104.82001
G0 F2040 X-45.016 Y20.32
G1 F1020 X-55.004 Y10.332 E105.36057
G0 F2040 X-54.824 Y10.016
G1 F1020 X-44.521 Y20.32 E105.91821
G0 F2040 X-44.026 Y20.32
G1 F1020 X-54.645 Y9.7 E106.49295
G0 F2040 X-54.466 Y9.385
G1 F1020 X-43.531 Y20.32 E107.08476
G0 F2040 X-43.036 Y20.32
G1 F1020 X-54.286 Y9.07 E107.69363
G0 F2040 X-54.107 Y8.754
G1 F1020 X-42.541 Y20.32 E108.3196
G0 F2040 X-42.046 Y20.32
G1 F1020 X-53.927 Y8.439 E108.96261
G0 F2040 X-53.747 Y8.123
G1 F1020 X-41.551 Y20.32 E109.6227
G0 F2040 X-41.056 Y20.32
G1 F1020 X-53.568 Y7.807 E110.29989
G0 F2040 X-53.389 Y7.492
G1 F1020 X-40.561 Y20.32 E110.99416
G0 F2040 X-40.066 Y20.32
G1 F1020 X-53.209 Y7.177 E111.70548
G0 F2040 X-53.03 Y6.861
G1 F1020 X-39.571 Y20.32 E112.43389
G0 F2040 X-39.076 Y20.32
G1 F1020 X-52.85 Y6.546 E113.17936
G0 F2040 X-52.67 Y6.231
G1 F1020 X-38.581 Y20.32 E113.94188
G0 F2040 X-38.086 Y20.32
G1 F1020 X-52.492 Y5.914 E114.72155
G0 F2040 X-52.312 Y5.599
G1 F1020 X-37.591 Y20.32 E115.51827
G0 F2040 X-37.096 Y20.32
G1 F1020 X-52.132 Y5.284 E116.33203
G0 F2040 X-51.953 Y4.968
G1 F1020 X-36.601 Y20.32 E117.1629
G0 F2040 X-36.106 Y20.32
G1 F1020 X-51.773 Y4.653 E118.01082
G0 F2040 X-51.594 Y4.337
G1 F1020 X-35.612 Y20.32 E118.87581
G0 F2040 X-35.117 Y20.32
G1 F1020 X-51.415 Y4.022 E119.75788
G0 F2040 X-51.235 Y3.706
G1 F1020 X-34.622 Y20.32 E120.65703
G0 F2040 X-34.127 Y20.32
G1 F1020 X-51.055 Y3.391 E121.57322
G0 F2040 X-50.876 Y3.075
G1 F1020 X-33.632 Y20.32 E122.50651
G0 F2040 X-33.137 Y20.32
G1 F1020 X-50.696 Y2.76 E123.45686
G0 F2040 X-50.517 Y2.444
G1 F1020 X-32.642 Y20.32 E124.4243
G0 F2040 X-32.147 Y20.32
G1 F1020 X-50.338 Y2.129 E125.40882
G0 F2040 X-50.158 Y1.813
G1 F1020 X-31.652 Y20.32 E126.41042
G0 F2040 X-31.157 Y20.32
G1 F1020 X-49.979 Y1.498 E127.42909
G0 F2040 X-49.799 Y1.182
G1 F1020 X-30.662 Y20.32 E128.46483
G0 F2040 X-30.167 Y20.32
G1 F1020 X-49.619 Y0.867 E129.51763
G0 F2040 X-49.44 Y0.551
G1 F1020 X-29.672 Y20.32 E130.58752
G0 F2040 X-29.177 Y20.32
G1 F1020 X-49.261 Y0.236 E131.67449
G0 F2040 X-49.081 Y-0.079
G1 F1020 X-28.682 Y20.32 E132.77851
G0 F2040 X-28.187 Y20.32
G1 F1020 X-48.902 Y-.394 E133.89961
G0 F2040 X-48.722 Y-.709
G1 F1020 X-27.692 Y20.32 E135.03775
G0 F2040 X-27.197 Y20.32
G1 F1020 X-48.543 Y-1.026 E136.19303
G0 F2040 X-48.363 Y-1.341
G1 F1020 X-26.702 Y20.32 E137.36535
G0 F2040 X-26.207 Y20.32
G1 F1020 X-48.184 Y-1.656 E138.55474
G0 F2040 X-48.004 Y-1.972
G1 F1020 X-25.712 Y20.32 E139.76121
G0 F2040 X-25.217 Y20.32
G1 F1020 X-47.825 Y-2.287 E140.98476
G0 F2040 X-47.645 Y-2.602
G1 F1020 X-24.722 Y20.32 E142.22536
G0 F2040 X-24.227 Y20.32
G1 F1020 X-47.466 Y-2.918 E143.48305
G0 F2040 X-47.287 Y-3.234
G1 F1020 X-23.732 Y20.32 E144.75785
G0 F2040 X-23.237 Y20.32
G1 F1020 X-47.107 Y-3.549 E146.0497
G0 F2040 X-46.927 Y-3.865
G1 F1020 X-22.742 Y20.32 E147.35862
G0 F2040 X-22.247 Y20.32
G1 F1020 X-46.748 Y-4.18 E148.68462
G0 F2040 X-46.568 Y-4.495
G1 F1020 X-21.752 Y20.32 E150.02767
G0 F2040 X-21.257 Y20.32
G1 F1020 X-46.389 Y-4.811 E151.38782
G0 F2040 X-46.21 Y-5.127
G1 F1020 X-20.762 Y20.32 E152.76507
G0 F2040 X-20.267 Y20.32
G1 F1020 X-46.03 Y-5.442 E154.15937
G0 F2040 X-45.85 Y-5.757
G1 F1020 X-19.772 Y20.32 E155.57071
G0 F2040 X-19.277 Y20.32
G1 F1020 X-45.671 Y-6.073 E156.99916
G0 F2040 X-45.492 Y-6.389
G1 F1020 X-18.782 Y20.32 E158.44472
G0 F2040 X-18.287 Y20.32
G1 F1020 X-45.312 Y-6.704 E159.90732
G0 F2040 X-45.133 Y-7.02
G1 F1020 X-17.792 Y20.32 E161.38702
G0 F2040 X-17.297 Y20.32
G1 F1020 X-44.953 Y-7.335 E162.88377
G0 F2040 X-44.774 Y-7.65
G1 F1020 X-16.802 Y20.32 E164.3976
G0 F2040 X-16.308 Y20.32
G1 F1020 X-44.594 Y-7.966 E165.92847
G0 F2040 X-44.415 Y-8.282
G1 F1020 X-15.813 Y20.32 E167.47645
G0 F2040 X-15.318 Y20.32
G1 F1020 X-44.235 Y-8.597 E169.04147
G0 F2040 X-44.056 Y-8.913
G1 F1020 X-14.823 Y20.32 E170.6236
G0 F2040 X-14.328 Y20.32
G1 F1020 X-43.876 Y-9.228 E172.22278
G0 F2040 X-43.697 Y-9.543
G1 F1020 X-13.833 Y20.32 E173.83903
G0 F2040 X-13.338 Y20.32
G1 F1020 X-43.517 Y-9.859 E175.47235
G0 F2040 X-43.338 Y-10.175
G1 F1020 X-12.843 Y20.32 E177.12278
G0 F2040 X-12.348 Y20.32
G1 F1020 X-43.158 Y-10.49 E178.79026
G0 F2040 X-42.979 Y-10.806
G1 F1020 X-11.853 Y20.32 E180.47484
G0 F2040 X-11.358 Y20.32
G1 F1020 X-42.799 Y-11.121 E182.17646
G0 F2040 X-42.62 Y-11.436
G1 F1020 X-10.863 Y20.32 E183.89516
G0 F2040 X-10.368 Y20.32
G1 F1020 X-42.441 Y-11.752 E185.63097
G0 F2040 X-42.261 Y-12.068
G1 F1020 X-9.873 Y20.32 E187.38385
G0 F2040 X-9.378 Y20.32
G1 F1020 X-42.082 Y-12.383 E189.1538
G0 F2040 X-41.902 Y-12.698
G1 F1020 X-8.883 Y20.32 E190.94081
G0 F2040 X-8.388 Y20.32
G1 F1020 X-41.722 Y-13.014 E192.74489
G0 F2040 X-41.543 Y-13.329
G1 F1020 X-7.893 Y20.32 E194.56604
G0 F2040 X-7.398 Y20.32
G1 F1020 X-41.364 Y-13.645 E196.4043
G0 F2040 X-41.184 Y-13.961
G1 F1020 X-6.903 Y20.32 E198.25963
G0 F2040 X-6.408 Y20.32
G1 F1020 X-41.005 Y-14.276 E200.13203
G0 F2040 X-40.825 Y-14.591
G1 F1020 X-5.913 Y20.32 E202.02149
G0 F2040 X-5.418 Y20.32
G1 F1020 X-40.645 Y-14.907 E203.92802
G0 F2040 X-40.467 Y-15.223
G1 F1020 X-4.923 Y20.32 E205.85168
G0 F2040 X-4.428 Y20.32
G1 F1020 X-40.287 Y-15.538 E207.79239
G0 F2040 X-40.107 Y-15.854
G1 F1020 X-3.933 Y20.32 E209.75017
G0 F2040 X-3.438 Y20.32
G1 F1020 X-39.928 Y-16.169 E211.72503
G0 F2040 X-39.748 Y-16.484
G1 F1020 X-2.943 Y20.32 E213.71693
G0 F2040 X-2.448 Y20.32
G1 F1020 X-39.568 Y-16.8 E215.72592
