;FLAVOR:Marlin
;TIME:7364
;Filament used: 6.92384m
;Layer height: 0.2
;MINX:-66.34
;MINY:-25.344
;MINZ:0.26
;MAXX:43.886
;MAXY:70.707
;MAXZ:13.66
;Generated with Cura_SteamEngine 4.8.0
M82 ;absolute extrusion mode
;Gcode by Cura
G90
G28
M107
M109 R100
G30
M109 S215 U-55 X55 V-85 Y-85 W0.26 Z0.26
M82
G92 E0
G1 F200 E6
G92 E0
G1 F200 E-3.5
G0 Z0.15
G0 X10
G0 Z3
G1 F6000
G92 E0
G92 E0
G1 F3600 E-3.8
;LAYER_COUNT:68
;LAYER:0
M107
G0 F2040 X38.689 Y-25.344 Z0.26
;TYPE:SKIRT
G1 F3600 E0
G1 F1020 X39.379 Y-25.334 E0.02641
G1 X39.982 Y-25.285 E0.04956
G1 X40.573 Y-25.157 E0.0727
G1 X41.142 Y-24.953 E0.09584
G1 X41.679 Y-24.675 E0.11898
G1 X42.175 Y-24.328 E0.14214
G1 X42.62 Y-23.92 E0.16525
G1 X43.008 Y-23.456 E0.18839
G1 X43.332 Y-22.945 E0.21155
G1 X43.585 Y-22.396 E0.23468
G1 X43.764 Y-21.818 E0.25784
G1 X43.864 Y-21.222 E0.28097
G1 X43.886 Y-20.618 E0.3041
G1 X43.827 Y-20.016 E0.32725
G1 X43.69 Y-19.427 E0.35039
G1 X43.396 Y-18.695 E0.38058
G1 X43.046 Y-18.049 E0.40869
G1 X-5.828 Y67.865 E4.19136
G1 X-6.178 Y68.458 E4.21771
G1 X-6.519 Y68.958 E4.24087
G1 X-6.923 Y69.408 E4.26401
G1 X-7.383 Y69.8 E4.28714
G1 X-7.89 Y70.129 E4.31027
G1 X-8.437 Y70.388 E4.33343
G1 X-9.013 Y70.572 E4.35657
G1 X-9.608 Y70.679 E4.37971
G1 X-10.212 Y70.707 E4.40285
G1 X-10.814 Y70.655 E4.42597
G1 X-11.404 Y70.523 E4.44911
G1 X-11.972 Y70.315 E4.47226
G1 X-12.507 Y70.034 E4.49539
G1 X-13.001 Y69.685 E4.51853
G1 X-13.444 Y69.274 E4.54166
G1 X-13.96 Y68.616 E4.57366
G1 X-14.311 Y68.047 E4.59925
G1 X-65.362 Y-17.826 E8.42244
G1 X-65.729 Y-18.463 E8.45057
G1 X-65.995 Y-19.005 E8.47368
G1 X-66.188 Y-19.578 E8.49682
G1 X-66.304 Y-20.172 E8.51998
G1 X-66.34 Y-20.775 E8.5431
G1 X-66.296 Y-21.378 E8.56624
G1 X-66.173 Y-21.971 E8.58941
G1 X-65.974 Y-22.541 E8.61252
G1 X-65.7 Y-23.08 E8.63566
G1 X-65.358 Y-23.579 E8.65881
G1 X-64.953 Y-24.028 E8.68195
G1 X-64.493 Y-24.42 E8.70508
G1 X-63.984 Y-24.748 E8.72825
G1 X-63.437 Y-25.005 E8.75138
G1 X-62.861 Y-25.189 E8.77452
G1 X-62.266 Y-25.294 E8.79764
G1 X-61.864 Y-25.321 E8.81306
G1 X-60.748 Y-25.344 E8.85578
G1 X38.689 Y-25.344 E12.66119
G0 F2040 X38.684 Y-24.994
G1 F1020 X39.374 Y-24.984 E12.68759
G1 X39.953 Y-24.935 E12.70983
G1 X40.52 Y-24.808 E12.73207
G1 X41.064 Y-24.604 E12.7543
G1 X41.575 Y-24.327 E12.77655
G1 X42.043 Y-23.983 E12.79877
G1 X42.46 Y-23.578 E12.82102
G1 X42.817 Y-23.12 E12.84324
G1 X43.108 Y-22.617 E12.86548
G1 X43.327 Y-22.079 E12.88771
G1 X43.47 Y-21.515 E12.90998
G1 X43.534 Y-20.938 E12.9322
G1 X43.519 Y-20.357 E12.95444
G1 X43.424 Y-19.784 E12.97667
G1 X43.251 Y-19.229 E12.99891
G1 X43.038 Y-18.764 E13.01849
G1 X42.74 Y-18.219 E13.04226
G1 X-6.129 Y67.688 E16.82459
G1 X-6.479 Y68.281 E16.85095
G1 X-6.809 Y68.759 E16.87317
G1 X-7.2 Y69.189 E16.89542
G1 X-7.647 Y69.56 E16.91765
G1 X-8.141 Y69.867 E16.93991
G1 X-8.671 Y70.103 E16.96211
G1 X-9.23 Y70.264 E16.98437
G1 X-9.805 Y70.346 E17.0066
G1 X-10.386 Y70.349 E17.02883
G1 X-10.962 Y70.273 E17.05107
G1 X-11.522 Y70.118 E17.0733
G1 X-12.055 Y69.888 E17.09552
G1 X-12.552 Y69.586 E17.11778
G1 X-13.003 Y69.22 E17.14
G1 X-13.399 Y68.795 E17.16223
G1 X-13.719 Y68.344 E17.1834
G1 X-14.012 Y67.866 E17.20485
G1 X-65.09 Y-18.054 E21.03012
G1 X-65.426 Y-18.637 E21.05587
G1 X-65.68 Y-19.159 E21.07809
G1 X-65.861 Y-19.712 E21.10036
G1 X-65.964 Y-20.283 E21.12256
G1 X-65.988 Y-20.864 E21.14482
G1 X-65.932 Y-21.442 E21.16704
G1 X-65.798 Y-22.007 E21.18926
G1 X-65.587 Y-22.549 E21.21152
G1 X-65.303 Y-23.056 E21.23376
G1 X-64.953 Y-23.52 E21.256
G1 X-64.542 Y-23.931 E21.27825
G1 X-64.079 Y-24.282 E21.30048
G1 X-63.572 Y-24.566 E21.32272
G1 X-63.031 Y-24.778 E21.34496
G1 X-62.466 Y-24.913 E21.36719
G1 X-61.856 Y-24.971 E21.39064
G1 X-60.748 Y-24.994 E21.43305
G1 X38.684 Y-24.994 E25.23826
G0 F2040 X38.679 Y-24.644
G1 F1020 X39.369 Y-24.634 E25.26467
G1 X39.923 Y-24.586 E25.28595
G1 X40.465 Y-24.459 E25.30726
G1 X40.983 Y-24.256 E25.32855
G1 X41.467 Y-23.98 E25.34987
G1 X41.906 Y-23.639 E25.37114
G1 X42.292 Y-23.238 E25.39244
G1 X42.616 Y-22.785 E25.41376
G1 X42.872 Y-22.291 E25.43505
G1 X43.055 Y-21.766 E25.45633
G1 X43.161 Y-21.22 E25.47761
G1 X43.187 Y-20.664 E25.49891
G1 X43.133 Y-20.11 E25.52022
G1 X43.001 Y-19.57 E25.54149
G1 X42.771 Y-19.011 E25.56462
G1 X42.434 Y-18.388 E25.59173
G1 X-6.431 Y67.51 E29.37369
G1 X-6.781 Y68.103 E29.40004
G1 X-7.097 Y68.56 E29.42131
G1 X-7.476 Y68.968 E29.44262
G1 X-7.909 Y69.317 E29.4639
G1 X-8.388 Y69.6 E29.48519
G1 X-8.903 Y69.812 E29.5065
G1 X-9.442 Y69.949 E29.52779
G1 X-9.996 Y70.006 E29.5491
G1 X-10.552 Y69.984 E29.5704
G1 X-11.099 Y69.882 E29.59169
G1 X-11.625 Y69.703 E29.61295
G1 X-12.121 Y69.45 E29.63426
G1 X-12.576 Y69.129 E29.65557
G1 X-12.979 Y68.746 E29.67685
G1 X-13.372 Y68.236 E29.70149
G1 X-13.713 Y67.684 E29.72632
G1 X-64.786 Y-18.229 E33.55126
G1 X-65.122 Y-18.812 E33.57701
G1 X-65.365 Y-19.313 E33.59832
G1 X-65.533 Y-19.843 E33.6196
G1 X-65.624 Y-20.392 E33.64089
G1 X-65.635 Y-20.949 E33.66221
G1 X-65.566 Y-21.501 E33.6835
G1 X-65.419 Y-22.037 E33.70477
G1 X-65.196 Y-22.547 E33.72608
G1 X-64.903 Y-23.02 E33.74737
G1 X-64.545 Y-23.446 E33.76866
G1 X-64.13 Y-23.817 E33.78997
G1 X-63.666 Y-24.124 E33.81126
G1 X-63.163 Y-24.361 E33.83254
G1 X-62.631 Y-24.524 E33.85383
G1 X-61.849 Y-24.621 E33.88399
G1 X-60.748 Y-24.644 E33.92613
G1 X38.679 Y-24.644 E37.73116
G0 F2040 X38.674 Y-24.294
G1 F1020 X39.364 Y-24.284 E37.75756
G1 X39.893 Y-24.236 E37.77789
G1 X40.408 Y-24.11 E37.79818
G1 X40.899 Y-23.907 E37.81851
G1 X41.353 Y-23.634 E37.83879
G1 X41.762 Y-23.295 E37.85912
G1 X42.114 Y-22.898 E37.87942
G1 X42.404 Y-22.454 E37.89972
G1 X42.623 Y-21.97 E37.92005
G1 X42.768 Y-21.46 E37.94034
G1 X42.834 Y-20.933 E37.96067
G1 X42.82 Y-20.403 E37.98096
G1 X42.727 Y-19.88 E38.00128
G1 X42.459 Y-19.168 E38.0304
G1 X42.127 Y-18.558 E38.05698
G1 X-6.732 Y67.332 E41.83856
G1 X-7.082 Y67.925 E41.86491
G1 X-7.386 Y68.36 E41.88522
G1 X-7.751 Y68.745 E41.90552
G1 X-8.17 Y69.071 E41.92584
G1 X-8.633 Y69.33 E41.94614
G1 X-9.13 Y69.517 E41.96646
G1 X-9.649 Y69.627 E41.98677
G1 X-10.179 Y69.657 E42.00708
G1 X-10.707 Y69.608 E42.02737
G1 X-11.222 Y69.481 E42.04767
G1 X-11.712 Y69.277 E42.06799
G1 X-12.166 Y69.002 E42.0883
G1 X-12.573 Y68.662 E42.10859
G1 X-12.925 Y68.265 E42.1289
G1 X-13.414 Y67.502 E42.16358
G1 X-64.483 Y-18.404 E45.98821
G1 X-64.819 Y-18.987 E46.01397
G1 X-65.049 Y-19.465 E46.03427
G1 X-65.204 Y-19.973 E46.05459
G1 X-65.281 Y-20.498 E46.0749
G1 X-65.279 Y-21.028 E46.09518
G1 X-65.197 Y-21.553 E46.11552
G1 X-65.037 Y-22.059 E46.13583
G1 X-64.803 Y-22.535 E46.15612
G1 X-64.5 Y-22.971 E46.17644
G1 X-64.135 Y-23.356 E46.19675
G1 X-63.717 Y-23.682 E46.21703
G1 X-63.254 Y-23.942 E46.23735
G1 X-62.757 Y-24.129 E46.25768
G1 X-62.238 Y-24.24 E46.27799
G1 X-61.841 Y-24.271 E46.29323
G1 X-60.748 Y-24.294 E46.33506
G1 X38.674 Y-24.294 E50.1399
G0 F2040 X38.669 Y-23.944
G1 F1020 X39.359 Y-23.934 E50.1663
G1 X39.86 Y-23.886 E50.18556
G1 X40.348 Y-23.761 E50.20484
G1 X40.81 Y-23.559 E50.22414
G1 X41.233 Y-23.287 E50.24339
G1 X41.609 Y-22.952 E50.26266
G1 X41.927 Y-22.561 E50.28195
G1 X42.179 Y-22.125 E50.30122
G1 X42.359 Y-21.655 E50.32048
G1 X42.462 Y-21.162 E50.33975
G1 X42.486 Y-20.659 E50.35902
G1 X42.431 Y-20.159 E50.37827
G1 X42.297 Y-19.673 E50.39757
G1 X42.044 Y-19.13 E50.42049
G1 X41.805 Y-18.698 E50.43939
G1 X-7.034 Y67.154 E54.21932
G1 X-7.384 Y67.747 E54.24568
G1 X-7.673 Y68.159 E54.26494
G1 X-8.024 Y68.52 E54.28421
G1 X-8.428 Y68.821 E54.30349
G1 X-8.874 Y69.054 E54.32274
G1 X-9.352 Y69.214 E54.34203
G1 X-9.849 Y69.297 E54.36132
G1 X-10.352 Y69.299 E54.38057
G1 X-10.85 Y69.222 E54.39985
G1 X-11.329 Y69.068 E54.41911
G1 X-11.778 Y68.839 E54.43839
G1 X-12.185 Y68.543 E54.45765
G1 X-12.54 Y68.186 E54.47692
G1 X-12.838 Y67.774 E54.49638
G1 X-13.131 Y67.293 E54.51793
G1 X-64.18 Y-18.579 E58.34106
G1 X-64.516 Y-19.162 E58.36681
G1 X-64.732 Y-19.616 E58.38605
G1 X-64.873 Y-20.1 E58.40534
G1 X-64.937 Y-20.599 E58.42459
G1 X-64.92 Y-21.103 E58.44389
G1 X-64.824 Y-21.597 E58.46315
G1 X-64.651 Y-22.07 E58.48243
G1 X-64.406 Y-22.51 E58.5017
G1 X-64.094 Y-22.905 E58.52096
G1 X-63.723 Y-23.246 E58.54025
G1 X-63.303 Y-23.524 E58.55952
G1 X-62.845 Y-23.733 E58.57879
G1 X-62.359 Y-23.866 E58.59807
G1 X-61.834 Y-23.921 E58.61827
G1 X-60.748 Y-23.944 E58.65984
G1 X38.669 Y-23.944 E62.46448
G1 F3600 E58.66448
;MESH:support_tri_0_018.stl
G0 F2040 X38.669 Y-21.434
G0 X38.669 Y-20.399
G0 X-10.127 Y65.107
;TYPE:WALL-INNER
G1 F3600 E62.46448
G1 F1020 X-60.866 Y-20.244 E66.26441
G1 X38.428 Y-20.244 E70.06434
G1 X-10.127 Y65.107 E73.82224
G0 F2040 X-10.121 Y65.753
;TYPE:WALL-OUTER
G1 F1020 X-61.437 Y-20.569 E77.66539
G1 X38.986 Y-20.569 E81.50853
G1 X-10.121 Y65.753 E85.30917
G0 F2040 X-10.223 Y65.582
G0 X-10.124 Y65.355
G0 X-10.134 Y64.431
;TYPE:SKIN
G1 F1020 X-60.269 Y-19.904 E89.06386
G1 X37.843 Y-19.904 E92.81856
G1 X-10.134 Y64.431 E96.53172
G0 F2040 X-9.954 Y63.796
G1 F1020 X-10.878 Y62.873 E96.58171
G1 X-10.94 Y62.811
G0 F2040 X-9.775 Y63.481
G1 F1020 X-11.603 Y61.652 E96.68067
G1 X-11.665 Y61.59
G0 F2040 X-12.329 Y60.432
G1 F1020 X-9.595 Y63.165 E96.82861
G0 F2040 X-9.415 Y62.85
G1 F1020 X-13.054 Y59.211 E97.02555
G1 X-13.116 Y59.149
G0 F2040 X-13.78 Y57.99
G1 F1020 X-9.236 Y62.535 E97.27151
G0 F2040 X-9.056 Y62.219
G1 F1020 X-14.506 Y56.77 E97.56644
G1 X-14.568 Y56.708
G0 F2040 X-15.231 Y55.549
G1 F1020 X-8.877 Y61.903 E97.91033
G0 F2040 X-8.698 Y61.588
G1 F1020 X-15.957 Y54.329 E98.3032
G1 X-16.019 Y54.267
G0 F2040 X-16.682 Y53.108
G1 F1020 X-8.518 Y61.272 E98.74504
G0 F2040 X-8.338 Y60.957
G1 F1020 X-17.408 Y51.888 E99.23589
G1 X-17.47 Y51.826
G0 F2040 X-18.133 Y50.667
G1 F1020 X-8.159 Y60.642 E99.77573
G0 F2040 X-7.98 Y60.326
G1 F1020 X-18.859 Y49.447 E100.36451
G1 X-18.921 Y49.385
G0 F2040 X-19.584 Y48.226
G1 F1020 X-7.8 Y60.01 E101.00228
G0 F2040 X-7.621 Y59.695
G1 F1020 X-20.31 Y47.006 E101.68902
G1 X-20.372 Y46.944
G0 F2040 X-21.035 Y45.785
G1 F1020 X-7.441 Y59.379 E102.42475
G0 F2040 X-7.261 Y59.064
G1 F1020 X-21.761 Y44.564 E103.20951
G1 X-21.823 Y44.502
G0 F2040 X-22.487 Y43.344
G1 F1020 X-7.082 Y58.749 E104.04324
G0 F2040 X-6.903 Y58.433
G1 F1020 X-23.212 Y42.123 E104.92593
G1 X-23.274 Y42.061
G0 F2040 X-23.938 Y40.903
G1 F1020 X-6.723 Y58.117 E105.85761
G0 F2040 X-6.544 Y57.802
G1 F1020 X-24.663 Y39.682 E106.83826
G1 X-24.725 Y39.62
G0 F2040 X-25.389 Y38.462
G1 F1020 X-6.364 Y57.487 E107.86791
G0 F2040 X-6.185 Y57.171
G1 F1020 X-26.114 Y37.241 E108.94652
G1 X-26.176 Y37.179
G0 F2040 X-26.84 Y36.021
G1 F1020 X-6.005 Y56.856 E110.07414
G0 F2040 X-5.826 Y56.54
G1 F1020 X-27.565 Y34.8 E111.25071
G1 X-27.627 Y34.738
G0 F2040 X-28.291 Y33.58
G1 F1020 X-5.646 Y56.224 E112.47626
G0 F2040 X-5.467 Y55.909
G1 F1020 X-29.017 Y32.359 E113.75081
G1 X-29.079 Y32.297
G0 F2040 X-29.743 Y31.138
G1 F1020 X-5.287 Y55.594 E115.0744
G0 F2040 X-5.108 Y55.278
G1 F1020 X-30.468 Y29.918 E116.44692
G1 X-30.53 Y29.856
G0 F2040 X-31.194 Y28.697
G1 F1020 X-4.929 Y54.962 E117.86841
G0 F2040 X-4.749 Y54.647
G1 F1020 X-31.919 Y27.477 E119.33889
G1 X-31.981 Y27.415
G0 F2040 X-32.644 Y26.256
G1 F1020 X-4.57 Y54.331 E120.85832
G0 F2040 X-4.39 Y54.016
G1 F1020 X-33.37 Y25.036 E122.42675
G1 X-33.432 Y24.974
G0 F2040 X-34.095 Y23.816
G1 F1020 X-4.21 Y53.701 E124.04417
G0 F2040 X-4.031 Y53.385
G1 F1020 X-34.821 Y22.595 E125.71056
G1 X-34.883 Y22.533
G0 F2040 X-35.546 Y21.375
G1 F1020 X-3.852 Y53.069 E127.42588
G0 F2040 X-3.672 Y52.754
G1 F1020 X-36.273 Y20.153 E129.19029
G1 X-36.335 Y20.091
G0 F2040 X-36.998 Y18.933
G1 F1020 X-3.493 Y52.439 E131.00365
G0 F2040 X-3.313 Y52.123
G1 F1020 X-37.724 Y17.713 E132.86599
G1 X-37.786 Y17.651
G0 F2040 X-38.449 Y16.492
G1 F1020 X-3.133 Y51.808 E134.77734
G0 F2040 X-2.954 Y51.492
G1 F1020 X-39.175 Y15.272 E136.73763
G1 X-39.237 Y15.21
G0 F2040 X-39.9 Y14.051
G1 F1020 X-2.775 Y51.176 E138.74689
G0 F2040 X-2.595 Y50.861
G1 F1020 X-40.626 Y12.831 E140.80515
G1 X-40.688 Y12.769
G0 F2040 X-41.351 Y11.61
G1 F1020 X-2.416 Y50.546 E142.91238
G0 F2040 X-2.236 Y50.23
G1 F1020 X-42.077 Y10.39 E145.0686
G1 X-42.139 Y10.328
G0 F2040 X-42.802 Y9.169
G1 F1020 X-2.056 Y49.915 E147.27383
G0 F2040 X-1.878 Y49.599
G1 F1020 X-43.528 Y7.948 E149.52801
G1 X-43.59 Y7.886
G0 F2040 X-44.254 Y6.728
G1 F1020 X-1.698 Y49.283 E151.83117
G0 F2040 X-1.518 Y48.968
G1 F1020 X-44.979 Y5.507 E154.18333
G1 X-45.041 Y5.445
G0 F2040 X-45.705 Y4.287
G1 F1020 X-1.339 Y48.653 E156.58447
G0 F2040 X-1.159 Y48.337
G1 F1020 X-46.43 Y3.066 E159.0346
G1 X-46.492 Y3.004
G0 F2040 X-47.156 Y1.846
G1 F1020 X-.98 Y48.022 E161.5337
G0 F2040 X-.801 Y47.706
G1 F1020 X-47.881 Y0.625 E164.08176
G1 X-47.943 Y0.563
G0 F2040 X-48.607 Y-.594
G1 F1020 X-.621 Y47.391 E166.6788
G0 F2040 X-.441 Y47.075
G1 F1020 X-49.332 Y-1.815 E169.32481
G1 X-49.394 Y-1.877
G0 F2040 X-50.058 Y-3.035
G1 F1020 X-.262 Y46.76 E172.01981
G0 F2040 X-0.082 Y46.444
G1 F1020 X-50.784 Y-4.256 E174.76381
G1 X-50.846 Y-4.318
G0 F2040 X-51.509 Y-5.477
G1 F1020 X0.096 Y46.128 E177.55674
G0 F2040 X0.275 Y45.813
G1 F1020 X-52.235 Y-6.697 E180.39865
G1 X-52.297 Y-6.759
G0 F2040 X-52.96 Y-7.918
G1 F1020 X0.455 Y45.498 E183.28956
G0 F2040 X0.634 Y45.182
G1 F1020 X-53.686 Y-9.138 E186.22943
G1 X-53.748 Y-9.2
G0 F2040 X-54.411 Y-10.359
G1 F1020 X0.814 Y44.867 E189.2183
G0 F2040 X0.994 Y44.551
G1 F1020 X-55.137 Y-11.579 E192.25616
G1 X-55.199 Y-11.641
G0 F2040 X-55.862 Y-12.8
G1 F1020 X1.173 Y44.235 E195.34296
G0 F2040 X1.352 Y43.92
G1 F1020 X-56.588 Y-14.02 E198.47875
G1 X-56.65 Y-14.082
G0 F2040 X-57.313 Y-15.24
G1 F1020 X1.532 Y43.605 E201.66352
G0 F2040 X1.711 Y43.289
G1 F1020 X-58.039 Y-16.461 E204.89726
G1 X-58.101 Y-16.523
G0 F2040 X-58.765 Y-17.682
G1 F1020 X1.891 Y42.974 E208.18004
G0 F2040 X2.071 Y42.659
G1 F1020 X-59.491 Y-18.903 E211.51186
G1 X-59.553 Y-18.965
G0 F2040 X-59.344 Y-19.746
G1 F1020 X2.429 Y42.027 E214.85509
G0 F2040 X2.25 Y42.342
G1 F1020 X-59.839 Y-19.746 E218.2154
G1 X-59.901 Y-19.808
G0 F2040 X-58.849 Y-19.746
G1 F1020 X2.609 Y41.712 E221.54159
G0 F2040 X2.788 Y41.396
G1 F1020 X-58.354 Y-19.746 E224.85067
G0 F2040 X-57.859 Y-19.746
G1 F1020 X2.968 Y41.081 E228.1427
G0 F2040 X3.147 Y40.765
G1 F1020 X-57.364 Y-19.746 E231.41764
G0 F2040 X-56.869 Y-19.746
G1 F1020 X3.326 Y40.45 E234.67549
G0 F2040 X3.506 Y40.134
G1 F1020 X-56.374 Y-19.746 E237.91627
G0 F2040 X-55.879 Y-19.746
G1 F1020 X3.686 Y39.819 E241.14001
G0 F2040 X3.865 Y39.503
G1 F1020 X-55.384 Y-19.746 E244.34664
G0 F2040 X-54.889 Y-19.746
G1 F1020 X4.045 Y39.188 E247.53622
G0 F2040 X4.224 Y38.872
G1 F1020 X-54.394 Y-19.746 E250.7087
G0 F2040 X-53.899 Y-19.746
G1 F1020 X4.403 Y38.557 E253.86411
G0 F2040 X4.583 Y38.241
G1 F1020 X-53.404 Y-19.746 E257.00244
G0 F2040 X-52.909 Y-19.746
G1 F1020 X4.763 Y37.926 E260.12372
G0 F2040 X4.942 Y37.611
G1 F1020 X-52.414 Y-19.746 E263.22793
G0 F2040 X-51.92 Y-19.746
G1 F1020 X5.122 Y37.295 E266.31509
G0 F2040 X5.301 Y36.979
G1 F1020 X-51.425 Y-19.746 E269.38514
G0 F2040 X-50.93 Y-19.746
G1 F1020 X5.48 Y36.664 E272.43812
G0 F2040 X5.66 Y36.348
G1 F1020 X-50.435 Y-19.746 E275.47403
G0 F2040 X-49.94 Y-19.746
G1 F1020 X5.839 Y36.033 E278.49286
G0 F2040 X6.019 Y35.718
G1 F1020 X-49.445 Y-19.746 E281.49464
G0 F2040 X-48.95 Y-19.746
G1 F1020 X6.198 Y35.402 E284.47932
G0 F2040 X6.378 Y35.086
G1 F1020 X-48.455 Y-19.746 E287.44693
G0 F2040 X-47.96 Y-19.746
G1 F1020 X6.557 Y34.771 E290.39746
G0 F2040 X6.737 Y34.455
G1 F1020 X-47.465 Y-19.746 E293.33091
G0 F2040 X-46.97 Y-19.746
G1 F1020 X6.916 Y34.14 E296.24729
G0 F2040 X7.096 Y33.825
G1 F1020 X-46.475 Y-19.746 E299.14662
G0 F2040 X-45.98 Y-19.746
G1 F1020 X7.275 Y33.509 E302.02885
G0 F2040 X7.455 Y33.193
G1 F1020 X-45.485 Y-19.746 E304.894
G0 F2040 X-44.99 Y-19.746
G1 F1020 X7.634 Y32.878 E307.74208
G0 F2040 X7.814 Y32.562
G1 F1020 X-44.495 Y-19.746 E310.57308
G0 F2040 X-44 Y-19.746
G1 F1020 X7.993 Y32.247 E313.38701
G0 F2040 X8.173 Y31.932
G1 F1020 X-43.505 Y-19.746 E316.18389
G0 F2040 X-43.01 Y-19.746
G1 F1020 X8.352 Y31.616 E318.96367
G0 F2040 X8.531 Y31.3
G1 F1020 X-42.515 Y-19.746 E321.72634
G0 F2040 X-42.02 Y-19.746
G1 F1020 X8.711 Y30.985 E324.47197
G0 F2040 X8.891 Y30.67
G1 F1020 X-41.525 Y-19.746 E327.20055
