;FLAVOR:Marlin
;TIME:6309
;Filament used: 8.02498m
;Layer height: 0.3
;MINX:-42.139
;MINY:-73.875
;MINZ:0.26
;MAXX:66.957
;MAXY:25.39
;MAXZ:22.76
;Generated with Cura_SteamEngine 4.9.1
M82 ;absolute extrusion mode
;Gcode by Cura
G90
G28
M107
M109 R100
G30
M109 S215 U-55 X55 V-85 Y-85 W0.26 Z0.26
M82
G92 E0
G1 F200 E6
G92 E0
G1 F200 E-3.5
G0 Z0.15
G0 X10
G0 Z3
G1 F6000
G92 E0
G92 E0
G1 F3600 E-3.8
;LAYER_COUNT:76
;LAYER:0
M107
G0 F2040 X-41.099 Y17.703 Z0.26
;TYPE:SKIRT
G1 F3600 E0
G1 F1020 X8.15 Y-71.08 E3.88542
G1 X8.433 Y-71.574 E3.90721
G1 X8.768 Y-72.078 E3.93037
G1 X9.166 Y-72.533 E3.9535
G1 X9.621 Y-72.932 E3.97666
G1 X10.124 Y-73.267 E3.99979
G1 X10.667 Y-73.533 E4.02293
G1 X11.24 Y-73.725 E4.04605
G1 X11.834 Y-73.839 E4.0692
G1 X12.437 Y-73.875 E4.09232
G1 X13.04 Y-73.83 E4.11546
G1 X13.632 Y-73.707 E4.1386
G1 X14.203 Y-73.506 E4.16176
G1 X14.742 Y-73.232 E4.1849
G1 X15.24 Y-72.889 E4.20805
G1 X15.688 Y-72.484 E4.23116
G1 X16.08 Y-72.023 E4.25432
G1 X16.361 Y-71.594 E4.27394
G1 X16.805 Y-70.827 E4.30786
G1 X66.099 Y18.04 E8.19692
G1 X66.417 Y18.633 E8.22267
G1 X66.667 Y19.183 E8.24579
G1 X66.842 Y19.762 E8.26894
G1 X66.939 Y20.359 E8.29209
G1 X66.957 Y20.963 E8.31521
G1 X66.895 Y21.565 E8.33837
G1 X66.754 Y22.153 E8.36151
G1 X66.537 Y22.717 E8.38464
G1 X66.247 Y23.248 E8.4078
G1 X65.89 Y23.736 E8.43093
G1 X65.471 Y24.172 E8.45408
G1 X64.999 Y24.55 E8.47722
G1 X64.481 Y24.862 E8.50036
G1 X63.926 Y25.103 E8.52352
G1 X63.345 Y25.268 E8.54663
G1 X62.478 Y25.369 E8.58003
G1 X61.401 Y25.39 E8.62126
G1 X-36.947 Y25.39 E12.38499
G1 X-37.627 Y25.381 E12.41101
G1 X-38.229 Y25.333 E12.43412
G1 X-38.82 Y25.206 E12.45726
G1 X-39.39 Y25.002 E12.48043
G1 X-39.927 Y24.725 E12.50355
G1 X-40.423 Y24.379 E12.52669
G1 X-40.869 Y23.971 E12.54983
G1 X-41.258 Y23.508 E12.57297
G1 X-41.582 Y22.997 E12.59613
G1 X-41.836 Y22.449 E12.61924
G1 X-42.015 Y21.871 E12.6424
G1 X-42.117 Y21.275 E12.66554
G1 X-42.139 Y20.671 E12.68867
G1 X-42.081 Y20.069 E12.71181
G1 X-41.945 Y19.48 E12.73495
G1 X-41.609 Y18.665 E12.76868
G1 X-41.099 Y17.703 E12.81035
G0 F2040 X-40.793 Y17.873
G1 F1020 X8.454 Y-70.906 E16.6956
G1 X8.737 Y-71.4 E16.71739
G1 X9.06 Y-71.883 E16.73962
G1 X9.446 Y-72.318 E16.76188
G1 X9.888 Y-72.695 E16.78411
G1 X10.377 Y-73.008 E16.80633
G1 X10.905 Y-73.251 E16.82857
G1 X11.461 Y-73.419 E16.8508
G1 X12.035 Y-73.509 E16.87304
G1 X12.616 Y-73.52 E16.89527
G1 X13.193 Y-73.45 E16.91752
G1 X13.755 Y-73.303 E16.93975
G1 X14.291 Y-73.079 E16.96198
G1 X14.792 Y-72.785 E16.98421
G1 X15.248 Y-72.424 E17.00647
G1 X15.649 Y-72.004 E17.02869
G1 X16.059 Y-71.418 E17.05606
G1 X16.499 Y-70.657 E17.0897
G1 X65.79 Y18.205 E20.97854
G1 X66.108 Y18.798 E21.0043
G1 X66.347 Y19.328 E21.02655
G1 X66.511 Y19.885 E21.04877
G1 X66.597 Y20.46 E21.07102
G1 X66.603 Y21.041 E21.09325
G1 X66.529 Y21.618 E21.11551
G1 X66.377 Y22.178 E21.13772
G1 X66.15 Y22.713 E21.15996
G1 X65.851 Y23.211 E21.18219
G1 X65.487 Y23.664 E21.20443
G1 X65.064 Y24.062 E21.22666
G1 X64.59 Y24.399 E21.24891
G1 X64.075 Y24.667 E21.27113
G1 X63.527 Y24.863 E21.2934
G1 X62.959 Y24.981 E21.31561
G1 X62.471 Y25.019 E21.33434
G1 X61.401 Y25.04 E21.37529
G1 X-36.942 Y25.04 E25.13883
G1 X-37.622 Y25.031 E25.16486
G1 X-38.201 Y24.983 E25.18709
G1 X-38.768 Y24.856 E25.20933
G1 X-39.312 Y24.653 E25.23155
G1 X-39.824 Y24.377 E25.25381
G1 X-40.292 Y24.034 E25.27602
G1 X-40.709 Y23.629 E25.29826
G1 X-41.067 Y23.171 E25.32051
G1 X-41.358 Y22.668 E25.34275
G1 X-41.578 Y22.131 E25.36496
G1 X-41.722 Y21.568 E25.38719
G1 X-41.787 Y20.99 E25.40945
G1 X-41.772 Y20.409 E25.4317
G1 X-41.678 Y19.836 E25.45392
G1 X-41.506 Y19.281 E25.47615
G1 X-41.3 Y18.829 E25.49516
G1 X-40.793 Y17.873 E25.53658
G0 F2040 X-40.487 Y18.042
G1 F1020 X8.758 Y-70.732 E29.42162
G1 X9.041 Y-71.226 E29.44341
G1 X9.351 Y-71.688 E29.4647
G1 X9.725 Y-72.1 E29.48599
G1 X10.153 Y-72.455 E29.50727
G1 X10.628 Y-72.745 E29.52857
G1 X11.14 Y-72.963 E29.54987
G1 X11.678 Y-73.107 E29.57118
G1 X12.23 Y-73.171 E29.59245
G1 X12.787 Y-73.156 E29.61377
G1 X13.335 Y-73.061 E29.63506
G1 X13.864 Y-72.889 E29.65634
G1 X14.363 Y-72.643 E29.67763
G1 X14.822 Y-72.328 E29.69894
G1 X15.23 Y-71.95 E29.72022
G1 X15.581 Y-71.518 E29.74153
G1 X15.756 Y-71.243 E29.754
G1 X16.193 Y-70.488 E29.78738
G1 X65.482 Y18.371 E33.67609
G1 X65.8 Y18.964 E33.70184
G1 X66.027 Y19.472 E33.72313
G1 X66.179 Y20.007 E33.74442
G1 X66.253 Y20.558 E33.76569
G1 X66.247 Y21.115 E33.78701
G1 X66.161 Y21.665 E33.80831
G1 X65.998 Y22.196 E33.82957
G1 X65.76 Y22.699 E33.85087
G1 X65.452 Y23.163 E33.87218
G1 X65.081 Y23.578 E33.89348
G1 X64.655 Y23.935 E33.91475
G1 X64.182 Y24.228 E33.93605
G1 X63.672 Y24.45 E33.95733
G1 X63.135 Y24.597 E33.97864
G1 X62.464 Y24.669 E34.00447
G1 X61.401 Y24.69 E34.04515
G1 X-36.937 Y24.69 E37.8085
G1 X-37.617 Y24.681 E37.83453
G1 X-38.172 Y24.633 E37.85585
G1 X-38.714 Y24.507 E37.87714
G1 X-39.232 Y24.305 E37.89842
G1 X-39.716 Y24.03 E37.91972
G1 X-40.155 Y23.689 E37.941
G1 X-40.542 Y23.288 E37.96232
G1 X-40.866 Y22.837 E37.98358
G1 X-41.123 Y22.343 E38.00489
G1 X-41.307 Y21.818 E38.02618
G1 X-41.413 Y21.271 E38.0475
G1 X-41.44 Y20.716 E38.06876
G1 X-41.387 Y20.162 E38.09006
G1 X-41.255 Y19.621 E38.11137
G1 X-40.991 Y18.993 E38.13744
G1 X-40.487 Y18.042 E38.17863
G0 F2040 X-40.181 Y18.212
G1 F1020 X9.061 Y-70.558 E42.06349
G1 X9.344 Y-71.052 E42.08527
G1 X9.642 Y-71.492 E42.10561
G1 X10.002 Y-71.881 E42.12589
G1 X10.417 Y-72.212 E42.14621
G1 X10.877 Y-72.477 E42.16653
G1 X11.371 Y-72.671 E42.18684
G1 X11.889 Y-72.787 E42.20715
G1 X12.418 Y-72.825 E42.22745
G1 X12.947 Y-72.783 E42.24776
G1 X13.464 Y-72.662 E42.26808
G1 X13.956 Y-72.464 E42.28837
G1 X14.414 Y-72.195 E42.3087
G1 X14.825 Y-71.861 E42.32897
G1 X15.182 Y-71.468 E42.34929
G1 X15.453 Y-71.067 E42.36781
G1 X15.887 Y-70.318 E42.40094
G1 X65.174 Y18.536 E46.28944
G1 X65.492 Y19.129 E46.31519
G1 X65.706 Y19.614 E46.33547
G1 X65.846 Y20.126 E46.35579
G1 X65.907 Y20.653 E46.37609
G1 X65.888 Y21.184 E46.39642
G1 X65.79 Y21.705 E46.41671
G1 X65.615 Y22.206 E46.43702
G1 X65.367 Y22.675 E46.45732
G1 X65.051 Y23.101 E46.47762
G1 X64.674 Y23.475 E46.49795
G1 X64.246 Y23.789 E46.51826
G1 X63.776 Y24.034 E46.53854
G1 X63.274 Y24.206 E46.55885
G1 X62.751 Y24.301 E46.57919
G1 X62.457 Y24.319 E46.59047
G1 X61.401 Y24.34 E46.63089
G1 X-36.933 Y24.34 E50.39408
G1 X-37.613 Y24.331 E50.42011
G1 X-38.141 Y24.284 E50.44039
G1 X-38.657 Y24.158 E50.46072
G1 X-39.148 Y23.956 E50.48104
G1 X-39.603 Y23.683 E50.50135
G1 X-40.011 Y23.345 E50.52162
G1 X-40.365 Y22.949 E50.54195
G1 X-40.655 Y22.505 E50.56224
G1 X-40.875 Y22.022 E50.58255
G1 X-41.02 Y21.511 E50.60288
G1 X-41.086 Y20.985 E50.62317
G1 X-41.073 Y20.454 E50.6435
G1 X-40.981 Y19.932 E50.66378
G1 X-40.811 Y19.429 E50.6841
G1 X-40.681 Y19.157 E50.69564
G1 X-40.181 Y18.212 E50.73655
G0 F2040 X-39.874 Y18.382
G1 F1020 X9.365 Y-70.384 E54.62122
G1 X9.648 Y-70.878 E54.643
G1 X9.932 Y-71.294 E54.66228
G1 X10.279 Y-71.66 E54.68158
G1 X10.678 Y-71.966 E54.70083
G1 X11.122 Y-72.205 E54.72012
G1 X11.597 Y-72.371 E54.73938
G1 X12.093 Y-72.46 E54.75866
G1 X12.596 Y-72.469 E54.77792
G1 X13.095 Y-72.399 E54.7972
G1 X13.576 Y-72.25 E54.81647
G1 X14.028 Y-72.028 E54.83574
G1 X14.439 Y-71.737 E54.85501
G1 X14.798 Y-71.384 E54.87428
G1 X15.15 Y-70.892 E54.89743
G1 X15.58 Y-70.148 E54.93032
G1 X64.865 Y18.702 E58.81865
G1 X65.183 Y19.295 E58.8444
G1 X65.385 Y19.756 E58.86366
G1 X65.512 Y20.243 E58.88292
G1 X65.56 Y20.745 E58.90222
G1 X65.528 Y21.247 E58.92147
G1 X65.417 Y21.738 E58.94073
G1 X65.229 Y22.206 E58.96004
G1 X64.971 Y22.638 E58.97929
G1 X64.647 Y23.023 E58.99855
G1 X64.266 Y23.353 E59.01784
G1 X63.838 Y23.618 E59.0371
G1 X63.373 Y23.812 E59.05638
G1 X62.884 Y23.931 E59.07564
G1 X62.45 Y23.969 E59.09232
G1 X61.401 Y23.99 E59.13247
G1 X-36.928 Y23.99 E62.89547
G1 X-37.608 Y23.981 E62.9215
G1 X-38.109 Y23.934 E62.94076
G1 X-38.597 Y23.809 E62.96003
G1 X-39.059 Y23.608 E62.97932
G1 X-39.483 Y23.337 E62.99857
G1 X-39.859 Y23.002 E63.01785
G1 X-40.178 Y22.612 E63.03713
G1 X-40.43 Y22.176 E63.0564
G1 X-40.611 Y21.706 E63.07567
G1 X-40.715 Y21.213 E63.09496
G1 X-40.74 Y20.71 E63.11423
G1 X-40.684 Y20.21 E63.13348
G1 X-40.551 Y19.724 E63.15277
G1 X-40.372 Y19.32 E63.16968
G1 X-39.874 Y18.382 E63.21032
G1 F3600 E59.41032
;MESH:support_tri_0_066.stl
G0 F2040 X-37.679 Y19.602
G0 X-36.775 Y20.103
G0 X-36.701 Y20.29
;TYPE:WALL-INNER
G1 F3600 E63.21032
G1 F1020 X12.407 Y-68.242 E67.08472
G1 X61.515 Y20.29 E70.95912
G1 X-36.701 Y20.29 E74.7178
G0 F2040 X-37.253 Y20.615
;TYPE:WALL-OUTER
G1 F1020 X12.407 Y-68.912 E78.63575
G1 X62.067 Y20.615 E82.55369
G1 X-37.253 Y20.615 E86.35462
G0 F2040 X-37.156 Y20.441
G0 X-36.912 Y20.415
G0 X-36.124 Y19.95
;TYPE:SKIN
G1 F1020 X12.407 Y-67.541 E90.18348
G1 X60.938 Y19.95 E94.01233
G1 X-36.124 Y19.95 E97.72684
G0 F2040 X-35.781 Y19.655
G1 F1020 X-35.643 Y19.793 E97.73431
G0 F2040 X-35.604 Y19.337
G1 F1020 X-35.148 Y19.793 E97.75899
G0 F2040 X-34.653 Y19.793
G1 F1020 X-35.428 Y19.019 E97.80091
G0 F2040 X-35.251 Y18.7
G1 F1020 X-34.158 Y19.793 E97.86006
G0 F2040 X-33.663 Y19.793
G1 F1020 X-35.075 Y18.381 E97.93648
G0 F2040 X-34.898 Y18.063
G1 F1020 X-33.168 Y19.793 E98.03011
G0 F2040 X-32.673 Y19.793
G1 F1020 X-34.721 Y17.745 E98.14095
G0 F2040 X-34.544 Y17.427
G1 F1020 X-32.179 Y19.793 E98.26898
G0 F2040 X-31.684 Y19.793
G1 F1020 X-34.368 Y17.108 E98.41426
G0 F2040 X-34.192 Y16.79
G1 F1020 X-31.189 Y19.793 E98.57679
G0 F2040 X-30.694 Y19.793
G1 F1020 X-34.015 Y16.472 E98.75653
G0 F2040 X-33.838 Y16.153
G1 F1020 X-30.199 Y19.793 E98.9535
G0 F2040 X-29.704 Y19.793
G1 F1020 X-33.662 Y15.834 E99.16774
G0 F2040 X-33.485 Y15.516
G1 F1020 X-29.209 Y19.793 E99.39919
G0 F2040 X-28.714 Y19.793
G1 F1020 X-33.308 Y15.198 E99.64785
G0 F2040 X-33.132 Y14.88
G1 F1020 X-28.219 Y19.793 E99.91375
G0 F2040 X-27.724 Y19.793
G1 F1020 X-32.956 Y14.561 E100.19691
G0 F2040 X-32.779 Y14.243
G1 F1020 X-27.229 Y19.793 E100.49728
G0 F2040 X-26.734 Y19.793
G1 F1020 X-32.602 Y13.925 E100.81487
G0 F2040 X-32.425 Y13.606
G1 F1020 X-26.239 Y19.793 E101.14969
G0 F2040 X-25.744 Y19.793
G1 F1020 X-32.249 Y13.287 E101.50178
G0 F2040 X-32.072 Y12.969
G1 F1020 X-25.249 Y19.793 E101.87107
G0 F2040 X-24.754 Y19.793
G1 F1020 X-31.896 Y12.651 E102.25761
G0 F2040 X-31.719 Y12.333
G1 F1020 X-24.259 Y19.793 E102.66135
G0 F2040 X-23.764 Y19.793
G1 F1020 X-31.543 Y12.014 E103.08236
G0 F2040 X-31.366 Y11.696
G1 F1020 X-23.269 Y19.793 E103.52058
G0 F2040 X-22.774 Y19.793
G1 F1020 X-31.189 Y11.378 E103.97601
G0 F2040 X-31.012 Y11.059
G1 F1020 X-22.279 Y19.793 E104.44868
G0 F2040 X-21.784 Y19.793
G1 F1020 X-30.836 Y10.74 E104.93861
G0 F2040 X-30.66 Y10.422
G1 F1020 X-21.289 Y19.793 E105.44578
G0 F2040 X-20.794 Y19.793
G1 F1020 X-30.483 Y10.104 E105.97016
G0 F2040 X-30.306 Y9.786
G1 F1020 X-20.299 Y19.793 E106.51175
G0 F2040 X-19.804 Y19.793
G1 F1020 X-30.13 Y9.467 E107.07061
G0 F2040 X-29.953 Y9.149
G1 F1020 X-19.309 Y19.793 E107.64668
G0 F2040 X-18.814 Y19.793
G1 F1020 X-29.776 Y8.831 E108.23996
G0 F2040 X-29.6 Y8.512
G1 F1020 X-18.319 Y19.793 E108.8505
G0 F2040 X-17.824 Y19.793
G1 F1020 X-29.424 Y8.193 E109.4783
G0 F2040 X-29.247 Y7.875
G1 F1020 X-17.329 Y19.793 E110.12332
G0 F2040 X-16.834 Y19.793
G1 F1020 X-29.07 Y7.557 E110.78555
G0 F2040 X-28.893 Y7.239
G1 F1020 X-16.339 Y19.793 E111.46499
G0 F2040 X-15.844 Y19.793
G1 F1020 X-28.717 Y6.92 E112.16169
G0 F2040 X-28.54 Y6.602
G1 F1020 X-15.349 Y19.793 E112.8756
G0 F2040 X-14.854 Y19.793
G1 F1020 X-28.364 Y6.284 E113.60676
G0 F2040 X-28.187 Y5.965
G1 F1020 X-14.359 Y19.793 E114.35514
G0 F2040 X-13.864 Y19.793
G1 F1020 X-28.011 Y5.646 E115.1208
G0 F2040 X-27.834 Y5.328
G1 F1020 X-13.369 Y19.793 E115.90366
G0 F2040 X-12.875 Y19.793
G1 F1020 X-27.657 Y5.01 E116.70371
G0 F2040 X-27.48 Y4.692
G1 F1020 X-12.38 Y19.793 E117.52097
G0 F2040 X-11.885 Y19.793
G1 F1020 X-27.304 Y4.373 E118.35549
G0 F2040 X-27.128 Y4.055
G1 F1020 X-11.39 Y19.793 E119.20725
G0 F2040 X-10.895 Y19.793
G1 F1020 X-26.951 Y3.737 E120.07622
G0 F2040 X-26.774 Y3.418
G1 F1020 X-10.4 Y19.793 E120.96243
G0 F2040 X-9.905 Y19.793
G1 F1020 X-26.598 Y3.099 E121.86591
G0 F2040 X-26.421 Y2.781
G1 F1020 X-9.41 Y19.793 E122.78659
G0 F2040 X-8.915 Y19.793
G1 F1020 X-26.244 Y2.463 E123.72448
G0 F2040 X-26.068 Y2.145
G1 F1020 X-8.42 Y19.793 E124.67962
G0 F2040 X-7.925 Y19.793
G1 F1020 X-25.892 Y1.826 E125.65201
G0 F2040 X-25.715 Y1.508
G1 F1020 X-7.43 Y19.793 E126.64162
G0 F2040 X-6.935 Y19.793
G1 F1020 X-25.538 Y1.19 E127.64844
G0 F2040 X-25.361 Y0.871
G1 F1020 X-6.44 Y19.793 E128.67249
G0 F2040 X-5.945 Y19.793
G1 F1020 X-25.185 Y0.552 E129.71382
G0 F2040 X-25.008 Y0.234
G1 F1020 X-5.45 Y19.793 E130.77235
G0 F2040 X-4.955 Y19.793
G1 F1020 X-24.832 Y-0.083 E131.84809
G0 F2040 X-24.655 Y-.401
G1 F1020 X-4.46 Y19.793 E132.94104
G0 F2040 X-3.965 Y19.793
G1 F1020 X-24.479 Y-.72 E134.05126
G0 F2040 X-24.302 Y-1.038
G1 F1020 X-3.47 Y19.793 E135.17868
G0 F2040 X-2.975 Y19.793
G1 F1020 X-24.125 Y-1.356 E136.32332
G0 F2040 X-23.948 Y-1.675
G1 F1020 X-2.48 Y19.793 E137.4852
G0 F2040 X-1.985 Y19.793
G1 F1020 X-23.772 Y-1.994 E138.66434
G0 F2040 X-23.596 Y-2.312
G1 F1020 X-1.49 Y19.793 E139.86072
G0 F2040 X-.995 Y19.793
G1 F1020 X-23.419 Y-2.63 E141.0743
G0 F2040 X-23.242 Y-2.948
G1 F1020 X-.5 Y19.793 E142.3051
G0 F2040 X-0.005 Y19.793
G1 F1020 X-23.066 Y-3.267 E143.55317
G0 F2040 X-22.889 Y-3.585
G1 F1020 X0.489 Y19.793 E144.81841
G0 F2040 X0.984 Y19.793
G1 F1020 X-22.712 Y-3.903 E146.10087
G0 F2040 X-22.536 Y-4.222
G1 F1020 X1.479 Y19.793 E147.40059
G0 F2040 X1.974 Y19.793
G1 F1020 X-22.36 Y-4.541 E148.71758
G0 F2040 X-22.183 Y-4.859
G1 F1020 X2.469 Y19.793 E150.05178
G0 F2040 X2.964 Y19.793
G1 F1020 X-22.006 Y-5.177 E151.40319
G0 F2040 X-21.829 Y-5.495
G1 F1020 X3.459 Y19.793 E152.77181
G0 F2040 X3.954 Y19.793
G1 F1020 X-21.653 Y-5.814 E154.15769
G0 F2040 X-21.476 Y-6.132
G1 F1020 X4.449 Y19.793 E155.56078
G0 F2040 X4.944 Y19.793
G1 F1020 X-21.3 Y-6.45 E156.98111
G0 F2040 X-21.123 Y-6.769
G1 F1020 X5.439 Y19.793 E158.41868
G0 F2040 X5.934 Y19.793
G1 F1020 X-20.947 Y-7.088 E159.87352
G0 F2040 X-20.77 Y-7.406
G1 F1020 X6.429 Y19.793 E161.34556
G0 F2040 X6.923 Y19.793
G1 F1020 X-20.593 Y-7.724 E162.83479
G0 F2040 X-20.417 Y-8.042
G1 F1020 X7.418 Y19.793 E164.34126
G0 F2040 X7.913 Y19.793
G1 F1020 X-20.24 Y-8.361 E165.86496
G0 F2040 X-20.064 Y-8.679
G1 F1020 X8.408 Y19.793 E167.4059
G0 F2040 X8.903 Y19.793
G1 F1020 X-19.887 Y-8.997 E168.96405
G0 F2040 X-19.71 Y-9.316
G1 F1020 X9.398 Y19.793 E170.53944
G0 F2040 X9.893 Y19.793
G1 F1020 X-19.534 Y-9.635 E172.13209
G0 F2040 X-19.357 Y-9.953
G1 F1020 X10.388 Y19.793 E173.74196
G0 F2040 X10.883 Y19.793
G1 F1020 X-19.18 Y-10.271 E175.36903
G0 F2040 X-19.004 Y-10.589
G1 F1020 X11.378 Y19.793 E177.01335
G0 F2040 X11.873 Y19.793
G1 F1020 X-18.827 Y-10.907 E178.67487
G0 F2040 X-18.651 Y-11.226
G1 F1020 X12.368 Y19.793 E180.35366
G0 F2040 X12.863 Y19.793
G1 F1020 X-18.474 Y-11.544 E182.04966
G0 F2040 X-18.297 Y-11.863
G1 F1020 X13.358 Y19.793 E183.76289
G0 F2040 X13.853 Y19.793
G1 F1020 X-18.121 Y-12.181 E185.49337
G0 F2040 X-17.944 Y-12.5
G1 F1020 X14.348 Y19.793 E187.24108
G0 F2040 X14.843 Y19.793
G1 F1020 X-17.768 Y-12.818 E189.00603
G0 F2040 X-17.591 Y-13.136
G1 F1020 X15.338 Y19.793 E190.78818
G0 F2040 X15.833 Y19.793
G1 F1020 X-17.414 Y-13.454 E192.58755
G0 F2040 X-17.238 Y-13.773
G1 F1020 X16.328 Y19.793 E194.40419
G0 F2040 X16.823 Y19.793
G1 F1020 X-17.061 Y-14.091 E196.23803
G0 F2040 X-16.885 Y-14.41
G1 F1020 X17.318 Y19.793 E198.08914
G0 F2040 X17.813 Y19.793
G1 F1020 X-16.708 Y-14.728 E199.95747
G0 F2040 X-16.532 Y-15.047
G1 F1020 X18.308 Y19.793 E201.84305
G0 F2040 X18.803 Y19.793
G1 F1020 X-16.355 Y-15.365 E203.74585
G0 F2040 X-16.178 Y-15.683
G1 F1020 X19.298 Y19.793 E205.66585
G0 F2040 X19.793 Y19.793
G1 F1020 X-16.001 Y-16.001 E207.60307
G0 F2040 X-15.825 Y-16.32
G1 F1020 X20.288 Y19.793 E209.55755
G0 F2040 X20.783 Y19.793
G1 F1020 X-15.648 Y-16.638 E211.52924
G0 F2040 X-15.472 Y-16.957
G1 F1020 X21.278 Y19.793 E213.5182
G0 F2040 X21.773 Y19.793
G1 F1020 X-15.295 Y-17.275 E215.52437
G0 F2040 X-15.119 Y-17.594
G1 F1020 X22.268 Y19.793 E217.5478
