;FLAVOR:Marlin
;TIME:8002
;Filament used: 7.37477m
;Layer height: 0.2
;MINX:-64.279
;MINY:-73.868
;MINZ:0.26
;MAXX:49.234
;MAXY:23.038
;MAXZ:22.66
;Generated with Cura_SteamEngine 4.8.0
M82 ;absolute extrusion mode
;Gcode by Cura
G90
G28
M107
M109 R100
G30
M109 S215 U-55 X55 V-85 Y-85 W0.26 Z0.26
M82
G92 E0
G1 F200 E6
G92 E0
G1 F200 E-3.5
G0 Z0.15
G0 X10
G0 Z3
G1 F6000
G92 E0
G92 E0
G1 F3600 E-3.8
;LAYER_COUNT:113
;LAYER:0
M107
G0 F2040 X43.819 Y23.038 Z0.26
;TYPE:SKIRT
G1 F3600 E0
G1 F1020 X-59.082 Y23.038 E3.93797
G1 X-59.772 Y23.028 E3.96438
G1 X-60.375 Y22.979 E3.98753
G1 X-60.966 Y22.851 E4.01067
G1 X-61.535 Y22.647 E4.03381
G1 X-62.072 Y22.369 E4.05695
G1 X-62.568 Y22.022 E4.08011
G1 X-63.013 Y21.614 E4.10322
G1 X-63.401 Y21.15 E4.12637
G1 X-63.725 Y20.639 E4.14952
G1 X-63.978 Y20.09 E4.17265
G1 X-64.157 Y19.512 E4.19581
G1 X-64.257 Y18.916 E4.21894
G1 X-64.279 Y18.312 E4.24207
G1 X-64.22 Y17.71 E4.26522
G1 X-64.083 Y17.121 E4.28836
G1 X-63.869 Y16.556 E4.31148
G1 X-63.631 Y16.103 E4.33106
G1 X-63.298 Y15.564 E4.35531
G1 X-7.364 Y-71.322 E8.30983
G1 X-7.034 Y-71.822 E8.33276
G1 X-6.669 Y-72.304 E8.35589
G1 X-6.243 Y-72.733 E8.37903
G1 X-5.764 Y-73.102 E8.40217
G1 X-5.24 Y-73.405 E8.42534
G1 X-4.682 Y-73.636 E8.44845
G1 X-4.097 Y-73.791 E8.47161
G1 X-3.498 Y-73.868 E8.49472
G1 X-2.893 Y-73.866 E8.51787
G1 X-2.294 Y-73.783 E8.54102
G1 X-1.711 Y-73.622 E8.56416
G1 X-1.155 Y-73.386 E8.58728
G1 X-.634 Y-73.079 E8.61042
G1 X-.158 Y-72.705 E8.63359
G1 X0.264 Y-72.272 E8.65672
G1 X0.761 Y-71.564 E8.68983
G1 X1.205 Y-70.781 E8.72428
G1 X48.406 Y15.739 E12.49604
G1 X48.709 Y16.313 E12.52088
G1 X48.955 Y16.865 E12.544
G1 X49.127 Y17.445 E12.56716
G1 X49.22 Y18.043 E12.59032
G1 X49.234 Y18.647 E12.61344
G1 X49.168 Y19.248 E12.63658
G1 X49.023 Y19.835 E12.65971
G1 X48.802 Y20.398 E12.68286
G1 X48.509 Y20.927 E12.706
G1 X48.148 Y21.413 E12.72917
G1 X47.727 Y21.846 E12.75228
G1 X47.252 Y22.221 E12.77544
G1 X46.732 Y22.529 E12.79857
G1 X46.176 Y22.766 E12.8217
G1 X45.594 Y22.928 E12.84482
G1 X44.739 Y23.023 E12.87774
G1 X43.819 Y23.038 E12.91296
G0 F2040 X43.819 Y22.688
G1 F1020 X-59.077 Y22.688 E16.85074
G1 X-59.767 Y22.678 E16.87715
G1 X-60.346 Y22.629 E16.89938
G1 X-60.913 Y22.502 E16.92162
G1 X-61.457 Y22.298 E16.94385
G1 X-61.968 Y22.021 E16.9661
G1 X-62.436 Y21.677 E16.98833
G1 X-62.853 Y21.272 E17.01057
G1 X-63.21 Y20.814 E17.0328
G1 X-63.501 Y20.311 E17.05504
G1 X-63.72 Y19.773 E17.07726
G1 X-63.863 Y19.209 E17.09953
G1 X-63.927 Y18.632 E17.12175
G1 X-63.912 Y18.051 E17.14399
G1 X-63.817 Y17.478 E17.16622
G1 X-63.644 Y16.923 E17.18847
G1 X-63.331 Y16.283 E17.21573
G1 X-63.002 Y15.75 E17.2397
G1 X-7.072 Y-71.129 E21.19391
G1 X-6.742 Y-71.629 E21.21684
G1 X-6.39 Y-72.091 E21.23907
G1 X-5.977 Y-72.5 E21.26131
G1 X-5.512 Y-72.849 E21.28356
G1 X-5.004 Y-73.13 E21.30578
G1 X-4.462 Y-73.339 E21.32801
G1 X-3.896 Y-73.472 E21.35026
G1 X-3.317 Y-73.526 E21.37251
G1 X-2.737 Y-73.5 E21.39473
G1 X-2.166 Y-73.394 E21.41696
G1 X-1.614 Y-73.212 E21.4392
G1 X-1.093 Y-72.955 E21.46143
G1 X-.612 Y-72.629 E21.48367
G1 X-.18 Y-72.24 E21.50592
G1 X0.194 Y-71.796 E21.52813
G1 X0.456 Y-71.391 E21.54659
G1 X0.898 Y-70.613 E21.58084
G1 X48.096 Y15.903 E25.35241
G1 X48.399 Y16.477 E25.37725
G1 X48.635 Y17.008 E25.39948
G1 X48.795 Y17.566 E25.4217
G1 X48.877 Y18.142 E25.44396
G1 X48.879 Y18.723 E25.4662
G1 X48.802 Y19.299 E25.48844
G1 X48.646 Y19.858 E25.51065
G1 X48.415 Y20.391 E25.53288
G1 X48.113 Y20.888 E25.55514
G1 X47.746 Y21.338 E25.57736
G1 X47.32 Y21.734 E25.59962
G1 X46.844 Y22.067 E25.62185
G1 X46.327 Y22.332 E25.64408
G1 X45.779 Y22.524 E25.6663
G1 X45.209 Y22.639 E25.68856
G1 X44.733 Y22.673 E25.70682
G1 X43.819 Y22.688 E25.7418
G0 F2040 X43.819 Y22.338
G1 F1020 X-59.072 Y22.338 E29.67939
G1 X-59.762 Y22.328 E29.7058
G1 X-60.316 Y22.28 E29.72708
G1 X-60.858 Y22.153 E29.74838
G1 X-61.376 Y21.95 E29.76968
G1 X-61.86 Y21.674 E29.791
G1 X-62.299 Y21.333 E29.81227
G1 X-62.685 Y20.932 E29.83357
G1 X-63.009 Y20.479 E29.85489
G1 X-63.265 Y19.985 E29.87618
G1 X-63.448 Y19.46 E29.89746
G1 X-63.554 Y18.914 E29.91874
G1 X-63.58 Y18.358 E29.94004
G1 X-63.526 Y17.804 E29.96134
G1 X-63.394 Y17.264 E29.98262
G1 X-63.186 Y16.748 E30.00391
G1 X-62.897 Y16.242 E30.02621
G1 X-62.684 Y15.903 E30.04153
G1 X-6.78 Y-70.937 E33.99395
G1 X-6.45 Y-71.437 E34.01688
G1 X-6.111 Y-71.878 E34.03816
G1 X-5.712 Y-72.266 E34.05946
G1 X-5.262 Y-72.593 E34.08075
G1 X-4.77 Y-72.852 E34.10203
G1 X-4.245 Y-73.038 E34.12334
G1 X-3.7 Y-73.147 E34.14461
G1 X-3.144 Y-73.176 E34.16592
G1 X-2.59 Y-73.126 E34.18721
G1 X-2.049 Y-72.997 E34.20849
G1 X-1.531 Y-72.792 E34.22981
G1 X-1.049 Y-72.514 E34.2511
G1 X-.611 Y-72.171 E34.27239
G1 X-.227 Y-71.768 E34.2937
G1 X0.152 Y-71.218 E34.31926
G1 X0.591 Y-70.446 E34.35325
G1 X47.787 Y16.066 E38.12465
G1 X48.09 Y16.64 E38.14949
G1 X48.314 Y17.149 E38.17077
G1 X48.462 Y17.686 E38.19208
G1 X48.532 Y18.238 E38.21338
G1 X48.523 Y18.794 E38.23466
G1 X48.433 Y19.343 E38.25595
G1 X48.266 Y19.874 E38.27725
G1 X48.025 Y20.375 E38.29853
G1 X47.715 Y20.837 E38.31982
G1 X47.341 Y21.25 E38.34114
G1 X46.912 Y21.604 E38.36243
G1 X46.437 Y21.894 E38.38373
G1 X45.926 Y22.113 E38.405
G1 X45.388 Y22.256 E38.42631
G1 X44.727 Y22.323 E38.45173
G1 X43.819 Y22.338 E38.48649
G0 F2040 X43.877 Y21.988
G1 F1020 X-59.067 Y21.988 E42.4261
G1 X-59.757 Y21.978 E42.45251
G1 X-60.286 Y21.93 E42.47284
G1 X-60.801 Y21.804 E42.49313
G1 X-61.292 Y21.601 E42.51346
G1 X-61.746 Y21.328 E42.53374
G1 X-62.155 Y20.989 E42.55407
G1 X-62.507 Y20.592 E42.57437
G1 X-62.797 Y20.148 E42.59467
G1 X-63.016 Y19.664 E42.615
G1 X-63.161 Y19.154 E42.63529
G1 X-63.227 Y18.627 E42.65561
G1 X-63.213 Y18.097 E42.6759
G1 X-63.12 Y17.574 E42.69623
G1 X-62.949 Y17.072 E42.71653
G1 X-62.642 Y16.495 E42.74154
G1 X-62.39 Y16.093 E42.7597
G1 X-6.488 Y-70.744 E46.71198
G1 X-6.158 Y-71.244 E46.7349
G1 X-5.833 Y-71.663 E46.7552
G1 X-5.449 Y-72.029 E46.7755
G1 X-5.014 Y-72.334 E46.79583
G1 X-4.539 Y-72.569 E46.81611
G1 X-4.033 Y-72.731 E46.83644
G1 X-3.509 Y-72.815 E46.85675
G1 X-2.979 Y-72.819 E46.87703
G1 X-2.453 Y-72.744 E46.89737
G1 X-1.945 Y-72.59 E46.91768
G1 X-1.466 Y-72.362 E46.93798
G1 X-1.027 Y-72.065 E46.95827
G1 X-.637 Y-71.705 E46.97858
G1 X-.305 Y-71.29 E46.99892
G1 X-.152 Y-71.045 E47.00997
G1 X0.283 Y-70.278 E47.04372
G1 X47.477 Y16.229 E50.81491
G1 X47.78 Y16.803 E50.83975
G1 X47.992 Y17.29 E50.86008
G1 X48.128 Y17.803 E50.88039
G1 X48.186 Y18.33 E50.90068
G1 X48.164 Y18.861 E50.92102
G1 X48.062 Y19.381 E50.9413
G1 X47.884 Y19.881 E50.96161
G1 X47.632 Y20.349 E50.98195
G1 X47.314 Y20.773 E51.00223
G1 X46.935 Y21.144 E51.02253
G1 X46.504 Y21.455 E51.04287
G1 X46.032 Y21.697 E51.06317
G1 X45.529 Y21.866 E51.08348
G1 X45.006 Y21.957 E51.10379
G1 X44.721 Y21.974 E51.11472
G1 X43.877 Y21.988 E51.14702
G0 F2040 X43.872 Y21.638
G1 F1020 X-59.062 Y21.638 E55.08626
G1 X-59.752 Y21.628 E55.11267
G1 X-60.253 Y21.58 E55.13193
G1 X-60.741 Y21.455 E55.1512
G1 X-61.203 Y21.253 E55.1705
G1 X-61.626 Y20.981 E55.18975
G1 X-62.002 Y20.646 E55.20902
G1 X-62.32 Y20.255 E55.22831
G1 X-62.572 Y19.819 E55.24758
G1 X-62.752 Y19.349 E55.26684
G1 X-62.855 Y18.856 E55.28611
G1 X-62.879 Y18.353 E55.30538
G1 X-62.824 Y17.853 E55.32464
G1 X-62.69 Y17.367 E55.34393
G1 X-62.43 Y16.822 E55.36704
G1 X-62.113 Y16.31 E55.39008
G1 X-6.216 Y-70.521 E59.34207
G1 X-5.866 Y-71.051 E59.36637
G1 X-5.556 Y-71.448 E59.38565
G1 X-5.187 Y-71.791 E59.40493
G1 X-4.769 Y-72.071 E59.42418
G1 X-4.312 Y-72.282 E59.44345
G1 X-3.827 Y-72.418 E59.46272
G1 X-3.326 Y-72.475 E59.48202
G1 X-2.823 Y-72.453 E59.50129
G1 X-2.33 Y-72.351 E59.52055
G1 X-1.859 Y-72.172 E59.53984
G1 X-1.422 Y-71.922 E59.5591
G1 X-1.031 Y-71.605 E59.57837
G1 X-.694 Y-71.231 E59.59763
G1 X-.456 Y-70.872 E59.61412
G1 X-0.024 Y-70.111 E59.6476
G1 X47.168 Y16.393 E63.41866
G1 X47.471 Y16.967 E63.4435
G1 X47.67 Y17.429 E63.46275
G1 X47.793 Y17.918 E63.48205
G1 X47.838 Y18.419 E63.5013
G1 X47.803 Y18.922 E63.5206
G1 X47.688 Y19.412 E63.53986
G1 X47.498 Y19.878 E63.55912
G1 X47.236 Y20.309 E63.57842
G1 X46.91 Y20.692 E63.59767
G1 X46.527 Y21.019 E63.61694
G1 X46.097 Y21.282 E63.63623
G1 X45.631 Y21.473 E63.6555
G1 X45.141 Y21.588 E63.67476
G1 X44.716 Y21.624 E63.69109
G1 X43.872 Y21.638 E63.72339
G1 F3600 E59.92339
;MESH:support_tri_0_106.stl
G0 F2040 X43.872 Y19.128
G0 X43.872 Y18.093
G0 X43.797 Y17.938
;TYPE:WALL-INNER
G1 F3600 E63.72339
G1 F1020 X-58.761 Y17.938 E67.64824
G1 X-3.249 Y-68.295 E71.573
G1 X43.797 Y17.938 E75.33228
G0 F2040 X44.344 Y18.263
;TYPE:WALL-OUTER
G1 F1020 X-59.357 Y18.263 E79.30087
G1 X-3.226 Y-68.931 E83.26938
G1 X44.344 Y18.263 E87.07054
G0 F2040 X44.144 Y18.263
G0 X44.007 Y18.062
G0 X43.224 Y17.598
;TYPE:SKIN
G1 F1020 X-58.137 Y17.598 E90.94958
G1 X-3.274 Y-67.629 E94.82853
G1 X43.224 Y17.598 E98.54397
G0 F2040 X-3.358 Y-67.209
G1 F1020 X-3.066 Y-66.918 E98.55975
G0 F2040 X-3.551 Y-66.908
G1 F1020 X-2.472 Y-65.828 E98.61817
G1 X-2.41 Y-65.766
G0 F2040 X-1.878 Y-64.739
G1 F1020 X-3.745 Y-66.607 E98.71924
G0 F2040 X-3.939 Y-66.306
G1 F1020 X-1.283 Y-63.65 E98.86299
G1 X-1.221 Y-63.588
G0 F2040 X-.689 Y-62.561
G1 F1020 X-4.133 Y-66.004 E99.04935
G0 F2040 X-4.326 Y-65.703
G1 F1020 X-0.095 Y-61.472 E99.27834
G1 X-0.033 Y-61.41
G0 F2040 X0.499 Y-60.382
G1 F1020 X-4.52 Y-65.402 E99.55
G0 F2040 X-4.714 Y-65.101
G1 F1020 X1.093 Y-59.293 E99.86431
G1 X1.155 Y-59.231
G0 F2040 X1.687 Y-58.204
G1 F1020 X-4.908 Y-64.8 E100.22127
G0 F2040 X-5.102 Y-64.499
G1 F1020 X2.281 Y-57.115 E100.62087
G1 X2.343 Y-57.053
G0 F2040 X2.875 Y-56.026
G1 F1020 X-5.296 Y-64.198 E101.06312
G0 F2040 X-5.489 Y-63.896
G1 F1020 X3.47 Y-54.936 E101.54802
G1 X3.532 Y-54.874
G0 F2040 X4.064 Y-53.847
G1 F1020 X-5.683 Y-63.595 E102.07557
G0 F2040 X-5.877 Y-63.294
G1 F1020 X4.659 Y-52.757 E102.64582
G1 X4.721 Y-52.695
G0 F2040 X5.253 Y-51.668
G1 F1020 X-6.071 Y-62.993 E103.25872
G0 F2040 X-6.265 Y-62.692
G1 F1020 X5.847 Y-50.579 E103.91426
G1 X5.909 Y-50.517
G0 F2040 X6.441 Y-49.49
G1 F1020 X-6.459 Y-62.391 E104.61245
G0 F2040 X-6.653 Y-62.09
G1 F1020 X7.035 Y-48.401 E105.35329
G1 X7.097 Y-48.339
G0 F2040 X7.63 Y-47.311
G1 F1020 X-6.846 Y-61.789 E106.1368
G0 F2040 X-7.04 Y-61.487
G1 F1020 X8.224 Y-46.222 E106.96294
G1 X8.286 Y-46.16
G0 F2040 X8.819 Y-45.133
G1 F1020 X-7.234 Y-61.186 E107.83175
G0 F2040 X-7.428 Y-60.885
G1 F1020 X9.413 Y-44.044 E108.7432
G1 X9.475 Y-43.982
G0 F2040 X10.006 Y-42.955
G1 F1020 X-7.622 Y-60.584 E109.69728
G0 F2040 X-7.816 Y-60.283
G1 F1020 X10.601 Y-41.865 E110.69406
G1 X10.663 Y-41.803
G0 F2040 X11.195 Y-40.776
G1 F1020 X-8.01 Y-59.982 E111.73349
G0 F2040 X-8.203 Y-59.681
G1 F1020 X11.79 Y-39.687 E112.81556
G1 X11.852 Y-39.625
G0 F2040 X12.384 Y-38.598
G1 F1020 X-8.397 Y-59.379 E113.94025
G0 F2040 X-8.591 Y-59.078
G1 F1020 X12.978 Y-37.508 E115.10762
G1 X13.04 Y-37.446
G0 F2040 X13.572 Y-36.419
G1 F1020 X-8.785 Y-58.777 E116.31764
G0 F2040 X-8.979 Y-58.477
G1 F1020 X14.166 Y-35.33 E117.57033
G1 X14.228 Y-35.268
G0 F2040 X14.761 Y-34.24
G1 F1020 X-9.173 Y-58.175 E118.8657
G0 F2040 X-9.367 Y-57.874
G1 F1020 X15.355 Y-33.151 E120.20371
G1 X15.417 Y-33.089
G0 F2040 X15.95 Y-32.062
G1 F1020 X-9.56 Y-57.573 E121.58437
G0 F2040 X-9.754 Y-57.272
G1 F1020 X16.544 Y-30.973 E123.00768
G1 X16.606 Y-30.911
G0 F2040 X17.138 Y-29.884
G1 F1020 X-9.948 Y-56.97 E124.47361
G0 F2040 X-10.142 Y-56.669
G1 F1020 X17.732 Y-28.794 E125.98221
G1 X17.794 Y-28.732
G0 F2040 X18.326 Y-27.705
G1 F1020 X-10.335 Y-56.368 E127.53343
G0 F2040 X-10.53 Y-56.067
G1 F1020 X18.921 Y-26.616 E129.12736
G1 X18.983 Y-26.554
G0 F2040 X19.515 Y-25.527
G1 F1020 X-10.723 Y-55.766 E130.76391
G0 F2040 X-10.917 Y-55.465
G1 F1020 X20.11 Y-24.437 E132.44315
G1 X20.172 Y-24.375
G0 F2040 X20.704 Y-23.348
G1 F1020 X-11.111 Y-55.164 E134.16505
G0 F2040 X-11.305 Y-54.863
G1 F1020 X21.298 Y-22.259 E135.92959
G1 X21.36 Y-22.197
G0 F2040 X21.892 Y-21.17
G1 F1020 X-11.498 Y-54.561 E137.73673
G0 F2040 X-11.692 Y-54.26
G1 F1020 X22.486 Y-20.081 E139.58651
G1 X22.548 Y-20.019
G0 F2040 X23.081 Y-18.991
G1 F1020 X-11.887 Y-53.96 E141.47905
G0 F2040 X-12.08 Y-53.658
G1 F1020 X23.675 Y-17.902 E143.41419
G1 X23.737 Y-17.84
G0 F2040 X24.27 Y-16.812
G1 F1020 X-12.274 Y-53.357 E145.39202
G0 F2040 X-12.468 Y-53.056
G1 F1020 X24.863 Y-15.723 E147.41248
G1 X24.925 Y-15.661
G0 F2040 X25.457 Y-14.634
G1 F1020 X-12.662 Y-52.755 E149.47558
G0 F2040 X-12.855 Y-52.453
G1 F1020 X26.052 Y-13.545 E151.5813
G1 X26.114 Y-13.483
G0 F2040 X26.646 Y-12.456
G1 F1020 X-13.049 Y-52.152 E153.72967
G0 F2040 X-13.244 Y-51.852
G1 F1020 X27.241 Y-11.366 E155.9208
G1 X27.303 Y-11.304
G0 F2040 X27.835 Y-10.277
G1 F1020 X-13.437 Y-51.55 E158.15452
G0 F2040 X-13.631 Y-51.249
G1 F1020 X28.429 Y-9.188 E160.43089
G1 X28.491 Y-9.126
G0 F2040 X29.023 Y-8.099
G1 F1020 X-13.825 Y-50.948 E162.7499
G0 F2040 X-14.019 Y-50.647
G1 F1020 X29.617 Y-7.01 E165.11157
G1 X29.679 Y-6.948
G0 F2040 X30.212 Y-5.92
G1 F1020 X-14.212 Y-50.346 E167.5159
G0 F2040 X-14.406 Y-50.044
G1 F1020 X30.806 Y-4.831 E169.96286
G1 X30.868 Y-4.769
G0 F2040 X31.401 Y-3.742
G1 F1020 X-14.6 Y-49.743 E172.45249
G0 F2040 X-14.794 Y-49.443
G1 F1020 X31.995 Y-2.653 E174.9848
G1 X32.057 Y-2.591
G0 F2040 X32.589 Y-1.564
G1 F1020 X-14.988 Y-49.141 E177.55973
G0 F2040 X-15.182 Y-48.84
G1 F1020 X33.183 Y-.474 E180.17733
G1 X33.245 Y-.412
G0 F2040 X33.777 Y0.614
G1 F1020 X-15.376 Y-48.539 E182.83756
G0 F2040 X-15.569 Y-48.238
G1 F1020 X34.372 Y1.704 E185.54045
G1 X34.434 Y1.766
G0 F2040 X34.966 Y2.793
G1 F1020 X-15.763 Y-47.936 E188.28597
G0 F2040 X-15.957 Y-47.635
G1 F1020 X35.56 Y3.882 E191.07414
G1 X35.622 Y3.944
G0 F2040 X36.155 Y4.971
G1 F1020 X-16.151 Y-47.335 E193.905
G0 F2040 X-16.345 Y-47.033
G1 F1020 X36.749 Y6.06 E196.77849
G1 X36.811 Y6.122
G0 F2040 X37.343 Y7.15
G1 F1020 X-16.539 Y-46.732 E199.69465
G0 F2040 X-16.732 Y-46.431
G1 F1020 X37.937 Y8.239 E202.65344
G1 X37.999 Y8.301
G0 F2040 X38.532 Y9.328
G1 F1020 X-16.926 Y-46.13 E205.6549
G0 F2040 X-17.12 Y-45.829
G1 F1020 X39.126 Y10.417 E208.699
G1 X39.188 Y10.479
G0 F2040 X39.72 Y11.506
G1 F1020 X-17.314 Y-45.527 E211.78573
G0 F2040 X-17.508 Y-45.227
G1 F1020 X40.314 Y12.596 E214.91515
G1 X40.376 Y12.658
G0 F2040 X40.908 Y13.685
G1 F1020 X-17.702 Y-44.926 E218.08723
G0 F2040 X-17.896 Y-44.624
G1 F1020 X41.503 Y14.774 E221.30195
G1 X41.565 Y14.836
G0 F2040 X42.097 Y15.863
G1 F1020 X-18.089 Y-44.323 E224.55929
G0 F2040 X-18.283 Y-44.022
G1 F1020 X42.692 Y16.953 E227.85934
G0 F2040 X42.684 Y17.44
G1 F1020 X-18.477 Y-43.721 E231.16945
G0 F2040 X-18.671 Y-43.419
G1 F1020 X42.189 Y17.44 E234.46324
G0 F2040 X41.694 Y17.44
G1 F1020 X-18.864 Y-43.118 E237.74072
G0 F2040 X-19.059 Y-42.818
G1 F1020 X41.199 Y17.44 E241.00196
G0 F2040 X40.704 Y17.44
G1 F1020 X-19.253 Y-42.516 E244.24688
G0 F2040 X-19.446 Y-42.215
G1 F1020 X40.209 Y17.44 E247.47549
G0 F2040 X39.714 Y17.44
G1 F1020 X-19.64 Y-41.914 E250.6878
G0 F2040 X-19.834 Y-41.613
G1 F1020 X39.219 Y17.44 E253.88382
G0 F2040 X38.724 Y17.44
G1 F1020 X-20.028 Y-41.312 E257.06356
G0 F2040 X-20.221 Y-41.01
G1 F1020 X38.229 Y17.44 E260.22695
G0 F2040 X37.734 Y17.44
G1 F1020 X-20.416 Y-40.71 E263.3741
G0 F2040 X-20.61 Y-40.409
G1 F1020 X37.239 Y17.44 E266.50496
G0 F2040 X36.744 Y17.44
G1 F1020 X-20.803 Y-40.107 E269.61948
G0 F2040 X-20.997 Y-39.806
G1 F1020 X36.249 Y17.44 E272.7177
G0 F2040 X35.754 Y17.44
G1 F1020 X-21.191 Y-39.505 E275.79964
G0 F2040 X-21.385 Y-39.204
G1 F1020 X35.259 Y17.44 E278.86528
G0 F2040 X34.764 Y17.44
G1 F1020 X-21.578 Y-38.902 E281.91458
G0 F2040 X-21.773 Y-38.602
G1 F1020 X34.269 Y17.44 E284.94765
G0 F2040 X33.774 Y17.44
G1 F1020 X-21.966 Y-38.301 E287.9644
G0 F2040 X-22.16 Y-37.999
G1 F1020 X33.279 Y17.44 E290.96483
G0 F2040 X32.785 Y17.44
G1 F1020 X-22.354 Y-37.698 E293.94899
G0 F2040 X-22.548 Y-37.397
G1 F1020 X32.29 Y17.44 E296.91687
G0 F2040 X31.795 Y17.44
G1 F1020 X-22.741 Y-37.096 E299.86842
G0 F2040 X-22.935 Y-36.795
G1 F1020 X31.3 Y17.44 E302.80369
G0 F2040 X30.805 Y17.44
G1 F1020 X-23.129 Y-36.493 E305.72264
G0 F2040 X-23.323 Y-36.193
G1 F1020 X30.31 Y17.44 E308.62533
G0 F2040 X29.815 Y17.44
G1 F1020 X-23.517 Y-35.892 E311.51172
G0 F2040 X-23.711 Y-35.59
