;FLAVOR:Marlin
;TIME:6293
;Filament used: 7.9437m
;Layer height: 0.3
;MINX:-42.105
;MINY:-26.011
;MINZ:0.26
;MAXX:67.009
;MAXY:70.61
;MAXZ:23.66
;Generated with Cura_SteamEngine 4.9.1
M82 ;absolute extrusion mode
;Gcode by Cura
G90
G28
M107
M109 R100
G30
M109 S215 U-55 X55 V-85 Y-85 W0.26 Z0.26
M82
G92 E0
G1 F200 E6
G92 E0
G1 F200 E-3.5
G0 Z0.15
G0 X10
G0 Z3
G1 F6000
G92 E0
G92 E0
G1 F3600 E-3.8
;LAYER_COUNT:79
;LAYER:0
M107
G0 F2040 X-41.186 Y-18.583 Z0.26
;TYPE:SKIRT
G1 F3600 E0
G1 F1020 X-41.532 Y-19.207 E0.02731
G1 X-41.79 Y-19.754 E0.05045
G1 X-41.973 Y-20.331 E0.07362
G1 X-42.079 Y-20.926 E0.09675
G1 X-42.105 Y-21.53 E0.11988
G1 X-42.051 Y-22.132 E0.14301
G1 X-41.919 Y-22.722 E0.16615
G1 X-41.709 Y-23.29 E0.18932
G1 X-41.427 Y-23.824 E0.21243
G1 X-41.077 Y-24.317 E0.23557
G1 X-40.664 Y-24.759 E0.25872
G1 X-40.197 Y-25.144 E0.28189
G1 X-39.684 Y-25.463 E0.305
G1 X-39.133 Y-25.711 E0.32813
G1 X-38.554 Y-25.885 E0.35126
G1 X-37.742 Y-25.996 E0.38263
G1 X-37.523 Y-26.004 E0.39101
G1 X-36.962 Y-26.011 E0.41249
G1 X61.812 Y-26.011 E4.19252
G1 X62.502 Y-26.001 E4.21893
G1 X63.105 Y-25.952 E4.24208
G1 X63.696 Y-25.824 E4.26522
G1 X64.265 Y-25.62 E4.28835
G1 X64.802 Y-25.342 E4.3115
G1 X65.298 Y-24.995 E4.33466
G1 X65.743 Y-24.587 E4.35777
G1 X66.131 Y-24.123 E4.38091
G1 X66.455 Y-23.612 E4.40407
G1 X66.708 Y-23.063 E4.4272
G1 X66.887 Y-22.485 E4.45036
G1 X66.987 Y-21.889 E4.47349
G1 X67.009 Y-21.285 E4.49662
G1 X66.95 Y-20.683 E4.51976
G1 X66.813 Y-20.094 E4.54291
G1 X66.549 Y-19.422 E4.57054
G1 X66.419 Y-19.169 E4.58142
G1 X66.118 Y-18.628 E4.60512
G1 X16.758 Y67.753 E8.41252
G1 X16.392 Y68.37 E8.43997
G1 X16.05 Y68.869 E8.46312
G1 X15.645 Y69.318 E8.48626
G1 X15.184 Y69.709 E8.5094
G1 X14.676 Y70.037 E8.53254
G1 X14.129 Y70.295 E8.55568
G1 X13.553 Y70.478 E8.57881
G1 X12.957 Y70.584 E8.60198
G1 X12.353 Y70.61 E8.62511
G1 X11.751 Y70.556 E8.64825
G1 X11.161 Y70.424 E8.67138
G1 X10.594 Y70.214 E8.69452
G1 X10.059 Y69.932 E8.71767
G1 X9.566 Y69.582 E8.7408
G1 X9.124 Y69.17 E8.76393
G1 X8.74 Y68.703 E8.78707
G1 X8.529 Y68.381 E8.8018
G1 X8.014 Y67.517 E8.84029
G1 X-41.186 Y-18.583 E12.63532
G0 F2040 X-40.88 Y-18.753
G1 F1020 X-41.226 Y-19.377 E12.66262
G1 X-41.472 Y-19.903 E12.68485
G1 X-41.644 Y-20.459 E12.70712
G1 X-41.738 Y-21.032 E12.72934
G1 X-41.752 Y-21.613 E12.75158
G1 X-41.686 Y-22.19 E12.77381
G1 X-41.542 Y-22.753 E12.79605
G1 X-41.322 Y-23.291 E12.81829
G1 X-41.03 Y-23.793 E12.84052
G1 X-40.673 Y-24.251 E12.86274
G1 X-40.255 Y-24.655 E12.88499
G1 X-39.786 Y-24.999 E12.90724
G1 X-39.275 Y-25.274 E12.92945
G1 X-38.731 Y-25.477 E12.95167
G1 X-38.163 Y-25.603 E12.97394
G1 X-37.661 Y-25.65 E12.99323
G1 X-37.519 Y-25.654 E12.99867
G1 X-36.958 Y-25.661 E13.02014
G1 X61.807 Y-25.661 E16.79983
G1 X62.497 Y-25.651 E16.82624
G1 X63.076 Y-25.602 E16.84848
G1 X63.643 Y-25.475 E16.87071
G1 X64.187 Y-25.271 E16.89295
G1 X64.698 Y-24.994 E16.91519
G1 X65.166 Y-24.65 E16.93742
G1 X65.583 Y-24.245 E16.95967
G1 X65.94 Y-23.787 E16.98189
G1 X66.231 Y-23.284 E17.00413
G1 X66.45 Y-22.746 E17.02636
G1 X66.593 Y-22.182 E17.04862
G1 X66.657 Y-21.605 E17.07084
G1 X66.642 Y-21.024 E17.09308
G1 X66.547 Y-20.451 E17.11531
G1 X66.374 Y-19.896 E17.13756
G1 X66.112 Y-19.339 E17.16111
G1 X65.814 Y-18.802 E17.18462
G1 X16.457 Y67.575 E20.99183
G1 X16.091 Y68.192 E21.01928
G1 X15.761 Y68.67 E21.04151
G1 X15.368 Y69.098 E21.06375
G1 X14.92 Y69.468 E21.08598
G1 X14.426 Y69.774 E21.10822
G1 X13.895 Y70.009 E21.13044
G1 X13.336 Y70.169 E21.1527
G1 X12.761 Y70.25 E21.17492
G1 X12.18 Y70.252 E21.19715
G1 X11.604 Y70.174 E21.2194
G1 X11.044 Y70.018 E21.24164
G1 X10.511 Y69.786 E21.26389
G1 X10.015 Y69.484 E21.28611
G1 X9.565 Y69.116 E21.30836
G1 X9.17 Y68.691 E21.33057
G1 X8.829 Y68.202 E21.35338
G1 X8.318 Y67.343 E21.39163
G1 X-40.88 Y-18.753 E25.18649
G0 F2040 X-40.574 Y-18.923
G1 F1020 X-40.92 Y-19.547 E25.21379
G1 X-41.154 Y-20.052 E25.23509
G1 X-41.314 Y-20.585 E25.25639
G1 X-41.395 Y-21.135 E25.27766
G1 X-41.397 Y-21.692 E25.29898
G1 X-41.319 Y-22.242 E25.32024
G1 X-41.163 Y-22.777 E25.34157
G1 X-40.932 Y-23.283 E25.36285
G1 X-40.631 Y-23.751 E25.38415
G1 X-40.266 Y-24.171 E25.40544
G1 X-39.845 Y-24.534 E25.42672
G1 X-39.376 Y-24.834 E25.44802
G1 X-38.869 Y-25.063 E25.46931
G1 X-38.334 Y-25.217 E25.49062
G1 X-37.71 Y-25.297 E25.51469
G1 X-37.514 Y-25.304 E25.5222
G1 X-36.953 Y-25.311 E25.54367
G1 X61.802 Y-25.311 E29.32298
G1 X62.492 Y-25.301 E29.34938
G1 X63.046 Y-25.253 E29.37067
G1 X63.588 Y-25.126 E29.39197
G1 X64.106 Y-24.923 E29.41326
G1 X64.59 Y-24.647 E29.43458
G1 X65.029 Y-24.306 E29.45586
G1 X65.415 Y-23.905 E29.47716
G1 X65.739 Y-23.452 E29.49847
G1 X65.995 Y-22.958 E29.51976
G1 X66.178 Y-22.433 E29.54104
G1 X66.284 Y-21.887 E29.56233
G1 X66.31 Y-21.331 E29.58363
G1 X66.256 Y-20.777 E29.60493
G1 X66.124 Y-20.237 E29.6262
G1 X65.92 Y-19.729 E29.64715
G1 X65.806 Y-19.509 E29.65664
G1 X65.51 Y-18.975 E29.68
G1 X16.156 Y67.396 E33.48696
G1 X15.79 Y68.013 E33.51441
G1 X15.472 Y68.47 E33.53572
G1 X15.093 Y68.877 E33.557
G1 X14.659 Y69.225 E33.57829
G1 X14.179 Y69.507 E33.59959
G1 X13.664 Y69.718 E33.62089
G1 X13.124 Y69.853 E33.64219
G1 X12.571 Y69.909 E33.66347
G1 X12.015 Y69.886 E33.68476
G1 X11.468 Y69.783 E33.70606
G1 X10.942 Y69.602 E33.72735
G1 X10.447 Y69.349 E33.74863
G1 X9.993 Y69.027 E33.76993
G1 X9.59 Y68.643 E33.79123
G1 X9.13 Y68.022 E33.8208
G1 X8.622 Y67.17 E33.85877
G1 X-40.574 Y-18.923 E37.65348
G0 F2040 X-40.268 Y-19.093
G1 F1020 X-40.614 Y-19.717 E37.68079
G1 X-40.835 Y-20.199 E37.70108
G1 X-40.982 Y-20.709 E37.72139
G1 X-41.051 Y-21.235 E37.7417
G1 X-41.04 Y-21.765 E37.76198
G1 X-40.949 Y-22.288 E37.7823
G1 X-40.781 Y-22.792 E37.80263
G1 X-40.539 Y-23.264 E37.82293
G1 X-40.229 Y-23.695 E37.84325
G1 X-39.858 Y-24.074 E37.86354
G1 X-39.434 Y-24.393 E37.88385
G1 X-38.967 Y-24.645 E37.90416
G1 X-38.467 Y-24.824 E37.92448
G1 X-37.694 Y-24.947 E37.95444
G1 X-37.51 Y-24.954 E37.96148
G1 X-36.949 Y-24.961 E37.98295
G1 X61.797 Y-24.961 E41.76191
G1 X62.487 Y-24.951 E41.78832
G1 X63.016 Y-24.903 E41.80865
G1 X63.531 Y-24.777 E41.82894
G1 X64.022 Y-24.574 E41.84927
G1 X64.476 Y-24.301 E41.86955
G1 X64.885 Y-23.962 E41.88988
G1 X65.237 Y-23.565 E41.91018
G1 X65.527 Y-23.121 E41.93048
G1 X65.746 Y-22.637 E41.95081
G1 X65.891 Y-22.127 E41.9711
G1 X65.957 Y-21.6 E41.99142
G1 X65.943 Y-21.07 E42.01171
G1 X65.85 Y-20.547 E42.03204
G1 X65.605 Y-19.882 E42.05916
G1 X65.5 Y-19.678 E42.06795
G1 X65.207 Y-19.149 E42.09109
G1 X15.855 Y67.217 E45.89784
G1 X15.489 Y67.834 E45.92529
G1 X15.184 Y68.269 E45.94562
G1 X14.818 Y68.653 E45.96593
G1 X14.399 Y68.978 E45.98622
G1 X13.935 Y69.236 E46.00654
G1 X13.438 Y69.422 E46.02684
G1 X12.918 Y69.531 E46.04718
G1 X12.389 Y69.56 E46.06745
G1 X11.86 Y69.51 E46.08779
G1 X11.346 Y69.381 E46.10807
G1 X10.856 Y69.176 E46.12839
G1 X10.403 Y68.901 E46.14867
G1 X9.996 Y68.56 E46.16899
G1 X9.645 Y68.162 E46.1893
G1 X9.43 Y67.843 E46.20403
G1 X8.925 Y66.996 E46.24176
G1 X-40.268 Y-19.093 E50.03629
G0 F2040 X-39.962 Y-19.262
G1 F1020 X-40.308 Y-19.886 E50.0636
G1 X-40.516 Y-20.345 E50.08288
G1 X-40.65 Y-20.83 E50.10214
G1 X-40.705 Y-21.331 E50.12143
G1 X-40.68 Y-21.834 E50.1407
G1 X-40.576 Y-22.327 E50.15998
G1 X-40.395 Y-22.797 E50.17926
G1 X-40.142 Y-23.232 E50.19851
G1 X-39.824 Y-23.622 E50.21777
G1 X-39.448 Y-23.957 E50.23704
G1 X-39.023 Y-24.228 E50.25633
G1 X-38.561 Y-24.429 E50.27562
G1 X-38.074 Y-24.554 E50.29486
G1 X-37.506 Y-24.604 E50.31668
G1 X-36.945 Y-24.611 E50.33815
G1 X61.792 Y-24.611 E54.11677
G1 X62.482 Y-24.601 E54.14318
G1 X62.983 Y-24.553 E54.16244
G1 X63.471 Y-24.428 E54.18171
G1 X63.933 Y-24.226 E54.20101
G1 X64.356 Y-23.954 E54.22026
G1 X64.732 Y-23.619 E54.23953
G1 X65.05 Y-23.228 E54.25882
G1 X65.302 Y-22.792 E54.27809
G1 X65.482 Y-22.322 E54.29735
G1 X65.585 Y-21.829 E54.31662
G1 X65.609 Y-21.326 E54.33589
G1 X65.554 Y-20.826 E54.35514
G1 X65.42 Y-20.34 E54.37444
G1 X65.194 Y-19.848 E54.39516
G1 X64.903 Y-19.323 E54.41813
G1 X15.554 Y67.039 E58.22469
G1 X15.188 Y67.656 E58.25214
G1 X14.897 Y68.067 E58.27142
G1 X14.545 Y68.427 E58.29069
G1 X14.141 Y68.728 E58.30997
G1 X13.694 Y68.96 E58.32924
G1 X13.216 Y69.119 E58.34852
G1 X12.719 Y69.2 E58.36779
G1 X12.216 Y69.202 E58.38704
G1 X11.718 Y69.124 E58.40633
G1 X11.239 Y68.968 E58.42561
G1 X10.791 Y68.739 E58.44486
G1 X10.385 Y68.441 E58.46414
G1 X10.03 Y68.084 E58.4834
G1 X9.731 Y67.663 E58.50316
G1 X9.229 Y66.822 E58.54065
G1 X-39.962 Y-19.262 E62.33497
G1 F3600 E58.53497
;MESH:support_tri_0_019.stl
G0 F2040 X-37.781 Y-20.507
G0 X-36.9 Y-21.011
G0 X12.453 Y65.006
;TYPE:WALL-INNER
G1 F3600 E62.33497
G1 F1020 X-36.642 Y-20.911 E66.12192
G1 X61.548 Y-20.911 E69.87961
G1 X12.453 Y65.006 E73.66656
G0 F2040 X12.453 Y65.661
;TYPE:WALL-OUTER
G1 F1020 X-37.202 Y-21.236 E77.49671
G1 X62.108 Y-21.236 E81.29725
G1 X12.453 Y65.661 E85.1274
G0 F2040 X12.354 Y65.488
G0 X12.442 Y65.439
G0 X12.453 Y64.321
;TYPE:SKIN
G1 F1020 X-36.056 Y-20.571 E88.86917
G1 X60.962 Y-20.571 E92.582
G1 X12.453 Y64.321 E96.32377
G0 F2040 X12.479 Y63.957
G1 F1020 X12.355 Y63.833 E96.33048
G0 F2040 X12.659 Y63.641
G1 F1020 X11.696 Y62.678 E96.3826
G1 X11.634 Y62.616
G0 F2040 X12.839 Y63.327
G1 F1020 X11.035 Y61.523 E96.48023
G1 X10.973 Y61.461
G0 F2040 X10.376 Y60.368
G1 F1020 X13.019 Y63.011 E96.62328
G0 F2040 X13.199 Y62.697
G1 F1020 X9.716 Y59.213 E96.81181
G1 X9.654 Y59.151
G0 F2040 X9.056 Y58.059
G1 F1020 X13.379 Y62.381 E97.04575
G0 F2040 X13.559 Y62.067
G1 F1020 X8.396 Y56.903 E97.3252
G1 X8.334 Y56.841
G0 F2040 X7.736 Y55.749
G1 F1020 X13.739 Y61.752 E97.65009
G0 F2040 X13.919 Y61.436
G1 F1020 X7.076 Y54.594 E98.02042
G1 X7.014 Y54.532
G0 F2040 X6.416 Y53.438
G1 F1020 X14.099 Y61.122 E98.43626
G0 F2040 X14.279 Y60.806
G1 F1020 X5.756 Y52.284 E98.89751
G1 X5.694 Y52.222
G0 F2040 X5.096 Y51.129
G1 F1020 X14.459 Y60.492 E99.40424
G0 F2040 X14.639 Y60.176
G1 F1020 X4.437 Y49.974 E99.95639
G1 X4.375 Y49.912
G0 F2040 X3.776 Y48.819
G1 F1020 X14.819 Y59.862 E100.55405
G0 F2040 X14.999 Y59.546
G1 F1020 X3.116 Y47.664 E101.19715
G1 X3.054 Y47.602
G0 F2040 X2.457 Y46.509
G1 F1020 X15.179 Y59.232 E101.8857
G0 F2040 X15.359 Y58.916
G1 F1020 X1.797 Y45.355 E102.61967
G1 X1.735 Y45.293
G0 F2040 X1.137 Y44.199
G1 F1020 X15.539 Y58.602 E103.39915
G0 F2040 X15.719 Y58.287
G1 F1020 X0.477 Y43.045 E104.22407
G1 X0.415 Y42.983
G0 F2040 X-.182 Y41.89
G1 F1020 X15.899 Y57.972 E105.09442
G0 F2040 X16.079 Y57.657
G1 F1020 X-.842 Y40.735 E106.01023
G1 X-.904 Y40.673
G0 F2040 X-1.502 Y39.58
G1 F1020 X16.259 Y57.342 E106.97151
G0 F2040 X16.439 Y57.027
G1 F1020 X-2.162 Y38.425 E107.97824
G1 X-2.224 Y38.363
G0 F2040 X-2.822 Y37.27
G1 F1020 X16.619 Y56.712 E109.03044
G0 F2040 X16.799 Y56.397
G1 F1020 X-3.482 Y36.115 E110.1281
G1 X-3.544 Y36.053
G0 F2040 X-4.142 Y34.96
G1 F1020 X16.979 Y56.082 E111.27123
G0 F2040 X17.159 Y55.767
G1 F1020 X-4.801 Y33.806 E112.45976
G1 X-4.863 Y33.744
G0 F2040 X-5.461 Y32.651
G1 F1020 X17.338 Y55.452 E113.69372
G0 F2040 X17.519 Y55.137
G1 F1020 X-6.122 Y31.495 E114.97323
G1 X-6.184 Y31.433
G0 F2040 X-6.781 Y30.341
G1 F1020 X17.699 Y54.822 E116.29814
G0 F2040 X17.879 Y54.507
G1 F1020 X-7.441 Y29.186 E117.66852
G1 X-7.503 Y29.124
G0 F2040 X-8.101 Y28.031
G1 F1020 X18.059 Y54.192 E119.08436
G0 F2040 X18.239 Y53.877
G1 F1020 X-8.761 Y26.876 E120.54566
G1 X-8.823 Y26.814
G0 F2040 X-9.421 Y25.721
G1 F1020 X18.419 Y53.562 E122.05243
G0 F2040 X18.599 Y53.247
G1 F1020 X-10.081 Y24.567 E123.60462
G1 X-10.143 Y24.505
G0 F2040 X-10.74 Y23.412
G1 F1020 X18.779 Y52.932 E125.20226
G0 F2040 X18.958 Y52.617
G1 F1020 X-11.401 Y22.256 E126.84538
G1 X-11.463 Y22.194
G0 F2040 X-12.061 Y21.102
G1 F1020 X19.139 Y52.302 E128.53396
G0 F2040 X19.318 Y51.987
G1 F1020 X-12.72 Y19.947 E130.26795
G1 X-12.782 Y19.885
G0 F2040 X-13.38 Y18.792
G1 F1020 X19.499 Y51.672 E132.04744
G0 F2040 X19.679 Y51.357
G1 F1020 X-14.041 Y17.637 E133.8724
G1 X-14.103 Y17.575
G0 F2040 X-14.7 Y16.482
G1 F1020 X19.859 Y51.042 E135.74281
G0 F2040 X20.039 Y50.727
G1 F1020 X-15.36 Y15.327 E137.65867
G1 X-15.422 Y15.265
G0 F2040 X-16.02 Y14.172
G1 F1020 X20.219 Y50.412 E139.62
G0 F2040 X20.399 Y50.097
G1 F1020 X-16.68 Y13.017 E141.62679
G1 X-16.742 Y12.955
G0 F2040 X-17.34 Y11.863
G1 F1020 X20.578 Y49.782 E143.67899
G0 F2040 X20.759 Y49.467
G1 F1020 X-18 Y10.708 E145.77668
G1 X-18.062 Y10.646
G0 F2040 X-18.66 Y9.553
G1 F1020 X20.938 Y49.152 E147.9198
G0 F2040 X21.119 Y48.837
G1 F1020 X-19.32 Y8.398 E150.10841
G1 X-19.382 Y8.336
G0 F2040 X-19.98 Y7.243
G1 F1020 X21.298 Y48.522 E152.34245
G0 F2040 X21.479 Y48.207
G1 F1020 X-20.639 Y6.088 E154.62196
G1 X-20.701 Y6.026
G0 F2040 X-21.3 Y4.933
G1 F1020 X21.659 Y47.893 E156.94698
G0 F2040 X21.838 Y47.577
G1 F1020 X-21.959 Y3.778 E159.31739
G1 X-22.021 Y3.716
G0 F2040 X-22.619 Y2.624
G1 F1020 X22.019 Y47.263 E161.73328
G0 F2040 X22.198 Y46.947
G1 F1020 X-23.279 Y1.469 E164.19458
G1 X-23.341 Y1.407
G0 F2040 X-23.939 Y0.313
G1 F1020 X22.379 Y46.632 E166.7014
G0 F2040 X22.558 Y46.317
G1 F1020 X-24.599 Y-.84 E169.25359
G1 X-24.661 Y-.902
G0 F2040 X-25.259 Y-1.995
G1 F1020 X22.739 Y46.002 E171.85128
G0 F2040 X22.918 Y45.687
G1 F1020 X-25.919 Y-3.15 E174.4944
G1 X-25.981 Y-3.212
G0 F2040 X-26.579 Y-4.305
G1 F1020 X23.099 Y45.372 E177.18301
G0 F2040 X23.278 Y45.057
G1 F1020 X-27.239 Y-5.46 E179.91705
G1 X-27.301 Y-5.522
G0 F2040 X-27.898 Y-6.614
G1 F1020 X23.458 Y44.742 E182.6965
G0 F2040 X23.639 Y44.428
G1 F1020 X-28.559 Y-7.77 E185.52153
G1 X-28.621 Y-7.832
G0 F2040 X-29.219 Y-8.925
G1 F1020 X23.818 Y44.112 E188.39196
G0 F2040 X23.999 Y43.798
G1 F1020 X-29.878 Y-10.079 E191.30785
G1 X-29.94 Y-10.141
G0 F2040 X-30.538 Y-11.234
G1 F1020 X24.178 Y43.482 E194.26915
G0 F2040 X24.359 Y43.168
G1 F1020 X-31.198 Y-12.389 E197.27596
G1 X-31.26 Y-12.451
G0 F2040 X-31.858 Y-13.544
G1 F1020 X24.538 Y42.852 E200.32819
G0 F2040 X24.719 Y42.538
G1 F1020 X-32.518 Y-14.699 E203.42593
G1 X-32.58 Y-14.761
G0 F2040 X-33.178 Y-15.854
G1 F1020 X24.898 Y42.222 E206.56907
G0 F2040 X25.078 Y41.908
G1 F1020 X-33.838 Y-17.009 E209.75771
G1 X-33.9 Y-17.071
G0 F2040 X-34.498 Y-18.164
G1 F1020 X25.258 Y41.592 E212.99178
G0 F2040 X25.438 Y41.278
G1 F1020 X-35.158 Y-19.318 E216.27131
G1 X-35.22 Y-19.38
G0 F2040 X-35.262 Y-20.413
G1 F1020 X25.798 Y40.648 E219.57599
G0 F2040 X25.618 Y40.962
G1 F1020 X-35.757 Y-20.413 E222.89768
G1 X-35.819 Y-20.475
G0 F2040 X-34.767 Y-20.413
G1 F1020 X25.979 Y40.333 E226.18533
G0 F2040 X26.158 Y40.018
G1 F1020 X-34.272 Y-20.413 E229.45591
G0 F2040 X-33.777 Y-20.413
G1 F1020 X26.339 Y39.703 E232.70946
G0 F2040 X26.518 Y39.387
G1 F1020 X-33.282 Y-20.413 E235.94591
G0 F2040 X-32.787 Y-20.413
G1 F1020 X26.698 Y39.073 E239.16534
G0 F2040 X26.878 Y38.757
G1 F1020 X-32.292 Y-20.413 E242.3677
G0 F2040 X-31.797 Y-20.413
G1 F1020 X27.058 Y38.443 E245.55303
G0 F2040 X27.238 Y38.127
G1 F1020 X-31.302 Y-20.413 E248.72129
G0 F2040 X-30.807 Y-20.413
G1 F1020 X27.418 Y37.813 E251.87253
G0 F2040 X27.598 Y37.497
G1 F1020 X-30.312 Y-20.413 E255.00669
G0 F2040 X-29.817 Y-20.413
G1 F1020 X27.778 Y37.183 E258.12384
G0 F2040 X27.959 Y36.868
G1 F1020 X-29.323 Y-20.413 E261.22398
G0 F2040 X-28.828 Y-20.413
G1 F1020 X28.138 Y36.553 E264.30706
G0 F2040 X28.318 Y36.238
G1 F1020 X-28.333 Y-20.413 E267.37308
G0 F2040 X-27.838 Y-20.413
G1 F1020 X28.498 Y35.923 E270.42206
G0 F2040 X28.678 Y35.608
G1 F1020 X-27.343 Y-20.413 E273.45398
G0 F2040 X-26.848 Y-20.413
G1 F1020 X28.858 Y35.293 E276.46886
G0 F2040 X29.038 Y34.978
G1 F1020 X-26.353 Y-20.413 E279.4667
G0 F2040 X-25.858 Y-20.413
G1 F1020 X29.218 Y34.663 E282.44748
G0 F2040 X29.398 Y34.348
G1 F1020 X-25.363 Y-20.413 E285.41121
G0 F2040 X-24.868 Y-20.413
G1 F1020 X29.578 Y34.033 E288.3579
G0 F2040 X29.758 Y33.718
G1 F1020 X-24.373 Y-20.413 E291.28754
G0 F2040 X-23.878 Y-20.413
G1 F1020 X29.938 Y33.403 E294.20013
G0 F2040 X30.118 Y33.088
G1 F1020 X-23.383 Y-20.413 E297.09567
G0 F2040 X-22.888 Y-20.413
G1 F1020 X30.298 Y32.773 E299.97417
G0 F2040 X30.478 Y32.458
G1 F1020 X-22.393 Y-20.413 E302.83561
G0 F2040 X-21.898 Y-20.413
G1 F1020 X30.658 Y32.143 E305.68001
G0 F2040 X30.838 Y31.828
G1 F1020 X-21.403 Y-20.413 E308.50736
