;FLAVOR:Marlin
;TIME:7961
;Filament used: 7.34058m
;Layer height: 0.2
;MINX:-41.782
;MINY:-24.211
;MINZ:0.26
;MAXX:68.449
;MAXY:74.334
;MAXZ:22.86
;Generated with Cura_SteamEngine 4.8.0
M82 ;absolute extrusion mode
;Gcode by Cura
G90
G28
M107
M109 R100
G30
M109 S215 U-55 X55 V-85 Y-85 W0.26 Z0.26
M82
G92 E0
G1 F200 E6
G92 E0
G1 F200 E-3.5
G0 Z0.15
G0 X10
G0 Z3
G1 F6000
G92 E0
G92 E0
G1 F3600 E-3.8
;LAYER_COUNT:114
;LAYER:0
M107
G0 F2040 X-36.791 Y-24.211 Z0.26
;TYPE:SKIRT
G1 F3600 E0
G1 F1020 X63.252 Y-24.211 E3.8286
G1 X63.942 Y-24.201 E3.85501
G1 X64.545 Y-24.152 E3.87816
G1 X65.136 Y-24.024 E3.9013
G1 X65.705 Y-23.82 E3.92443
G1 X66.242 Y-23.542 E3.94757
G1 X66.738 Y-23.195 E3.97074
G1 X67.183 Y-22.787 E3.99384
G1 X67.571 Y-22.323 E4.01699
G1 X67.895 Y-21.812 E4.04015
G1 X68.148 Y-21.263 E4.06328
G1 X68.327 Y-20.685 E4.08644
G1 X68.427 Y-20.089 E4.10956
G1 X68.449 Y-19.485 E4.13269
G1 X68.39 Y-18.883 E4.15584
G1 X68.253 Y-18.294 E4.17899
G1 X67.997 Y-17.64 E4.20586
G1 X67.726 Y-17.098 E4.22905
G1 X21.056 Y71.274 E8.05365
G1 X20.688 Y71.949 E8.08307
G1 X20.364 Y72.46 E8.10623
G1 X19.976 Y72.923 E8.12935
G1 X19.529 Y73.331 E8.15251
G1 X19.033 Y73.677 E8.17565
G1 X18.496 Y73.954 E8.19877
G1 X17.927 Y74.158 E8.22191
G1 X17.336 Y74.285 E8.24504
G1 X16.733 Y74.334 E8.26819
G1 X16.129 Y74.302 E8.29134
G1 X15.535 Y74.191 E8.31447
G1 X14.96 Y74.002 E8.33763
G1 X14.416 Y73.74 E8.36074
G1 X13.911 Y73.407 E8.38389
G1 X13.454 Y73.011 E8.40703
G1 X13.053 Y72.559 E8.43015
G1 X12.743 Y72.11 E8.45103
G1 X12.465 Y71.662 E8.47121
G1 X-40.8 Y-16.705 E12.41982
G1 X-41.16 Y-17.323 E12.44719
G1 X-41.429 Y-17.865 E12.47034
G1 X-41.625 Y-18.437 E12.49348
G1 X-41.743 Y-19.03 E12.51662
G1 X-41.782 Y-19.633 E12.53975
G1 X-41.741 Y-20.236 E12.56288
G1 X-41.621 Y-20.829 E12.58603
G1 X-41.424 Y-21.401 E12.60918
G1 X-41.153 Y-21.941 E12.6323
G1 X-40.813 Y-22.441 E12.65544
G1 X-40.41 Y-22.892 E12.67859
G1 X-39.952 Y-23.286 E12.70171
G1 X-39.445 Y-23.616 E12.72486
G1 X-38.899 Y-23.877 E12.74802
G1 X-38.324 Y-24.063 E12.77115
G1 X-37.729 Y-24.171 E12.79429
G1 X-37.171 Y-24.205 E12.81569
G1 X-36.791 Y-24.211 E12.83023
G0 F2040 X-36.787 Y-23.861
G1 F1020 X63.247 Y-23.861 E16.65848
G1 X63.937 Y-23.851 E16.68489
G1 X64.516 Y-23.802 E16.70713
G1 X65.083 Y-23.675 E16.72936
G1 X65.627 Y-23.471 E16.7516
G1 X66.138 Y-23.194 E16.77384
G1 X66.606 Y-22.85 E16.79607
G1 X67.023 Y-22.445 E16.81832
G1 X67.38 Y-21.987 E16.84054
G1 X67.671 Y-21.484 E16.86278
G1 X67.89 Y-20.946 E16.88501
G1 X68.033 Y-20.382 E16.90728
G1 X68.097 Y-19.805 E16.92949
G1 X68.082 Y-19.224 E16.95173
G1 X67.987 Y-18.651 E16.97396
G1 X67.814 Y-18.096 E16.99621
G1 X67.602 Y-17.626 E17.01594
G1 X67.391 Y-17.212 E17.03372
G1 X20.749 Y71.106 E20.85599
G1 X20.381 Y71.781 E20.88542
G1 X20.068 Y72.271 E20.90767
G1 X19.691 Y72.713 E20.9299
G1 X19.257 Y73.1 E20.95215
G1 X18.774 Y73.423 E20.97439
G1 X18.252 Y73.677 E20.99661
G1 X17.699 Y73.857 E21.01886
G1 X17.127 Y73.959 E21.0411
G1 X16.547 Y73.982 E21.06331
G1 X15.969 Y73.925 E21.08554
G1 X15.404 Y73.789 E21.10778
G1 X14.863 Y73.577 E21.13001
G1 X14.356 Y73.293 E21.15225
G1 X13.893 Y72.942 E21.17449
G1 X13.482 Y72.531 E21.19673
G1 X13.129 Y72.062 E21.2192
G1 X12.787 Y71.519 E21.24375
G1 X-40.498 Y-16.881 E25.19384
G1 X-40.858 Y-17.499 E25.22121
G1 X-41.115 Y-18.02 E25.24344
G1 X-41.298 Y-18.572 E25.2657
G1 X-41.404 Y-19.143 E25.28792
G1 X-41.431 Y-19.723 E25.31014
G1 X-41.378 Y-20.302 E25.33239
G1 X-41.245 Y-20.868 E25.35464
G1 X-41.037 Y-21.41 E25.37686
G1 X-40.756 Y-21.919 E25.39911
G1 X-40.408 Y-22.384 E25.42134
G1 X-39.999 Y-22.797 E25.44358
G1 X-39.538 Y-23.15 E25.4658
G1 X-39.032 Y-23.436 E25.48805
G1 X-38.492 Y-23.651 E25.51029
G1 X-37.928 Y-23.789 E25.53251
G1 X-37.356 Y-23.848 E25.55452
G1 X-36.787 Y-23.861 E25.5763
G0 F2040 X-36.783 Y-23.511
G1 F1020 X63.242 Y-23.511 E29.40421
G1 X63.932 Y-23.501 E29.43062
G1 X64.486 Y-23.453 E29.4519
G1 X65.028 Y-23.326 E29.4732
G1 X65.546 Y-23.123 E29.49449
G1 X66.03 Y-22.847 E29.51581
G1 X66.469 Y-22.506 E29.53709
G1 X66.855 Y-22.105 E29.55839
G1 X67.179 Y-21.652 E29.5797
G1 X67.435 Y-21.158 E29.60099
G1 X67.618 Y-20.633 E29.62227
G1 X67.724 Y-20.087 E29.64356
G1 X67.75 Y-19.531 E29.66486
G1 X67.696 Y-18.977 E29.68616
G1 X67.564 Y-18.437 E29.70743
G1 X67.367 Y-17.944 E29.72775
G1 X67.103 Y-17.417 E29.75031
G1 X20.466 Y70.894 E33.57225
G1 X20.073 Y71.614 E33.60364
G1 X19.773 Y72.082 E33.62492
G1 X19.408 Y72.502 E33.64621
G1 X18.987 Y72.866 E33.66751
G1 X18.518 Y73.166 E33.68882
G1 X18.011 Y73.395 E33.71011
G1 X17.476 Y73.549 E33.73141
G1 X16.925 Y73.626 E33.7527
G1 X16.369 Y73.622 E33.77398
G1 X15.819 Y73.539 E33.79527
G1 X15.286 Y73.378 E33.81658
G1 X14.782 Y73.142 E33.83787
G1 X14.317 Y72.837 E33.85916
G1 X13.9 Y72.468 E33.88047
G1 X13.423 Y71.872 E33.90968
G1 X13.085 Y71.335 E33.93396
G1 X-40.195 Y-17.058 E37.88372
G1 X-40.555 Y-17.676 E37.91109
G1 X-40.8 Y-18.175 E37.93236
G1 X-40.971 Y-18.705 E37.95368
G1 X-41.064 Y-19.253 E37.97495
G1 X-41.078 Y-19.81 E37.99627
G1 X-41.011 Y-20.362 E38.01755
G1 X-40.867 Y-20.899 E38.03883
G1 X-40.647 Y-21.41 E38.06012
G1 X-40.356 Y-21.885 E38.08144
G1 X-40 Y-22.312 E38.10271
G1 X-39.586 Y-22.685 E38.12404
G1 X-39.124 Y-22.994 E38.14531
G1 X-38.622 Y-23.234 E38.1666
G1 X-38.09 Y-23.399 E38.18792
G1 X-37.344 Y-23.499 E38.21672
G1 X-36.783 Y-23.511 E38.2382
G0 F2040 X-36.779 Y-23.161
G1 F1020 X63.237 Y-23.161 E42.06576
G1 X63.927 Y-23.151 E42.09217
G1 X64.456 Y-23.103 E42.1125
G1 X64.971 Y-22.977 E42.13279
G1 X65.462 Y-22.774 E42.15312
G1 X65.916 Y-22.501 E42.17339
G1 X66.325 Y-22.162 E42.19372
G1 X66.677 Y-21.765 E42.21403
G1 X66.967 Y-21.321 E42.23432
G1 X67.186 Y-20.837 E42.25465
G1 X67.331 Y-20.327 E42.27494
G1 X67.397 Y-19.8 E42.29527
G1 X67.383 Y-19.27 E42.31556
G1 X67.29 Y-18.747 E42.33589
G1 X67.051 Y-18.096 E42.36243
G1 X66.792 Y-17.577 E42.38463
G1 X20.134 Y70.771 E46.2082
G1 X19.766 Y71.446 E46.23762
G1 X19.478 Y71.892 E46.25794
G1 X19.126 Y72.289 E46.27824
G1 X18.718 Y72.629 E46.29857
G1 X18.264 Y72.904 E46.31888
G1 X17.774 Y73.107 E46.33918
G1 X17.259 Y73.235 E46.35948
G1 X16.73 Y73.283 E46.37981
G1 X16.201 Y73.252 E46.40009
G1 X15.682 Y73.142 E46.42039
G1 X15.185 Y72.955 E46.44072
G1 X14.722 Y72.696 E46.46102
G1 X14.303 Y72.37 E46.48134
G1 X13.938 Y71.985 E46.50164
G1 X13.623 Y71.538 E46.52257
G1 X13.364 Y71.12 E46.54138
G1 X-39.893 Y-17.234 E50.48941
G1 X-40.253 Y-17.852 E50.51678
G1 X-40.485 Y-18.329 E50.53708
G1 X-40.642 Y-18.836 E50.55739
G1 X-40.722 Y-19.36 E50.57767
G1 X-40.722 Y-19.891 E50.598
G1 X-40.642 Y-20.416 E50.61832
G1 X-40.485 Y-20.922 E50.63859
G1 X-40.253 Y-21.4 E50.65893
G1 X-39.952 Y-21.837 E50.67923
G1 X-39.589 Y-22.224 E50.69954
G1 X-39.172 Y-22.552 E50.71984
G1 X-38.711 Y-22.814 E50.74014
G1 X-38.215 Y-23.004 E50.76046
G1 X-37.697 Y-23.117 E50.78075
G1 X-37.134 Y-23.156 E50.80235
G1 X-36.779 Y-23.161 E50.81594
G0 F2040 X-36.775 Y-22.811
G1 F1020 X63.232 Y-22.811 E54.64316
G1 X63.922 Y-22.801 E54.66957
G1 X64.423 Y-22.753 E54.68883
G1 X64.911 Y-22.628 E54.70811
G1 X65.373 Y-22.426 E54.7274
G1 X65.796 Y-22.154 E54.74665
G1 X66.172 Y-21.819 E54.76592
G1 X66.49 Y-21.428 E54.78521
G1 X66.742 Y-20.992 E54.80448
G1 X66.922 Y-20.522 E54.82374
G1 X67.025 Y-20.029 E54.84301
G1 X67.049 Y-19.526 E54.86229
G1 X66.994 Y-19.026 E54.88154
G1 X66.86 Y-18.54 E54.90083
G1 X66.656 Y-18.082 E54.92002
G1 X66.463 Y-17.702 E54.93633
G1 X19.827 Y70.604 E58.75808
G1 X19.459 Y71.279 E58.7875
G1 X19.183 Y71.7 E58.80677
G1 X18.845 Y72.073 E58.82603
G1 X18.451 Y72.388 E58.84534
G1 X18.013 Y72.636 E58.8646
G1 X17.542 Y72.812 E58.88384
G1 X17.048 Y72.912 E58.90313
G1 X16.545 Y72.931 E58.92239
G1 X16.045 Y72.872 E58.94166
G1 X15.56 Y72.733 E58.96097
G1 X15.104 Y72.52 E58.98023
G1 X14.687 Y72.238 E58.9995
G1 X14.32 Y71.893 E59.01877
G1 X14.009 Y71.49 E59.03825
G1 X13.681 Y70.967 E59.06188
G1 X-39.59 Y-17.41 E63.01093
G1 X-39.95 Y-18.028 E63.0383
G1 X-40.169 Y-18.482 E63.05759
G1 X-40.312 Y-18.964 E63.07683
G1 X-40.378 Y-19.464 E63.09613
G1 X-40.364 Y-19.967 E63.11539
G1 X-40.27 Y-20.462 E63.13467
G1 X-40.099 Y-20.936 E63.15396
G1 X-39.856 Y-21.376 E63.17319
G1 X-39.546 Y-21.773 E63.19247
G1 X-39.177 Y-22.116 E63.21175
G1 X-38.758 Y-22.396 E63.23104
G1 X-38.301 Y-22.607 E63.2503
G1 X-37.816 Y-22.742 E63.26957
G1 X-37.319 Y-22.799 E63.28871
G1 X-36.775 Y-22.811 E63.30953
G1 F3600 E59.50953
;MESH:support_tri_0_087.stl
G0 F2040 X-36.571 Y-20.301
G0 X-36.571 Y-19.248
G0 X16.641 Y68.713
;TYPE:WALL-INNER
G1 F3600 E63.30953
G1 F1020 X-36.296 Y-19.111 E67.23386
G1 X63.022 Y-19.111 E71.03472
G1 X16.641 Y68.713 E74.8356
G0 F2040 X16.66 Y69.373
;TYPE:WALL-OUTER
G1 F1020 X-36.871 Y-19.436 E78.80395
G1 X63.561 Y-19.436 E82.64744
G1 X16.66 Y69.373 E86.49095
G0 F2040 X16.557 Y69.202
G0 X16.643 Y69.151
G0 X16.621 Y68.022
;TYPE:SKIN
G1 F1020 X-35.694 Y-18.771 E90.3692
G1 X62.457 Y-18.771 E94.12539
G1 X16.621 Y68.022 E97.88165
G0 F2040 X16.649 Y67.631
G1 F1020 X16.448 Y67.43 E97.89253
G0 F2040 X16.82 Y67.308
G1 F1020 X15.697 Y66.184 E97.95334
G1 X15.635 Y66.122
G0 F2040 X14.946 Y64.938
G1 F1020 X16.991 Y66.984 E98.06404
G0 F2040 X17.162 Y66.66
G1 F1020 X14.195 Y63.692 E98.22465
G1 X14.133 Y63.63
G0 F2040 X13.444 Y62.446
G1 F1020 X17.334 Y66.336 E98.43518
G0 F2040 X17.505 Y66.012
G1 F1020 X12.693 Y61.2 E98.69561
G1 X12.631 Y61.138
G0 F2040 X11.941 Y59.954
G1 F1020 X17.676 Y65.688 E99.00597
G0 F2040 X17.847 Y65.364
G1 F1020 X11.19 Y58.708 E99.36623
G1 X11.128 Y58.646
G0 F2040 X10.439 Y57.462
G1 F1020 X18.018 Y65.041 E99.77641
G0 F2040 X18.188 Y64.716
G1 F1020 X9.688 Y56.216 E100.23644
G1 X9.626 Y56.154
G0 F2040 X8.937 Y54.97
G1 F1020 X18.36 Y64.392 E100.7464
G0 F2040 X18.531 Y64.068
G1 F1020 X8.186 Y53.724 E101.30626
G1 X8.124 Y53.662
G0 F2040 X7.435 Y52.478
G1 F1020 X18.702 Y63.744 E101.91601
G0 F2040 X18.873 Y63.421
G1 F1020 X6.684 Y51.232 E102.5757
G1 X6.622 Y51.17
G0 F2040 X5.934 Y49.986
G1 F1020 X19.044 Y63.097 E103.28526
G0 F2040 X19.215 Y62.773
G1 F1020 X5.183 Y48.74 E104.04471
G1 X5.121 Y48.678
G0 F2040 X4.431 Y47.494
G1 F1020 X19.386 Y62.449 E104.8541
G0 F2040 X19.557 Y62.125
G1 F1020 X3.68 Y46.248 E105.71338
G1 X3.618 Y46.186
G0 F2040 X2.929 Y45.002
G1 F1020 X19.728 Y61.801 E106.62256
G0 F2040 X19.9 Y61.477
G1 F1020 X2.178 Y43.756 E107.58167
G1 X2.116 Y43.694
G0 F2040 X1.427 Y42.51
G1 F1020 X20.071 Y61.154 E108.59071
G0 F2040 X20.241 Y60.829
G1 F1020 X0.676 Y41.264 E109.64959
G1 X0.614 Y41.202
G0 F2040 X-0.074 Y40.018
G1 F1020 X20.412 Y60.505 E110.75835
G0 F2040 X20.583 Y60.181
G1 F1020 X-.825 Y38.772 E111.917
G1 X-.887 Y38.71
G0 F2040 X-1.576 Y37.526
G1 F1020 X20.754 Y59.858 E113.12559
G0 F2040 X20.926 Y59.534
G1 F1020 X-2.327 Y36.28 E114.38409
G1 X-2.389 Y36.218
G0 F2040 X-3.078 Y35.034
G1 F1020 X21.097 Y59.21 E115.6925
G0 F2040 X21.268 Y58.886
G1 F1020 X-3.829 Y33.788 E117.05081
G1 X-3.891 Y33.726
G0 F2040 X-4.58 Y32.542
G1 F1020 X21.439 Y58.562 E118.45902
G0 F2040 X21.61 Y58.238
G1 F1020 X-5.331 Y31.296 E119.91713
G1 X-5.393 Y31.234
G0 F2040 X-6.082 Y30.05
G1 F1020 X21.781 Y57.914 E121.42514
G0 F2040 X21.952 Y57.591
G1 F1020 X-6.833 Y28.804 E122.98307
G1 X-6.895 Y28.742
G0 F2040 X-7.584 Y27.558
G1 F1020 X22.123 Y57.266 E124.59088
G0 F2040 X22.294 Y56.942
G1 F1020 X-8.335 Y26.312 E126.24859
G1 X-8.397 Y26.25
G0 F2040 X-9.086 Y25.066
G1 F1020 X22.465 Y56.618 E127.95619
G0 F2040 X22.636 Y56.294
G1 F1020 X-9.837 Y23.82 E129.7137
G1 X-9.899 Y23.758
G0 F2040 X-10.588 Y22.574
G1 F1020 X22.807 Y55.971 E131.52114
G0 F2040 X22.978 Y55.647
G1 F1020 X-11.339 Y21.328 E133.37847
G1 X-11.401 Y21.266
G0 F2040 X-12.09 Y20.082
G1 F1020 X23.149 Y55.323 E135.2857
G0 F2040 X23.321 Y54.999
G1 F1020 X-12.841 Y18.836 E137.24286
G1 X-12.903 Y18.774
G0 F2040 X-13.592 Y17.59
G1 F1020 X23.492 Y54.675 E139.24992
G0 F2040 X23.663 Y54.351
G1 F1020 X-14.343 Y16.344 E141.30688
G1 X-14.405 Y16.282
G0 F2040 X-15.094 Y15.098
G1 F1020 X23.834 Y54.027 E143.41374
G0 F2040 X24.005 Y53.704
G1 F1020 X-15.845 Y13.852 E145.57053
G1 X-15.907 Y13.79
G0 F2040 X-16.596 Y12.607
G1 F1020 X24.175 Y53.379 E147.77714
G0 F2040 X24.347 Y53.055
G1 F1020 X-17.348 Y11.36 E150.03372
G1 X-17.41 Y11.298
G0 F2040 X-18.099 Y10.114
G1 F1020 X24.518 Y52.731 E152.34021
G0 F2040 X24.689 Y52.407
G1 F1020 X-18.85 Y8.868 E154.6966
G1 X-18.912 Y8.806
G0 F2040 X-19.6 Y7.622
G1 F1020 X24.86 Y52.084 E157.10288
G0 F2040 X25.031 Y51.76
G1 F1020 X-20.351 Y6.376 E159.55907
G1 X-20.413 Y6.314
G0 F2040 X-21.102 Y5.13
G1 F1020 X25.202 Y51.436 E162.06515
G0 F2040 X25.373 Y51.112
G1 F1020 X-21.853 Y3.884 E164.62114
G1 X-21.915 Y3.822
G0 F2040 X-22.604 Y2.638
G1 F1020 X25.544 Y50.788 E167.22702
G0 F2040 X25.716 Y50.464
G1 F1020 X-23.355 Y1.393 E169.88281
G1 X-23.417 Y1.331
G0 F2040 X-24.106 Y0.147
G1 F1020 X25.887 Y50.14 E172.58849
G0 F2040 X26.058 Y49.817
G1 F1020 X-24.858 Y-1.099 E175.34413
G1 X-24.92 Y-1.161
G0 F2040 X-25.609 Y-2.345
G1 F1020 X26.228 Y49.492 E178.14962
G0 F2040 X26.399 Y49.168
G1 F1020 X-26.36 Y-3.591 E181.005
G1 X-26.422 Y-3.653
G0 F2040 X-27.111 Y-4.837
G1 F1020 X26.57 Y48.844 E183.91029
G0 F2040 X26.742 Y48.52
G1 F1020 X-27.862 Y-6.083 E186.8655
G1 X-27.924 Y-6.145
G0 F2040 X-28.613 Y-7.329
G1 F1020 X26.913 Y48.197 E189.87063
G0 F2040 X27.084 Y47.873
G1 F1020 X-29.364 Y-8.575 E192.92567
G1 X-29.426 Y-8.637
G0 F2040 X-30.114 Y-9.821
G1 F1020 X27.255 Y47.549 E196.03058
G0 F2040 X27.426 Y47.225
G1 F1020 X-30.865 Y-11.066 E199.18537
G1 X-30.927 Y-11.128
G0 F2040 X-31.616 Y-12.312
G1 F1020 X27.597 Y46.901 E202.39005
G0 F2040 X27.768 Y46.577
G1 F1020 X-32.368 Y-13.559 E205.64469
G1 X-32.43 Y-13.621
G0 F2040 X-33.119 Y-14.805
G1 F1020 X27.939 Y46.253 E208.94922
G0 F2040 X28.111 Y45.93
G1 F1020 X-33.87 Y-16.051 E212.30371
G1 X-33.932 Y-16.113
G0 F2040 X-34.621 Y-17.297
G1 F1020 X28.281 Y45.605 E215.70805
G0 F2040 X28.452 Y45.281
G1 F1020 X-35.372 Y-18.543 E219.16229
G0 F2040 X-34.948 Y-18.613
G1 F1020 X28.623 Y44.957 E222.6028
G0 F2040 X28.794 Y44.633
G1 F1020 X-34.453 Y-18.613 E226.02578
G0 F2040 X-33.958 Y-18.613
G1 F1020 X28.965 Y44.31 E229.43126
G0 F2040 X29.137 Y43.986
G1 F1020 X-33.463 Y-18.613 E232.81922
G0 F2040 X-32.968 Y-18.613
G1 F1020 X29.308 Y43.662 E236.18965
G0 F2040 X29.479 Y43.338
G1 F1020 X-32.473 Y-18.613 E239.54254
G0 F2040 X-31.978 Y-18.613
G1 F1020 X29.65 Y43.014 E242.8779
G0 F2040 X29.821 Y42.69
G1 F1020 X-31.483 Y-18.613 E246.19573
G0 F2040 X-30.988 Y-18.613
G1 F1020 X29.992 Y42.367 E249.49604
G0 F2040 X30.163 Y42.042
G1 F1020 X-30.493 Y-18.613 E252.7788
G0 F2040 X-29.998 Y-18.613
G1 F1020 X30.334 Y41.718 E256.04401
G0 F2040 X30.505 Y41.394
G1 F1020 X-29.503 Y-18.613 E259.2917
G0 F2040 X-29.008 Y-18.613
G1 F1020 X30.676 Y41.07 E262.52184
G0 F2040 X30.847 Y40.747
G1 F1020 X-28.513 Y-18.613 E265.73448
G0 F2040 X-28.018 Y-18.613
G1 F1020 X31.018 Y40.423 E268.92958
G0 F2040 X31.189 Y40.099
G1 F1020 X-27.523 Y-18.613 E272.10715
G0 F2040 X-27.028 Y-18.613
G1 F1020 X31.36 Y39.775 E275.26719
G0 F2040 X31.532 Y39.451
G1 F1020 X-26.533 Y-18.613 E278.40971
G0 F2040 X-26.038 Y-18.613
G1 F1020 X31.703 Y39.127 E281.5347
G0 F2040 X31.874 Y38.803
G1 F1020 X-25.543 Y-18.613 E284.64215
G0 F2040 X-25.048 Y-18.613
G1 F1020 X32.045 Y38.48 E287.7321
G0 F2040 X32.215 Y38.155
G1 F1020 X-24.553 Y-18.613 E290.80446
G0 F2040 X-24.058 Y-18.613
G1 F1020 X32.386 Y37.831 E293.85928
G0 F2040 X32.558 Y37.507
G1 F1020 X-23.563 Y-18.613 E296.89659
G0 F2040 X-23.068 Y-18.613
G1 F1020 X32.729 Y37.183 E299.91637
G0 F2040 X32.9 Y36.86
G1 F1020 X-22.573 Y-18.613 E302.91864
G0 F2040 X-22.078 Y-18.613
G1 F1020 X33.071 Y36.536 E305.90337
G0 F2040 X33.242 Y36.212
G1 F1020 X-21.583 Y-18.613 E308.87057
G0 F2040 X-21.088 Y-18.613
G1 F1020 X33.413 Y35.888 E311.82023
G0 F2040 X33.584 Y35.564
G1 F1020 X-20.593 Y-18.613 E314.75236
G0 F2040 X-20.098 Y-18.613
G1 F1020 X33.755 Y35.24 E317.66696
G0 F2040 X33.926 Y34.916
G1 F1020 X-19.603 Y-18.613 E320.56401
G0 F2040 X-19.108 Y-18.613
G1 F1020 X34.098 Y34.593 E323.44359
G0 F2040 X34.268 Y34.268
G1 F1020 X-18.613 Y-18.613 E326.30558
G0 F2040 X-18.118 Y-18.613
G1 F1020 X34.439 Y33.944 E329.15003
G0 F2040 X34.61 Y33.62
G1 F1020 X-17.623 Y-18.613 E331.97695
G0 F2040 X-17.128 Y-18.613
