;FLAVOR:Marlin
;TIME:6341
;Filament used: 7.99002m
;Layer height: 0.3
;MINX:-66.558
;MINY:-24.085
;MINZ:0.26
;MAXX:43.332
;MAXY:73.625
;MAXZ:23.06
;Generated with Cura_SteamEngine 4.9.1
M82 ;absolute extrusion mode
;Gcode by Cura
G90
G28
M107
M109 R100
G30
M109 S215 U-55 X55 V-85 Y-85 W0.26 Z0.26
M82
G92 E0
G1 F200 E6
G92 E0
G1 F200 E-3.5
G0 Z0.15
G0 X10
G0 Z3
G1 F6000
G92 E0
G92 E0
G1 F3600 E-3.8
;LAYER_COUNT:77
;LAYER:0
M107
G0 F2040 X38.137 Y-24.085 Z0.26
;TYPE:SKIRT
G1 F3600 E0
G1 F1020 X38.825 Y-24.075 E0.02633
G1 X39.428 Y-24.026 E0.04948
G1 X40.019 Y-23.898 E0.07263
G1 X40.588 Y-23.693 E0.09577
G1 X41.125 Y-23.416 E0.1189
G1 X41.621 Y-23.069 E0.14206
G1 X42.067 Y-22.661 E0.16519
G1 X42.455 Y-22.197 E0.18834
G1 X42.778 Y-21.686 E0.21148
G1 X43.031 Y-21.137 E0.23461
G1 X43.21 Y-20.559 E0.25777
G1 X43.31 Y-19.963 E0.28089
G1 X43.332 Y-19.359 E0.30402
G1 X43.273 Y-18.757 E0.32717
G1 X43.136 Y-18.168 E0.35031
G1 X42.814 Y-17.381 E0.38286
G1 X42.433 Y-16.654 E0.41427
G1 X-4.953 Y70.674 E4.21657
G1 X-5.289 Y71.277 E4.24299
G1 X-5.617 Y71.784 E4.2661
G1 X-6.01 Y72.244 E4.28925
G1 X-6.46 Y72.648 E4.3124
G1 X-6.959 Y72.989 E4.33553
G1 X-7.499 Y73.262 E4.35868
G1 X-8.07 Y73.461 E4.38182
G1 X-8.662 Y73.582 E4.40495
G1 X-9.265 Y73.625 E4.42808
G1 X-9.869 Y73.588 E4.45124
G1 X-10.462 Y73.471 E4.47437
G1 X-11.035 Y73.277 E4.49752
G1 X-11.577 Y73.01 E4.52065
G1 X-12.079 Y72.673 E4.54378
G1 X-12.532 Y72.273 E4.56691
G1 X-12.929 Y71.816 E4.59008
G1 X-13.328 Y71.218 E4.61759
G1 X-13.4 Y71.101 E4.62285
G1 X-65.608 Y-16.628 E8.52972
G1 X-65.946 Y-17.214 E8.55561
G1 X-66.213 Y-17.757 E8.57877
G1 X-66.406 Y-18.33 E8.60191
G1 X-66.522 Y-18.923 E8.62503
G1 X-66.558 Y-19.527 E8.64819
G1 X-66.514 Y-20.13 E8.67133
G1 X-66.392 Y-20.722 E8.69446
G1 X-66.192 Y-21.293 E8.71761
G1 X-65.919 Y-21.832 E8.74073
G1 X-65.577 Y-22.331 E8.76388
G1 X-65.172 Y-22.78 E8.78702
G1 X-64.712 Y-23.172 E8.81015
G1 X-64.204 Y-23.5 E8.83329
G1 X-63.657 Y-23.758 E8.85644
G1 X-63.081 Y-23.941 E8.87957
G1 X-62.486 Y-24.047 E8.9027
G1 X-61.772 Y-24.083 E8.93006
G1 X-61.639 Y-24.085 E8.93515
G1 X38.137 Y-24.085 E12.75353
G0 F2040 X38.132 Y-23.735
G1 F1020 X38.82 Y-23.725 E12.77986
G1 X39.399 Y-23.676 E12.8021
G1 X39.966 Y-23.549 E12.82433
G1 X40.51 Y-23.345 E12.84657
G1 X41.021 Y-23.068 E12.86881
G1 X41.49 Y-22.724 E12.89107
G1 X41.906 Y-22.319 E12.91329
G1 X42.263 Y-21.861 E12.93551
G1 X42.554 Y-21.358 E12.95775
G1 X42.773 Y-20.819 E12.98002
G1 X42.916 Y-20.256 E13.00225
G1 X42.98 Y-19.679 E13.02446
G1 X42.965 Y-19.098 E13.0467
G1 X42.87 Y-18.525 E13.06893
G1 X42.697 Y-17.97 E13.09118
G1 X42.504 Y-17.543 E13.10911
G1 X42.126 Y-16.821 E13.1403
G1 X-5.258 Y70.504 E16.94247
G1 X-5.594 Y71.107 E16.96889
G1 X-5.911 Y71.593 E16.99109
G1 X-6.292 Y72.032 E17.01334
G1 X-6.73 Y72.415 E17.0356
G1 X-7.215 Y72.733 E17.0578
G1 X-7.74 Y72.983 E17.08005
G1 X-8.294 Y73.157 E17.10227
G1 X-8.867 Y73.254 E17.12451
G1 X-9.448 Y73.272 E17.14676
G1 X-10.026 Y73.21 E17.16901
G1 X-10.589 Y73.069 E17.19122
G1 X-11.128 Y72.852 E17.21345
G1 X-11.633 Y72.563 E17.23572
G1 X-12.092 Y72.207 E17.25795
G1 X-12.499 Y71.792 E17.2802
G1 X-12.849 Y71.319 E17.30271
G1 X-13.1 Y70.922 E17.32069
G1 X-65.305 Y-16.803 E21.22737
G1 X-65.643 Y-17.389 E21.25326
G1 X-65.898 Y-17.911 E21.2755
G1 X-66.079 Y-18.463 E21.29773
G1 X-66.182 Y-19.035 E21.31997
G1 X-66.206 Y-19.616 E21.34222
G1 X-66.151 Y-20.194 E21.36444
G1 X-66.016 Y-20.759 E21.38667
G1 X-65.805 Y-21.301 E21.40893
G1 X-65.522 Y-21.808 E21.43115
G1 X-65.172 Y-22.272 E21.4534
G1 X-64.761 Y-22.683 E21.47564
G1 X-64.299 Y-23.034 E21.49784
G1 X-63.792 Y-23.318 E21.52008
G1 X-63.251 Y-23.53 E21.54232
G1 X-62.686 Y-23.666 E21.56456
G1 X-62.106 Y-23.723 E21.58686
G1 X-61.639 Y-23.735 E21.60474
G1 X38.132 Y-23.735 E25.42293
G0 F2040 X38.127 Y-23.385
G1 F1020 X38.815 Y-23.375 E25.44926
G1 X39.37 Y-23.327 E25.47058
G1 X39.911 Y-23.2 E25.49185
G1 X40.429 Y-22.996 E25.51315
G1 X40.913 Y-22.721 E25.53446
G1 X41.352 Y-22.38 E25.55573
G1 X41.738 Y-21.978 E25.57706
G1 X42.062 Y-21.526 E25.59834
G1 X42.318 Y-21.032 E25.61963
G1 X42.501 Y-20.507 E25.64091
G1 X42.607 Y-19.96 E25.66223
G1 X42.633 Y-19.405 E25.6835
G1 X42.579 Y-18.851 E25.7048
G1 X42.447 Y-18.31 E25.72611
G1 X42.193 Y-17.705 E25.75122
G1 X41.818 Y-16.988 E25.78219
G1 X-5.564 Y70.333 E29.58418
G1 X-5.9 Y70.936 E29.6106
G1 X-6.205 Y71.402 E29.63191
G1 X-6.574 Y71.818 E29.65319
G1 X-6.998 Y72.178 E29.67448
G1 X-7.47 Y72.473 E29.69578
G1 X-7.979 Y72.698 E29.71708
G1 X-8.515 Y72.848 E29.73838
G1 X-9.066 Y72.919 E29.75964
G1 X-9.623 Y72.91 E29.78096
G1 X-10.172 Y72.822 E29.80224
G1 X-10.703 Y72.656 E29.82353
G1 X-11.205 Y72.416 E29.84482
G1 X-11.667 Y72.106 E29.86611
G1 X-12.081 Y71.733 E29.88744
G1 X-12.554 Y71.131 E29.91674
G1 X-12.799 Y70.743 E29.9343
G1 X-65.002 Y-16.978 E33.84082
G1 X-65.34 Y-17.564 E33.8667
G1 X-65.582 Y-18.065 E33.888
G1 X-65.751 Y-18.595 E33.90929
G1 X-65.842 Y-19.144 E33.93058
G1 X-65.853 Y-19.7 E33.95186
G1 X-65.784 Y-20.252 E33.97315
G1 X-65.637 Y-20.789 E33.99446
G1 X-65.415 Y-21.299 E34.01575
G1 X-65.122 Y-21.772 E34.03704
G1 X-64.764 Y-22.198 E34.05833
G1 X-64.349 Y-22.569 E34.07964
G1 X-63.885 Y-22.876 E34.10093
G1 X-63.382 Y-23.114 E34.12223
G1 X-62.85 Y-23.277 E34.14352
G1 X-62.096 Y-23.373 E34.17261
G1 X-61.639 Y-23.385 E34.1901
G1 X38.127 Y-23.385 E38.0081
G0 F2040 X38.122 Y-23.035
G1 F1020 X38.81 Y-23.025 E38.03443
G1 X39.339 Y-22.977 E38.05476
G1 X39.854 Y-22.851 E38.07505
G1 X40.345 Y-22.648 E38.09538
G1 X40.799 Y-22.374 E38.11568
G1 X41.208 Y-22.036 E38.13598
G1 X41.561 Y-21.639 E38.15631
G1 X41.85 Y-21.195 E38.17659
G1 X42.069 Y-20.711 E38.19692
G1 X42.214 Y-20.201 E38.21721
G1 X42.28 Y-19.674 E38.23753
G1 X42.266 Y-19.144 E38.25782
G1 X42.173 Y-18.621 E38.27815
G1 X42.002 Y-18.119 E38.29845
G1 X41.883 Y-17.867 E38.30911
G1 X41.51 Y-17.155 E38.33987
G1 X-5.87 Y70.163 E42.14173
G1 X-6.206 Y70.766 E42.16815
G1 X-6.498 Y71.209 E42.18845
G1 X-6.854 Y71.602 E42.20875
G1 X-7.265 Y71.938 E42.22906
G1 X-7.721 Y72.209 E42.24936
G1 X-8.213 Y72.408 E42.26967
G1 X-8.729 Y72.531 E42.28997
G1 X-9.258 Y72.575 E42.31029
G1 X-9.788 Y72.539 E42.33062
G1 X-10.306 Y72.424 E42.35092
G1 X-10.8 Y72.233 E42.37119
G1 X-11.261 Y71.969 E42.39152
G1 X-11.677 Y71.639 E42.41185
G1 X-12.038 Y71.251 E42.43213
G1 X-12.442 Y70.654 E42.45971
G1 X-12.498 Y70.564 E42.46377
G1 X-64.698 Y-17.153 E46.37009
G1 X-65.036 Y-17.739 E46.39598
G1 X-65.266 Y-18.217 E46.41628
G1 X-65.422 Y-18.725 E46.43662
G1 X-65.499 Y-19.249 E46.45689
G1 X-65.497 Y-19.78 E46.47721
G1 X-65.415 Y-20.304 E46.49751
G1 X-65.255 Y-20.811 E46.51785
G1 X-65.022 Y-21.287 E46.53814
G1 X-64.719 Y-21.723 E46.55845
G1 X-64.354 Y-22.108 E46.57876
G1 X-63.936 Y-22.435 E46.59907
G1 X-63.473 Y-22.695 E46.61939
G1 X-62.977 Y-22.882 E46.63967
G1 X-62.458 Y-22.993 E46.65999
G1 X-61.741 Y-23.034 E46.68747
G1 X38.122 Y-23.035 E50.50918
G0 F2040 X38.117 Y-22.685
G1 F1020 X38.805 Y-22.675 E50.53551
G1 X39.307 Y-22.627 E50.55481
G1 X39.794 Y-22.502 E50.57405
G1 X40.256 Y-22.3 E50.59335
G1 X40.68 Y-22.028 E50.61263
G1 X41.055 Y-21.693 E50.63187
G1 X41.373 Y-21.302 E50.65116
G1 X41.625 Y-20.866 E50.67043
G1 X41.805 Y-20.396 E50.68969
G1 X41.908 Y-19.903 E50.70896
G1 X41.932 Y-19.4 E50.72824
G1 X41.877 Y-18.899 E50.74752
G1 X41.743 Y-18.414 E50.76678
G1 X41.573 Y-18.029 E50.78289
G1 X41.203 Y-17.322 E50.81342
G1 X-6.176 Y69.992 E54.61513
G1 X-6.512 Y70.595 E54.64155
G1 X-6.791 Y71.015 E54.66084
G1 X-7.133 Y71.384 E54.6801
G1 X-7.529 Y71.695 E54.69937
G1 X-7.969 Y71.939 E54.71862
G1 X-8.443 Y72.111 E54.73792
G1 X-8.937 Y72.206 E54.75717
G1 X-9.441 Y72.221 E54.77647
G1 X-9.94 Y72.157 E54.79572
G1 X-10.423 Y72.014 E54.815
G1 X-10.877 Y71.797 E54.83425
G1 X-11.292 Y71.511 E54.85354
G1 X-11.655 Y71.162 E54.87281
G1 X-11.963 Y70.755 E54.89235
G1 X-12.197 Y70.385 E54.9091
G1 X-64.395 Y-17.328 E58.81525
G1 X-64.733 Y-17.914 E58.84114
G1 X-64.95 Y-18.368 E58.8604
G1 X-65.091 Y-18.852 E58.87969
G1 X-65.155 Y-19.351 E58.89895
G1 X-65.138 Y-19.855 E58.91825
G1 X-65.042 Y-20.349 E58.9375
G1 X-64.87 Y-20.822 E58.95677
G1 X-64.624 Y-21.262 E58.97606
G1 X-64.313 Y-21.657 E58.9953
G1 X-63.942 Y-21.998 E59.01458
G1 X-63.522 Y-22.277 E59.03388
G1 X-63.064 Y-22.485 E59.05313
G1 X-62.578 Y-22.619 E59.07242
G1 X-62.075 Y-22.674 E59.09178
G1 X-61.639 Y-22.685 E59.10848
G1 X38.117 Y-22.685 E62.92609
G1 F3600 E59.12609
;MESH:support_tri_0_074.stl
G0 F2040 X38.117 Y-20.175
G0 X38.117 Y-19.14
G0 X-61.077 Y-18.985
;TYPE:WALL-INNER
G1 F3600 E62.92609
G1 F1020 X37.896 Y-18.985 E66.71374
G1 X-9.307 Y68.006 E70.50137
G1 X-61.077 Y-18.985 E74.3754
G0 F2040 X-61.648 Y-19.31
;TYPE:WALL-OUTER
G1 F1020 X38.442 Y-19.31 E78.2058
G1 X-9.294 Y68.663 E82.03619
G1 X-61.648 Y-19.31 E85.95395
G0 F2040 X-61.448 Y-19.31
G0 X-61.448 Y-19.21
G0 X-60.48 Y-18.645
;TYPE:SKIN
G1 F1020 X37.325 Y-18.645 E89.6969
G1 X-9.321 Y67.319 E93.43982
G1 X-60.48 Y-18.645 E97.26812
G0 F2040 X37.021 Y-18.415
G1 F1020 X36.949 Y-18.488 E97.27204
G0 F2040 X36.848 Y-18.094
G1 F1020 X36.454 Y-18.488 E97.29337
G0 F2040 X35.959 Y-18.488
G1 F1020 X36.673 Y-17.773 E97.33203
G0 F2040 X36.499 Y-17.452
G1 F1020 X35.464 Y-18.488 E97.38808
G0 F2040 X34.969 Y-18.488
G1 F1020 X36.325 Y-17.131 E97.46149
G0 F2040 X36.151 Y-16.81
G1 F1020 X34.474 Y-18.488 E97.55228
G0 F2040 X33.979 Y-18.488
G1 F1020 X35.977 Y-16.489 E97.66044
G0 F2040 X35.802 Y-16.169
G1 F1020 X33.484 Y-18.488 E97.78592
G0 F2040 X32.989 Y-18.488
G1 F1020 X35.628 Y-15.848 E97.92878
G0 F2040 X35.455 Y-15.527
G1 F1020 X32.494 Y-18.488 E98.08903
G0 F2040 X31.999 Y-18.488
G1 F1020 X35.281 Y-15.206 E98.26666
G0 F2040 X35.106 Y-14.886
G1 F1020 X31.504 Y-18.488 E98.4616
G0 F2040 X31.009 Y-18.488
G1 F1020 X34.932 Y-14.564 E98.67394
G0 F2040 X34.758 Y-14.243
G1 F1020 X30.514 Y-18.488 E98.90366
G0 F2040 X30.019 Y-18.488
G1 F1020 X34.584 Y-13.922 E99.15075
G0 F2040 X34.41 Y-13.601
G1 F1020 X29.524 Y-18.488 E99.41522
G0 F2040 X29.029 Y-18.488
G1 F1020 X34.235 Y-13.281 E99.697
G0 F2040 X34.062 Y-12.96
G1 F1020 X28.534 Y-18.488 E99.99618
G0 F2040 X28.039 Y-18.488
G1 F1020 X33.888 Y-12.639 E100.31274
G0 F2040 X33.714 Y-12.318
G1 F1020 X27.544 Y-18.488 E100.64667
G0 F2040 X27.049 Y-18.488
G1 F1020 X33.539 Y-11.998 E100.99791
G0 F2040 X33.365 Y-11.677
G1 F1020 X26.554 Y-18.488 E101.36653
G0 F2040 X26.059 Y-18.488
G1 F1020 X33.191 Y-11.356 E101.75253
G0 F2040 X33.017 Y-11.035
G1 F1020 X25.564 Y-18.488 E102.15589
G0 F2040 X25.069 Y-18.488
G1 F1020 X32.843 Y-10.714 E102.57663
G0 F2040 X32.669 Y-10.393
G1 F1020 X24.574 Y-18.488 E103.01474
G0 F2040 X24.079 Y-18.488
G1 F1020 X32.495 Y-10.072 E103.47023
G0 F2040 X32.321 Y-9.751
G1 F1020 X23.584 Y-18.488 E103.94308
G0 F2040 X23.089 Y-18.488
G1 F1020 X32.147 Y-9.43 E104.43331
G0 F2040 X31.972 Y-9.11
G1 F1020 X22.594 Y-18.488 E104.94086
G0 F2040 X22.099 Y-18.488
G1 F1020 X31.798 Y-8.789 E105.46579
G0 F2040 X31.624 Y-8.468
G1 F1020 X21.604 Y-18.488 E106.00808
G0 F2040 X21.109 Y-18.488
G1 F1020 X31.45 Y-8.147 E106.56775
G0 F2040 X31.276 Y-7.826
G1 F1020 X20.614 Y-18.488 E107.14479
G0 F2040 X20.12 Y-18.488
G1 F1020 X31.102 Y-7.505 E107.73918
G0 F2040 X30.928 Y-7.184
G1 F1020 X19.625 Y-18.488 E108.35094
G0 F2040 X19.13 Y-18.488
G1 F1020 X30.754 Y-6.863 E108.98007
G0 F2040 X30.58 Y-6.542
G1 F1020 X18.635 Y-18.488 E109.62658
G0 F2040 X18.14 Y-18.488
G1 F1020 X30.405 Y-6.222 E110.2904
G0 F2040 X30.231 Y-5.901
G1 F1020 X17.645 Y-18.488 E110.9716
G0 F2040 X17.15 Y-18.488
G1 F1020 X30.057 Y-5.58 E111.67017
G0 F2040 X29.883 Y-5.259
G1 F1020 X16.655 Y-18.488 E112.38611
G0 F2040 X16.16 Y-18.488
G1 F1020 X29.709 Y-4.939 E113.1194
G0 F2040 X29.535 Y-4.618
G1 F1020 X15.665 Y-18.488 E113.87006
G0 F2040 X15.17 Y-18.488
G1 F1020 X29.361 Y-4.297 E114.6381
G0 F2040 X29.187 Y-3.976
G1 F1020 X14.675 Y-18.488 E115.42351
G0 F2040 X14.18 Y-18.488
G1 F1020 X29.013 Y-3.655 E116.22629
G0 F2040 X28.838 Y-3.334
G1 F1020 X13.685 Y-18.488 E117.04641
G0 F2040 X13.19 Y-18.488
G1 F1020 X28.664 Y-3.013 E117.88391
G0 F2040 X28.49 Y-2.692
G1 F1020 X12.695 Y-18.488 E118.73878
G0 F2040 X12.2 Y-18.488
G1 F1020 X28.316 Y-2.371 E119.61103
G0 F2040 X28.142 Y-2.051
G1 F1020 X11.705 Y-18.488 E120.50062
G0 F2040 X11.21 Y-18.488
G1 F1020 X27.968 Y-1.73 E121.40759
G0 F2040 X27.794 Y-1.409
G1 F1020 X10.715 Y-18.488 E122.33192
G0 F2040 X10.22 Y-18.488
G1 F1020 X27.62 Y-1.088 E123.27363
G0 F2040 X27.446 Y-.767
G1 F1020 X9.725 Y-18.488 E124.23272
G0 F2040 X9.23 Y-18.488
G1 F1020 X27.271 Y-.446 E125.20915
G0 F2040 X27.097 Y-.125
G1 F1020 X8.735 Y-18.488 E126.20295
G0 F2040 X8.24 Y-18.488
G1 F1020 X26.923 Y0.195 E127.2141
G0 F2040 X26.749 Y0.516
G1 F1020 X7.745 Y-18.488 E128.24262
G0 F2040 X7.25 Y-18.488
G1 F1020 X26.575 Y0.836 E129.28848
G0 F2040 X26.401 Y1.157
G1 F1020 X6.755 Y-18.488 E130.35172
G0 F2040 X6.26 Y-18.488
G1 F1020 X26.227 Y1.478 E131.43233
G0 F2040 X26.053 Y1.799
G1 F1020 X5.765 Y-18.488 E132.53032
G0 F2040 X5.27 Y-18.488
G1 F1020 X25.879 Y2.12 E133.64568
G0 F2040 X25.704 Y2.44
G1 F1020 X4.775 Y-18.488 E134.77836
G0 F2040 X4.28 Y-18.488
G1 F1020 X25.53 Y2.761 E135.92841
G0 F2040 X25.356 Y3.082
G1 F1020 X3.785 Y-18.488 E137.09583
G0 F2040 X3.29 Y-18.488
G1 F1020 X25.182 Y3.404 E138.28065
G0 F2040 X25.008 Y3.724
G1 F1020 X2.795 Y-18.488 E139.48282
G0 F2040 X2.3 Y-18.488
G1 F1020 X24.834 Y4.045 E140.70236
G0 F2040 X24.66 Y4.366
G1 F1020 X1.805 Y-18.488 E141.93928
G0 F2040 X1.31 Y-18.488
G1 F1020 X24.486 Y4.687 E143.19356
G0 F2040 X24.312 Y5.008
G1 F1020 X0.816 Y-18.488 E144.4652
G0 F2040 X0.321 Y-18.488
G1 F1020 X24.137 Y5.328 E145.75415
G0 F2040 X23.963 Y5.649
G1 F1020 X-.173 Y-18.488 E147.06045
G0 F2040 X-.668 Y-18.488
G1 F1020 X23.789 Y5.97 E148.38412
G0 F2040 X23.615 Y6.291
G1 F1020 X-1.163 Y-18.488 E149.72516
G0 F2040 X-1.658 Y-18.488
G1 F1020 X23.441 Y6.612 E151.08358
G0 F2040 X23.267 Y6.933
G1 F1020 X-2.153 Y-18.488 E152.45937
G0 F2040 X-2.648 Y-18.488
G1 F1020 X23.093 Y7.254 E153.85253
G0 F2040 X22.919 Y7.575
G1 F1020 X-3.143 Y-18.488 E155.26307
G0 F2040 X-3.638 Y-18.488
G1 F1020 X22.744 Y7.895 E156.69092
G0 F2040 X22.57 Y8.216
G1 F1020 X-4.133 Y-18.488 E158.13615
G0 F2040 X-4.628 Y-18.488
G1 F1020 X22.396 Y8.537 E159.59875
G0 F2040 X22.222 Y8.858
G1 F1020 X-5.123 Y-18.488 E161.07872
G0 F2040 X-5.618 Y-18.488
G1 F1020 X22.049 Y9.179 E162.5761
G0 F2040 X21.874 Y9.499
G1 F1020 X-6.113 Y-18.488 E164.09079
G0 F2040 X-6.608 Y-18.488
G1 F1020 X21.7 Y9.821 E165.62288
G0 F2040 X21.526 Y10.142
G1 F1020 X-7.103 Y-18.488 E167.17235
G0 F2040 X-7.598 Y-18.488
G1 F1020 X21.352 Y10.463 E168.73918
G0 F2040 X21.177 Y10.783
G1 F1020 X-8.093 Y-18.488 E170.32334
G0 F2040 X-8.588 Y-18.488
G1 F1020 X21.003 Y11.104 E171.92487
G0 F2040 X20.829 Y11.425
G1 F1020 X-9.083 Y-18.488 E173.54377
G0 F2040 X-9.578 Y-18.488
G1 F1020 X20.656 Y11.746 E175.18008
G0 F2040 X20.482 Y12.067
G1 F1020 X-10.073 Y-18.488 E176.83375
G0 F2040 X-10.568 Y-18.488
G1 F1020 X20.307 Y12.387 E178.50475
G0 F2040 X20.133 Y12.708
G1 F1020 X-11.063 Y-18.488 E180.19311
G0 F2040 X-11.558 Y-18.488
G1 F1020 X19.959 Y13.029 E181.89885
G0 F2040 X19.785 Y13.35
G1 F1020 X-12.053 Y-18.488 E183.62197
G0 F2040 X-12.548 Y-18.488
G1 F1020 X19.61 Y13.671 E185.36243
G0 F2040 X19.436 Y13.992
G1 F1020 X-13.043 Y-18.488 E187.12026
G0 F2040 X-13.538 Y-18.488
G1 F1020 X19.263 Y14.313 E188.89549
G0 F2040 X19.089 Y14.634
G1 F1020 X-14.033 Y-18.488 E190.68809
G0 F2040 X-14.528 Y-18.488
G1 F1020 X18.915 Y14.955 E192.49807
G0 F2040 X18.74 Y15.275
G1 F1020 X-15.023 Y-18.488 E194.32537
G0 F2040 X-15.518 Y-18.488
G1 F1020 X18.566 Y15.596 E196.17004
G0 F2040 X18.392 Y15.917
G1 F1020 X-16.013 Y-18.488 E198.03208
G0 F2040 X-16.508 Y-18.488
G1 F1020 X18.218 Y16.238 E199.9115
G0 F2040 X18.043 Y16.559
G1 F1020 X-17.003 Y-18.488 E201.80826
G0 F2040 X-17.498 Y-18.488
G1 F1020 X17.87 Y16.88 E203.72242
G0 F2040 X17.696 Y17.201
G1 F1020 X-17.993 Y-18.488 E205.65395
G0 F2040 X-18.488 Y-18.488
G1 F1020 X17.522 Y17.522 E207.60286
G0 F2040 X17.348 Y17.843
G1 F1020 X-18.982 Y-18.488 E209.56911
G0 F2040 X-19.477 Y-18.488
G1 F1020 X17.173 Y18.163 E211.55268
G0 F2040 X16.999 Y18.484
G1 F1020 X-19.972 Y-18.488 E213.55363
G0 F2040 X-20.467 Y-18.488
