;FLAVOR:Marlin
;TIME:6264
;Filament used: 8.02359m
;Layer height: 0.3
;MINX:-41.075
;MINY:-71.726
;MINZ:0.26
;MAXX:71.102
;MAXY:24.836
;MAXZ:22.76
;Generated with Cura_SteamEngine 4.9.1
M82 ;absolute extrusion mode
;Gcode by Cura
G90
G28
M107
M109 R100
G30
M109 S215 U-55 X55 V-85 Y-85 W0.26 Z0.26
M82
G92 E0
G1 F200 E6
G92 E0
G1 F200 E-3.5
G0 Z0.15
G0 X10
G0 Z3
G1 F6000
G92 E0
G92 E0
G1 F3600 E-3.8
;LAYER_COUNT:76
;LAYER:0
M107
G0 F2040 X-39.947 Y17.102 Z0.26
;TYPE:SKIRT
G1 F3600 E0
G1 F1020 X13.829 Y-69.073 E3.88732
G1 X14.18 Y-69.622 E3.91226
G1 X14.539 Y-70.109 E3.93541
G1 X14.959 Y-70.544 E3.95855
G1 X15.432 Y-70.921 E3.9817
G1 X15.951 Y-71.231 E4.00484
G1 X16.507 Y-71.47 E4.028
G1 X17.089 Y-71.634 E4.05114
G1 X17.687 Y-71.72 E4.07426
G1 X18.292 Y-71.726 E4.09741
G1 X18.892 Y-71.652 E4.12055
G1 X19.477 Y-71.5 E4.14368
G1 X20.037 Y-71.272 E4.16682
G1 X20.562 Y-70.972 E4.18996
G1 X21.043 Y-70.605 E4.21311
G1 X21.471 Y-70.178 E4.23625
G1 X21.989 Y-69.46 E4.27013
G1 X22.549 Y-68.496 E4.3128
G1 X70.207 Y17.419 E8.0727
G1 X70.559 Y18.073 E8.10112
G1 X70.809 Y18.623 E8.12424
G1 X70.985 Y19.201 E8.14737
G1 X71.084 Y19.798 E8.17053
G1 X71.102 Y20.402 E8.19365
G1 X71.041 Y21.004 E8.21681
G1 X70.901 Y21.592 E8.23994
G1 X70.685 Y22.157 E8.26309
G1 X70.396 Y22.688 E8.28622
G1 X70.039 Y23.176 E8.30936
G1 X69.621 Y23.613 E8.3325
G1 X69.15 Y23.992 E8.35564
G1 X68.632 Y24.304 E8.37878
G1 X68.078 Y24.546 E8.40192
G1 X67.497 Y24.713 E8.42505
G1 X66.623 Y24.815 E8.45873
G1 X65.549 Y24.836 E8.49984
G1 X-35.886 Y24.836 E12.38171
G1 X-36.569 Y24.826 E12.40785
G1 X-37.172 Y24.777 E12.431
G1 X-37.763 Y24.649 E12.45414
G1 X-38.332 Y24.444 E12.47729
G1 X-38.869 Y24.166 E12.50043
G1 X-39.364 Y23.82 E12.52354
G1 X-39.81 Y23.411 E12.5467
G1 X-40.198 Y22.948 E12.56982
G1 X-40.521 Y22.437 E12.59295
G1 X-40.774 Y21.888 E12.61608
G1 X-40.953 Y21.31 E12.63924
G1 X-41.054 Y20.714 E12.66237
G1 X-41.075 Y20.109 E12.68554
G1 X-41.016 Y19.508 E12.70865
G1 X-40.879 Y18.919 E12.73179
G1 X-40.665 Y18.353 E12.75495
G1 X-40.426 Y17.898 E12.77462
G1 X-39.947 Y17.102 E12.81017
G0 F2040 X-39.65 Y17.287
G1 F1020 X14.124 Y-68.885 E16.69736
G1 X14.475 Y-69.434 E16.72229
G1 X14.821 Y-69.901 E16.74454
G1 X15.228 Y-70.316 E16.76678
G1 X15.688 Y-70.671 E16.78902
G1 X16.192 Y-70.96 E16.81125
G1 X16.731 Y-71.177 E16.83349
G1 X17.295 Y-71.318 E16.85574
G1 X17.872 Y-71.38 E16.87795
G1 X18.453 Y-71.362 E16.90019
G1 X19.026 Y-71.265 E16.92243
G1 X19.58 Y-71.09 E16.94467
G1 X20.105 Y-70.841 E16.9669
G1 X20.591 Y-70.522 E16.98915
G1 X21.028 Y-70.14 E17.01136
G1 X21.409 Y-69.701 E17.03361
G1 X21.686 Y-69.284 E17.05277
G1 X22.243 Y-68.326 E17.09517
G1 X69.898 Y17.585 E20.85489
G1 X70.25 Y18.239 E20.88331
G1 X70.49 Y18.768 E20.90554
G1 X70.655 Y19.325 E20.92777
G1 X70.741 Y19.9 E20.95002
G1 X70.748 Y20.481 E20.97226
G1 X70.675 Y21.057 E20.99448
G1 X70.524 Y21.618 E21.01671
G1 X70.298 Y22.153 E21.03894
G1 X70 Y22.652 E21.06118
G1 X69.636 Y23.105 E21.08342
G1 X69.214 Y23.504 E21.10565
G1 X68.741 Y23.842 E21.1279
G1 X68.226 Y24.111 E21.15013
G1 X67.679 Y24.307 E21.17237
G1 X67.11 Y24.426 E21.19461
G1 X66.616 Y24.465 E21.21358
G1 X65.549 Y24.486 E21.25442
G1 X-35.881 Y24.486 E25.1361
G1 X-36.564 Y24.476 E25.16224
G1 X-37.143 Y24.427 E25.18447
G1 X-37.71 Y24.3 E25.20671
G1 X-38.254 Y24.096 E25.22895
G1 X-38.765 Y23.819 E25.25119
G1 X-39.233 Y23.475 E25.27342
G1 X-39.649 Y23.07 E25.29564
G1 X-40.006 Y22.611 E25.31789
G1 X-40.297 Y22.108 E25.34013
G1 X-40.516 Y21.57 E25.36236
G1 X-40.659 Y21.007 E25.38459
G1 X-40.723 Y20.429 E25.40684
G1 X-40.708 Y19.848 E25.42908
G1 X-40.613 Y19.275 E25.45131
G1 X-40.44 Y18.72 E25.47356
G1 X-40.125 Y18.078 E25.50093
G1 X-39.65 Y17.287 E25.53624
G0 F2040 X-39.353 Y17.473
G1 F1020 X14.419 Y-68.696 E29.42328
G1 X14.77 Y-69.245 E29.44822
G1 X15.103 Y-69.691 E29.46952
G1 X15.496 Y-70.085 E29.49082
G1 X15.941 Y-70.419 E29.51211
G1 X16.43 Y-70.685 E29.53341
G1 X16.952 Y-70.878 E29.55471
G1 X17.496 Y-70.995 E29.57601
G1 X18.051 Y-71.033 E29.5973
G1 X18.606 Y-70.991 E29.6186
G1 X19.149 Y-70.87 E29.63989
G1 X19.669 Y-70.672 E29.66118
G1 X20.155 Y-70.402 E29.68246
G1 X20.598 Y-70.065 E29.70376
G1 X20.988 Y-69.668 E29.72506
G1 X21.384 Y-69.108 E29.7513
G1 X21.937 Y-68.157 E29.7934
G1 X69.59 Y17.75 E33.55295
G1 X69.942 Y18.404 E33.58137
G1 X70.17 Y18.912 E33.60268
G1 X70.323 Y19.447 E33.62398
G1 X70.397 Y19.999 E33.64529
G1 X70.392 Y20.555 E33.66657
G1 X70.307 Y21.105 E33.68787
G1 X70.145 Y21.637 E33.70915
G1 X69.908 Y22.14 E33.73043
G1 X69.601 Y22.604 E33.75172
G1 X69.231 Y23.02 E33.77303
G1 X68.805 Y23.378 E33.79432
G1 X68.332 Y23.671 E33.81561
G1 X67.822 Y23.894 E33.83692
G1 X67.286 Y24.042 E33.8582
G1 X66.609 Y24.115 E33.88425
G1 X65.549 Y24.136 E33.92483
G1 X-35.876 Y24.136 E37.80631
G1 X-36.559 Y24.126 E37.83246
G1 X-37.113 Y24.078 E37.85374
G1 X-37.655 Y23.951 E37.87504
G1 X-38.173 Y23.747 E37.89635
G1 X-38.656 Y23.472 E37.91762
G1 X-39.095 Y23.13 E37.93891
G1 X-39.481 Y22.729 E37.96021
G1 X-39.805 Y22.277 E37.9815
G1 X-40.061 Y21.783 E38.00279
G1 X-40.244 Y21.257 E38.0241
G1 X-40.35 Y20.711 E38.04539
G1 X-40.376 Y20.155 E38.06669
G1 X-40.322 Y19.601 E38.08799
G1 X-40.19 Y19.061 E38.10926
G1 X-39.981 Y18.545 E38.13057
G1 X-39.825 Y18.258 E38.14307
G1 X-39.353 Y17.473 E38.17812
G0 F2040 X-39.056 Y17.658
G1 F1020 X14.714 Y-68.508 E42.06503
G1 X15.065 Y-69.057 E42.08997
G1 X15.384 Y-69.481 E42.11028
G1 X15.763 Y-69.853 E42.1306
G1 X16.193 Y-70.163 E42.15089
G1 X16.665 Y-70.406 E42.1712
G1 X17.168 Y-70.575 E42.19151
G1 X17.691 Y-70.666 E42.21182
G1 X18.221 Y-70.678 E42.23211
G1 X18.747 Y-70.61 E42.25241
G1 X19.258 Y-70.464 E42.27275
G1 X19.74 Y-70.243 E42.29304
G1 X20.184 Y-69.952 E42.31336
G1 X20.579 Y-69.598 E42.33366
G1 X20.916 Y-69.188 E42.35397
G1 X21.081 Y-68.932 E42.36562
G1 X21.631 Y-67.987 E42.40747
G1 X69.282 Y17.916 E46.16684
G1 X69.634 Y18.57 E46.19526
G1 X69.85 Y19.055 E46.21558
G1 X69.99 Y19.567 E46.23589
G1 X70.052 Y20.094 E46.2562
G1 X70.034 Y20.624 E46.27649
G1 X69.937 Y21.146 E46.29681
G1 X69.762 Y21.647 E46.31712
G1 X69.515 Y22.117 E46.33744
G1 X69.199 Y22.543 E46.35774
G1 X68.823 Y22.918 E46.37806
G1 X68.396 Y23.232 E46.39835
G1 X67.925 Y23.478 E46.41868
G1 X67.424 Y23.651 E46.43897
G1 X66.902 Y23.746 E46.45927
G1 X66.602 Y23.765 E46.47077
G1 X65.549 Y23.786 E46.51108
G1 X-35.871 Y23.786 E50.39237
G1 X-36.554 Y23.776 E50.41852
G1 X-37.082 Y23.728 E50.43881
G1 X-37.597 Y23.601 E50.4591
G1 X-38.088 Y23.399 E50.47942
G1 X-38.543 Y23.125 E50.49975
G1 X-38.951 Y22.786 E50.52005
G1 X-39.304 Y22.39 E50.54035
G1 X-39.593 Y21.945 E50.56066
G1 X-39.812 Y21.462 E50.58095
G1 X-39.957 Y20.951 E50.60128
G1 X-40.023 Y20.425 E50.62157
G1 X-40.009 Y19.894 E50.6419
G1 X-39.916 Y19.372 E50.66219
G1 X-39.745 Y18.869 E50.68252
G1 X-39.525 Y18.438 E50.70104
G1 X-39.056 Y17.658 E50.73587
G0 F2040 X-38.76 Y17.843
G1 F1020 X15.009 Y-68.319 E54.62263
G1 X15.36 Y-68.868 E54.64756
G1 X15.664 Y-69.27 E54.66685
G1 X16.028 Y-69.618 E54.68612
G1 X16.442 Y-69.904 E54.70538
G1 X16.896 Y-70.122 E54.72465
G1 X17.379 Y-70.265 E54.74393
G1 X17.879 Y-70.329 E54.76322
G1 X18.382 Y-70.314 E54.78248
G1 X18.877 Y-70.219 E54.80177
G1 X19.35 Y-70.048 E54.82102
G1 X19.79 Y-69.804 E54.84027
G1 X20.187 Y-69.493 E54.85957
G1 X20.529 Y-69.123 E54.87885
G1 X20.779 Y-68.756 E54.89585
G1 X21.292 Y-67.875 E54.93486
G1 X68.974 Y18.082 E58.69662
G1 X69.326 Y18.736 E58.72504
G1 X69.529 Y19.197 E58.74432
G1 X69.656 Y19.684 E58.76358
G1 X69.705 Y20.186 E58.78288
G1 X69.673 Y20.688 E58.80213
G1 X69.563 Y21.18 E58.82143
G1 X69.377 Y21.647 E58.84066
G1 X69.118 Y22.08 E58.85997
G1 X68.795 Y22.466 E58.87923
G1 X68.415 Y22.796 E58.89849
G1 X67.987 Y23.062 E58.91778
G1 X67.523 Y23.257 E58.93704
G1 X67.033 Y23.376 E58.95634
G1 X66.595 Y23.415 E58.97317
G1 X65.549 Y23.436 E59.0132
G1 X-35.865 Y23.436 E62.89427
G1 X-36.548 Y23.426 E62.92041
G1 X-37.05 Y23.378 E62.93971
G1 X-37.537 Y23.252 E62.95896
G1 X-37.999 Y23.051 E62.97824
G1 X-38.423 Y22.779 E62.99752
G1 X-38.798 Y22.444 E63.01676
G1 X-39.116 Y22.053 E63.03605
G1 X-39.368 Y21.617 E63.05532
G1 X-39.548 Y21.147 E63.07458
G1 X-39.651 Y20.654 E63.09386
G1 X-39.675 Y20.151 E63.11313
G1 X-39.62 Y19.65 E63.13242
G1 X-39.485 Y19.165 E63.15168
G1 X-39.225 Y18.618 E63.17486
G1 X-38.76 Y17.843 E63.20945
G1 F3600 E59.40945
;MESH:support_tri_0_091.stl
G0 F2040 X-36.631 Y19.174
G0 X-35.754 Y19.721
G0 X17.862 Y-65.902
;TYPE:WALL-INNER
G1 F3600 E63.20945
G1 F1020 X18.018 Y-66.152 E63.22073
G1 X18.161 Y-65.893 E63.22716
G1 X19.224 Y-63.974 E63.31112
G1 X65.517 Y19.477 E66.96322
G1 X65.661 Y19.736 E66.97456
G1 X65.365 Y19.736 E66.98101
G1 X65.364 Y19.736 E66.98105
G1 X-35.579 Y19.736 E70.84409
G1 X17.861 Y-65.901 E74.70714
G1 X17.862 Y-65.902 E74.70719
G0 F2040 X17.878 Y-66.542
;TYPE:WALL-OUTER
G1 F1020 X18.034 Y-66.792 E74.71847
G1 X18.177 Y-66.533 E74.72491
G1 X19.508 Y-64.131 E74.83
G1 X66.068 Y19.802 E78.50319
G1 X66.212 Y20.061 E78.51453
G1 X65.916 Y20.061 E78.52098
G1 X65.915 Y20.061 E78.52102
G1 X-36.165 Y20.061 E82.42757
G1 X17.877 Y-66.541 E86.33415
G1 X17.878 Y-66.542 E86.3342
G0 F2040 X17.984 Y-66.712
G0 X18.025 Y-66.398
G0 X18.001 Y-65.482
;TYPE:SKIN
G1 F1020 X18.927 Y-63.809 E86.40738
G1 X65.084 Y19.396 E90.04873
G1 X-34.967 Y19.396 E93.87763
G1 X18.001 Y-65.482 E97.70648
G0 F2040 X17.799 Y-64.861
G1 F1020 X18.618 Y-64.042 E97.7508
G1 X18.68 Y-63.98
G0 F2040 X17.609 Y-64.556
G1 F1020 X19.234 Y-62.931 E97.83875
G1 X19.296 Y-62.869
G0 F2040 X19.851 Y-61.819
G1 F1020 X17.418 Y-64.251 E97.9704
G0 F2040 X17.228 Y-63.947
G1 F1020 X20.467 Y-60.707 E98.14572
G1 X20.529 Y-60.645
G0 F2040 X21.084 Y-59.596
G1 F1020 X17.038 Y-63.642 E98.3647
G0 F2040 X16.848 Y-63.337
G1 F1020 X21.701 Y-58.484 E98.62735
G1 X21.763 Y-58.422
G0 F2040 X22.317 Y-57.373
G1 F1020 X16.658 Y-63.032 E98.93362
G0 F2040 X16.467 Y-62.728
G1 F1020 X22.934 Y-56.261 E99.28362
G1 X22.996 Y-56.199
G0 F2040 X23.55 Y-55.15
G1 F1020 X16.277 Y-62.423 E99.67725
G0 F2040 X16.087 Y-62.118
G1 F1020 X24.167 Y-54.038 E100.11455
G1 X24.229 Y-53.976
G0 F2040 X24.784 Y-52.926
G1 F1020 X15.897 Y-61.813 E100.59552
G0 F2040 X15.706 Y-61.509
G1 F1020 X25.401 Y-51.814 E101.12023
G1 X25.463 Y-51.752
G0 F2040 X26.017 Y-50.703
G1 F1020 X15.516 Y-61.204 E101.68856
G0 F2040 X15.326 Y-60.899
G1 F1020 X26.634 Y-49.591 E102.30056
G1 X26.696 Y-49.529
G0 F2040 X27.251 Y-48.479
G1 F1020 X15.136 Y-60.594 E102.95624
G0 F2040 X14.946 Y-60.29
G1 F1020 X27.867 Y-47.368 E103.65557
G1 X27.929 Y-47.306
G0 F2040 X28.484 Y-46.256
G1 F1020 X14.755 Y-59.985 E104.3986
G0 F2040 X14.565 Y-59.68
G1 F1020 X29.1 Y-45.145 E105.18525
G1 X29.162 Y-45.083
G0 F2040 X29.718 Y-44.032
G1 F1020 X14.375 Y-59.375 E106.01563
G0 F2040 X14.185 Y-59.07
G1 F1020 X30.334 Y-42.921 E106.88964
G1 X30.396 Y-42.859
G0 F2040 X30.951 Y-41.809
G1 F1020 X13.995 Y-58.766 E107.80735
G0 F2040 X13.804 Y-58.461
G1 F1020 X31.568 Y-40.698 E108.76873
G1 X31.63 Y-40.636
G0 F2040 X32.184 Y-39.586
G1 F1020 X13.614 Y-58.156 E109.77376
G0 F2040 X13.424 Y-57.851
G1 F1020 X32.801 Y-38.475 E110.82244
G1 X32.863 Y-38.413
G0 F2040 X33.417 Y-37.363
G1 F1020 X13.234 Y-57.547 E111.9148
G0 F2040 X13.043 Y-57.242
G1 F1020 X34.034 Y-36.251 E113.05086
G1 X34.096 Y-36.189
G0 F2040 X34.651 Y-35.139
G1 F1020 X12.853 Y-56.937 E114.23059
G0 F2040 X12.663 Y-56.632
G1 F1020 X35.268 Y-34.028 E115.45398
G1 X35.33 Y-33.966
G0 F2040 X35.884 Y-32.916
G1 F1020 X12.473 Y-56.328 E116.72104
G0 F2040 X12.283 Y-56.023
G1 F1020 X36.501 Y-31.804 E118.03177
G1 X36.563 Y-31.742
G0 F2040 X37.118 Y-30.693
G1 F1020 X12.092 Y-55.718 E119.38619
G0 F2040 X11.903 Y-55.413
G1 F1020 X37.734 Y-29.581 E120.78422
G1 X37.796 Y-29.519
G0 F2040 X38.351 Y-28.47
G1 F1020 X11.713 Y-55.108 E122.2259
G0 F2040 X11.523 Y-54.803
G1 F1020 X38.967 Y-27.358 E123.71123
G1 X39.029 Y-27.296
G0 F2040 X39.585 Y-26.246
G1 F1020 X11.332 Y-54.498 E125.24029
G0 F2040 X11.142 Y-54.194
G1 F1020 X40.201 Y-25.134 E126.81303
G1 X40.263 Y-25.072
G0 F2040 X40.818 Y-24.023
G1 F1020 X10.952 Y-53.889 E128.42942
G0 F2040 X10.762 Y-53.584
G1 F1020 X41.435 Y-22.911 E130.08948
G1 X41.497 Y-22.849
G0 F2040 X42.051 Y-21.8
G1 F1020 X10.571 Y-53.279 E131.79319
G0 F2040 X10.381 Y-52.975
G1 F1020 X42.668 Y-20.688 E133.5406
G1 X42.73 Y-20.626
G0 F2040 X43.284 Y-19.576
G1 F1020 X10.191 Y-52.67 E135.33167
G0 F2040 X10.001 Y-52.365
G1 F1020 X43.901 Y-18.465 E137.16638
G1 X43.963 Y-18.403
G0 F2040 X44.518 Y-17.353
G1 F1020 X9.811 Y-52.06 E139.04476
G0 F2040 X9.62 Y-51.755
G1 F1020 X45.135 Y-16.241 E140.96685
G1 X45.197 Y-16.179
G0 F2040 X45.751 Y-15.129
G1 F1020 X9.43 Y-51.451 E142.93262
G0 F2040 X9.24 Y-51.146
G1 F1020 X46.368 Y-14.018 E144.94203
G1 X46.43 Y-13.956
G0 F2040 X46.985 Y-12.906
G1 F1020 X9.05 Y-50.841 E146.99513
G0 F2040 X8.86 Y-50.536
G1 F1020 X47.601 Y-11.795 E149.09184
G1 X47.663 Y-11.733
G0 F2040 X48.218 Y-10.683
G1 F1020 X8.669 Y-50.232 E151.23228
G0 F2040 X8.479 Y-49.927
G1 F1020 X48.834 Y-9.572 E153.41634
G1 X48.896 Y-9.51
G0 F2040 X49.452 Y-8.459
G1 F1020 X8.289 Y-49.622 E155.64414
G0 F2040 X8.099 Y-49.317
G1 F1020 X50.068 Y-7.348 E157.91555
G1 X50.13 Y-7.286
G0 F2040 X50.685 Y-6.236
G1 F1020 X7.908 Y-49.013 E160.2307
G0 F2040 X7.718 Y-48.708
G1 F1020 X51.302 Y-5.125 E162.58949
G1 X51.364 Y-5.063
G0 F2040 X51.918 Y-4.013
G1 F1020 X7.528 Y-48.403 E164.99194
G0 F2040 X7.338 Y-48.098
G1 F1020 X52.535 Y-2.901 E167.43806
G1 X52.597 Y-2.839
G0 F2040 X53.151 Y-1.79
G1 F1020 X7.148 Y-47.794 E169.92782
G0 F2040 X6.957 Y-47.489
G1 F1020 X53.768 Y-.678 E172.4613
G1 X53.83 Y-.616
G0 F2040 X54.385 Y0.433
G1 F1020 X6.767 Y-47.184 E175.03842
G0 F2040 X6.577 Y-46.879
G1 F1020 X55.002 Y1.545 E177.65921
G1 X55.064 Y1.607
G0 F2040 X55.618 Y2.656
G1 F1020 X6.387 Y-46.575 E180.32366
G0 F2040 X6.197 Y-46.27
G1 F1020 X56.235 Y3.768 E183.03178
G1 X56.297 Y3.83
G0 F2040 X56.852 Y4.879
G1 F1020 X6.006 Y-45.965 E185.78357
G0 F2040 X5.816 Y-45.66
G1 F1020 X57.468 Y5.991 E188.57902
G1 X57.53 Y6.053
G0 F2040 X58.085 Y7.102
G1 F1020 X5.626 Y-45.355 E191.41811
G0 F2040 X5.436 Y-45.051
G1 F1020 X58.702 Y8.215 E194.30093
G1 X58.764 Y8.277
G0 F2040 X59.319 Y9.326
G1 F1020 X5.246 Y-44.746 E197.22741
G0 F2040 X5.055 Y-44.441
G1 F1020 X59.935 Y10.438 E200.19756
G1 X59.997 Y10.5
G0 F2040 X60.552 Y11.549
G1 F1020 X4.865 Y-44.136 E203.21135
G0 F2040 X4.675 Y-43.832
G1 F1020 X61.168 Y12.661 E206.26883
G1 X61.23 Y12.723
G0 F2040 X61.785 Y13.773
G1 F1020 X4.485 Y-43.527 E209.36998
G0 F2040 X4.294 Y-43.222
G1 F1020 X62.402 Y14.884 E212.5148
G1 X62.464 Y14.946
G0 F2040 X63.018 Y15.996
G1 F1020 X4.104 Y-42.917 E215.70327
G0 F2040 X3.914 Y-42.613
G1 F1020 X63.636 Y17.108 E218.93548
G1 X63.698 Y17.17
G0 F2040 X64.252 Y18.22
G1 F1020 X3.724 Y-42.308 E222.21133
G0 F2040 X3.534 Y-42.003
G1 F1020 X64.776 Y19.238 E225.5258
G0 F2040 X64.281 Y19.238
G1 F1020 X3.343 Y-41.698 E228.82379
G0 F2040 X3.153 Y-41.394
G1 F1020 X63.786 Y19.238 E232.10529
G0 F2040 X63.291 Y19.238
G1 F1020 X2.963 Y-41.089 E235.3703
G0 F2040 X2.773 Y-40.784
G1 F1020 X62.796 Y19.238 E238.61879
G0 F2040 X62.301 Y19.238
G1 F1020 X2.583 Y-40.479 E241.85078
G0 F2040 X2.392 Y-40.174
G1 F1020 X61.806 Y19.238 E245.06628
G0 F2040 X61.311 Y19.238
G1 F1020 X2.202 Y-39.87 E248.26531
G0 F2040 X2.013 Y-39.564
G1 F1020 X60.816 Y19.238 E251.44778
G0 F2040 X60.321 Y19.238
G1 F1020 X1.822 Y-39.259 E254.61376
G0 F2040 X1.632 Y-38.955
G1 F1020 X59.826 Y19.238 E257.76327
G0 F2040 X59.331 Y19.238
G1 F1020 X1.442 Y-38.65 E260.89627
G0 F2040 X1.252 Y-38.345
G1 F1020 X58.836 Y19.238 E264.01276
G0 F2040 X58.341 Y19.238
G1 F1020 X1.062 Y-38.04 E267.11275
G0 F2040 X0.871 Y-37.736
G1 F1020 X57.846 Y19.238 E270.19628
G0 F2040 X57.352 Y19.238
G1 F1020 X0.681 Y-37.431 E273.26333
G0 F2040 X0.491 Y-37.126
G1 F1020 X56.857 Y19.238 E276.31388
G0 F2040 X56.362 Y19.238
G1 F1020 X0.301 Y-36.821 E279.34792
G0 F2040 X0.111 Y-36.517
G1 F1020 X55.867 Y19.238 E282.36548
G0 F2040 X55.372 Y19.238
G1 F1020 X-0.079 Y-36.212 E285.36653
G0 F2040 X-.269 Y-35.907
G1 F1020 X54.877 Y19.238 E288.35107
G0 F2040 X54.382 Y19.238
G1 F1020 X-.459 Y-35.602 E291.31911
G0 F2040 X-.649 Y-35.298
G1 F1020 X53.887 Y19.238 E294.27067
G0 F2040 X53.392 Y19.238
