;FLAVOR:Marlin
;TIME:6362
;Filament used: 7.98909m
;Layer height: 0.3
;MINX:-66.557
;MINY:-73.623
;MINZ:0.26
;MAXX:43.332
;MAXY:24.085
;MAXZ:23.06
;Generated with Cura_SteamEngine 4.9.1
M82 ;absolute extrusion mode
;Gcode by Cura
G90
G28
M107
M109 R100
G30
M109 S215 U-55 X55 V-85 Y-85 W0.26 Z0.26
M82
G92 E0
G1 F200 E6
G92 E0
G1 F200 E-3.5
G0 Z0.15
G0 X10
G0 Z3
G1 F6000
G92 E0
G92 E0
G1 F3600 E-3.8
;LAYER_COUNT:77
;LAYER:0
M107
G0 F2040 X38.007 Y24.085 Z0.26
;TYPE:SKIRT
G1 F3600 E0
G1 F1020 X-61.359 Y24.085 E3.80269
G1 X-62.05 Y24.075 E3.82914
G1 X-62.653 Y24.026 E3.85229
G1 X-63.244 Y23.898 E3.87543
G1 X-63.813 Y23.694 E3.89856
G1 X-64.35 Y23.416 E3.9217
G1 X-64.846 Y23.07 E3.94485
G1 X-65.291 Y22.661 E3.96798
G1 X-65.679 Y22.197 E3.99113
G1 X-66.003 Y21.686 E4.01428
G1 X-66.256 Y21.137 E4.03741
G1 X-66.435 Y20.56 E4.06053
G1 X-66.535 Y19.963 E4.0837
G1 X-66.557 Y19.359 E4.10683
G1 X-66.498 Y18.757 E4.12998
G1 X-66.361 Y18.168 E4.15312
G1 X-66.147 Y17.603 E4.17624
G1 X-65.834 Y17.011 E4.20187
G1 X-65.769 Y16.898 E4.20686
G1 X-13.544 Y-70.858 E8.11495
G1 X-13.191 Y-71.436 E8.14087
G1 X-12.843 Y-71.93 E8.164
G1 X-12.432 Y-72.373 E8.18712
G1 X-11.967 Y-72.759 E8.21025
G1 X-11.454 Y-73.08 E8.23341
G1 X-10.904 Y-73.331 E8.25655
G1 X-10.325 Y-73.507 E8.27971
G1 X-9.729 Y-73.605 E8.30282
G1 X-9.124 Y-73.623 E8.32598
G1 X-8.523 Y-73.562 E8.3491
G1 X-7.935 Y-73.422 E8.37223
G1 X-7.37 Y-73.205 E8.3954
G1 X-6.839 Y-72.916 E8.41853
G1 X-6.351 Y-72.559 E8.44167
G1 X-5.914 Y-72.142 E8.46479
G1 X-5.536 Y-71.67 E8.48793
G1 X-5.198 Y-71.12 E8.51264
G1 X-5.133 Y-71.004 E8.51772
G1 X42.492 Y16.764 E12.33919
G1 X42.809 Y17.366 E12.36523
G1 X43.055 Y17.919 E12.38839
G1 X43.226 Y18.499 E12.41153
G1 X43.318 Y19.096 E12.43465
G1 X43.332 Y19.701 E12.45781
G1 X43.265 Y20.302 E12.48095
G1 X43.119 Y20.889 E12.5041
G1 X42.898 Y21.451 E12.52721
G1 X42.604 Y21.98 E12.55037
G1 X42.243 Y22.465 E12.57351
G1 X41.822 Y22.898 E12.59662
G1 X41.347 Y23.272 E12.61976
G1 X40.826 Y23.58 E12.64292
G1 X40.27 Y23.817 E12.66605
G1 X39.687 Y23.978 E12.6892
G1 X38.834 Y24.072 E12.72204
G1 X38.007 Y24.085 E12.75369
G0 F2040 X38.007 Y23.735
G1 F1020 X-61.354 Y23.735 E16.55619
G1 X-62.045 Y23.725 E16.58264
G1 X-62.624 Y23.676 E16.60487
G1 X-63.191 Y23.549 E16.62711
G1 X-63.735 Y23.345 E16.64934
G1 X-64.246 Y23.068 E16.67159
G1 X-64.714 Y22.724 E16.69382
G1 X-65.131 Y22.319 E16.71606
G1 X-65.488 Y21.861 E16.73828
G1 X-65.779 Y21.358 E16.76052
G1 X-65.998 Y20.82 E16.78275
G1 X-66.141 Y20.256 E16.80502
G1 X-66.205 Y19.679 E16.82724
G1 X-66.19 Y19.098 E16.84948
G1 X-66.095 Y18.525 E16.87171
G1 X-65.922 Y17.97 E16.89395
G1 X-65.675 Y17.443 E16.91623
G1 X-65.469 Y17.077 E16.9323
G1 X-13.246 Y-70.675 E20.84023
G1 X-12.893 Y-71.253 E20.86615
G1 X-12.557 Y-71.727 E20.88838
G1 X-12.158 Y-72.15 E20.91063
G1 X-11.706 Y-72.515 E20.93287
G1 X-11.208 Y-72.814 E20.9551
G1 X-10.674 Y-73.042 E20.97732
G1 X-10.113 Y-73.194 E20.99956
G1 X-9.537 Y-73.269 E21.02179
G1 X-8.956 Y-73.263 E21.04403
G1 X-8.381 Y-73.178 E21.06627
G1 X-7.823 Y-73.014 E21.08853
G1 X-7.293 Y-72.776 E21.11076
G1 X-6.801 Y-72.467 E21.133
G1 X-6.356 Y-72.094 E21.15522
G1 X-5.966 Y-71.663 E21.17746
G1 X-5.633 Y-71.173 E21.20013
G1 X-5.44 Y-70.837 E21.21496
G1 X42.182 Y16.927 E25.03624
G1 X42.499 Y17.529 E25.06228
G1 X42.734 Y18.061 E25.08454
G1 X42.894 Y18.62 E25.10679
G1 X42.975 Y19.195 E25.12901
G1 X42.977 Y19.776 E25.15124
G1 X42.899 Y20.352 E25.17349
G1 X42.743 Y20.911 E25.1957
G1 X42.511 Y21.444 E25.21795
G1 X42.209 Y21.94 E25.24017
G1 X41.841 Y22.39 E25.26242
G1 X41.415 Y22.785 E25.28465
G1 X40.939 Y23.118 E25.30688
G1 X40.421 Y23.383 E25.32915
G1 X39.873 Y23.574 E25.35136
G1 X39.303 Y23.688 E25.3736
G1 X38.828 Y23.722 E25.39183
G1 X38.007 Y23.735 E25.42325
G0 F2040 X38.069 Y23.385
G1 F1020 X-61.349 Y23.385 E29.22793
G1 X-62.04 Y23.375 E29.25437
G1 X-62.594 Y23.327 E29.27566
G1 X-63.136 Y23.2 E29.29696
G1 X-63.654 Y22.997 E29.31825
G1 X-64.138 Y22.721 E29.33957
G1 X-64.577 Y22.38 E29.36085
G1 X-64.963 Y21.979 E29.38215
G1 X-65.287 Y21.526 E29.40346
G1 X-65.543 Y21.033 E29.42472
G1 X-65.726 Y20.507 E29.44603
G1 X-65.832 Y19.961 E29.46732
G1 X-65.858 Y19.405 E29.48862
G1 X-65.804 Y18.851 E29.50992
G1 X-65.672 Y18.311 E29.5312
G1 X-65.369 Y17.614 E29.56028
G1 X-65.168 Y17.256 E29.57599
G1 X-12.947 Y-70.493 E33.48378
G1 X-12.594 Y-71.071 E33.5097
G1 X-12.271 Y-71.524 E33.53099
G1 X-11.886 Y-71.925 E33.55227
G1 X-11.447 Y-72.268 E33.57359
G1 X-10.964 Y-72.544 E33.59488
G1 X-10.447 Y-72.748 E33.61615
G1 X-9.905 Y-72.876 E33.63746
G1 X-9.351 Y-72.925 E33.65874
G1 X-8.795 Y-72.895 E33.68005
G1 X-8.25 Y-72.785 E33.70133
G1 X-7.726 Y-72.598 E33.72262
G1 X-7.234 Y-72.338 E33.74392
G1 X-6.785 Y-72.01 E33.7652
G1 X-6.387 Y-71.621 E33.78649
G1 X-5.936 Y-70.997 E33.81596
G1 X-5.748 Y-70.67 E33.83039
G1 X41.873 Y17.091 E37.65155
G1 X42.19 Y17.693 E37.67759
G1 X42.413 Y18.202 E37.69886
G1 X42.561 Y18.739 E37.72017
G1 X42.63 Y19.291 E37.74146
G1 X42.62 Y19.847 E37.76274
G1 X42.53 Y20.396 E37.78403
G1 X42.363 Y20.927 E37.80534
G1 X42.121 Y21.428 E37.82663
G1 X41.81 Y21.889 E37.84791
G1 X41.436 Y22.301 E37.86921
G1 X41.007 Y22.656 E37.89052
G1 X40.532 Y22.945 E37.91179
G1 X40.02 Y23.163 E37.93309
G1 X39.482 Y23.305 E37.95438
G1 X38.823 Y23.373 E37.97974
G1 X38.069 Y23.385 E38.0086
G0 F2040 X38.063 Y23.035
G1 F1020 X-61.344 Y23.035 E41.81285
G1 X-62.035 Y23.025 E41.8393
G1 X-62.564 Y22.977 E41.85963
G1 X-63.079 Y22.851 E41.87992
G1 X-63.569 Y22.648 E41.90022
G1 X-64.024 Y22.375 E41.92052
G1 X-64.433 Y22.036 E41.94085
G1 X-64.785 Y21.64 E41.96113
G1 X-65.075 Y21.195 E41.98146
G1 X-65.294 Y20.712 E42.00175
G1 X-65.439 Y20.201 E42.02208
G1 X-65.505 Y19.674 E42.04241
G1 X-65.491 Y19.144 E42.0627
G1 X-65.398 Y18.621 E42.08302
G1 X-65.227 Y18.119 E42.10332
G1 X-64.917 Y17.522 E42.12906
G1 X-64.867 Y17.435 E42.1329
G1 X-12.648 Y-70.31 E46.04052
G1 X-12.295 Y-70.888 E46.06644
G1 X-11.985 Y-71.319 E46.08676
G1 X-11.614 Y-71.698 E46.10705
G1 X-11.191 Y-72.018 E46.12735
G1 X-10.724 Y-72.27 E46.14766
G1 X-10.224 Y-72.449 E46.16798
G1 X-9.703 Y-72.551 E46.1883
G1 X-9.173 Y-72.574 E46.2086
G1 X-8.646 Y-72.517 E46.22889
G1 X-8.133 Y-72.382 E46.24919
G1 X-7.646 Y-72.171 E46.2695
G1 X-7.196 Y-71.889 E46.28982
G1 X-6.794 Y-71.543 E46.31012
G1 X-6.448 Y-71.14 E46.33045
G1 X-6.106 Y-70.592 E46.35517
G1 X-6.056 Y-70.503 E46.35908
G1 X41.563 Y17.254 E50.18007
G1 X41.88 Y17.856 E50.2061
G1 X42.091 Y18.342 E50.22638
G1 X42.227 Y18.855 E50.24669
G1 X42.284 Y19.383 E50.26701
G1 X42.261 Y19.913 E50.28731
G1 X42.159 Y20.434 E50.30763
G1 X41.98 Y20.933 E50.32792
G1 X41.728 Y21.401 E50.34826
G1 X41.409 Y21.824 E50.36854
G1 X41.03 Y22.196 E50.38886
G1 X40.599 Y22.506 E50.40918
G1 X40.127 Y22.748 E50.42948
G1 X39.624 Y22.916 E50.44977
G1 X39.101 Y23.007 E50.47009
G1 X38.817 Y23.023 E50.48097
G1 X38.063 Y23.035 E50.50983
G0 F2040 X38.058 Y22.685
G1 F1020 X-61.339 Y22.685 E54.31371
G1 X-62.03 Y22.675 E54.34015
G1 X-62.531 Y22.627 E54.35941
G1 X-63.019 Y22.502 E54.37869
G1 X-63.48 Y22.3 E54.39795
G1 X-63.904 Y22.028 E54.41723
G1 X-64.28 Y21.693 E54.4365
G1 X-64.598 Y21.302 E54.45579
G1 X-64.85 Y20.866 E54.47506
G1 X-65.03 Y20.396 E54.49432
G1 X-65.133 Y19.903 E54.5136
G1 X-65.157 Y19.4 E54.53287
G1 X-65.102 Y18.9 E54.55212
G1 X-64.968 Y18.414 E54.57141
G1 X-64.757 Y17.954 E54.59078
G1 X-64.566 Y17.614 E54.60571
G1 X-12.35 Y-70.128 E58.51317
G1 X-11.997 Y-70.706 E58.53908
G1 X-11.701 Y-71.113 E58.55834
G1 X-11.344 Y-71.469 E58.57764
G1 X-10.936 Y-71.764 E58.59691
G1 X-10.487 Y-71.991 E58.61616
G1 X-10.007 Y-72.143 E58.63543
G1 X-9.509 Y-72.218 E58.6547
G1 X-9.005 Y-72.213 E58.67399
G1 X-8.509 Y-72.129 E58.69324
G1 X-8.032 Y-71.967 E58.71252
G1 X-7.586 Y-71.732 E58.73181
G1 X-7.184 Y-71.43 E58.75106
G1 X-6.834 Y-71.067 E58.77035
G1 X-6.541 Y-70.646 E58.78998
G1 X-6.363 Y-70.336 E58.80366
G1 X41.253 Y17.417 E62.62446
G1 X41.57 Y18.019 E62.6505
G1 X41.769 Y18.481 E62.66975
G1 X41.892 Y18.97 E62.68905
G1 X41.936 Y19.471 E62.70829
G1 X41.9 Y19.974 E62.72759
G1 X41.785 Y20.464 E62.74685
G1 X41.595 Y20.93 E62.76611
G1 X41.333 Y21.36 E62.78538
G1 X41.006 Y21.743 E62.80466
G1 X40.623 Y22.07 E62.82393
G1 X40.192 Y22.332 E62.84323
G1 X39.726 Y22.523 E62.8625
G1 X39.236 Y22.637 E62.88176
G1 X38.812 Y22.673 E62.89804
G1 X38.058 Y22.685 E62.9269
G1 F3600 E59.1269
;MESH:support_tri_0_050.stl
G0 F2040 X38.058 Y20.175
G0 X38.058 Y19.14
G0 X-61.077 Y18.985
;TYPE:WALL-INNER
G1 F3600 E62.9269
G1 F1020 X-9.307 Y-68.006 E66.80093
G1 X37.896 Y18.985 E70.58856
G1 X-61.077 Y18.985 E74.37621
G0 F2040 X-61.648 Y19.31
;TYPE:WALL-OUTER
G1 F1020 X-9.294 Y-68.663 E78.29397
G1 X38.442 Y19.31 E82.12436
G1 X-61.648 Y19.31 E85.95476
G0 F2040 X-61.546 Y19.139
G0 X-61.462 Y19.19
G0 X-60.48 Y18.645
;TYPE:SKIN
G1 F1020 X-9.321 Y-67.319 E89.78306
G1 X37.325 Y18.645 E93.52598
G1 X-60.48 Y18.645 E97.26893
G0 F2040 X-60.022 Y18.183
G1 F1020 X-59.717 Y18.488 E97.28544
G0 F2040 X-59.223 Y18.488
G1 F1020 X-59.838 Y17.872 E97.31875
G0 F2040 X-59.653 Y17.562
G1 F1020 X-58.728 Y18.488 E97.36884
G0 F2040 X-58.233 Y18.488
G1 F1020 X-59.469 Y17.251 E97.43576
G0 F2040 X-59.284 Y16.941
G1 F1020 X-57.738 Y18.488 E97.51946
G0 F2040 X-57.243 Y18.488
G1 F1020 X-59.099 Y16.631 E97.61993
G0 F2040 X-58.915 Y16.32
G1 F1020 X-56.748 Y18.488 E97.73724
G0 F2040 X-56.253 Y18.488
G1 F1020 X-58.73 Y16.011 E97.8713
G0 F2040 X-58.545 Y15.7
G1 F1020 X-55.758 Y18.488 E98.02216
G0 F2040 X-55.263 Y18.488
G1 F1020 X-58.361 Y15.39 E98.18983
G0 F2040 X-58.176 Y15.079
G1 F1020 X-54.768 Y18.488 E98.3743
G0 F2040 X-54.273 Y18.488
G1 F1020 X-57.991 Y14.769 E98.57555
G0 F2040 X-57.807 Y14.458
G1 F1020 X-53.778 Y18.488 E98.79363
G0 F2040 X-53.283 Y18.488
G1 F1020 X-57.622 Y14.149 E99.02847
G0 F2040 X-57.437 Y13.838
G1 F1020 X-52.788 Y18.488 E99.2801
G0 F2040 X-52.293 Y18.488
G1 F1020 X-57.253 Y13.528 E99.54854
G0 F2040 X-57.068 Y13.217
G1 F1020 X-51.798 Y18.488 E99.83379
G0 F2040 X-51.303 Y18.488
G1 F1020 X-56.883 Y12.907 E100.13581
G0 F2040 X-56.699 Y12.597
G1 F1020 X-50.808 Y18.488 E100.45464
G0 F2040 X-50.313 Y18.488
G1 F1020 X-56.514 Y12.287 E100.79025
G0 F2040 X-56.329 Y11.976
G1 F1020 X-49.818 Y18.488 E101.14266
G0 F2040 X-49.323 Y18.488
G1 F1020 X-56.144 Y11.666 E101.51185
G0 F2040 X-55.96 Y11.356
G1 F1020 X-48.828 Y18.488 E101.89784
G0 F2040 X-48.333 Y18.488
G1 F1020 X-55.775 Y11.045 E102.30064
G0 F2040 X-55.591 Y10.735
G1 F1020 X-47.838 Y18.488 E102.72024
G0 F2040 X-47.343 Y18.488
G1 F1020 X-55.406 Y10.425 E103.15662
G0 F2040 X-55.221 Y10.115
G1 F1020 X-46.848 Y18.488 E103.60978
G0 F2040 X-46.353 Y18.488
G1 F1020 X-55.036 Y9.804 E104.07974
G0 F2040 X-54.852 Y9.494
G1 F1020 X-45.858 Y18.488 E104.56651
G0 F2040 X-45.363 Y18.488
G1 F1020 X-54.667 Y9.183 E105.07008
G0 F2040 X-54.483 Y8.873
G1 F1020 X-44.868 Y18.488 E105.59045
G0 F2040 X-44.373 Y18.488
G1 F1020 X-54.298 Y8.563 E106.12761
G0 F2040 X-54.113 Y8.253
G1 F1020 X-43.878 Y18.488 E106.68154
G0 F2040 X-43.383 Y18.488
G1 F1020 X-53.928 Y7.942 E107.25227
G0 F2040 X-53.744 Y7.632
G1 F1020 X-42.888 Y18.488 E107.83982
G0 F2040 X-42.393 Y18.488
G1 F1020 X-53.559 Y7.322 E108.44413
G0 F2040 X-53.375 Y7.011
G1 F1020 X-41.898 Y18.488 E109.06528
G0 F2040 X-41.403 Y18.488
G1 F1020 X-53.189 Y6.701 E109.70318
G0 F2040 X-53.005 Y6.391
G1 F1020 X-40.908 Y18.488 E110.35789
G0 F2040 X-40.413 Y18.488
G1 F1020 X-52.82 Y6.081 E111.02937
G0 F2040 X-52.636 Y5.77
G1 F1020 X-39.919 Y18.488 E111.71766
G0 F2040 X-39.424 Y18.488
G1 F1020 X-52.451 Y5.46 E112.42272
G0 F2040 X-52.267 Y5.149
G1 F1020 X-38.929 Y18.488 E113.14462
G0 F2040 X-38.434 Y18.488
G1 F1020 X-52.081 Y4.84 E113.88324
G0 F2040 X-51.897 Y4.529
G1 F1020 X-37.939 Y18.488 E114.63869
G0 F2040 X-37.444 Y18.488
G1 F1020 X-51.712 Y4.219 E115.41092
G0 F2040 X-51.528 Y3.908
G1 F1020 X-36.949 Y18.488 E116.19998
G0 F2040 X-36.454 Y18.488
G1 F1020 X-51.343 Y3.598 E117.00582
G0 F2040 X-51.159 Y3.288
G1 F1020 X-35.959 Y18.488 E117.82846
G0 F2040 X-35.464 Y18.488
G1 F1020 X-50.973 Y2.978 E118.66786
G0 F2040 X-50.789 Y2.667
G1 F1020 X-34.969 Y18.488 E119.52408
G0 F2040 X-34.474 Y18.488
G1 F1020 X-50.604 Y2.357 E120.39709
G0 F2040 X-50.42 Y2.047
G1 F1020 X-33.979 Y18.488 E121.2869
G0 F2040 X-33.484 Y18.488
G1 F1020 X-50.235 Y1.736 E122.19351
G0 F2040 X-50.051 Y1.426
G1 F1020 X-32.989 Y18.488 E123.11692
G0 F2040 X-32.494 Y18.488
G1 F1020 X-49.865 Y1.116 E124.05709
G0 F2040 X-49.681 Y0.806
G1 F1020 X-31.999 Y18.488 E125.01406
G0 F2040 X-31.504 Y18.488
G1 F1020 X-49.496 Y0.495 E125.98784
G0 F2040 X-49.312 Y0.185
G1 F1020 X-31.009 Y18.488 E126.97842
G0 F2040 X-30.514 Y18.488
G1 F1020 X-49.127 Y-.125 E127.98578
G0 F2040 X-48.943 Y-.435
G1 F1020 X-30.019 Y18.488 E129.00995
G0 F2040 X-29.524 Y18.488
G1 F1020 X-48.757 Y-.745 E130.05086
G0 F2040 X-48.573 Y-1.055
G1 F1020 X-29.029 Y18.488 E131.10858
G0 F2040 X-28.534 Y18.488
G1 F1020 X-48.388 Y-1.366 E132.1831
G0 F2040 X-48.204 Y-1.676
G1 F1020 X-28.039 Y18.488 E133.27443
G0 F2040 X-27.544 Y18.488
G1 F1020 X-48.019 Y-1.986 E134.38254
G0 F2040 X-47.835 Y-2.297
G1 F1020 X-27.049 Y18.488 E135.50748
G0 F2040 X-26.554 Y18.488
G1 F1020 X-47.65 Y-2.607 E136.64919
G0 F2040 X-47.465 Y-2.917
G1 F1020 X-26.059 Y18.488 E137.80768
G0 F2040 X-25.564 Y18.488
G1 F1020 X-47.28 Y-3.227 E138.98296
G0 F2040 X-47.096 Y-3.538
G1 F1020 X-25.069 Y18.488 E140.17506
G0 F2040 X-24.574 Y18.488
G1 F1020 X-46.911 Y-3.848 E141.38394
G0 F2040 X-46.727 Y-4.159
G1 F1020 X-24.079 Y18.488 E142.60965
G0 F2040 X-23.584 Y18.488
G1 F1020 X-46.542 Y-4.469 E143.85214
G0 F2040 X-46.357 Y-4.779
G1 F1020 X-23.089 Y18.488 E145.1114
G0 F2040 X-22.594 Y18.488
G1 F1020 X-46.172 Y-5.089 E146.38745
G0 F2040 X-45.988 Y-5.4
G1 F1020 X-22.099 Y18.488 E147.68033
G0 F2040 X-21.604 Y18.488
G1 F1020 X-45.803 Y-5.71 E148.98998
G0 F2040 X-45.618 Y-6.021
G1 F1020 X-21.109 Y18.488 E150.31644
G0 F2040 X-20.614 Y18.488
G1 F1020 X-45.434 Y-6.331 E151.6597
G0 F2040 X-45.249 Y-6.641
G1 F1020 X-20.12 Y18.488 E153.01971
G0 F2040 X-19.625 Y18.488
G1 F1020 X-45.064 Y-6.951 E154.3965
G0 F2040 X-44.88 Y-7.261
G1 F1020 X-19.13 Y18.488 E155.7901
G0 F2040 X-18.635 Y18.488
G1 F1020 X-44.695 Y-7.572 E157.2005
G0 F2040 X-44.51 Y-7.882
G1 F1020 X-18.14 Y18.488 E158.62768
G0 F2040 X-17.645 Y18.488
G1 F1020 X-44.326 Y-8.193 E160.07169
G0 F2040 X-44.141 Y-8.502
G1 F1020 X-17.15 Y18.488 E161.53245
G0 F2040 X-16.655 Y18.488
G1 F1020 X-43.956 Y-8.813 E163.01001
G0 F2040 X-43.772 Y-9.123
G1 F1020 X-16.16 Y18.488 E164.50438
G0 F2040 X-15.665 Y18.488
G1 F1020 X-43.587 Y-9.434 E166.01556
G0 F2040 X-43.402 Y-9.744
G1 F1020 X-15.17 Y18.488 E167.54351
G0 F2040 X-14.675 Y18.488
G1 F1020 X-43.218 Y-10.055 E169.08829
G0 F2040 X-43.033 Y-10.364
G1 F1020 X-14.18 Y18.488 E170.64983
G0 F2040 X-13.685 Y18.488
G1 F1020 X-42.848 Y-10.675 E172.22817
G0 F2040 X-42.663 Y-10.985
G1 F1020 X-13.19 Y18.488 E173.82328
G0 F2040 X-12.695 Y18.488
G1 F1020 X-42.479 Y-11.296 E175.43523
G0 F2040 X-42.294 Y-11.606
G1 F1020 X-12.2 Y18.488 E177.06396
G0 F2040 X-11.705 Y18.488
G1 F1020 X-42.11 Y-11.916 E178.70949
G0 F2040 X-41.925 Y-12.226
G1 F1020 X-11.21 Y18.488 E180.37179
G0 F2040 X-10.715 Y18.488
G1 F1020 X-41.74 Y-12.537 E182.05091
G0 F2040 X-41.555 Y-12.847
G1 F1020 X-10.22 Y18.488 E183.7468
G0 F2040 X-9.725 Y18.488
G1 F1020 X-41.371 Y-13.157 E185.45949
G0 F2040 X-41.186 Y-13.468
G1 F1020 X-9.23 Y18.488 E187.18899
G0 F2040 X-8.735 Y18.488
G1 F1020 X-41.002 Y-13.778 E188.93529
G0 F2040 X-40.817 Y-14.088
G1 F1020 X-8.24 Y18.488 E190.69838
G0 F2040 X-7.745 Y18.488
G1 F1020 X-40.632 Y-14.398 E192.47824
G0 F2040 X-40.447 Y-14.709
G1 F1020 X-7.25 Y18.488 E194.2749
G0 F2040 X-6.755 Y18.488
G1 F1020 X-40.263 Y-15.019 E196.08837
G0 F2040 X-40.078 Y-15.33
G1 F1020 X-6.26 Y18.488 E197.91864
G0 F2040 X-5.765 Y18.488
G1 F1020 X-39.894 Y-15.64 E199.76572
G0 F2040 X-39.708 Y-15.95
G1 F1020 X-5.27 Y18.488 E201.62955
G0 F2040 X-4.775 Y18.488
G1 F1020 X-39.524 Y-16.26 E203.51018
G0 F2040 X-39.339 Y-16.571
G1 F1020 X-4.28 Y18.488 E205.40762
G0 F2040 X-3.785 Y18.488
G1 F1020 X-39.155 Y-16.881 E207.32186
G0 F2040 X-38.97 Y-17.191
G1 F1020 X-3.29 Y18.488 E209.25288
G0 F2040 X-2.795 Y18.488
G1 F1020 X-38.786 Y-17.502 E211.20073
