;FLAVOR:Marlin
;TIME:6248
;Filament used: 8.02494m
;Layer height: 0.3
;MINX:-66.957
;MINY:-25.39
;MINZ:0.26
;MAXX:42.138
;MAXY:73.875
;MAXZ:22.76
;Generated with Cura_SteamEngine 4.9.1
M82 ;absolute extrusion mode
;Gcode by Cura
G90
G28
M107
M109 R100
G30
M109 S215 U-55 X55 V-85 Y-85 W0.26 Z0.26
M82
G92 E0
G1 F200 E6
G92 E0
G1 F200 E-3.5
G0 Z0.15
G0 X10
G0 Z3
G1 F6000
G92 E0
G92 E0
G1 F3600 E-3.8
;LAYER_COUNT:76
;LAYER:0
M107
G0 F2040 X41.111 Y-17.725 Z0.26
;TYPE:SKIRT
G1 F3600 E0
G1 F1020 X-8.107 Y71.003 E3.883
G1 X-8.431 Y71.57 E3.90799
G1 X-8.765 Y72.074 E3.93113
G1 X-9.162 Y72.529 E3.95424
G1 X-9.617 Y72.929 E3.97743
G1 X-10.119 Y73.264 E4.00052
G1 X-10.662 Y73.531 E4.02368
G1 X-11.235 Y73.723 E4.04681
G1 X-11.829 Y73.839 E4.06997
G1 X-12.432 Y73.875 E4.09309
G1 X-13.035 Y73.831 E4.11622
G1 X-13.627 Y73.708 E4.13936
G1 X-14.198 Y73.508 E4.16252
G1 X-14.737 Y73.235 E4.18564
G1 X-15.236 Y72.892 E4.20881
G1 X-15.685 Y72.487 E4.23195
G1 X-16.077 Y72.027 E4.25508
G1 X-16.363 Y71.591 E4.27504
G1 X-16.831 Y70.781 E4.31084
G1 X-66.111 Y-18.063 E8.19887
G1 X-66.417 Y-18.634 E8.22366
G1 X-66.667 Y-19.185 E8.24682
G1 X-66.842 Y-19.763 E8.26993
G1 X-66.939 Y-20.36 E8.29308
G1 X-66.957 Y-20.965 E8.31624
G1 X-66.895 Y-21.566 E8.33936
G1 X-66.753 Y-22.154 E8.36251
G1 X-66.536 Y-22.718 E8.38564
G1 X-66.246 Y-23.249 E8.40879
G1 X-65.889 Y-23.737 E8.43193
G1 X-65.47 Y-24.173 E8.45507
G1 X-64.998 Y-24.55 E8.47819
G1 X-64.48 Y-24.862 E8.50133
G1 X-63.925 Y-25.103 E8.52449
G1 X-63.344 Y-25.268 E8.5476
G1 X-62.478 Y-25.369 E8.58097
G1 X-61.401 Y-25.39 E8.62219
G1 X36.953 Y-25.39 E12.38615
G1 X37.632 Y-25.38 E12.41214
G1 X38.235 Y-25.331 E12.43529
G1 X38.826 Y-25.203 E12.45843
G1 X39.395 Y-24.998 E12.48158
G1 X39.932 Y-24.72 E12.50472
G1 X40.428 Y-24.374 E12.52786
G1 X40.873 Y-23.965 E12.551
G1 X41.261 Y-23.501 E12.57414
G1 X41.584 Y-22.99 E12.59728
G1 X41.837 Y-22.441 E12.62041
G1 X42.016 Y-21.863 E12.64357
G1 X42.117 Y-21.267 E12.6667
G1 X42.138 Y-20.663 E12.68983
G1 X42.079 Y-20.061 E12.71298
G1 X41.942 Y-19.472 E12.73612
G1 X41.61 Y-18.667 E12.76944
G1 X41.111 Y-17.725 E12.81024
G0 F2040 X40.805 Y-17.895
G1 F1020 X-8.411 Y70.829 E16.69307
G1 X-8.735 Y71.396 E16.71806
G1 X-9.057 Y71.88 E16.74031
G1 X-9.443 Y72.314 E16.76254
G1 X-9.884 Y72.692 E16.78477
G1 X-10.373 Y73.006 E16.80701
G1 X-10.901 Y73.249 E16.82925
G1 X-11.457 Y73.418 E16.85149
G1 X-12.031 Y73.509 E16.87373
G1 X-12.612 Y73.52 E16.89597
G1 X-13.189 Y73.451 E16.91821
G1 X-13.751 Y73.304 E16.94044
G1 X-14.287 Y73.082 E16.96264
G1 X-14.788 Y72.787 E16.98489
G1 X-15.244 Y72.427 E17.00712
G1 X-15.646 Y72.008 E17.02935
G1 X-16.06 Y71.416 E17.05699
G1 X-16.525 Y70.611 E17.09257
G1 X-65.803 Y-18.228 E20.9804
G1 X-66.109 Y-18.799 E21.00519
G1 X-66.348 Y-19.329 E21.02744
G1 X-66.511 Y-19.887 E21.04969
G1 X-66.597 Y-20.461 E21.0719
G1 X-66.603 Y-21.042 E21.09414
G1 X-66.529 Y-21.619 E21.1164
G1 X-66.377 Y-22.179 E21.1386
G1 X-66.149 Y-22.714 E21.16086
G1 X-65.85 Y-23.212 E21.18309
G1 X-65.486 Y-23.665 E21.20533
G1 X-65.063 Y-24.063 E21.22756
G1 X-64.589 Y-24.4 E21.24981
G1 X-64.074 Y-24.668 E21.27203
G1 X-63.526 Y-24.863 E21.29429
G1 X-62.957 Y-24.981 E21.31653
G1 X-62.471 Y-25.019 E21.33519
G1 X-61.401 Y-25.04 E21.37614
G1 X36.948 Y-25.04 E25.13991
G1 X37.627 Y-25.03 E25.1659
G1 X38.206 Y-24.981 E25.18814
G1 X38.773 Y-24.854 E25.21037
G1 X39.317 Y-24.65 E25.23261
G1 X39.828 Y-24.373 E25.25485
G1 X40.296 Y-24.029 E25.27708
G1 X40.713 Y-23.623 E25.29935
G1 X41.069 Y-23.165 E25.32155
G1 X41.36 Y-22.662 E25.34379
G1 X41.579 Y-22.124 E25.36602
G1 X41.722 Y-21.56 E25.38829
G1 X41.786 Y-20.983 E25.4105
G1 X41.771 Y-20.402 E25.43275
G1 X41.676 Y-19.829 E25.45497
G1 X41.503 Y-19.274 E25.47722
G1 X41.3 Y-18.831 E25.49587
G1 X40.805 Y-17.895 E25.53639
G0 F2040 X40.499 Y-18.064
G1 F1020 X-8.715 Y70.656 E29.41905
G1 X-9.039 Y71.223 E29.44404
G1 X-9.349 Y71.685 E29.46533
G1 X-9.722 Y72.097 E29.4866
G1 X-10.15 Y72.453 E29.50791
G1 X-10.625 Y72.743 E29.52921
G1 X-11.136 Y72.962 E29.55048
G1 X-11.674 Y73.106 E29.5718
G1 X-12.226 Y73.171 E29.59307
G1 X-12.782 Y73.156 E29.61435
G1 X-13.331 Y73.062 E29.63567
G1 X-13.86 Y72.891 E29.65694
G1 X-14.359 Y72.645 E29.67823
G1 X-14.818 Y72.33 E29.69954
G1 X-15.227 Y71.953 E29.72083
G1 X-15.578 Y71.521 E29.74213
G1 X-15.757 Y71.241 E29.75485
G1 X-16.219 Y70.442 E29.79017
G1 X-65.468 Y-18.344 E33.67569
G1 X-65.8 Y-18.965 E33.70263
G1 X-66.027 Y-19.473 E33.72393
G1 X-66.179 Y-20.008 E33.74521
G1 X-66.253 Y-20.56 E33.76653
G1 X-66.247 Y-21.116 E33.7878
G1 X-66.161 Y-21.666 E33.80911
G1 X-65.997 Y-22.197 E33.83038
G1 X-65.759 Y-22.7 E33.85167
G1 X-65.452 Y-23.164 E33.87296
G1 X-65.081 Y-23.579 E33.89427
G1 X-64.654 Y-23.936 E33.91557
G1 X-64.181 Y-24.229 E33.93686
G1 X-63.671 Y-24.451 E33.95815
G1 X-63.134 Y-24.597 E33.97944
G1 X-62.464 Y-24.669 E34.00523
G1 X-61.401 Y-24.69 E34.04592
G1 X36.943 Y-24.69 E37.8095
G1 X37.622 Y-24.68 E37.83549
G1 X38.176 Y-24.631 E37.85677
G1 X38.718 Y-24.504 E37.87807
G1 X39.236 Y-24.301 E37.89937
G1 X39.72 Y-24.026 E37.92067
G1 X40.159 Y-23.684 E37.94197
G1 X40.544 Y-23.283 E37.96324
G1 X40.868 Y-22.831 E37.98452
G1 X41.124 Y-22.337 E38.00582
G1 X41.307 Y-21.811 E38.02713
G1 X41.413 Y-21.265 E38.04841
G1 X41.439 Y-20.709 E38.06972
G1 X41.385 Y-20.155 E38.09102
G1 X41.253 Y-19.615 E38.11229
G1 X40.991 Y-18.994 E38.13808
G1 X40.499 Y-18.064 E38.17835
G0 F2040 X40.193 Y-18.234
G1 F1020 X-9.018 Y70.482 E42.06082
G1 X-9.342 Y71.049 E42.08581
G1 X-9.64 Y71.489 E42.10615
G1 X-9.999 Y71.879 E42.12643
G1 X-10.414 Y72.21 E42.14675
G1 X-10.873 Y72.476 E42.16705
G1 X-11.367 Y72.669 E42.18735
G1 X-11.885 Y72.787 E42.20768
G1 X-12.414 Y72.825 E42.22798
G1 X-12.943 Y72.783 E42.24828
G1 X-13.46 Y72.663 E42.2686
G1 X-13.953 Y72.466 E42.28891
G1 X-14.41 Y72.198 E42.30919
G1 X-14.823 Y71.863 E42.32954
G1 X-15.18 Y71.471 E42.34983
G1 X-15.454 Y71.065 E42.36857
G1 X-15.913 Y70.272 E42.40364
G1 X-65.186 Y-18.559 E46.29111
G1 X-65.492 Y-19.13 E46.3159
G1 X-65.707 Y-19.615 E46.3362
G1 X-65.846 Y-20.127 E46.35651
G1 X-65.907 Y-20.654 E46.37681
G1 X-65.888 Y-21.185 E46.39714
G1 X-65.79 Y-21.706 E46.41743
G1 X-65.615 Y-22.207 E46.43774
G1 X-65.366 Y-22.676 E46.45806
G1 X-65.05 Y-23.102 E46.47836
G1 X-64.674 Y-23.476 E46.49866
G1 X-64.245 Y-23.789 E46.51898
G1 X-63.775 Y-24.035 E46.53928
G1 X-63.273 Y-24.206 E46.55958
G1 X-62.75 Y-24.301 E46.57992
G1 X-62.457 Y-24.319 E46.59115
G1 X-61.401 Y-24.34 E46.63157
G1 X36.938 Y-24.34 E50.39496
G1 X37.617 Y-24.33 E50.42095
G1 X38.145 Y-24.282 E50.44124
G1 X38.661 Y-24.155 E50.46157
G1 X39.151 Y-23.953 E50.48186
G1 X39.606 Y-23.679 E50.50218
G1 X40.014 Y-23.34 E50.52248
G1 X40.367 Y-22.944 E50.54278
G1 X40.656 Y-22.499 E50.56309
G1 X40.876 Y-22.016 E50.5834
G1 X41.02 Y-21.505 E50.60372
G1 X41.086 Y-20.978 E50.62405
G1 X41.072 Y-20.448 E50.64433
G1 X40.979 Y-19.926 E50.66463
G1 X40.808 Y-19.423 E50.68496
G1 X40.682 Y-19.158 E50.69619
G1 X40.193 Y-18.234 E50.73619
G0 F2040 X39.886 Y-18.404
G1 F1020 X-9.322 Y70.308 E54.61848
G1 X-9.646 Y70.875 E54.64347
G1 X-9.93 Y71.291 E54.66274
G1 X-10.276 Y71.657 E54.68202
G1 X-10.675 Y71.964 E54.70129
G1 X-11.118 Y72.204 E54.72057
G1 X-11.594 Y72.37 E54.73986
G1 X-12.089 Y72.459 E54.75911
G1 X-12.593 Y72.469 E54.7784
G1 X-13.091 Y72.399 E54.79764
G1 X-13.573 Y72.252 E54.81693
G1 X-14.025 Y72.03 E54.8362
G1 X-14.436 Y71.739 E54.85547
G1 X-14.796 Y71.387 E54.87474
G1 X-15.151 Y70.89 E54.89811
G1 X-15.606 Y70.102 E54.93294
G1 X-64.877 Y-18.724 E58.8202
G1 X-65.183 Y-19.295 E58.84499
G1 X-65.385 Y-19.757 E58.86429
G1 X-65.512 Y-20.244 E58.88355
G1 X-65.56 Y-20.745 E58.90281
G1 X-65.528 Y-21.248 E58.9221
G1 X-65.416 Y-21.739 E58.94137
G1 X-65.229 Y-22.207 E58.96066
G1 X-64.97 Y-22.638 E58.9799
G1 X-64.646 Y-23.024 E58.99919
G1 X-64.265 Y-23.353 E59.01845
G1 X-63.837 Y-23.619 E59.03774
G1 X-63.372 Y-23.813 E59.05702
G1 X-62.883 Y-23.931 E59.07627
G1 X-62.45 Y-23.969 E59.09291
G1 X-61.401 Y-23.99 E59.13306
G1 X36.933 Y-23.99 E62.89625
G1 X37.612 Y-23.98 E62.92224
G1 X38.113 Y-23.932 E62.9415
G1 X38.601 Y-23.806 E62.96079
G1 X39.062 Y-23.605 E62.98004
G1 X39.486 Y-23.333 E62.99932
G1 X39.862 Y-22.997 E63.01861
G1 X40.179 Y-22.607 E63.03785
G1 X40.431 Y-22.171 E63.05712
G1 X40.611 Y-21.7 E63.07641
G1 X40.714 Y-21.207 E63.09569
G1 X40.738 Y-20.704 E63.11496
G1 X40.683 Y-20.204 E63.13421
G1 X40.548 Y-19.719 E63.15348
G1 X40.372 Y-19.322 E63.1701
G1 X39.886 Y-18.404 E63.20985
G1 F3600 E59.40985
;MESH:support_tri_0_107.stl
G0 F2040 X37.691 Y-19.623
G0 X36.787 Y-20.124
G0 X-61.515 Y-20.29
;TYPE:WALL-INNER
G1 F3600 E63.20985
G1 F1020 X36.701 Y-20.29 E66.96853
G1 X-12.407 Y68.242 E70.84293
G1 X-61.515 Y-20.29 E74.71733
G0 F2040 X-62.067 Y-20.615
;TYPE:WALL-OUTER
G1 F1020 X37.253 Y-20.615 E78.51826
G1 X-12.407 Y68.912 E82.4362
G1 X-62.067 Y-20.615 E86.35415
G0 F2040 X-61.867 Y-20.615
G0 X-61.726 Y-20.415
G0 X-60.938 Y-19.95
;TYPE:SKIN
G1 F1020 X36.124 Y-19.95 E90.06867
G1 X-12.407 Y67.541 E93.89752
G1 X-60.938 Y-19.95 E97.72637
G0 F2040 X35.781 Y-19.655
G1 F1020 X35.643 Y-19.793 E97.73384
G0 F2040 X35.604 Y-19.337
G1 F1020 X35.148 Y-19.793 E97.75852
G0 F2040 X34.653 Y-19.793
G1 F1020 X35.428 Y-19.019 E97.80044
G0 F2040 X35.251 Y-18.7
G1 F1020 X34.158 Y-19.793 E97.85959
G0 F2040 X33.663 Y-19.793
G1 F1020 X35.075 Y-18.381 E97.93601
G0 F2040 X34.898 Y-18.063
G1 F1020 X33.168 Y-19.793 E98.02964
G0 F2040 X32.673 Y-19.793
G1 F1020 X34.721 Y-17.745 E98.14048
G0 F2040 X34.544 Y-17.427
G1 F1020 X32.179 Y-19.793 E98.2685
G0 F2040 X31.684 Y-19.793
G1 F1020 X34.368 Y-17.108 E98.41379
G0 F2040 X34.192 Y-16.79
G1 F1020 X31.189 Y-19.793 E98.57632
G0 F2040 X30.694 Y-19.793
G1 F1020 X34.015 Y-16.472 E98.75606
G0 F2040 X33.838 Y-16.153
G1 F1020 X30.199 Y-19.793 E98.95303
G0 F2040 X29.704 Y-19.793
G1 F1020 X33.662 Y-15.834 E99.16727
G0 F2040 X33.485 Y-15.516
G1 F1020 X29.209 Y-19.793 E99.39872
G0 F2040 X28.714 Y-19.793
G1 F1020 X33.308 Y-15.198 E99.64738
G0 F2040 X33.132 Y-14.88
G1 F1020 X28.219 Y-19.793 E99.91328
G0 F2040 X27.724 Y-19.793
G1 F1020 X32.956 Y-14.561 E100.19644
G0 F2040 X32.779 Y-14.243
G1 F1020 X27.229 Y-19.793 E100.49681
G0 F2040 X26.734 Y-19.793
G1 F1020 X32.602 Y-13.925 E100.8144
G0 F2040 X32.425 Y-13.606
G1 F1020 X26.239 Y-19.793 E101.14922
G0 F2040 X25.744 Y-19.793
G1 F1020 X32.249 Y-13.287 E101.5013
G0 F2040 X32.072 Y-12.969
G1 F1020 X25.249 Y-19.793 E101.8706
G0 F2040 X24.754 Y-19.793
G1 F1020 X31.896 Y-12.651 E102.25713
G0 F2040 X31.719 Y-12.333
G1 F1020 X24.259 Y-19.793 E102.66088
G0 F2040 X23.764 Y-19.793
G1 F1020 X31.543 Y-12.014 E103.08189
G0 F2040 X31.366 Y-11.696
G1 F1020 X23.269 Y-19.793 E103.52011
G0 F2040 X22.774 Y-19.793
G1 F1020 X31.189 Y-11.378 E103.97554
G0 F2040 X31.012 Y-11.059
G1 F1020 X22.279 Y-19.793 E104.44821
G0 F2040 X21.784 Y-19.793
G1 F1020 X30.836 Y-10.74 E104.93814
G0 F2040 X30.66 Y-10.422
G1 F1020 X21.289 Y-19.793 E105.44531
G0 F2040 X20.794 Y-19.793
G1 F1020 X30.483 Y-10.104 E105.96969
G0 F2040 X30.306 Y-9.786
G1 F1020 X20.299 Y-19.793 E106.51128
G0 F2040 X19.804 Y-19.793
G1 F1020 X30.13 Y-9.467 E107.07014
G0 F2040 X29.953 Y-9.149
G1 F1020 X19.309 Y-19.793 E107.64621
G0 F2040 X18.814 Y-19.793
G1 F1020 X29.776 Y-8.831 E108.23948
G0 F2040 X29.6 Y-8.512
G1 F1020 X18.319 Y-19.793 E108.85002
G0 F2040 X17.824 Y-19.793
G1 F1020 X29.424 Y-8.193 E109.47783
G0 F2040 X29.247 Y-7.875
G1 F1020 X17.329 Y-19.793 E110.12285
G0 F2040 X16.834 Y-19.793
G1 F1020 X29.07 Y-7.557 E110.78508
G0 F2040 X28.893 Y-7.239
G1 F1020 X16.339 Y-19.793 E111.46452
G0 F2040 X15.844 Y-19.793
G1 F1020 X28.717 Y-6.92 E112.16122
G0 F2040 X28.54 Y-6.602
G1 F1020 X15.349 Y-19.793 E112.87513
G0 F2040 X14.854 Y-19.793
G1 F1020 X28.364 Y-6.284 E113.60628
G0 F2040 X28.187 Y-5.965
G1 F1020 X14.359 Y-19.793 E114.35467
G0 F2040 X13.864 Y-19.793
G1 F1020 X28.011 Y-5.646 E115.12033
G0 F2040 X27.834 Y-5.328
G1 F1020 X13.369 Y-19.793 E115.90319
G0 F2040 X12.875 Y-19.793
G1 F1020 X27.657 Y-5.01 E116.70324
G0 F2040 X27.48 Y-4.692
G1 F1020 X12.38 Y-19.793 E117.5205
G0 F2040 X11.885 Y-19.793
G1 F1020 X27.304 Y-4.373 E118.35502
G0 F2040 X27.128 Y-4.055
G1 F1020 X11.39 Y-19.793 E119.20678
G0 F2040 X10.895 Y-19.793
G1 F1020 X26.951 Y-3.737 E120.07575
G0 F2040 X26.774 Y-3.418
G1 F1020 X10.4 Y-19.793 E120.96196
G0 F2040 X9.905 Y-19.793
G1 F1020 X26.598 Y-3.099 E121.86543
G0 F2040 X26.421 Y-2.781
G1 F1020 X9.41 Y-19.793 E122.78612
G0 F2040 X8.915 Y-19.793
G1 F1020 X26.244 Y-2.463 E123.72401
G0 F2040 X26.068 Y-2.145
G1 F1020 X8.42 Y-19.793 E124.67914
G0 F2040 X7.925 Y-19.793
G1 F1020 X25.892 Y-1.826 E125.65154
G0 F2040 X25.715 Y-1.508
G1 F1020 X7.43 Y-19.793 E126.64115
G0 F2040 X6.935 Y-19.793
G1 F1020 X25.538 Y-1.19 E127.64797
G0 F2040 X25.361 Y-.871
G1 F1020 X6.44 Y-19.793 E128.67202
G0 F2040 X5.945 Y-19.793
G1 F1020 X25.185 Y-.552 E129.71334
G0 F2040 X25.008 Y-.234
G1 F1020 X5.45 Y-19.793 E130.77187
G0 F2040 X4.955 Y-19.793
G1 F1020 X24.832 Y0.083 E131.84762
G0 F2040 X24.655 Y0.401
G1 F1020 X4.46 Y-19.793 E132.94057
G0 F2040 X3.965 Y-19.793
G1 F1020 X24.479 Y0.72 E134.05078
G0 F2040 X24.302 Y1.038
G1 F1020 X3.47 Y-19.793 E135.17821
G0 F2040 X2.975 Y-19.793
G1 F1020 X24.125 Y1.356 E136.32285
G0 F2040 X23.948 Y1.675
G1 F1020 X2.48 Y-19.793 E137.48472
G0 F2040 X1.985 Y-19.793
G1 F1020 X23.772 Y1.994 E138.66387
G0 F2040 X23.596 Y2.312
G1 F1020 X1.49 Y-19.793 E139.86024
G0 F2040 X0.995 Y-19.793
G1 F1020 X23.419 Y2.63 E141.07383
G0 F2040 X23.242 Y2.948
G1 F1020 X0.5 Y-19.793 E142.30463
G0 F2040 X0.005 Y-19.793
G1 F1020 X23.066 Y3.267 E143.55269
G0 F2040 X22.889 Y3.585
G1 F1020 X-.489 Y-19.793 E144.81794
G0 F2040 X-.984 Y-19.793
G1 F1020 X22.712 Y3.903 E146.1004
G0 F2040 X22.536 Y4.222
G1 F1020 X-1.479 Y-19.793 E147.40012
G0 F2040 X-1.974 Y-19.793
G1 F1020 X22.36 Y4.541 E148.71711
G0 F2040 X22.183 Y4.859
G1 F1020 X-2.469 Y-19.793 E150.05131
G0 F2040 X-2.964 Y-19.793
G1 F1020 X22.006 Y5.177 E151.40271
G0 F2040 X21.829 Y5.495
G1 F1020 X-3.459 Y-19.793 E152.77133
G0 F2040 X-3.954 Y-19.793
G1 F1020 X21.653 Y5.814 E154.15722
G0 F2040 X21.476 Y6.132
G1 F1020 X-4.449 Y-19.793 E155.56031
G0 F2040 X-4.944 Y-19.793
G1 F1020 X21.3 Y6.45 E156.98064
G0 F2040 X21.123 Y6.769
G1 F1020 X-5.439 Y-19.793 E158.41821
G0 F2040 X-5.934 Y-19.793
G1 F1020 X20.947 Y7.088 E159.87305
G0 F2040 X20.77 Y7.406
G1 F1020 X-6.429 Y-19.793 E161.34509
G0 F2040 X-6.923 Y-19.793
G1 F1020 X20.593 Y7.724 E162.83432
G0 F2040 X20.417 Y8.042
G1 F1020 X-7.418 Y-19.793 E164.34078
G0 F2040 X-7.913 Y-19.793
G1 F1020 X20.24 Y8.361 E165.86449
G0 F2040 X20.064 Y8.679
G1 F1020 X-8.408 Y-19.793 E167.40543
G0 F2040 X-8.903 Y-19.793
G1 F1020 X19.887 Y8.997 E168.96358
G0 F2040 X19.71 Y9.316
G1 F1020 X-9.398 Y-19.793 E170.53897
G0 F2040 X-9.893 Y-19.793
G1 F1020 X19.534 Y9.635 E172.13162
G0 F2040 X19.357 Y9.953
G1 F1020 X-10.388 Y-19.793 E173.74149
G0 F2040 X-10.883 Y-19.793
G1 F1020 X19.18 Y10.271 E175.36856
G0 F2040 X19.004 Y10.589
G1 F1020 X-11.378 Y-19.793 E177.01287
G0 F2040 X-11.873 Y-19.793
G1 F1020 X18.827 Y10.907 E178.6744
G0 F2040 X18.651 Y11.226
G1 F1020 X-12.368 Y-19.793 E180.35318
G0 F2040 X-12.863 Y-19.793
G1 F1020 X18.474 Y11.544 E182.04918
G0 F2040 X18.297 Y11.863
G1 F1020 X-13.358 Y-19.793 E183.76242
G0 F2040 X-13.853 Y-19.793
G1 F1020 X18.121 Y12.181 E185.49289
G0 F2040 X17.944 Y12.5
G1 F1020 X-14.348 Y-19.793 E187.2406
G0 F2040 X-14.843 Y-19.793
G1 F1020 X17.768 Y12.818 E189.00555
G0 F2040 X17.591 Y13.136
G1 F1020 X-15.338 Y-19.793 E190.78771
G0 F2040 X-15.833 Y-19.793
G1 F1020 X17.414 Y13.454 E192.58708
G0 F2040 X17.238 Y13.773
G1 F1020 X-16.328 Y-19.793 E194.40372
G0 F2040 X-16.823 Y-19.793
G1 F1020 X17.061 Y14.091 E196.23756
G0 F2040 X16.885 Y14.41
G1 F1020 X-17.318 Y-19.793 E198.08867
G0 F2040 X-17.813 Y-19.793
G1 F1020 X16.708 Y14.728 E199.95699
G0 F2040 X16.532 Y15.047
G1 F1020 X-18.308 Y-19.793 E201.84258
G0 F2040 X-18.803 Y-19.793
G1 F1020 X16.355 Y15.365 E203.74537
G0 F2040 X16.178 Y15.683
G1 F1020 X-19.298 Y-19.793 E205.66538
G0 F2040 X-19.793 Y-19.793
G1 F1020 X16.001 Y16.001 E207.6026
G0 F2040 X15.825 Y16.32
G1 F1020 X-20.288 Y-19.793 E209.55708
G0 F2040 X-20.783 Y-19.793
G1 F1020 X15.648 Y16.638 E211.52877
G0 F2040 X15.472 Y16.957
