;FLAVOR:Marlin
;TIME:7355
;Filament used: 6.92382m
;Layer height: 0.2
;MINX:-53.969
;MINY:-48.974
;MINZ:0.26
;MAXX:56.25
;MAXY:47.073
;MAXZ:13.66
;Generated with Cura_SteamEngine 4.8.0
M82 ;absolute extrusion mode
;Gcode by Cura
G90
G28
M107
M109 R100
G30
M109 S215 U-55 X55 V-85 Y-85 W0.26 Z0.26
M82
G92 E0
G1 F200 E6
G92 E0
G1 F200 E-3.5
G0 Z0.15
G0 X10
G0 Z3
G1 F6000
G92 E0
G92 E0
G1 F3600 E-3.8
;LAYER_COUNT:68
;LAYER:0
M107
G0 F2040 X-1.984 Y-46.259 Z0.26
;TYPE:SKIRT
G1 F3600 E0
G1 F1020 X-1.651 Y-46.8 E0.02431
G1 X-1.301 Y-47.293 E0.04745
G1 X-.889 Y-47.735 E0.07057
G1 X-.422 Y-48.119 E0.09371
G1 X0.092 Y-48.439 E0.11688
G1 X0.643 Y-48.687 E0.14001
G1 X1.222 Y-48.861 E0.16314
G1 X1.819 Y-48.957 E0.18628
G1 X2.424 Y-48.974 E0.20945
G1 X3.025 Y-48.91 E0.23258
G1 X3.613 Y-48.768 E0.25573
G1 X4.176 Y-48.549 E0.27884
G1 X4.706 Y-48.258 E0.30198
G1 X5.193 Y-47.9 E0.32511
G1 X5.629 Y-47.481 E0.34826
G1 X6.136 Y-46.808 E0.3805
G1 X6.444 Y-46.292 E0.4035
G1 X55.324 Y39.631 E4.18658
G1 X55.68 Y40.275 E4.21474
G1 X55.937 Y40.822 E4.23786
G1 X56.119 Y41.398 E4.26098
G1 X56.224 Y41.994 E4.28414
G1 X56.25 Y42.598 E4.30728
G1 X56.195 Y43.2 E4.33041
G1 X56.062 Y43.79 E4.35356
G1 X55.852 Y44.357 E4.3767
G1 X55.569 Y44.891 E4.39983
G1 X55.218 Y45.384 E4.42299
G1 X54.805 Y45.826 E4.44614
G1 X54.338 Y46.209 E4.46925
G1 X53.824 Y46.528 E4.4924
G1 X53.272 Y46.775 E4.51554
G1 X52.693 Y46.949 E4.53868
G1 X51.849 Y47.06 E4.57126
G1 X51.19 Y47.073 E4.59648
G1 X-48.788 Y47.072 E8.42259
G1 X-49.464 Y47.062 E8.44847
G1 X-50.066 Y47.014 E8.47158
G1 X-50.657 Y46.886 E8.49472
G1 X-51.226 Y46.681 E8.51786
G1 X-51.763 Y46.403 E8.54101
G1 X-52.259 Y46.057 E8.56415
G1 X-52.704 Y45.648 E8.58728
G1 X-53.092 Y45.184 E8.61043
G1 X-53.415 Y44.673 E8.63356
G1 X-53.669 Y44.124 E8.65671
G1 X-53.847 Y43.546 E8.67986
G1 X-53.948 Y42.95 E8.70299
G1 X-53.969 Y42.346 E8.72612
G1 X-53.91 Y41.744 E8.74927
G1 X-53.773 Y41.155 E8.77241
G1 X-53.559 Y40.59 E8.79553
G1 X-53.377 Y40.234 E8.81083
G1 X-52.824 Y39.258 E8.85376
G1 X-1.984 Y-46.259 E12.66112
G0 F2040 X-1.686 Y-46.076
G1 F1020 X-1.353 Y-46.617 E12.68543
G1 X-1.015 Y-47.089 E12.70765
G1 X-.616 Y-47.511 E12.72987
G1 X-.162 Y-47.874 E12.75212
G1 X0.337 Y-48.172 E12.77436
G1 X0.872 Y-48.398 E12.79659
G1 X1.434 Y-48.548 E12.81885
G1 X2.01 Y-48.62 E12.84106
G1 X2.591 Y-48.613 E12.8633
G1 X3.166 Y-48.525 E12.88556
G1 X3.723 Y-48.36 E12.90779
G1 X4.252 Y-48.12 E12.93002
G1 X4.743 Y-47.81 E12.95225
G1 X5.187 Y-47.435 E12.97449
G1 X5.575 Y-47.002 E12.99674
G1 X5.907 Y-46.514 E13.01932
G1 X6.167 Y-46.07 E13.03901
G1 X55.018 Y39.8 E16.81978
G1 X55.374 Y40.444 E16.84794
G1 X55.619 Y40.971 E16.87018
G1 X55.79 Y41.526 E16.89241
G1 X55.883 Y42.099 E16.91462
G1 X55.897 Y42.68 E16.93686
G1 X55.83 Y43.258 E16.95913
G1 X55.685 Y43.82 E16.98134
G1 X55.465 Y44.358 E17.00359
G1 X55.172 Y44.86 E17.02583
G1 X54.814 Y45.317 E17.04805
G1 X54.396 Y45.721 E17.07029
G1 X53.927 Y46.064 E17.09253
G1 X53.415 Y46.339 E17.11477
G1 X52.87 Y46.541 E17.13701
G1 X52.303 Y46.666 E17.15923
G1 X51.704 Y46.715 E17.18223
G1 X51.186 Y46.723 E17.20206
G1 X-48.782 Y46.723 E21.02779
G1 X-49.458 Y46.713 E21.05366
G1 X-50.037 Y46.664 E21.0759
G1 X-50.604 Y46.537 E21.09813
G1 X-51.148 Y46.332 E21.12038
G1 X-51.659 Y46.056 E21.14261
G1 X-52.127 Y45.711 E21.16486
G1 X-52.544 Y45.306 E21.18711
G1 X-52.901 Y44.848 E21.20933
G1 X-53.191 Y44.345 E21.23155
G1 X-53.41 Y43.806 E21.25381
G1 X-53.553 Y43.243 E21.27604
G1 X-53.617 Y42.666 E21.29826
G1 X-53.602 Y42.085 E21.3205
G1 X-53.507 Y41.512 E21.34273
G1 X-53.334 Y40.957 E21.36498
G1 X-53.073 Y40.406 E21.38831
G1 X-52.523 Y39.437 E21.43095
G1 X-1.686 Y-46.076 E25.23812
G0 F2040 X-1.388 Y-45.892
G1 F1020 X-1.055 Y-46.433 E25.26243
G1 X-.73 Y-46.885 E25.28373
G1 X-.344 Y-47.285 E25.30501
G1 X0.096 Y-47.626 E25.32631
G1 X0.58 Y-47.901 E25.34761
G1 X1.098 Y-48.103 E25.36889
G1 X1.64 Y-48.229 E25.39019
G1 X2.195 Y-48.277 E25.41151
G1 X2.75 Y-48.244 E25.43278
G1 X3.295 Y-48.132 E25.45408
G1 X3.818 Y-47.943 E25.47536
G1 X4.309 Y-47.681 E25.49666
G1 X4.758 Y-47.352 E25.51796
G1 X5.154 Y-46.962 E25.53923
G1 X5.541 Y-46.44 E25.5641
G1 X5.839 Y-45.938 E25.58644
G1 X54.711 Y39.969 E29.36883
G1 X55.067 Y40.613 E29.39699
G1 X55.301 Y41.118 E29.41829
G1 X55.46 Y41.652 E29.43961
G1 X55.54 Y42.202 E29.46088
G1 X55.542 Y42.759 E29.4822
G1 X55.463 Y43.309 E29.50346
G1 X55.306 Y43.843 E29.52476
G1 X55.075 Y44.349 E29.54605
G1 X54.773 Y44.817 E29.56737
G1 X54.408 Y45.236 E29.58863
G1 X53.986 Y45.599 E29.60994
G1 X53.516 Y45.898 E29.63125
G1 X53.009 Y46.126 E29.65253
G1 X52.474 Y46.28 E29.67383
G1 X51.823 Y46.36 E29.69893
G1 X51.181 Y46.373 E29.72351
G1 X-48.777 Y46.373 E33.54885
G1 X-49.453 Y46.363 E33.57473
G1 X-50.008 Y46.314 E33.59605
G1 X-50.549 Y46.187 E33.61731
G1 X-51.067 Y45.984 E33.63861
G1 X-51.551 Y45.709 E33.65991
G1 X-51.99 Y45.367 E33.68121
G1 X-52.375 Y44.966 E33.70248
G1 X-52.7 Y44.513 E33.72382
G1 X-52.956 Y44.019 E33.74511
G1 X-53.138 Y43.494 E33.76637
G1 X-53.244 Y42.947 E33.7877
G1 X-53.27 Y42.392 E33.80896
G1 X-53.216 Y41.838 E33.83026
G1 X-53.084 Y41.297 E33.85157
G1 X-52.768 Y40.579 E33.88159
G1 X-52.222 Y39.616 E33.92396
G1 X-1.388 Y-45.892 E37.7309
G0 F2040 X-1.09 Y-45.709
G1 F1020 X-.757 Y-46.25 E37.75521
G1 X-.446 Y-46.679 E37.77549
G1 X-0.073 Y-47.058 E37.79584
G1 X0.352 Y-47.375 E37.81613
G1 X0.82 Y-47.626 E37.83646
G1 X1.32 Y-47.803 E37.85676
G1 X1.841 Y-47.904 E37.87706
G1 X2.371 Y-47.925 E37.89736
G1 X2.898 Y-47.866 E37.91766
G1 X3.411 Y-47.729 E37.93798
G1 X3.897 Y-47.516 E37.95828
G1 X4.346 Y-47.233 E37.9786
G1 X4.747 Y-46.885 E37.99892
G1 X5.091 Y-46.481 E38.01922
G1 X5.537 Y-45.761 E38.05163
G1 X54.405 Y40.139 E41.83372
G1 X54.761 Y40.783 E41.86188
G1 X54.982 Y41.265 E41.88217
G1 X55.128 Y41.775 E41.90247
G1 X55.196 Y42.301 E41.92277
G1 X55.184 Y42.832 E41.9431
G1 X55.093 Y43.355 E41.96341
G1 X54.924 Y43.858 E41.98372
G1 X54.682 Y44.33 E42.00402
G1 X54.371 Y44.76 E42.02433
G1 X53.999 Y45.139 E42.04465
G1 X53.575 Y45.458 E42.06496
G1 X53.108 Y45.709 E42.08525
G1 X52.608 Y45.888 E42.10557
G1 X52.087 Y45.989 E42.12588
G1 X51.587 Y46.018 E42.14505
G1 X51.177 Y46.023 E42.16074
G1 X-48.772 Y46.023 E45.98574
G1 X-49.448 Y46.013 E46.01161
G1 X-49.977 Y45.965 E46.03194
G1 X-50.492 Y45.838 E46.05224
G1 X-50.983 Y45.636 E46.07256
G1 X-51.437 Y45.362 E46.09285
G1 X-51.845 Y45.023 E46.11315
G1 X-52.198 Y44.627 E46.13345
G1 X-52.487 Y44.182 E46.15376
G1 X-52.707 Y43.698 E46.1741
G1 X-52.851 Y43.188 E46.19438
G1 X-52.917 Y42.661 E46.21471
G1 X-52.903 Y42.131 E46.235
G1 X-52.809 Y41.608 E46.25534
G1 X-52.639 Y41.106 E46.27562
G1 X-52.464 Y40.751 E46.29077
G1 X-51.959 Y39.859 E46.32999
G1 X-1.09 Y-45.709 E50.1396
G0 F2040 X-.792 Y-45.525
G1 F1020 X-.459 Y-46.066 E50.16391
G1 X-.162 Y-46.473 E50.18319
G1 X0.196 Y-46.827 E50.20246
G1 X0.605 Y-47.121 E50.22173
G1 X1.056 Y-47.346 E50.24102
G1 X1.536 Y-47.497 E50.26028
G1 X2.034 Y-47.57 E50.27954
G1 X2.538 Y-47.563 E50.29883
G1 X3.034 Y-47.477 E50.31809
G1 X3.51 Y-47.314 E50.33735
G1 X3.955 Y-47.077 E50.35664
G1 X4.356 Y-46.773 E50.3759
G1 X4.705 Y-46.41 E50.39517
G1 X5.014 Y-45.961 E50.41603
G1 X5.255 Y-45.551 E50.43423
G1 X54.099 Y40.308 E54.2145
G1 X54.455 Y40.952 E54.24266
G1 X54.663 Y41.411 E54.26194
G1 X54.795 Y41.896 E54.28118
G1 X54.85 Y42.397 E54.30047
G1 X54.824 Y42.9 E54.31974
G1 X54.719 Y43.393 E54.33903
G1 X54.538 Y43.862 E54.35827
G1 X54.285 Y44.298 E54.37756
G1 X53.966 Y44.687 E54.39682
G1 X53.589 Y45.022 E54.41612
G1 X53.165 Y45.292 E54.43535
G1 X52.703 Y45.492 E54.45462
G1 X52.215 Y45.617 E54.4739
G1 X51.664 Y45.666 E54.49507
G1 X51.173 Y45.673 E54.51386
G1 X-48.767 Y45.673 E58.33852
G1 X-49.443 Y45.663 E58.36439
G1 X-49.944 Y45.615 E58.38365
G1 X-50.432 Y45.489 E58.40294
G1 X-50.893 Y45.288 E58.42218
G1 X-51.317 Y45.016 E58.44146
G1 X-51.693 Y44.68 E58.46076
G1 X-52.01 Y44.289 E58.48002
G1 X-52.262 Y43.853 E58.49929
G1 X-52.442 Y43.383 E58.51855
G1 X-52.545 Y42.89 E58.53783
G1 X-52.569 Y42.387 E58.5571
G1 X-52.514 Y41.887 E58.57635
G1 X-52.379 Y41.401 E58.59565
G1 X-52.159 Y40.924 E58.61576
G1 X-51.62 Y39.974 E58.65756
G1 X-.792 Y-45.525 E62.46409
G1 F3600 E58.66409
;MESH:support_tri_0_020.stl
G0 F2040 X1.349 Y-44.214
G0 X2.238 Y-43.686
G0 X50.79 Y41.973
;TYPE:WALL-INNER
G1 F3600 E62.46409
G1 F1020 X-48.504 Y41.973 E66.26402
G1 X2.235 Y-43.377 E70.06391
G1 X50.79 Y41.973 E73.82178
G0 F2040 X51.348 Y42.298
;TYPE:WALL-OUTER
G1 F1020 X-49.075 Y42.298 E77.66492
G1 X2.241 Y-44.023 E81.50803
G1 X51.348 Y42.298 E85.30864
G0 F2040 X51.148 Y42.298
G0 X51.005 Y42.098
G0 X50.205 Y41.633
;TYPE:SKIN
G1 F1020 X-47.907 Y41.633 E89.06334
G1 X2.228 Y-42.701 E92.818
G1 X50.205 Y41.633 E96.53113
G0 F2040 X2.199 Y-42.347
G1 F1020 X2.31 Y-42.236 E96.53714
G0 F2040 X2.015 Y-42.037
G1 F1020 X2.964 Y-41.088 E96.5885
G1 X3.026 Y-41.026
G0 F2040 X1.83 Y-41.727
G1 F1020 X3.616 Y-39.94 E96.68519
G1 X3.678 Y-39.878
G0 F2040 X4.27 Y-38.792
G1 F1020 X1.646 Y-41.416 E96.8272
G0 F2040 X1.461 Y-41.106
G1 F1020 X4.923 Y-37.644 E97.01457
G1 X4.985 Y-37.582
G0 F2040 X5.576 Y-36.495
G1 F1020 X1.277 Y-40.795 E97.24726
G0 F2040 X1.092 Y-40.485
G1 F1020 X6.229 Y-35.348 E97.52528
G1 X6.291 Y-35.286
G0 F2040 X6.882 Y-34.199
G1 F1020 X0.907 Y-40.174 E97.84866
G0 F2040 X0.723 Y-39.864
G1 F1020 X7.536 Y-33.051 E98.21739
G1 X7.598 Y-32.989
G0 F2040 X8.189 Y-31.903
G1 F1020 X0.538 Y-39.554 E98.63147
G0 F2040 X0.354 Y-39.243
G1 F1020 X8.842 Y-30.755 E99.09085
G1 X8.904 Y-30.693
G0 F2040 X9.495 Y-29.607
G1 F1020 X0.169 Y-38.933 E99.59559
G0 F2040 X-0.014 Y-38.622
G1 F1020 X10.149 Y-28.458 E100.14565
G1 X10.211 Y-28.396
G0 F2040 X10.801 Y-27.311
G1 F1020 X-.199 Y-38.312 E100.74101
G0 F2040 X-.383 Y-38.002
G1 F1020 X11.455 Y-26.162 E101.38175
G1 X11.517 Y-26.1
G0 F2040 X12.108 Y-25.014
G1 F1020 X-.568 Y-37.691 E102.06782
G0 F2040 X-.753 Y-37.381
G1 F1020 X12.761 Y-23.866 E102.79924
G1 X12.823 Y-23.804
G0 F2040 X13.414 Y-22.718
G1 F1020 X-.937 Y-37.07 E103.57596
G0 F2040 X-1.122 Y-36.76
G1 F1020 X14.067 Y-21.57 E104.39804
G1 X14.129 Y-21.508
G0 F2040 X14.721 Y-20.421
G1 F1020 X-1.306 Y-36.449 E105.26547
G0 F2040 X-1.49 Y-36.138
G1 F1020 X15.374 Y-19.273 E106.17819
G1 X15.436 Y-19.211
G0 F2040 X16.027 Y-18.125
G1 F1020 X-1.675 Y-35.828 E107.13628
G0 F2040 X-1.859 Y-35.517
G1 F1020 X16.68 Y-16.977 E108.13966
G1 X16.742 Y-16.915
G0 F2040 X17.334 Y-15.829
G1 F1020 X-2.044 Y-35.207 E109.18842
G0 F2040 X-2.228 Y-34.897
G1 F1020 X17.986 Y-14.681 E110.28248
G1 X18.048 Y-14.619
G0 F2040 X18.64 Y-13.533
G1 F1020 X-2.413 Y-34.586 E111.4219
G0 F2040 X-2.597 Y-34.276
G1 F1020 X19.293 Y-12.384 E112.60666
G1 X19.355 Y-12.322
G0 F2040 X19.946 Y-11.236
G1 F1020 X-2.782 Y-33.965 E113.83676
G0 F2040 X-2.967 Y-33.655
G1 F1020 X20.599 Y-10.088 E115.11221
G1 X20.661 Y-10.026
G0 F2040 X21.252 Y-8.94
G1 F1020 X-3.151 Y-33.345 E116.43298
G0 F2040 X-3.336 Y-33.034
G1 F1020 X21.906 Y-7.792 E117.79911
G1 X21.968 Y-7.73
G0 F2040 X22.559 Y-6.643
G1 F1020 X-3.52 Y-32.724 E119.2106
G0 F2040 X-3.705 Y-32.413
G1 F1020 X23.212 Y-5.496 E120.66738
G1 X23.274 Y-5.434
G0 F2040 X23.865 Y-4.347
G1 F1020 X-3.889 Y-32.103 E122.16951
G0 F2040 X-4.074 Y-31.792
G1 F1020 X24.518 Y-3.199 E123.71698
G1 X24.58 Y-3.137
G0 F2040 X25.172 Y-2.051
G1 F1020 X-4.258 Y-31.482 E125.30979
G0 F2040 X-4.443 Y-31.172
G1 F1020 X25.824 Y-.903 E126.94794
G1 X25.886 Y-.841
G0 F2040 X26.478 Y0.244
G1 F1020 X-4.628 Y-30.861 E128.63141
G0 F2040 X-4.812 Y-30.551
G1 F1020 X27.131 Y1.393 E130.36023
G1 X27.193 Y1.455
G0 F2040 X27.784 Y2.54
G1 F1020 X-4.997 Y-30.24 E132.13435
G0 F2040 X-5.181 Y-29.93
G1 F1020 X28.437 Y3.688 E133.9538
G1 X28.499 Y3.75
G0 F2040 X29.091 Y4.837
G1 F1020 X-5.366 Y-29.619 E135.81863
G0 F2040 X-5.55 Y-29.309
G1 F1020 X29.744 Y5.985 E137.72879
G1 X29.806 Y6.047
G0 F2040 X30.397 Y7.133
G1 F1020 X-5.735 Y-28.999 E139.6843
G0 F2040 X-5.919 Y-28.688
G1 F1020 X31.05 Y8.281 E141.68511
G1 X31.112 Y8.343
G0 F2040 X31.703 Y9.429
G1 F1020 X-6.104 Y-28.378 E143.73127
G0 F2040 X-6.289 Y-28.067
G1 F1020 X32.357 Y10.578 E145.82281
G1 X32.419 Y10.64
G0 F2040 X33.009 Y11.725
G1 F1020 X-6.473 Y-27.757 E147.95963
G0 F2040 X-6.658 Y-27.447
G1 F1020 X33.663 Y12.874 E150.14185
G1 X33.725 Y12.936
G0 F2040 X34.316 Y14.022
G1 F1020 X-6.842 Y-27.136 E152.36938
G0 F2040 X-7.027 Y-26.826
G1 F1020 X34.969 Y15.17 E154.64225
G1 X35.031 Y15.232
G0 F2040 X35.622 Y16.318
G1 F1020 X-7.211 Y-26.515 E156.96043
G0 F2040 X-7.396 Y-26.205
G1 F1020 X36.275 Y17.466 E159.32396
G1 X36.337 Y17.528
G0 F2040 X36.929 Y18.615
G1 F1020 X-7.58 Y-25.894 E161.73284
G0 F2040 X-7.765 Y-25.584
G1 F1020 X37.582 Y19.762 E164.18705
G1 X37.644 Y19.824
G0 F2040 X38.235 Y20.911
G1 F1020 X-7.95 Y-25.274 E166.68664
G0 F2040 X-8.134 Y-24.963
G1 F1020 X38.888 Y22.059 E169.23153
G1 X38.95 Y22.121
G0 F2040 X39.542 Y23.207
G1 F1020 X-8.319 Y-24.653 E171.82181
G0 F2040 X-8.503 Y-24.342
G1 F1020 X40.194 Y24.355 E174.45735
G1 X40.256 Y24.417
G0 F2040 X40.848 Y25.503
G1 F1020 X-8.688 Y-24.032 E177.13827
G0 F2040 X-8.872 Y-23.722
G1 F1020 X41.501 Y26.652 E179.86455
G1 X41.563 Y26.714
G0 F2040 X42.154 Y27.8
G1 F1020 X-9.057 Y-23.411 E182.63616
G0 F2040 X-9.241 Y-23.101
G1 F1020 X42.807 Y28.948 E185.45309
G1 X42.869 Y29.01
G0 F2040 X43.46 Y30.096
G1 F1020 X-9.426 Y-22.79 E188.31535
G0 F2040 X-9.61 Y-22.48
G1 F1020 X44.114 Y31.244 E191.22296
G1 X44.176 Y31.306
G0 F2040 X44.766 Y32.392
G1 F1020 X-9.795 Y-22.169 E194.17587
G0 F2040 X-9.98 Y-21.859
G1 F1020 X45.42 Y33.54 E197.17416
G1 X45.482 Y33.602
G0 F2040 X46.073 Y34.689
G1 F1020 X-10.164 Y-21.549 E200.2178
G0 F2040 X-10.349 Y-21.238
G1 F1020 X46.727 Y35.837 E203.3068
G1 X46.789 Y35.899
G0 F2040 X47.379 Y36.985
G1 F1020 X-10.533 Y-20.928 E206.4411
G0 F2040 X-10.718 Y-20.617
G1 F1020 X48.033 Y38.133 E209.62075
G1 X48.095 Y38.195
G0 F2040 X48.686 Y39.281
G1 F1020 X-10.902 Y-20.307 E212.84573
G0 F2040 X-11.087 Y-19.996
G1 F1020 X49.339 Y40.43 E216.11606
G1 X49.401 Y40.492
G0 F2040 X49.395 Y41.476
G1 F1020 X-11.456 Y-19.376 E219.40942
G0 F2040 X-11.271 Y-19.686
G1 F1020 X49.89 Y41.476 E222.71956
G1 X49.952 Y41.538
G0 F2040 X48.9 Y41.476
G1 F1020 X-11.641 Y-19.065 E225.99612
G0 F2040 X-11.825 Y-18.755
G1 F1020 X48.405 Y41.476 E229.25587
G0 F2040 X47.91 Y41.476
G1 F1020 X-12.01 Y-18.444 E232.49882
G0 F2040 X-12.194 Y-18.134
G1 F1020 X47.415 Y41.476 E235.72496
G0 F2040 X46.92 Y41.476
G1 F1020 X-12.379 Y-17.824 E238.93432
G0 F2040 X-12.563 Y-17.513
G1 F1020 X46.425 Y41.476 E242.12686
G0 F2040 X45.93 Y41.476
G1 F1020 X-12.747 Y-17.202 E245.30256
G0 F2040 X-12.932 Y-16.892
G1 F1020 X45.435 Y41.476 E248.46148
G0 F2040 X44.94 Y41.476
G1 F1020 X-13.116 Y-16.581 E251.60357
G0 F2040 X-13.301 Y-16.271
G1 F1020 X44.445 Y41.476 E254.72889
G0 F2040 X43.95 Y41.476
G1 F1020 X-13.485 Y-15.96 E257.83737
G0 F2040 X-13.67 Y-15.65
G1 F1020 X43.455 Y41.476 E260.92907
G0 F2040 X42.96 Y41.476
G1 F1020 X-13.855 Y-15.339 E264.00397
G0 F2040 X-14.039 Y-15.029
G1 F1020 X42.466 Y41.476 E267.0621
G0 F2040 X41.971 Y41.476
G1 F1020 X-14.224 Y-14.719 E270.10344
G0 F2040 X-14.408 Y-14.408
G1 F1020 X41.476 Y41.476 E273.12796
G0 F2040 X40.981 Y41.476
G1 F1020 X-14.593 Y-14.098 E276.13569
G0 F2040 X-14.777 Y-13.787
G1 F1020 X40.486 Y41.476 E279.12659
G0 F2040 X39.991 Y41.476
G1 F1020 X-14.962 Y-13.477 E282.10072
G0 F2040 X-15.146 Y-13.167
G1 F1020 X39.496 Y41.476 E285.05804
G0 F2040 X39.001 Y41.476
G1 F1020 X-15.331 Y-12.856 E287.99856
G0 F2040 X-15.516 Y-12.546
G1 F1020 X38.506 Y41.476 E290.9223
G0 F2040 X38.011 Y41.476
G1 F1020 X-15.7 Y-12.235 E293.82921
G0 F2040 X-15.885 Y-11.925
G1 F1020 X37.516 Y41.476 E296.71934
G0 F2040 X37.021 Y41.476
G1 F1020 X-16.069 Y-11.614 E299.59264
G0 F2040 X-16.254 Y-11.304
G1 F1020 X36.526 Y41.476 E302.44916
G0 F2040 X36.031 Y41.476
G1 F1020 X-16.438 Y-10.994 E305.28887
G0 F2040 X-16.623 Y-10.683
G1 F1020 X35.536 Y41.476 E308.11178
G0 F2040 X35.041 Y41.476
G1 F1020 X-16.807 Y-10.373 E310.91789
G0 F2040 X-16.992 Y-10.062
G1 F1020 X34.546 Y41.476 E313.70719
G0 F2040 X34.051 Y41.476
G1 F1020 X-17.177 Y-9.752 E316.47972
G0 F2040 X-17.361 Y-9.441
G1 F1020 X33.556 Y41.476 E319.23541
G0 F2040 X33.061 Y41.476
G1 F1020 X-17.546 Y-9.131 E321.97433
