;FLAVOR:Marlin
;TIME:7372
;Filament used: 6.9281m
;Layer height: 0.2
;MINX:-42.058
;MINY:-25.885
;MINZ:0.26
;MAXX:67.056
;MAXY:71.125
;MAXZ:13.66
;Generated with Cura_SteamEngine 4.8.0
M82 ;absolute extrusion mode
;Gcode by Cura
G90
G28
M107
M109 R100
G30
M109 S215 U-55 X55 V-85 Y-85 W0.26 Z0.26
M82
G92 E0
G1 F200 E6
G92 E0
G1 F200 E-3.5
G0 Z0.15
G0 X10
G0 Z3
G1 F6000
G92 E0
G92 E0
G1 F3600 E-3.8
;LAYER_COUNT:68
;LAYER:0
M107
G0 F2040 X-41.166 Y-18.503 Z0.26
;TYPE:SKIRT
G1 F3600 E0
G1 F1020 X-41.491 Y-19.093 E0.02578
G1 X-41.747 Y-19.64 E0.04889
G1 X-41.929 Y-20.217 E0.07204
G1 X-42.033 Y-20.813 E0.0952
G1 X-42.058 Y-21.417 E0.11833
G1 X-42.002 Y-22.019 E0.14147
G1 X-41.868 Y-22.609 E0.16462
G1 X-41.657 Y-23.175 E0.18774
G1 X-41.373 Y-23.709 E0.21089
G1 X-41.022 Y-24.201 E0.23402
G1 X-40.608 Y-24.642 E0.25716
G1 X-40.14 Y-25.025 E0.28031
G1 X-39.626 Y-25.343 E0.30344
G1 X-39.074 Y-25.59 E0.32658
G1 X-38.494 Y-25.762 E0.34973
G1 X-37.655 Y-25.872 E0.38212
G1 X-36.998 Y-25.885 E0.40726
G1 X61.859 Y-25.885 E4.19047
G1 X62.549 Y-25.875 E4.21688
G1 X63.152 Y-25.826 E4.24004
G1 X63.743 Y-25.698 E4.26318
G1 X64.312 Y-25.494 E4.28631
G1 X64.849 Y-25.216 E4.30945
G1 X65.345 Y-24.869 E4.33262
G1 X65.79 Y-24.461 E4.35572
G1 X66.178 Y-23.997 E4.37887
G1 X66.502 Y-23.486 E4.40202
G1 X66.755 Y-22.937 E4.42516
G1 X66.934 Y-22.359 E4.44831
G1 X67.034 Y-21.763 E4.47144
G1 X67.056 Y-21.159 E4.49457
G1 X66.997 Y-20.557 E4.51772
G1 X66.86 Y-19.968 E4.54086
G1 X66.566 Y-19.236 E4.57105
G1 X66.24 Y-18.633 E4.59728
G1 X16.79 Y68.295 E8.42458
G1 X16.448 Y68.875 E8.45034
G1 X16.107 Y69.374 E8.47347
G1 X15.703 Y69.824 E8.49662
G1 X15.244 Y70.217 E8.51974
G1 X14.736 Y70.546 E8.5429
G1 X14.19 Y70.805 E8.56603
G1 X13.614 Y70.99 E8.58918
G1 X13.019 Y71.097 E8.61232
G1 X12.415 Y71.125 E8.63546
G1 X11.813 Y71.073 E8.65858
G1 X11.223 Y70.942 E8.68171
G1 X10.655 Y70.734 E8.70486
G1 X10.119 Y70.453 E8.72802
G1 X9.625 Y70.104 E8.75117
G1 X9.182 Y69.693 E8.77429
G1 X8.797 Y69.228 E8.7974
G1 X8.58 Y68.898 E8.81251
G1 X8.01 Y67.943 E8.85507
G1 X-41.166 Y-18.503 E12.66115
G0 F2040 X-40.86 Y-18.671
G1 F1020 X-41.185 Y-19.261 E12.68693
G1 X-41.429 Y-19.788 E12.70915
G1 X-41.599 Y-20.344 E12.7314
G1 X-41.692 Y-20.918 E12.75365
G1 X-41.704 Y-21.499 E12.77589
G1 X-41.637 Y-22.076 E12.79812
G1 X-41.491 Y-22.638 E12.82034
G1 X-41.27 Y-23.175 E12.84257
G1 X-40.977 Y-23.677 E12.86481
G1 X-40.618 Y-24.134 E12.88705
G1 X-40.199 Y-24.537 E12.9093
G1 X-39.729 Y-24.879 E12.93154
G1 X-39.217 Y-25.153 E12.95377
G1 X-38.672 Y-25.354 E12.976
G1 X-38.105 Y-25.479 E12.99822
G1 X-37.508 Y-25.527 E13.02114
G1 X-36.994 Y-25.535 E13.04081
G1 X61.854 Y-25.535 E16.82368
G1 X62.544 Y-25.525 E16.85009
G1 X63.123 Y-25.476 E16.87232
G1 X63.69 Y-25.349 E16.89456
G1 X64.234 Y-25.145 E16.91679
G1 X64.745 Y-24.868 E16.93904
G1 X65.213 Y-24.524 E16.96127
G1 X65.63 Y-24.119 E16.98351
G1 X65.987 Y-23.661 E17.00574
G1 X66.278 Y-23.158 E17.02797
G1 X66.497 Y-22.62 E17.0502
G1 X66.64 Y-22.056 E17.07247
G1 X66.704 Y-21.479 E17.09469
G1 X66.689 Y-20.898 E17.11693
G1 X66.594 Y-20.325 E17.13916
G1 X66.421 Y-19.77 E17.1614
G1 X66.208 Y-19.305 E17.18098
G1 X65.934 Y-18.803 E17.20286
G1 X16.488 Y68.117 E21.02982
G1 X16.146 Y68.697 E21.05558
G1 X15.818 Y69.176 E21.0778
G1 X15.426 Y69.605 E21.10004
G1 X14.979 Y69.977 E21.12229
G1 X14.486 Y70.284 E21.14452
G1 X13.955 Y70.52 E21.16676
G1 X13.397 Y70.681 E21.18898
G1 X12.822 Y70.764 E21.21122
G1 X12.241 Y70.768 E21.23345
G1 X11.665 Y70.691 E21.25569
G1 X11.105 Y70.537 E21.27792
G1 X10.571 Y70.306 E21.30018
G1 X10.074 Y70.005 E21.32242
G1 X9.623 Y69.639 E21.34465
G1 X9.227 Y69.214 E21.36688
G1 X8.88 Y68.719 E21.39001
G1 X8.36 Y67.849 E21.4288
G1 X-40.86 Y-18.671 E25.23817
G0 F2040 X-40.553 Y-18.84
G1 F1020 X-40.878 Y-19.43 E25.26395
G1 X-41.111 Y-19.936 E25.28527
G1 X-41.269 Y-20.469 E25.30654
G1 X-41.349 Y-21.02 E25.32785
G1 X-41.349 Y-21.576 E25.34913
G1 X-41.27 Y-22.127 E25.37043
G1 X-41.112 Y-22.661 E25.39174
G1 X-40.88 Y-23.166 E25.41301
G1 X-40.578 Y-23.633 E25.43429
G1 X-40.212 Y-24.052 E25.45558
G1 X-39.789 Y-24.415 E25.47691
G1 X-39.319 Y-24.713 E25.49821
G1 X-38.812 Y-24.94 E25.51947
G1 X-38.277 Y-25.093 E25.54077
G1 X-37.628 Y-25.172 E25.56579
G1 X-36.989 Y-25.185 E25.59025
G1 X61.849 Y-25.185 E29.37273
G1 X62.539 Y-25.175 E29.39914
G1 X63.093 Y-25.127 E29.42042
G1 X63.635 Y-25 E29.44172
G1 X64.153 Y-24.797 E29.46301
G1 X64.637 Y-24.521 E29.48434
G1 X65.076 Y-24.18 E29.50561
G1 X65.462 Y-23.779 E29.52691
G1 X65.786 Y-23.326 E29.54822
G1 X66.042 Y-22.832 E29.56952
G1 X66.225 Y-22.307 E29.59079
G1 X66.331 Y-21.761 E29.61208
G1 X66.357 Y-21.205 E29.63338
G1 X66.303 Y-20.651 E29.65468
G1 X66.171 Y-20.111 E29.67596
G1 X65.941 Y-19.552 E29.69909
G1 X65.628 Y-18.972 E29.72431
G1 X16.187 Y67.939 E33.55087
G1 X15.845 Y68.519 E33.57663
G1 X15.529 Y68.977 E33.59793
G1 X15.15 Y69.385 E33.61924
G1 X14.717 Y69.734 E33.64052
G1 X14.238 Y70.018 E33.66183
G1 X13.724 Y70.23 E33.68311
G1 X13.184 Y70.366 E33.70442
G1 X12.631 Y70.424 E33.7257
G1 X12.075 Y70.402 E33.747
G1 X11.528 Y70.3 E33.76829
G1 X11.001 Y70.121 E33.78959
G1 X10.505 Y69.869 E33.81088
G1 X10.051 Y69.548 E33.83216
G1 X9.647 Y69.165 E33.85346
G1 X9.181 Y68.539 E33.88333
G1 X8.619 Y67.597 E33.92531
G1 X-40.553 Y-18.84 E37.73101
G0 F2040 X-40.247 Y-19.009
G1 F1020 X-40.572 Y-19.599 E37.75679
G1 X-40.792 Y-20.082 E37.7771
G1 X-40.937 Y-20.592 E37.79739
G1 X-41.004 Y-21.119 E37.81772
G1 X-40.992 Y-21.649 E37.83801
G1 X-40.899 Y-22.172 E37.85834
G1 X-40.73 Y-22.675 E37.87864
G1 X-40.487 Y-23.146 E37.89893
G1 X-40.176 Y-23.576 E37.91923
G1 X-39.803 Y-23.954 E37.93956
G1 X-39.379 Y-24.273 E37.95986
G1 X-38.911 Y-24.523 E37.98017
G1 X-38.411 Y-24.701 E38.00048
G1 X-37.89 Y-24.802 E38.02079
G1 X-36.985 Y-24.835 E38.05545
G1 X61.844 Y-24.835 E41.83758
G1 X62.534 Y-24.825 E41.86399
G1 X63.063 Y-24.777 E41.88432
G1 X63.578 Y-24.651 E41.90461
G1 X64.069 Y-24.448 E41.92494
G1 X64.523 Y-24.175 E41.94522
G1 X64.932 Y-23.836 E41.96555
G1 X65.284 Y-23.439 E41.98585
G1 X65.574 Y-22.995 E42.00615
G1 X65.793 Y-22.511 E42.02648
G1 X65.938 Y-22.001 E42.04677
G1 X66.004 Y-21.474 E42.06709
G1 X65.99 Y-20.944 E42.08738
G1 X65.897 Y-20.421 E42.10771
G1 X65.629 Y-19.709 E42.13683
G1 X65.321 Y-19.142 E42.16152
G1 X15.913 Y67.714 E45.98562
G1 X15.543 Y68.341 E46.01349
G1 X15.24 Y68.777 E46.0338
G1 X14.875 Y69.162 E46.05411
G1 X14.456 Y69.488 E46.07442
G1 X13.993 Y69.747 E46.09473
G1 X13.497 Y69.934 E46.11501
G1 X12.978 Y70.044 E46.13532
G1 X12.448 Y70.076 E46.15563
G1 X11.919 Y70.027 E46.17597
G1 X11.404 Y69.899 E46.19627
G1 X10.914 Y69.696 E46.21657
G1 X10.46 Y69.421 E46.23689
G1 X10.053 Y69.081 E46.25718
G1 X9.701 Y68.684 E46.27749
G1 X9.481 Y68.359 E46.29251
G1 X8.923 Y67.424 E46.33417
G1 X-40.247 Y-19.009 E50.1397
G0 F2040 X-39.94 Y-19.178
G1 F1020 X-40.265 Y-19.768 E50.16548
G1 X-40.472 Y-20.227 E50.18475
G1 X-40.604 Y-20.713 E50.20402
G1 X-40.658 Y-21.214 E50.22331
G1 X-40.632 Y-21.717 E50.24258
G1 X-40.526 Y-22.209 E50.26184
G1 X-40.344 Y-22.679 E50.28113
G1 X-40.09 Y-23.114 E50.30041
G1 X-39.771 Y-23.503 E50.31966
G1 X-39.394 Y-23.837 E50.33894
G1 X-38.968 Y-24.107 E50.35824
G1 X-38.506 Y-24.306 E50.37749
G1 X-38.018 Y-24.43 E50.39676
G1 X-37.468 Y-24.478 E50.41789
G1 X-36.981 Y-24.485 E50.43653
G1 X61.839 Y-24.485 E54.21832
G1 X62.529 Y-24.475 E54.24473
G1 X63.03 Y-24.427 E54.26399
G1 X63.518 Y-24.302 E54.28327
G1 X63.98 Y-24.1 E54.30256
G1 X64.403 Y-23.828 E54.32181
G1 X64.779 Y-23.493 E54.34108
G1 X65.097 Y-23.102 E54.36037
G1 X65.349 Y-22.666 E54.37964
G1 X65.529 Y-22.196 E54.3989
G1 X65.632 Y-21.703 E54.41818
G1 X65.656 Y-21.2 E54.43745
G1 X65.601 Y-20.7 E54.4567
G1 X65.467 Y-20.214 E54.47599
G1 X65.215 Y-19.672 E54.49887
G1 X64.998 Y-19.28 E54.51601
G1 X15.584 Y67.584 E58.34049
G1 X15.242 Y68.164 E58.36626
G1 X14.953 Y68.576 E58.38552
G1 X14.602 Y68.937 E58.40479
G1 X14.198 Y69.238 E58.42407
G1 X13.752 Y69.472 E58.44335
G1 X13.274 Y69.632 E58.46264
G1 X12.778 Y69.714 E58.48188
G1 X12.274 Y69.717 E58.50116
G1 X11.776 Y69.641 E58.52044
G1 X11.297 Y69.486 E58.53971
G1 X10.848 Y69.258 E58.55898
G1 X10.441 Y68.962 E58.57824
G1 X10.086 Y68.605 E58.59751
G1 X9.782 Y68.18 E58.6175
G1 X9.227 Y67.251 E58.65892
G1 X-39.94 Y-19.178 E62.46426
G1 F3600 E58.66426
;MESH:support_tri_0_021.stl
G0 F2040 X-37.757 Y-20.418
G0 X-36.876 Y-20.92
G0 X12.5 Y65.52
;TYPE:WALL-INNER
G1 F3600 E62.46426
G1 F1020 X-36.598 Y-20.785 E66.26417
G1 X61.598 Y-20.785 E70.02208
G1 X12.5 Y65.52 E73.82199
G0 F2040 X12.5 Y66.177
;TYPE:WALL-OUTER
G1 F1020 X-37.156 Y-21.11 E77.66512
G1 X62.156 Y-21.11 E81.46574
G1 X12.5 Y66.177 E85.30887
G0 F2040 X12.402 Y66.004
G0 X12.489 Y65.956
G0 X12.5 Y64.833
;TYPE:SKIN
G1 F1020 X-36.013 Y-20.445 E89.06355
G1 X61.013 Y-20.445 E92.77669
G1 X12.5 Y64.833 E96.53137
G0 F2040 X12.515 Y64.488
G1 F1020 X12.445 Y64.417 E96.53518
G0 F2040 X12.695 Y64.172
G1 F1020 X11.791 Y63.269 E96.58408
G1 X11.729 Y63.207
G0 F2040 X12.874 Y63.856
G1 F1020 X11.139 Y62.121 E96.67798
G1 X11.077 Y62.059
G0 F2040 X10.485 Y60.973
G1 F1020 X13.053 Y63.541 E96.81696
G0 F2040 X13.233 Y63.225
G1 F1020 X9.832 Y59.824 E97.00103
G1 X9.77 Y59.762
G0 F2040 X9.179 Y58.677
G1 F1020 X13.413 Y62.91 E97.23015
G0 F2040 X13.592 Y62.595
G1 F1020 X8.526 Y57.528 E97.50436
G1 X8.464 Y57.466
G0 F2040 X7.872 Y56.38
G1 F1020 X13.772 Y62.279 E97.82365
G0 F2040 X13.951 Y61.963
G1 F1020 X7.22 Y55.232 E98.18794
G1 X7.158 Y55.17
G0 F2040 X6.566 Y54.084
G1 F1020 X14.13 Y61.648 E98.59731
G0 F2040 X14.31 Y61.333
G1 F1020 X5.913 Y52.936 E99.05177
G1 X5.851 Y52.874
G0 F2040 X5.26 Y51.788
G1 F1020 X14.49 Y61.017 E99.55128
G0 F2040 X14.669 Y60.702
G1 F1020 X4.607 Y50.64 E100.09585
G1 X4.545 Y50.578
G0 F2040 X3.954 Y49.491
G1 F1020 X14.848 Y60.386 E100.68547
G0 F2040 X15.028 Y60.07
G1 F1020 X3.3 Y48.343 E101.32018
G1 X3.238 Y48.281
G0 F2040 X2.648 Y47.195
G1 F1020 X15.207 Y59.755 E101.99992
G0 F2040 X15.387 Y59.44
G1 F1020 X1.994 Y46.047 E102.72476
G1 X1.932 Y45.985
G0 F2040 X1.341 Y44.899
G1 F1020 X15.566 Y59.124 E103.49464
G0 F2040 X15.746 Y58.809
G1 F1020 X0.688 Y43.751 E104.30959
G1 X0.626 Y43.689
G0 F2040 X0.035 Y42.603
G1 F1020 X15.925 Y58.493 E105.16958
G0 F2040 X16.105 Y58.177
G1 F1020 X-.618 Y41.454 E106.07465
G1 X-.68 Y41.392
G0 F2040 X-1.27 Y40.307
G1 F1020 X16.284 Y57.862 E107.02472
G0 F2040 X16.464 Y57.547
G1 F1020 X-1.924 Y39.158 E108.01993
G1 X-1.986 Y39.096
G0 F2040 X-2.577 Y38.01
G1 F1020 X16.643 Y57.231 E109.06017
G0 F2040 X16.823 Y56.916
G1 F1020 X-3.23 Y36.862 E110.14549
G1 X-3.292 Y36.8
G0 F2040 X-3.883 Y35.714
G1 F1020 X17.002 Y56.6 E111.27584
G0 F2040 X17.181 Y56.284
G1 F1020 X-4.536 Y34.566 E112.45122
G1 X-4.598 Y34.504
G0 F2040 X-5.19 Y33.417
G1 F1020 X17.361 Y55.969 E113.67174
G0 F2040 X17.541 Y55.654
G1 F1020 X-5.842 Y32.27 E114.93728
G1 X-5.904 Y32.208
G0 F2040 X-6.496 Y31.121
G1 F1020 X17.72 Y55.338 E116.24791
G0 F2040 X17.899 Y55.022
G1 F1020 X-7.149 Y29.973 E117.60357
G1 X-7.211 Y29.911
G0 F2040 X-7.802 Y28.825
G1 F1020 X18.079 Y54.707 E119.00431
G0 F2040 X18.258 Y54.392
G1 F1020 X-8.455 Y27.677 E120.4501
G1 X-8.517 Y27.615
G0 F2040 X-9.108 Y26.529
G1 F1020 X18.438 Y54.076 E121.94095
G0 F2040 X18.618 Y53.761
G1 F1020 X-9.762 Y25.38 E123.47694
G1 X-9.824 Y25.318
G0 F2040 X-10.414 Y24.233
G1 F1020 X18.797 Y53.445 E125.05791
G0 F2040 X18.976 Y53.129
G1 F1020 X-11.068 Y23.084 E126.68395
G1 X-11.13 Y23.022
G0 F2040 X-11.721 Y21.936
G1 F1020 X19.156 Y52.814 E128.35508
G0 F2040 X19.335 Y52.499
G1 F1020 X-12.374 Y20.788 E130.07127
G1 X-12.436 Y20.726
G0 F2040 X-13.027 Y19.64
G1 F1020 X19.515 Y52.183 E131.83251
G0 F2040 X19.695 Y51.868
G1 F1020 X-13.681 Y18.492 E133.63886
G1 X-13.743 Y18.43
G0 F2040 X-14.333 Y17.344
G1 F1020 X19.874 Y51.553 E135.49024
G0 F2040 X20.053 Y51.236
G1 F1020 X-14.987 Y16.196 E137.38665
G1 X-15.049 Y16.134
G0 F2040 X-15.64 Y15.047
G1 F1020 X20.233 Y50.921 E139.32817
G0 F2040 X20.412 Y50.606
G1 F1020 X-16.293 Y13.9 E141.31472
G1 X-16.355 Y13.838
G0 F2040 X-16.946 Y12.751
G1 F1020 X20.592 Y50.29 E143.34635
G0 F2040 X20.771 Y49.975
G1 F1020 X-17.599 Y11.603 E145.42304
G1 X-17.661 Y11.541
G0 F2040 X-18.253 Y10.455
G1 F1020 X20.95 Y49.659 E147.54478
G0 F2040 X21.13 Y49.344
G1 F1020 X-18.905 Y9.307 E149.71158
G1 X-18.967 Y9.245
G0 F2040 X-19.559 Y8.159
G1 F1020 X21.31 Y49.028 E151.92346
G0 F2040 X21.489 Y48.713
G1 F1020 X-20.212 Y7.01 E154.18043
G1 X-20.274 Y6.948
G0 F2040 X-20.865 Y5.863
G1 F1020 X21.669 Y48.397 E156.48242
G0 F2040 X21.848 Y48.082
G1 F1020 X-21.518 Y4.714 E158.8295
G1 X-21.58 Y4.652
G0 F2040 X-22.172 Y3.566
G1 F1020 X22.027 Y47.766 E161.22163
G0 F2040 X22.207 Y47.451
G1 F1020 X-22.824 Y2.419 E163.65879
G1 X-22.886 Y2.357
G0 F2040 X-23.478 Y1.27
G1 F1020 X22.387 Y47.135 E166.14107
G0 F2040 X22.566 Y46.82
G1 F1020 X-24.131 Y0.122 E168.66839
G1 X-24.193 Y0.06
G0 F2040 X-24.784 Y-1.026
G1 F1020 X22.746 Y46.504 E171.24078
G0 F2040 X22.925 Y46.188
G1 F1020 X-25.437 Y-2.173 E173.85817
G1 X-25.499 Y-2.235
G0 F2040 X-26.09 Y-3.321
G1 F1020 X23.104 Y45.873 E176.52061
G0 F2040 X23.284 Y45.558
G1 F1020 X-26.744 Y-4.47 E179.22819
G1 X-26.806 Y-4.532
G0 F2040 X-27.396 Y-5.617
G1 F1020 X23.463 Y45.242 E181.98074
G0 F2040 X23.643 Y44.927
G1 F1020 X-28.05 Y-6.766 E184.77843
G1 X-28.112 Y-6.828
G0 F2040 X-28.703 Y-7.914
G1 F1020 X23.823 Y44.612 E187.62121
G0 F2040 X24.002 Y44.295
G1 F1020 X-29.356 Y-9.062 E190.50898
G1 X-29.418 Y-9.124
G0 F2040 X-30.009 Y-10.21
G1 F1020 X24.181 Y43.98 E193.44181
G0 F2040 X24.361 Y43.665
G1 F1020 X-30.662 Y-11.358 E196.41973
G1 X-30.724 Y-11.42
G0 F2040 X-31.315 Y-12.506
G1 F1020 X24.54 Y43.349 E199.44267
G0 F2040 X24.72 Y43.034
G1 F1020 X-31.969 Y-13.654 E202.51073
G1 X-32.031 Y-13.716
G0 F2040 X-32.622 Y-14.803
G1 F1020 X24.9 Y42.719 E205.62389
G0 F2040 X25.078 Y42.403
G1 F1020 X-33.275 Y-15.951 E208.78205
G1 X-33.337 Y-16.013
G0 F2040 X-33.928 Y-17.099
G1 F1020 X25.258 Y42.087 E211.98528
G0 F2040 X25.438 Y41.772
G1 F1020 X-34.581 Y-18.247 E215.23358
G1 X-34.643 Y-18.309
G0 F2040 X-35.235 Y-19.395
G1 F1020 X25.617 Y41.456 E218.52694
G0 F2040 X25.797 Y41.141
G1 F1020 X-35.631 Y-20.287 E221.8515
G0 F2040 X-35.136 Y-20.287
G1 F1020 X25.976 Y40.825 E225.15896
G0 F2040 X26.155 Y40.51
G1 F1020 X-34.641 Y-20.287 E228.44935
G0 F2040 X-34.146 Y-20.287
G1 F1020 X26.335 Y40.194 E231.72266
G0 F2040 X26.515 Y39.879
G1 F1020 X-33.651 Y-20.287 E234.97892
G0 F2040 X-33.156 Y-20.287
G1 F1020 X26.694 Y39.564 E238.2181
G0 F2040 X26.874 Y39.248
G1 F1020 X-32.661 Y-20.287 E241.44021
G0 F2040 X-32.166 Y-20.287
G1 F1020 X27.053 Y38.932 E244.64522
G0 F2040 X27.232 Y38.617
G1 F1020 X-31.672 Y-20.287 E247.83318
G0 F2040 X-31.177 Y-20.287
G1 F1020 X27.412 Y38.301 E251.00406
G0 F2040 X27.592 Y37.986
G1 F1020 X-30.682 Y-20.287 E254.1579
G0 F2040 X-30.187 Y-20.287
G1 F1020 X27.771 Y37.671 E257.29466
G0 F2040 X27.951 Y37.355
G1 F1020 X-29.692 Y-20.287 E260.41435
G0 F2040 X-29.197 Y-20.287
G1 F1020 X28.13 Y37.039 E263.51693
G0 F2040 X28.309 Y36.724
G1 F1020 X-28.702 Y-20.287 E266.60244
G0 F2040 X-28.207 Y-20.287
G1 F1020 X28.489 Y36.408 E269.67087
G0 F2040 X28.668 Y36.093
G1 F1020 X-27.712 Y-20.287 E272.72223
G0 F2040 X-27.217 Y-20.287
G1 F1020 X28.848 Y35.778 E275.75654
G0 F2040 X29.027 Y35.462
G1 F1020 X-26.722 Y-20.287 E278.77374
G0 F2040 X-26.227 Y-20.287
G1 F1020 X29.207 Y35.146 E281.77387
G0 F2040 X29.386 Y34.831
G1 F1020 X-25.732 Y-20.287 E284.75693
G0 F2040 X-25.237 Y-20.287
G1 F1020 X29.566 Y34.516 E287.72294
G0 F2040 X29.745 Y34.2
G1 F1020 X-24.742 Y-20.287 E290.67185
G0 F2040 X-24.247 Y-20.287
G1 F1020 X29.925 Y33.885 E293.6037
G0 F2040 X30.104 Y33.569
G1 F1020 X-23.752 Y-20.287 E296.51846
G0 F2040 X-23.257 Y-20.287
G1 F1020 X30.283 Y33.253 E299.41611
G0 F2040 X30.463 Y32.938
G1 F1020 X-22.762 Y-20.287 E302.29672
G0 F2040 X-22.267 Y-20.287
G1 F1020 X30.643 Y32.623 E305.16027
G0 F2040 X30.822 Y32.307
G1 F1020 X-21.772 Y-20.287 E308.00673
G0 F2040 X-21.277 Y-20.287
G1 F1020 X31.002 Y31.992 E310.83613
G0 F2040 X31.181 Y31.676
G1 F1020 X-20.782 Y-20.287 E313.64844
G0 F2040 X-20.287 Y-20.287
G1 F1020 X31.36 Y31.36 E316.44364
G0 F2040 X31.54 Y31.045
G1 F1020 X-19.792 Y-20.287 E319.22179
G0 F2040 X-19.297 Y-20.287
