;FLAVOR:Marlin
;TIME:7985
;Filament used: 7.3747m
;Layer height: 0.2
;MINX:-64.279
;MINY:-23.038
;MINZ:0.26
;MAXX:49.233
;MAXY:73.874
;MAXZ:22.66
;Generated with Cura_SteamEngine 4.8.0
M82 ;absolute extrusion mode
;Gcode by Cura
G90
G28
M107
M109 R100
G30
M109 S215 U-55 X55 V-85 Y-85 W0.26 Z0.26
M82
G92 E0
G1 F200 E6
G92 E0
G1 F200 E-3.5
G0 Z0.15
G0 X10
G0 Z3
G1 F6000
G92 E0
G92 E0
G1 F3600 E-3.8
;LAYER_COUNT:113
;LAYER:0
M107
G0 F2040 X44.041 Y-23.038 Z0.26
;TYPE:SKIRT
G1 F3600 E0
G1 F1020 X44.727 Y-23.028 E0.02626
G1 X45.329 Y-22.979 E0.04937
G1 X45.92 Y-22.851 E0.07251
G1 X46.489 Y-22.646 E0.09566
G1 X47.026 Y-22.368 E0.1188
G1 X47.522 Y-22.022 E0.14194
G1 X47.968 Y-21.614 E0.16508
G1 X48.356 Y-21.15 E0.18822
G1 X48.679 Y-20.639 E0.21136
G1 X48.932 Y-20.09 E0.23449
G1 X49.111 Y-19.512 E0.25765
G1 X49.212 Y-18.916 E0.28078
G1 X49.233 Y-18.312 E0.30391
G1 X49.174 Y-17.71 E0.32706
G1 X49.037 Y-17.121 E0.3502
G1 X48.713 Y-16.33 E0.38291
G1 X48.303 Y-15.55 E0.41664
G1 X1.142 Y70.896 E4.18518
G1 X0.777 Y71.544 E4.21364
G1 X0.446 Y72.05 E4.23678
G1 X0.051 Y72.508 E4.25992
G1 X-.4 Y72.91 E4.28305
G1 X-.901 Y73.249 E4.30619
G1 X-1.442 Y73.519 E4.32933
G1 X-2.014 Y73.715 E4.35247
G1 X-2.607 Y73.834 E4.37562
G1 X-3.21 Y73.874 E4.39875
G1 X-3.814 Y73.834 E4.42191
G1 X-4.406 Y73.715 E4.44502
G1 X-4.978 Y73.518 E4.46817
G1 X-5.519 Y73.248 E4.49131
G1 X-6.02 Y72.909 E4.51446
G1 X-6.471 Y72.507 E4.53758
G1 X-7.011 Y71.843 E4.57034
G1 X-7.519 Y71.083 E4.60532
G1 X-63.26 Y-15.507 E8.54632
G1 X-63.589 Y-16.035 E8.57012
G1 X-63.874 Y-16.568 E8.59325
G1 X-64.086 Y-17.134 E8.61639
G1 X-64.222 Y-17.723 E8.63952
G1 X-64.279 Y-18.325 E8.66266
G1 X-64.256 Y-18.929 E8.68579
G1 X-64.154 Y-19.525 E8.70893
G1 X-63.974 Y-20.102 E8.73206
G1 X-63.719 Y-20.651 E8.75523
G1 X-63.394 Y-21.161 E8.77837
G1 X-63.005 Y-21.624 E8.80151
G1 X-62.558 Y-22.031 E8.82465
G1 X-62.062 Y-22.376 E8.84777
G1 X-61.524 Y-22.652 E8.87091
G1 X-60.954 Y-22.855 E8.89407
G1 X-60.363 Y-22.982 E8.9172
G1 X-59.846 Y-23.027 E8.93706
G1 X-59.263 Y-23.038 E8.95938
G1 X44.041 Y-23.038 E12.91277
G0 F2040 X44.036 Y-22.688
G1 F1020 X44.722 Y-22.678 E12.93903
G1 X45.301 Y-22.629 E12.96126
G1 X45.867 Y-22.502 E12.98346
G1 X46.412 Y-22.298 E13.00573
G1 X46.922 Y-22.021 E13.02794
G1 X47.391 Y-21.677 E13.0502
G1 X47.807 Y-21.272 E13.07242
G1 X48.164 Y-20.813 E13.09467
G1 X48.455 Y-20.31 E13.11691
G1 X48.674 Y-19.772 E13.13914
G1 X48.817 Y-19.209 E13.16137
G1 X48.881 Y-18.632 E13.18359
G1 X48.866 Y-18.051 E13.20583
G1 X48.771 Y-17.478 E13.22806
G1 X48.598 Y-16.923 E13.25031
G1 X48.403 Y-16.492 E13.26841
G1 X47.996 Y-15.718 E13.30188
G1 X0.837 Y70.725 E17.07028
G1 X0.472 Y71.373 E17.09874
G1 X0.153 Y71.858 E17.12096
G1 X-.23 Y72.295 E17.1432
G1 X-.669 Y72.675 E17.16542
G1 X-1.156 Y72.992 E17.18765
G1 X-1.682 Y73.239 E17.20989
G1 X-2.237 Y73.411 E17.23213
G1 X-2.811 Y73.505 E17.25439
G1 X-3.392 Y73.52 E17.27663
G1 X-3.969 Y73.455 E17.29885
G1 X-4.532 Y73.312 E17.32108
G1 X-5.07 Y73.092 E17.34333
G1 X-5.573 Y72.801 E17.36556
G1 X-6.031 Y72.443 E17.38781
G1 X-6.436 Y72.027 E17.41003
G1 X-6.721 Y71.648 E17.42818
G1 X-7.225 Y70.894 E17.46289
G1 X-62.963 Y-15.692 E21.40369
G1 X-63.292 Y-16.22 E21.4275
G1 X-63.564 Y-16.733 E21.44972
G1 X-63.764 Y-17.278 E21.47194
G1 X-63.887 Y-17.846 E21.49418
G1 X-63.931 Y-18.426 E21.51644
G1 X-63.895 Y-19.006 E21.53868
G1 X-63.78 Y-19.575 E21.56089
G1 X-63.587 Y-20.123 E21.58313
G1 X-63.322 Y-20.64 E21.60536
G1 X-62.987 Y-21.115 E21.6276
G1 X-62.591 Y-21.54 E21.64983
G1 X-62.141 Y-21.907 E21.67206
G1 X-61.644 Y-22.208 E21.69429
G1 X-61.11 Y-22.439 E21.71656
G1 X-60.55 Y-22.594 E21.7388
G1 X-59.836 Y-22.677 E21.7663
G1 X-59.258 Y-22.688 E21.78843
G1 X44.036 Y-22.688 E25.74144
G0 F2040 X44.03 Y-22.338
G1 F1020 X44.716 Y-22.328 E25.7677
G1 X45.271 Y-22.28 E25.78901
G1 X45.813 Y-22.153 E25.81032
G1 X46.331 Y-21.949 E25.83162
G1 X46.814 Y-21.674 E25.85289
G1 X47.253 Y-21.332 E25.87419
G1 X47.639 Y-20.931 E25.89549
G1 X47.963 Y-20.479 E25.91677
G1 X48.219 Y-19.985 E25.93807
G1 X48.402 Y-19.46 E25.95934
G1 X48.508 Y-18.913 E25.98067
G1 X48.534 Y-18.358 E26.00193
G1 X48.48 Y-17.804 E26.02323
G1 X48.348 Y-17.263 E26.04454
G1 X48.093 Y-16.655 E26.06977
G1 X47.689 Y-15.885 E26.10305
G1 X0.532 Y70.553 E29.87125
G1 X0.167 Y71.201 E29.89971
G1 X-.14 Y71.665 E29.92101
G1 X-.51 Y72.08 E29.94228
G1 X-.936 Y72.438 E29.96358
G1 X-1.409 Y72.731 E29.98487
G1 X-1.919 Y72.953 E30.00616
G1 X-2.456 Y73.1 E30.02746
G1 X-3.008 Y73.169 E30.04875
G1 X-3.565 Y73.158 E30.07007
G1 X-4.114 Y73.067 E30.09137
G1 X-4.644 Y72.899 E30.11265
G1 X-5.145 Y72.656 E30.13396
G1 X-5.605 Y72.344 E30.15523
G1 X-6.017 Y71.969 E30.17655
G1 X-6.43 Y71.454 E30.20181
G1 X-6.93 Y70.704 E30.23631
G1 X-62.666 Y-15.877 E34.17691
G1 X-62.995 Y-16.405 E34.20072
G1 X-63.254 Y-16.897 E34.222
G1 X-63.441 Y-17.421 E34.24329
G1 X-63.55 Y-17.967 E34.2646
G1 X-63.58 Y-18.522 E34.28587
G1 X-63.531 Y-19.076 E34.30715
G1 X-63.402 Y-19.618 E34.32847
G1 X-63.197 Y-20.135 E34.34976
G1 X-62.921 Y-20.618 E34.37105
G1 X-62.577 Y-21.056 E34.39236
G1 X-62.175 Y-21.44 E34.41363
G1 X-61.722 Y-21.763 E34.43493
G1 X-61.227 Y-22.018 E34.45624
G1 X-60.701 Y-22.199 E34.47752
G1 X-60.155 Y-22.303 E34.49879
G1 X-59.589 Y-22.334 E34.52049
G1 X-59.254 Y-22.338 E34.53331
G1 X44.03 Y-22.338 E38.48594
G0 F2040 X44.025 Y-21.988
G1 F1020 X44.711 Y-21.978 E38.51219
G1 X45.24 Y-21.93 E38.53252
G1 X45.755 Y-21.804 E38.55281
G1 X46.246 Y-21.601 E38.57314
G1 X46.7 Y-21.327 E38.59344
G1 X47.109 Y-20.989 E38.61374
G1 X47.462 Y-20.592 E38.63407
G1 X47.751 Y-20.147 E38.65438
G1 X47.97 Y-19.664 E38.67468
G1 X48.115 Y-19.154 E38.69497
G1 X48.181 Y-18.627 E38.71529
G1 X48.167 Y-18.097 E38.73558
G1 X48.074 Y-17.574 E38.75591
G1 X47.903 Y-17.072 E38.77621
G1 X47.782 Y-16.817 E38.78701
G1 X47.381 Y-16.053 E38.82003
G1 X0.227 Y70.381 E42.58804
G1 X-.138 Y71.029 E42.6165
G1 X-.432 Y71.47 E42.63678
G1 X-.79 Y71.863 E42.65713
G1 X-1.202 Y72.197 E42.67743
G1 X-1.66 Y72.465 E42.69773
G1 X-2.152 Y72.662 E42.71801
G1 X-2.669 Y72.782 E42.73833
G1 X-3.198 Y72.824 E42.75863
G1 X-3.728 Y72.786 E42.77897
G1 X-4.245 Y72.668 E42.79926
G1 X-4.739 Y72.475 E42.81956
G1 X-5.199 Y72.209 E42.8399
G1 X-5.613 Y71.877 E42.8602
G1 X-5.973 Y71.487 E42.88052
G1 X-6.139 Y71.259 E42.89131
G1 X-6.636 Y70.515 E42.92555
G1 X-62.369 Y-16.062 E46.86596
G1 X-62.698 Y-16.59 E46.88977
G1 X-62.944 Y-17.06 E46.91007
G1 X-63.116 Y-17.562 E46.93038
G1 X-63.212 Y-18.084 E46.95069
G1 X-63.227 Y-18.614 E46.97098
G1 X-63.163 Y-19.141 E46.9913
G1 X-63.021 Y-19.652 E47.0116
G1 X-62.804 Y-20.136 E47.03189
G1 X-62.516 Y-20.582 E47.05221
G1 X-62.165 Y-20.98 E47.07252
G1 X-61.758 Y-21.32 E47.09282
G1 X-61.304 Y-21.596 E47.11315
G1 X-60.814 Y-21.8 E47.13346
G1 X-60.299 Y-21.929 E47.15378
G1 X-59.651 Y-21.982 E47.17866
G1 X-59.25 Y-21.988 E47.19401
G1 X44.025 Y-21.988 E51.14629
G0 F2040 X44.02 Y-21.638
G1 F1020 X44.706 Y-21.628 E51.17255
G1 X45.208 Y-21.58 E51.19185
G1 X45.695 Y-21.454 E51.2111
G1 X46.157 Y-21.253 E51.23038
G1 X46.581 Y-20.981 E51.24966
G1 X46.956 Y-20.646 E51.2689
G1 X47.274 Y-20.255 E51.28819
G1 X47.526 Y-19.819 E51.30746
G1 X47.706 Y-19.349 E51.32672
G1 X47.809 Y-18.856 E51.346
G1 X47.833 Y-18.353 E51.36527
G1 X47.778 Y-17.852 E51.38456
G1 X47.643 Y-17.367 E51.40382
G1 X47.472 Y-16.98 E51.42001
G1 X47.074 Y-16.22 E51.45284
G1 X-0.078 Y70.209 E55.22065
G1 X-.443 Y70.857 E55.24911
G1 X-.724 Y71.275 E55.26839
G1 X-1.068 Y71.643 E55.28767
G1 X-1.465 Y71.952 E55.30692
G1 X-1.906 Y72.195 E55.32619
G1 X-2.381 Y72.364 E55.34548
G1 X-2.876 Y72.456 E55.36475
G1 X-3.379 Y72.469 E55.38401
G1 X-3.878 Y72.403 E55.40327
G1 X-4.361 Y72.258 E55.42257
G1 X-4.814 Y72.038 E55.44184
G1 X-5.227 Y71.75 E55.46111
G1 X-5.589 Y71.4 E55.48038
G1 X-5.848 Y71.065 E55.49658
G1 X-6.342 Y70.326 E55.5306
G1 X-62.072 Y-16.247 E59.47082
G1 X-62.401 Y-16.775 E59.49463
G1 X-62.632 Y-17.222 E59.51389
G1 X-62.79 Y-17.7 E59.53315
G1 X-62.871 Y-18.197 E59.55242
G1 X-62.871 Y-18.701 E59.57171
G1 X-62.793 Y-19.198 E59.59096
G1 X-62.636 Y-19.677 E59.61026
G1 X-62.406 Y-20.125 E59.62953
G1 X-62.108 Y-20.531 E59.6488
G1 X-61.749 Y-20.884 E59.66807
G1 X-61.339 Y-21.177 E59.68735
G1 X-60.888 Y-21.401 E59.70663
G1 X-60.407 Y-21.551 E59.72591
G1 X-59.803 Y-21.628 E59.74921
G1 X-59.246 Y-21.638 E59.77053
G1 X44.02 Y-21.638 E63.72247
G1 F3600 E59.92247
;MESH:support_tri_0_041.stl
G0 F2040 X44.02 Y-19.128
G0 X44.02 Y-18.093
G0 X-3.249 Y68.295
;TYPE:WALL-INNER
G1 F3600 E63.72247
G1 F1020 X-58.761 Y-17.938 E67.64723
G1 X43.797 Y-17.938 E71.57208
G1 X-3.249 Y68.295 E75.33136
G0 F2040 X-3.226 Y68.931
;TYPE:WALL-OUTER
G1 F1020 X-59.357 Y-18.263 E79.29987
G1 X44.344 Y-18.263 E83.26846
G1 X-3.226 Y68.931 E87.06962
G0 F2040 X-3.334 Y68.763
G0 X-3.24 Y68.538
G0 X-3.274 Y67.629
;TYPE:SKIN
G1 F1020 X-58.137 Y-17.598 E90.94857
G1 X43.224 Y-17.598 E94.82761
G1 X-3.274 Y67.629 E98.54305
G0 F2040 X-3.172 Y67.113
G1 F1020 X-3.863 Y66.422 E98.58044
G1 X-3.925 Y66.36
G0 F2040 X-2.998 Y66.793
G1 F1020 X-4.758 Y65.033 E98.6757
G1 X-4.82 Y64.971
G0 F2040 X-5.652 Y63.643
G1 F1020 X-2.823 Y66.472 E98.82881
G0 F2040 X-2.648 Y66.152
G1 F1020 X-6.546 Y62.255 E99.03974
G1 X-6.608 Y62.193
G0 F2040 X-7.44 Y60.865
G1 F1020 X-2.474 Y65.832 E99.30854
G0 F2040 X-2.298 Y65.512
G1 F1020 X-8.335 Y59.476 E99.63524
G1 X-8.397 Y59.414
G0 F2040 X-9.229 Y58.086
G1 F1020 X-2.124 Y65.192 E100.0198
G0 F2040 X-1.949 Y64.872
G1 F1020 X-10.123 Y56.697 E100.46221
G1 X-10.185 Y56.635
G0 F2040 X-11.018 Y55.308
G1 F1020 X-1.774 Y64.551 E100.96248
G0 F2040 X-1.6 Y64.231
G1 F1020 X-11.912 Y53.919 E101.52058
G1 X-11.974 Y53.857
G0 F2040 X-12.807 Y52.529
G1 F1020 X-1.425 Y63.911 E102.13659
G0 F2040 X-1.25 Y63.59
G1 F1020 X-13.7 Y51.14 E102.8104
G1 X-13.762 Y51.078
G0 F2040 X-14.595 Y49.751
G1 F1020 X-1.076 Y63.27 E103.54207
G0 F2040 X-.901 Y62.95
G1 F1020 X-15.489 Y48.361 E104.33161
G1 X-15.551 Y48.299
G0 F2040 X-16.384 Y46.972
G1 F1020 X-.726 Y62.629 E105.17902
G0 F2040 X-.552 Y62.309
G1 F1020 X-17.278 Y45.583 E106.08425
G1 X-17.34 Y45.521
G0 F2040 X-18.172 Y44.194
G1 F1020 X-.376 Y61.989 E107.04737
G0 F2040 X-.202 Y61.669
G1 F1020 X-19.067 Y42.804 E108.06836
G1 X-19.129 Y42.742
G0 F2040 X-19.961 Y41.415
G1 F1020 X-0.027 Y61.349 E109.14722
G0 F2040 X0.147 Y61.028
G1 F1020 X-20.855 Y40.026 E110.28387
G1 X-20.917 Y39.964
G0 F2040 X-21.749 Y38.637
G1 F1020 X0.321 Y60.708 E111.47836
G0 F2040 X0.496 Y60.388
G1 F1020 X-22.644 Y37.247 E112.73075
G1 X-22.706 Y37.185
G0 F2040 X-23.538 Y35.858
G1 F1020 X0.671 Y60.068 E114.041
G0 F2040 X0.845 Y59.747
G1 F1020 X-24.432 Y34.469 E115.40905
G1 X-24.494 Y34.407
G0 F2040 X-25.327 Y33.079
G1 F1020 X1.02 Y59.427 E116.83501
G0 F2040 X1.195 Y59.107
G1 F1020 X-26.221 Y31.69 E118.31882
G1 X-26.283 Y31.628
G0 F2040 X-27.116 Y30.3
G1 F1020 X1.37 Y58.787 E119.86055
G0 F2040 X1.545 Y58.467
G1 F1020 X-28.009 Y28.912 E121.46008
G1 X-28.071 Y28.85
G0 F2040 X-28.904 Y27.522
G1 F1020 X1.719 Y58.146 E123.11746
G0 F2040 X1.894 Y57.826
G1 F1020 X-29.798 Y26.133 E124.8327
G1 X-29.86 Y26.071
G0 F2040 X-30.693 Y24.743
G1 F1020 X2.068 Y57.506 E126.60582
G0 F2040 X2.243 Y57.185
G1 F1020 X-31.587 Y23.355 E128.43674
G1 X-31.649 Y23.293
G0 F2040 X-32.481 Y21.965
G1 F1020 X2.418 Y56.865 E130.32555
G0 F2040 X2.592 Y56.545
G1 F1020 X-33.376 Y20.576 E132.27221
G1 X-33.438 Y20.514
G0 F2040 X-34.27 Y19.186
G1 F1020 X2.767 Y56.224 E134.27673
G0 F2040 X2.942 Y55.904
G1 F1020 X-35.164 Y17.797 E136.3391
G1 X-35.226 Y17.735
G0 F2040 X-36.058 Y16.408
G1 F1020 X3.116 Y55.584 E138.4593
G0 F2040 X3.292 Y55.264
G1 F1020 X-36.953 Y15.018 E140.63744
G1 X-37.015 Y14.956
G0 F2040 X-37.847 Y13.629
G1 F1020 X3.466 Y54.944 E142.8734
G0 F2040 X3.641 Y54.623
G1 F1020 X-38.741 Y12.24 E145.1672
G1 X-38.803 Y12.178
G0 F2040 X-39.636 Y10.851
G1 F1020 X3.816 Y54.303 E147.51888
G0 F2040 X3.99 Y53.983
G1 F1020 X-40.53 Y9.461 E149.92841
G1 X-40.592 Y9.399
G0 F2040 X-41.425 Y8.072
G1 F1020 X4.165 Y53.663 E152.39583
G0 F2040 X4.34 Y53.342
G1 F1020 X-42.318 Y6.683 E154.92104
G1 X-42.38 Y6.621
G0 F2040 X-43.213 Y5.294
G1 F1020 X4.514 Y53.022 E157.50412
G0 F2040 X4.689 Y52.702
G1 F1020 X-44.107 Y3.904 E160.14507
G1 X-44.169 Y3.842
G0 F2040 X-45.002 Y2.515
G1 F1020 X4.864 Y52.381 E162.84388
G0 F2040 X5.039 Y52.062
G1 F1020 X-45.896 Y1.126 E165.60058
G1 X-45.958 Y1.064
G0 F2040 X-46.79 Y-.263
G1 F1020 X5.214 Y51.741 E168.4151
G0 F2040 X5.388 Y51.421
G1 F1020 X-47.685 Y-1.652 E171.28748
G1 X-47.747 Y-1.714
G0 F2040 X-48.579 Y-3.041
G1 F1020 X5.563 Y51.101 E174.21771
G0 F2040 X5.738 Y50.78
G1 F1020 X-49.473 Y-4.43 E177.20577
G1 X-49.535 Y-4.492
G0 F2040 X-50.367 Y-5.82
G1 F1020 X5.912 Y50.46 E180.25169
G0 F2040 X6.087 Y50.14
G1 F1020 X-51.262 Y-7.209 E183.35549
G1 X-51.324 Y-7.271
G0 F2040 X-52.156 Y-8.599
G1 F1020 X6.262 Y49.819 E186.51715
G0 F2040 X6.436 Y49.499
G1 F1020 X-53.05 Y-9.987 E189.73661
G1 X-53.112 Y-10.049
G0 F2040 X-53.945 Y-11.377
G1 F1020 X6.611 Y49.179 E193.01398
G0 F2040 X6.786 Y48.858
G1 F1020 X-54.839 Y-12.766 E196.34917
G1 X-54.901 Y-12.828
G0 F2040 X-55.734 Y-14.156
G1 F1020 X6.961 Y48.539 E199.74231
G0 F2040 X7.136 Y48.219
G1 F1020 X-56.627 Y-15.545 E203.19327
G1 X-56.689 Y-15.607
G0 F2040 X-57.522 Y-16.934
G1 F1020 X7.31 Y47.898 E206.70206
G0 F2040 X7.485 Y47.578
G1 F1020 X-57.533 Y-17.44 E210.22092
G0 F2040 X-57.038 Y-17.44
G1 F1020 X7.66 Y47.258 E213.72245
G0 F2040 X7.834 Y46.937
G1 F1020 X-56.543 Y-17.44 E217.20662
G0 F2040 X-56.048 Y-17.44
G1 F1020 X8.009 Y46.617 E220.67347
G0 F2040 X8.184 Y46.297
G1 F1020 X-55.553 Y-17.44 E224.12299
G0 F2040 X-55.058 Y-17.44
G1 F1020 X8.358 Y45.976 E227.55515
G0 F2040 X8.533 Y45.656
G1 F1020 X-54.563 Y-17.44 E230.96998
G0 F2040 X-54.068 Y-17.44
G1 F1020 X8.708 Y45.336 E234.3675
G0 F2040 X8.883 Y45.016
G1 F1020 X-53.573 Y-17.44 E237.7477
G0 F2040 X-53.078 Y-17.44
G1 F1020 X9.058 Y44.696 E241.11058
G0 F2040 X9.232 Y44.375
G1 F1020 X-52.583 Y-17.44 E244.45609
G0 F2040 X-52.089 Y-17.44
G1 F1020 X9.407 Y44.055 E247.7843
G0 F2040 X9.582 Y43.735
G1 F1020 X-51.594 Y-17.44 E251.0952
G0 F2040 X-51.099 Y-17.44
G1 F1020 X9.756 Y43.414 E254.38872
G0 F2040 X9.931 Y43.094
G1 F1020 X-50.604 Y-17.44 E257.66492
G0 F2040 X-50.109 Y-17.44
G1 F1020 X10.105 Y42.774 E260.92378
G0 F2040 X10.28 Y42.453
G1 F1020 X-49.614 Y-17.44 E264.16529
G0 F2040 X-49.119 Y-17.44
G1 F1020 X10.455 Y42.133 E267.38949
G0 F2040 X10.63 Y41.814
G1 F1020 X-48.624 Y-17.44 E270.59639
G0 F2040 X-48.129 Y-17.44
G1 F1020 X10.805 Y41.493 E273.78595
G0 F2040 X10.979 Y41.173
G1 F1020 X-47.634 Y-17.44 E276.95816
G0 F2040 X-47.139 Y-17.44
G1 F1020 X11.154 Y40.853 E280.11305
G0 F2040 X11.329 Y40.532
G1 F1020 X-46.644 Y-17.44 E283.25059
G0 F2040 X-46.149 Y-17.44
G1 F1020 X11.503 Y40.212 E286.37079
G0 F2040 X11.678 Y39.892
G1 F1020 X-45.654 Y-17.44 E289.47367
G0 F2040 X-45.159 Y-17.44
G1 F1020 X11.853 Y39.571 E292.55921
G0 F2040 X12.027 Y39.251
G1 F1020 X-44.664 Y-17.44 E295.6274
G0 F2040 X-44.169 Y-17.44
G1 F1020 X12.202 Y38.931 E298.67827
G0 F2040 X12.377 Y38.611
G1 F1020 X-43.674 Y-17.44 E301.71182
G0 F2040 X-43.179 Y-17.44
G1 F1020 X12.552 Y38.291 E304.72805
G0 F2040 X12.727 Y37.97
G1 F1020 X-42.684 Y-17.44 E307.72694
G0 F2040 X-42.189 Y-17.44
G1 F1020 X12.901 Y37.65 E310.70848
G0 F2040 X13.076 Y37.33
G1 F1020 X-41.694 Y-17.44 E313.6727
G0 F2040 X-41.199 Y-17.44
G1 F1020 X13.251 Y37.009 E316.61958
G0 F2040 X13.425 Y36.689
G1 F1020 X-40.704 Y-17.44 E319.54911
G0 F2040 X-40.209 Y-17.44
G1 F1020 X13.6 Y36.369 E322.46132
G0 F2040 X13.775 Y36.049
G1 F1020 X-39.714 Y-17.44 E325.35621
G0 F2040 X-39.219 Y-17.44
G1 F1020 X13.949 Y35.728 E328.23373
G0 F2040 X14.124 Y35.408
G1 F1020 X-38.724 Y-17.44 E331.09394
G0 F2040 X-38.229 Y-17.44
G1 F1020 X14.299 Y35.088 E333.93682
G0 F2040 X14.474 Y34.768
G1 F1020 X-37.734 Y-17.44 E336.76238
G0 F2040 X-37.239 Y-17.44
G1 F1020 X14.649 Y34.448 E339.57063
G0 F2040 X14.823 Y34.127
G1 F1020 X-36.744 Y-17.44 E342.3615
G0 F2040 X-36.249 Y-17.44
G1 F1020 X14.998 Y33.807 E345.13505
G0 F2040 X15.173 Y33.487
G1 F1020 X-35.754 Y-17.44 E347.89128
G0 F2040 X-35.259 Y-17.44
G1 F1020 X15.347 Y33.166 E350.63015
G0 F2040 X15.522 Y32.846
G1 F1020 X-34.764 Y-17.44 E353.35169
