;FLAVOR:Marlin
;TIME:6297
;Filament used: 8.00944m
;Layer height: 0.3
;MINX:-42.136
;MINY:-73.877
;MINZ:0.26
;MAXX:66.96
;MAXY:25.388
;MAXZ:22.76
;Generated with Cura_SteamEngine 4.9.1
M82 ;absolute extrusion mode
;Gcode by Cura
G90
G28
M107
M109 R100
G30
M109 S215 U-55 X55 V-85 Y-85 W0.26 Z0.26
M82
G92 E0
G1 F200 E6
G92 E0
G1 F200 E-3.5
G0 Z0.15
G0 X10
G0 Z3
G1 F6000
G92 E0
G92 E0
G1 F3600 E-3.8
;LAYER_COUNT:76
;LAYER:0
M107
G0 F2040 X-41.096 Y17.701 Z0.26
;TYPE:SKIRT
G1 F3600 E0
G1 F1020 X8.153 Y-71.082 E3.88542
G1 X8.436 Y-71.576 E3.90721
G1 X8.771 Y-72.08 E3.93037
G1 X9.169 Y-72.535 E3.9535
G1 X9.624 Y-72.934 E3.97666
G1 X10.127 Y-73.269 E3.99979
G1 X10.67 Y-73.535 E4.02293
G1 X11.243 Y-73.727 E4.04605
G1 X11.837 Y-73.841 E4.0692
G1 X12.44 Y-73.877 E4.09232
G1 X13.043 Y-73.832 E4.11546
G1 X13.635 Y-73.709 E4.1386
G1 X14.206 Y-73.508 E4.16176
G1 X14.745 Y-73.234 E4.1849
G1 X15.243 Y-72.891 E4.20805
G1 X15.691 Y-72.486 E4.23116
G1 X16.083 Y-72.025 E4.25432
G1 X16.364 Y-71.596 E4.27394
G1 X16.808 Y-70.829 E4.30786
G1 X66.102 Y18.038 E8.19692
G1 X66.42 Y18.631 E8.22267
G1 X66.67 Y19.181 E8.24579
G1 X66.845 Y19.76 E8.26894
G1 X66.942 Y20.357 E8.29209
G1 X66.96 Y20.961 E8.31521
G1 X66.898 Y21.563 E8.33837
G1 X66.757 Y22.151 E8.36151
G1 X66.54 Y22.715 E8.38464
G1 X66.25 Y23.246 E8.4078
G1 X65.893 Y23.734 E8.43093
G1 X65.474 Y24.17 E8.45408
G1 X65.002 Y24.548 E8.47722
G1 X64.484 Y24.86 E8.50036
G1 X63.929 Y25.101 E8.52352
G1 X63.348 Y25.266 E8.54663
G1 X62.481 Y25.367 E8.58003
G1 X61.404 Y25.388 E8.62126
G1 X-36.944 Y25.388 E12.38499
G1 X-37.624 Y25.379 E12.41101
G1 X-38.226 Y25.331 E12.43412
G1 X-38.817 Y25.204 E12.45726
G1 X-39.387 Y25 E12.48043
G1 X-39.924 Y24.723 E12.50355
G1 X-40.42 Y24.377 E12.52669
G1 X-40.866 Y23.969 E12.54983
G1 X-41.255 Y23.506 E12.57297
G1 X-41.579 Y22.995 E12.59613
G1 X-41.833 Y22.447 E12.61924
G1 X-42.012 Y21.869 E12.6424
G1 X-42.114 Y21.273 E12.66554
G1 X-42.136 Y20.669 E12.68867
G1 X-42.078 Y20.067 E12.71181
G1 X-41.942 Y19.478 E12.73495
G1 X-41.606 Y18.663 E12.76868
G1 X-41.096 Y17.701 E12.81035
G0 F2040 X-40.79 Y17.871
G1 F1020 X8.457 Y-70.908 E16.6956
G1 X8.74 Y-71.402 E16.71739
G1 X9.063 Y-71.885 E16.73962
G1 X9.449 Y-72.32 E16.76188
G1 X9.891 Y-72.697 E16.78411
G1 X10.38 Y-73.01 E16.80633
G1 X10.908 Y-73.253 E16.82857
G1 X11.464 Y-73.421 E16.8508
G1 X12.038 Y-73.511 E16.87304
G1 X12.619 Y-73.522 E16.89527
G1 X13.196 Y-73.452 E16.91752
G1 X13.758 Y-73.305 E16.93975
G1 X14.294 Y-73.081 E16.96198
G1 X14.795 Y-72.787 E16.98421
G1 X15.251 Y-72.426 E17.00647
G1 X15.652 Y-72.006 E17.02869
G1 X16.062 Y-71.42 E17.05606
G1 X16.502 Y-70.659 E17.0897
G1 X65.793 Y18.203 E20.97854
G1 X66.111 Y18.796 E21.0043
G1 X66.35 Y19.326 E21.02655
G1 X66.514 Y19.883 E21.04877
G1 X66.6 Y20.458 E21.07102
G1 X66.606 Y21.039 E21.09325
G1 X66.532 Y21.616 E21.11551
G1 X66.38 Y22.176 E21.13772
G1 X66.153 Y22.711 E21.15996
G1 X65.854 Y23.209 E21.18219
G1 X65.49 Y23.662 E21.20443
G1 X65.067 Y24.06 E21.22666
G1 X64.593 Y24.397 E21.24891
G1 X64.078 Y24.665 E21.27113
G1 X63.53 Y24.861 E21.2934
G1 X62.962 Y24.979 E21.31561
G1 X62.474 Y25.017 E21.33434
G1 X61.404 Y25.038 E21.37529
G1 X-36.939 Y25.038 E25.13883
G1 X-37.619 Y25.029 E25.16486
G1 X-38.198 Y24.981 E25.18709
G1 X-38.765 Y24.854 E25.20933
G1 X-39.309 Y24.651 E25.23155
G1 X-39.821 Y24.375 E25.25381
G1 X-40.289 Y24.032 E25.27602
G1 X-40.706 Y23.627 E25.29826
G1 X-41.064 Y23.169 E25.32051
G1 X-41.355 Y22.666 E25.34275
G1 X-41.575 Y22.129 E25.36496
G1 X-41.719 Y21.566 E25.38719
G1 X-41.784 Y20.988 E25.40945
G1 X-41.769 Y20.407 E25.4317
G1 X-41.675 Y19.834 E25.45392
G1 X-41.503 Y19.279 E25.47615
G1 X-41.297 Y18.827 E25.49516
G1 X-40.79 Y17.871 E25.53658
G0 F2040 X-40.484 Y18.04
G1 F1020 X8.761 Y-70.734 E29.42162
G1 X9.044 Y-71.228 E29.44341
G1 X9.354 Y-71.69 E29.4647
G1 X9.728 Y-72.102 E29.48599
G1 X10.156 Y-72.457 E29.50727
G1 X10.631 Y-72.747 E29.52857
G1 X11.143 Y-72.965 E29.54987
G1 X11.681 Y-73.109 E29.57118
G1 X12.233 Y-73.173 E29.59245
G1 X12.79 Y-73.158 E29.61377
G1 X13.338 Y-73.063 E29.63506
G1 X13.867 Y-72.891 E29.65634
G1 X14.366 Y-72.645 E29.67763
G1 X14.825 Y-72.33 E29.69894
G1 X15.233 Y-71.952 E29.72022
G1 X15.584 Y-71.52 E29.74153
G1 X15.759 Y-71.245 E29.754
G1 X16.196 Y-70.49 E29.78738
G1 X65.485 Y18.369 E33.67609
G1 X65.803 Y18.962 E33.70184
G1 X66.03 Y19.47 E33.72313
G1 X66.182 Y20.005 E33.74442
G1 X66.256 Y20.556 E33.76569
G1 X66.25 Y21.113 E33.78701
G1 X66.164 Y21.663 E33.80831
G1 X66.001 Y22.194 E33.82957
G1 X65.763 Y22.697 E33.85087
G1 X65.455 Y23.161 E33.87218
G1 X65.084 Y23.576 E33.89348
G1 X64.658 Y23.933 E33.91475
G1 X64.185 Y24.226 E33.93605
G1 X63.675 Y24.448 E33.95733
G1 X63.138 Y24.595 E33.97864
G1 X62.467 Y24.667 E34.00447
G1 X61.404 Y24.688 E34.04515
G1 X-36.934 Y24.688 E37.8085
G1 X-37.614 Y24.679 E37.83453
G1 X-38.169 Y24.631 E37.85585
G1 X-38.711 Y24.505 E37.87714
G1 X-39.229 Y24.303 E37.89842
G1 X-39.713 Y24.028 E37.91972
G1 X-40.152 Y23.687 E37.941
G1 X-40.539 Y23.286 E37.96232
G1 X-40.863 Y22.835 E37.98358
G1 X-41.12 Y22.341 E38.00489
G1 X-41.304 Y21.816 E38.02618
G1 X-41.41 Y21.269 E38.0475
G1 X-41.437 Y20.714 E38.06876
G1 X-41.384 Y20.16 E38.09006
G1 X-41.252 Y19.619 E38.11137
G1 X-40.988 Y18.991 E38.13744
G1 X-40.484 Y18.04 E38.17863
G0 F2040 X-40.178 Y18.21
G1 F1020 X9.064 Y-70.56 E42.06349
G1 X9.347 Y-71.054 E42.08527
G1 X9.645 Y-71.494 E42.10561
G1 X10.005 Y-71.883 E42.12589
G1 X10.42 Y-72.214 E42.14621
G1 X10.88 Y-72.479 E42.16653
G1 X11.374 Y-72.673 E42.18684
G1 X11.892 Y-72.789 E42.20715
G1 X12.421 Y-72.827 E42.22745
G1 X12.95 Y-72.785 E42.24776
G1 X13.467 Y-72.664 E42.26808
G1 X13.959 Y-72.466 E42.28837
G1 X14.417 Y-72.197 E42.3087
G1 X14.828 Y-71.863 E42.32897
G1 X15.185 Y-71.47 E42.34929
G1 X15.456 Y-71.069 E42.36781
G1 X15.89 Y-70.32 E42.40094
G1 X65.177 Y18.534 E46.28944
G1 X65.495 Y19.127 E46.31519
G1 X65.709 Y19.612 E46.33547
G1 X65.849 Y20.124 E46.35579
G1 X65.91 Y20.651 E46.37609
G1 X65.891 Y21.182 E46.39642
G1 X65.793 Y21.703 E46.41671
G1 X65.618 Y22.204 E46.43702
G1 X65.37 Y22.673 E46.45732
G1 X65.054 Y23.099 E46.47762
G1 X64.677 Y23.473 E46.49795
G1 X64.249 Y23.787 E46.51826
G1 X63.779 Y24.032 E46.53854
G1 X63.277 Y24.204 E46.55885
G1 X62.754 Y24.299 E46.57919
G1 X62.46 Y24.317 E46.59047
G1 X61.404 Y24.338 E46.63089
G1 X-36.93 Y24.338 E50.39408
G1 X-37.61 Y24.329 E50.42011
G1 X-38.138 Y24.282 E50.44039
G1 X-38.654 Y24.156 E50.46072
G1 X-39.145 Y23.954 E50.48104
G1 X-39.6 Y23.681 E50.50135
G1 X-40.008 Y23.343 E50.52162
G1 X-40.362 Y22.947 E50.54195
G1 X-40.652 Y22.503 E50.56224
G1 X-40.872 Y22.02 E50.58255
G1 X-41.017 Y21.509 E50.60288
G1 X-41.083 Y20.983 E50.62317
G1 X-41.07 Y20.452 E50.6435
G1 X-40.978 Y19.93 E50.66378
G1 X-40.808 Y19.427 E50.6841
G1 X-40.678 Y19.155 E50.69564
G1 X-40.178 Y18.21 E50.73655
G0 F2040 X-39.871 Y18.38
G1 F1020 X9.368 Y-70.386 E54.62122
G1 X9.651 Y-70.88 E54.643
G1 X9.935 Y-71.296 E54.66228
G1 X10.282 Y-71.662 E54.68158
G1 X10.681 Y-71.968 E54.70083
G1 X11.125 Y-72.207 E54.72012
G1 X11.6 Y-72.373 E54.73938
G1 X12.096 Y-72.462 E54.75866
G1 X12.599 Y-72.471 E54.77792
G1 X13.098 Y-72.401 E54.7972
G1 X13.579 Y-72.252 E54.81647
G1 X14.031 Y-72.03 E54.83574
G1 X14.442 Y-71.739 E54.85501
G1 X14.801 Y-71.386 E54.87428
G1 X15.153 Y-70.894 E54.89743
G1 X15.583 Y-70.15 E54.93032
G1 X64.868 Y18.7 E58.81865
G1 X65.186 Y19.293 E58.8444
G1 X65.388 Y19.754 E58.86366
G1 X65.515 Y20.241 E58.88292
G1 X65.563 Y20.743 E58.90222
G1 X65.531 Y21.245 E58.92147
G1 X65.42 Y21.736 E58.94073
G1 X65.232 Y22.204 E58.96004
G1 X64.974 Y22.636 E58.97929
G1 X64.65 Y23.021 E58.99855
G1 X64.269 Y23.351 E59.01784
G1 X63.841 Y23.616 E59.0371
G1 X63.376 Y23.81 E59.05638
G1 X62.887 Y23.929 E59.07564
G1 X62.453 Y23.967 E59.09232
G1 X61.404 Y23.988 E59.13247
G1 X-36.925 Y23.988 E62.89547
G1 X-37.605 Y23.979 E62.9215
G1 X-38.106 Y23.932 E62.94076
G1 X-38.594 Y23.807 E62.96003
G1 X-39.056 Y23.606 E62.97932
G1 X-39.48 Y23.335 E62.99857
G1 X-39.856 Y23 E63.01785
G1 X-40.175 Y22.61 E63.03713
G1 X-40.427 Y22.174 E63.0564
G1 X-40.608 Y21.704 E63.07567
G1 X-40.712 Y21.211 E63.09496
G1 X-40.737 Y20.708 E63.11423
G1 X-40.681 Y20.208 E63.13348
G1 X-40.548 Y19.722 E63.15277
G1 X-40.369 Y19.318 E63.16968
G1 X-39.871 Y18.38 E63.21032
G1 F3600 E59.41032
;MESH:support_tri_0_070.stl
G0 F2040 X-37.676 Y19.6
G0 X-36.772 Y20.101
G0 X-36.698 Y20.288
;TYPE:WALL-INNER
G1 F3600 E63.21032
G1 F1020 X12.41 Y-68.244 E67.08472
G1 X61.518 Y20.288 E70.95912
G1 X-36.698 Y20.288 E74.7178
G0 F2040 X-37.25 Y20.613
;TYPE:WALL-OUTER
G1 F1020 X12.41 Y-68.914 E78.63575
G1 X62.07 Y20.613 E82.55369
G1 X-37.25 Y20.613 E86.35462
G0 F2040 X-37.153 Y20.439
G0 X-36.909 Y20.413
G0 X-36.121 Y19.948
;TYPE:SKIN
G1 F1020 X12.41 Y-67.543 E90.18348
G1 X60.941 Y19.948 E94.01233
G1 X-36.121 Y19.948 E97.72684
G0 F2040 X-35.78 Y19.656
G1 F1020 X-35.645 Y19.791 E97.73415
G0 F2040 X-35.603 Y19.338
G1 F1020 X-35.15 Y19.791 E97.75867
G0 F2040 X-34.656 Y19.791
G1 F1020 X-35.426 Y19.02 E97.80037
G0 F2040 X-35.249 Y18.702
G1 F1020 X-34.161 Y19.791 E97.85928
G0 F2040 X-33.666 Y19.791
G1 F1020 X-35.073 Y18.383 E97.93545
G0 F2040 X-34.897 Y18.065
G1 F1020 X-33.171 Y19.791 E98.02887
G0 F2040 X-32.676 Y19.791
G1 F1020 X-34.72 Y17.746 E98.13952
G0 F2040 X-34.543 Y17.428
G1 F1020 X-32.181 Y19.791 E98.26738
G0 F2040 X-31.686 Y19.791
G1 F1020 X-34.367 Y17.109 E98.41251
G0 F2040 X-34.19 Y16.791
G1 F1020 X-31.191 Y19.791 E98.57484
G0 F2040 X-30.696 Y19.791
G1 F1020 X-34.013 Y16.473 E98.75439
G0 F2040 X-33.837 Y16.155
G1 F1020 X-30.201 Y19.791 E98.95117
G0 F2040 X-29.706 Y19.791
G1 F1020 X-33.661 Y15.836 E99.16522
G0 F2040 X-33.484 Y15.518
G1 F1020 X-29.211 Y19.791 E99.39648
G0 F2040 X-28.716 Y19.791
G1 F1020 X-33.307 Y15.199 E99.64498
G0 F2040 X-33.13 Y14.881
G1 F1020 X-28.221 Y19.791 E99.91069
G0 F2040 X-27.726 Y19.791
G1 F1020 X-32.954 Y14.562 E100.19366
G0 F2040 X-32.777 Y14.244
G1 F1020 X-27.231 Y19.791 E100.49385
G0 F2040 X-26.736 Y19.791
G1 F1020 X-32.601 Y13.926 E100.81127
G0 F2040 X-32.424 Y13.608
G1 F1020 X-26.241 Y19.791 E101.1459
G0 F2040 X-25.746 Y19.791
G1 F1020 X-32.248 Y13.289 E101.4978
G0 F2040 X-32.071 Y12.971
G1 F1020 X-25.251 Y19.791 E101.8669
G0 F2040 X-24.756 Y19.791
G1 F1020 X-31.894 Y12.652 E102.25325
G0 F2040 X-31.717 Y12.334
G1 F1020 X-24.261 Y19.791 E102.6568
G0 F2040 X-23.766 Y19.791
G1 F1020 X-31.541 Y12.015 E103.07762
G0 F2040 X-31.365 Y11.697
G1 F1020 X-23.271 Y19.791 E103.51568
G0 F2040 X-22.776 Y19.791
G1 F1020 X-31.188 Y11.379 E103.97095
G0 F2040 X-31.011 Y11.061
G1 F1020 X-22.281 Y19.791 E104.44343
G0 F2040 X-21.786 Y19.791
G1 F1020 X-30.835 Y10.742 E104.93317
G0 F2040 X-30.658 Y10.424
G1 F1020 X-21.291 Y19.791 E105.44013
G0 F2040 X-20.796 Y19.791
G1 F1020 X-30.481 Y10.105 E105.96432
G0 F2040 X-30.305 Y9.787
G1 F1020 X-20.301 Y19.791 E106.50575
G0 F2040 X-19.806 Y19.791
G1 F1020 X-30.129 Y9.468 E107.06444
G0 F2040 X-29.952 Y9.15
G1 F1020 X-19.311 Y19.791 E107.64035
G0 F2040 X-18.816 Y19.791
G1 F1020 X-29.775 Y8.832 E108.23346
G0 F2040 X-29.598 Y8.514
G1 F1020 X-18.321 Y19.791 E108.84379
G0 F2040 X-17.826 Y19.791
G1 F1020 X-29.422 Y8.195 E109.47138
G0 F2040 X-29.245 Y7.877
G1 F1020 X-17.331 Y19.791 E110.11618
G0 F2040 X-16.836 Y19.791
G1 F1020 X-29.069 Y7.558 E110.77824
G0 F2040 X-28.892 Y7.24
G1 F1020 X-16.341 Y19.791 E111.45752
G0 F2040 X-15.846 Y19.791
G1 F1020 X-28.716 Y6.921 E112.15406
G0 F2040 X-28.539 Y6.603
G1 F1020 X-15.351 Y19.791 E112.86781
G0 F2040 X-14.857 Y19.791
G1 F1020 X-28.362 Y6.285 E113.59875
G0 F2040 X-28.185 Y5.967
G1 F1020 X-14.362 Y19.791 E114.34689
G0 F2040 X-13.867 Y19.791
G1 F1020 X-28.009 Y5.648 E115.1123
G0 F2040 X-27.833 Y5.33
G1 F1020 X-13.372 Y19.791 E115.89495
G0 F2040 X-12.877 Y19.791
G1 F1020 X-27.656 Y5.011 E116.69483
G0 F2040 X-27.479 Y4.693
G1 F1020 X-12.382 Y19.791 E117.51193
G0 F2040 X-11.887 Y19.791
G1 F1020 X-27.303 Y4.374 E118.34629
G0 F2040 X-27.126 Y4.056
G1 F1020 X-11.392 Y19.791 E119.19786
G0 F2040 X-10.897 Y19.791
G1 F1020 X-26.949 Y3.738 E120.06664
G0 F2040 X-26.773 Y3.42
G1 F1020 X-10.402 Y19.791 E120.95266
G0 F2040 X-9.907 Y19.791
G1 F1020 X-26.597 Y3.101 E121.85595
G0 F2040 X-26.42 Y2.783
G1 F1020 X-9.412 Y19.791 E122.77644
G0 F2040 X-8.917 Y19.791
G1 F1020 X-26.243 Y2.464 E123.71417
G0 F2040 X-26.066 Y2.146
G1 F1020 X-8.422 Y19.791 E124.66912
G0 F2040 X-7.927 Y19.791
G1 F1020 X-25.89 Y1.827 E125.64132
G0 F2040 X-25.713 Y1.509
G1 F1020 X-7.432 Y19.791 E126.63074
G0 F2040 X-6.937 Y19.791
G1 F1020 X-25.537 Y1.191 E127.6374
G0 F2040 X-25.36 Y0.873
G1 F1020 X-6.442 Y19.791 E128.66126
G0 F2040 X-5.947 Y19.791
G1 F1020 X-25.184 Y0.554 E129.7024
G0 F2040 X-25.007 Y0.236
G1 F1020 X-5.452 Y19.791 E130.76074
G0 F2040 X-4.957 Y19.791
G1 F1020 X-24.83 Y-0.082 E131.83629
G0 F2040 X-24.653 Y-.4
G1 F1020 X-4.462 Y19.791 E132.92905
G0 F2040 X-3.967 Y19.791
G1 F1020 X-24.477 Y-.719 E134.03908
G0 F2040 X-24.301 Y-1.037
G1 F1020 X-3.472 Y19.791 E135.16634
G0 F2040 X-2.977 Y19.791
G1 F1020 X-24.124 Y-1.355 E136.31082
G0 F2040 X-23.947 Y-1.673
G1 F1020 X-2.482 Y19.791 E137.47251
G0 F2040 X-1.987 Y19.791
G1 F1020 X-23.771 Y-1.992 E138.65146
G0 F2040 X-23.594 Y-2.31
G1 F1020 X-1.492 Y19.791 E139.84762
G0 F2040 X-.997 Y19.791
G1 F1020 X-23.417 Y-2.629 E141.06102
G0 F2040 X-23.241 Y-2.947
G1 F1020 X-.502 Y19.791 E142.29165
G0 F2040 X-0.007 Y19.791
G1 F1020 X-23.065 Y-3.266 E143.53955
G0 F2040 X-22.888 Y-3.584
G1 F1020 X0.487 Y19.791 E144.80464
G0 F2040 X0.982 Y19.791
G1 F1020 X-22.711 Y-3.902 E146.08694
G0 F2040 X-22.535 Y-4.221
G1 F1020 X1.477 Y19.791 E147.3865
G0 F2040 X1.972 Y19.791
G1 F1020 X-22.358 Y-4.539 E148.70327
G0 F2040 X-22.181 Y-4.857
G1 F1020 X2.467 Y19.791 E150.03725
G0 F2040 X2.962 Y19.791
G1 F1020 X-22.005 Y-5.176 E151.38849
G0 F2040 X-21.829 Y-5.494
G1 F1020 X3.457 Y19.791 E152.75698
G0 F2040 X3.952 Y19.791
G1 F1020 X-21.652 Y-5.813 E154.1427
G0 F2040 X-21.475 Y-6.131
G1 F1020 X4.446 Y19.791 E155.5456
G0 F2040 X4.941 Y19.791
G1 F1020 X-21.298 Y-6.449 E156.96572
G0 F2040 X-21.122 Y-6.768
G1 F1020 X5.436 Y19.791 E158.4031
G0 F2040 X5.931 Y19.791
G1 F1020 X-20.945 Y-7.086 E159.85769
G0 F2040 X-20.769 Y-7.404
G1 F1020 X6.426 Y19.791 E161.32952
G0 F2040 X6.921 Y19.791
G1 F1020 X-20.592 Y-7.723 E162.81858
G0 F2040 X-20.416 Y-8.041
G1 F1020 X7.416 Y19.791 E164.32488
G0 F2040 X7.911 Y19.791
G1 F1020 X-20.239 Y-8.36 E165.84843
G0 F2040 X-20.062 Y-8.678
G1 F1020 X8.406 Y19.791 E167.38918
G0 F2040 X8.901 Y19.791
G1 F1020 X-19.885 Y-8.996 E168.94714
G0 F2040 X-19.709 Y-9.315
G1 F1020 X9.396 Y19.791 E170.52237
G0 F2040 X9.891 Y19.791
G1 F1020 X-19.533 Y-9.633 E172.11483
G0 F2040 X-19.356 Y-9.951
G1 F1020 X10.386 Y19.791 E173.7245
G0 F2040 X10.881 Y19.791
G1 F1020 X-19.179 Y-10.27 E175.35142
G0 F2040 X-19.003 Y-10.588
G1 F1020 X11.376 Y19.791 E176.99557
G0 F2040 X11.871 Y19.791
G1 F1020 X-18.826 Y-10.907 E178.65696
G0 F2040 X-18.649 Y-11.225
G1 F1020 X12.366 Y19.791 E180.33555
G0 F2040 X12.861 Y19.791
G1 F1020 X-18.473 Y-11.543 E182.03139
G0 F2040 X-18.297 Y-11.862
G1 F1020 X13.356 Y19.791 E183.74449
G0 F2040 X13.851 Y19.791
G1 F1020 X-18.12 Y-12.18 E185.4748
G0 F2040 X-17.943 Y-12.498
G1 F1020 X14.346 Y19.791 E187.22232
G0 F2040 X14.841 Y19.791
G1 F1020 X-17.766 Y-12.817 E188.98708
G0 F2040 X-17.59 Y-13.135
G1 F1020 X15.336 Y19.791 E190.76908
G0 F2040 X15.831 Y19.791
G1 F1020 X-17.413 Y-13.454 E192.56831
G0 F2040 X-17.237 Y-13.772
G1 F1020 X16.326 Y19.791 E194.38479
G0 F2040 X16.821 Y19.791
G1 F1020 X-17.06 Y-14.09 E196.21847
G0 F2040 X-16.884 Y-14.409
G1 F1020 X17.316 Y19.791 E198.06942
G0 F2040 X17.811 Y19.791
G1 F1020 X-16.707 Y-14.727 E199.93758
G0 F2040 X-16.53 Y-15.045
G1 F1020 X18.306 Y19.791 E201.82294
G0 F2040 X18.801 Y19.791
G1 F1020 X-16.353 Y-15.364 E203.72555
G0 F2040 X-16.177 Y-15.682
G1 F1020 X19.296 Y19.791 E205.64539
G0 F2040 X19.791 Y19.791
G1 F1020 X-16.001 Y-16.001 E207.5825
G0 F2040 X-15.824 Y-16.319
G1 F1020 X20.286 Y19.791 E209.53682
G0 F2040 X20.781 Y19.791
G1 F1020 X-15.647 Y-16.637 E211.50835
G0 F2040 X-15.471 Y-16.956
G1 F1020 X21.276 Y19.791 E213.49715
G0 F2040 X21.771 Y19.791
G1 F1020 X-15.294 Y-17.274 E215.50315
G0 F2040 X-15.117 Y-17.592
G1 F1020 X22.266 Y19.791 E217.52637
