;FLAVOR:Marlin
;TIME:7787
;Filament used: 7.25349m
;Layer height: 0.2
;MINX:-41.718
;MINY:-70.325
;MINZ:0.26
;MAXX:68.498
;MAXY:25.723
;MAXZ:23.46
;Generated with Cura_SteamEngine 4.8.0
M82 ;absolute extrusion mode
;Gcode by Cura
G90
G28
M107
M109 R100
G30
M109 S215 U-55 X55 V-85 Y-85 W0.26 Z0.26
M82
G92 E0
G1 F200 E6
G92 E0
G1 F200 E-3.5
G0 Z0.15
G0 X10
G0 Z3
G1 F6000
G92 E0
G92 E0
G1 F3600 E-3.8
;LAYER_COUNT:117
;LAYER:0
M107
G0 F2040 X-40.578 Y17.916 Z0.26
;TYPE:SKIRT
G1 F3600 E0
G1 F1020 X10.244 Y-67.572 E3.80605
G1 X10.593 Y-68.142 E3.83163
G1 X10.942 Y-68.636 E3.85478
G1 X11.354 Y-69.079 E3.87793
G1 X11.82 Y-69.464 E3.90106
G1 X12.332 Y-69.785 E3.92419
G1 X12.883 Y-70.035 E3.94734
G1 X13.462 Y-70.21 E3.97049
G1 X14.058 Y-70.307 E3.9936
G1 X14.663 Y-70.325 E4.01676
G1 X15.264 Y-70.263 E4.03989
G1 X15.852 Y-70.122 E4.06303
G1 X16.417 Y-69.905 E4.08619
G1 X16.947 Y-69.615 E4.10931
G1 X17.435 Y-69.258 E4.13245
G1 X17.872 Y-68.84 E4.15559
G1 X18.371 Y-68.184 E4.18713
G1 X18.695 Y-67.643 E4.21127
G1 X67.605 Y18.336 E7.99677
G1 X67.933 Y18.932 E8.02281
G1 X68.189 Y19.48 E8.04595
G1 X68.37 Y20.057 E8.0691
G1 X68.474 Y20.652 E8.09221
G1 X68.498 Y21.257 E8.11538
G1 X68.443 Y21.859 E8.13852
G1 X68.308 Y22.448 E8.16164
G1 X68.097 Y23.015 E8.1848
G1 X67.813 Y23.549 E8.20794
G1 X67.461 Y24.04 E8.23106
G1 X67.048 Y24.481 E8.25418
G1 X66.58 Y24.864 E8.27733
G1 X66.065 Y25.182 E8.30049
G1 X65.513 Y25.429 E8.32363
G1 X64.933 Y25.6 E8.34678
G1 X64.098 Y25.71 E8.37901
G1 X63.441 Y25.723 E8.40415
G1 X-36.537 Y25.722 E12.23026
G1 X-37.213 Y25.712 E12.25614
G1 X-37.815 Y25.664 E12.27925
G1 X-38.406 Y25.536 E12.30239
G1 X-38.975 Y25.331 E12.32554
G1 X-39.512 Y25.053 E12.34868
G1 X-40.008 Y24.707 E12.37182
G1 X-40.453 Y24.298 E12.39495
G1 X-40.841 Y23.834 E12.4181
G1 X-41.164 Y23.323 E12.44123
G1 X-41.418 Y22.774 E12.46438
G1 X-41.596 Y22.196 E12.48753
G1 X-41.697 Y21.6 E12.51066
G1 X-41.718 Y20.996 E12.53379
G1 X-41.659 Y20.394 E12.55694
G1 X-41.522 Y19.805 E12.58008
G1 X-41.308 Y19.24 E12.6032
G1 X-41.127 Y18.886 E12.61842
G1 X-40.578 Y17.916 E12.66107
G0 F2040 X-40.277 Y18.095
G1 F1020 X10.543 Y-67.389 E16.46695
G1 X10.892 Y-67.959 E16.49253
G1 X11.229 Y-68.433 E16.51479
G1 X11.627 Y-68.855 E16.53699
G1 X12.08 Y-69.22 E16.55925
G1 X12.578 Y-69.518 E16.58146
G1 X13.113 Y-69.746 E16.60372
G1 X13.674 Y-69.897 E16.62595
G1 X14.25 Y-69.971 E16.64818
G1 X14.831 Y-69.965 E16.67041
G1 X15.406 Y-69.879 E16.69266
G1 X15.963 Y-69.715 E16.71488
G1 X16.493 Y-69.476 E16.73713
G1 X16.985 Y-69.166 E16.75939
G1 X17.43 Y-68.793 E16.78161
G1 X17.819 Y-68.361 E16.80385
G1 X18.143 Y-67.888 E16.8258
G1 X18.418 Y-67.421 E16.84654
G1 X67.298 Y18.505 E20.62971
G1 X67.626 Y19.101 E20.65575
G1 X67.871 Y19.628 E20.67799
G1 X68.041 Y20.184 E20.70024
G1 X68.133 Y20.757 E20.72245
G1 X68.145 Y21.338 E20.74469
G1 X68.078 Y21.915 E20.76692
G1 X67.932 Y22.478 E20.78917
G1 X67.71 Y23.015 E20.81141
G1 X67.417 Y23.516 E20.83362
G1 X67.058 Y23.973 E20.85586
G1 X66.639 Y24.376 E20.87811
G1 X66.169 Y24.718 E20.90036
G1 X65.657 Y24.992 E20.92258
G1 X65.112 Y25.193 E20.94481
G1 X64.544 Y25.317 E20.96706
G1 X63.953 Y25.365 E20.98975
G1 X63.437 Y25.373 E21.0095
G1 X-36.531 Y25.373 E24.83523
G1 X-37.207 Y25.363 E24.8611
G1 X-37.786 Y25.314 E24.88334
G1 X-38.353 Y25.187 E24.90557
G1 X-38.897 Y24.982 E24.92782
G1 X-39.408 Y24.706 E24.95005
G1 X-39.876 Y24.361 E24.9723
G1 X-40.293 Y23.956 E24.99454
G1 X-40.65 Y23.498 E25.01677
G1 X-40.94 Y22.995 E25.03899
G1 X-41.159 Y22.456 E25.06125
G1 X-41.302 Y21.893 E25.08348
G1 X-41.366 Y21.316 E25.1057
G1 X-41.351 Y20.735 E25.12794
G1 X-41.256 Y20.162 E25.15017
G1 X-41.083 Y19.607 E25.17242
G1 X-40.823 Y19.058 E25.19566
G1 X-40.277 Y18.095 E25.23803
G0 F2040 X-39.976 Y18.274
G1 F1020 X10.841 Y-67.206 E29.04372
G1 X11.19 Y-67.776 E29.0693
G1 X11.514 Y-68.229 E29.09061
G1 X11.899 Y-68.63 E29.11189
G1 X12.338 Y-68.972 E29.13318
G1 X12.822 Y-69.248 E29.1545
G1 X13.339 Y-69.452 E29.17577
G1 X13.881 Y-69.579 E29.19708
G1 X14.435 Y-69.628 E29.21836
G1 X14.991 Y-69.596 E29.23968
G1 X15.536 Y-69.485 E29.26096
G1 X16.06 Y-69.298 E29.28225
G1 X16.552 Y-69.037 E29.30357
G1 X17.001 Y-68.709 E29.32485
G1 X17.398 Y-68.319 E29.34614
G1 X17.778 Y-67.812 E29.37039
G1 X18.09 Y-67.289 E29.3937
G1 X66.992 Y18.674 E33.17852
G1 X67.32 Y19.27 E33.20455
G1 X67.552 Y19.775 E33.22582
G1 X67.71 Y20.309 E33.24713
G1 X67.79 Y20.859 E33.2684
G1 X67.79 Y21.416 E33.28972
G1 X67.71 Y21.967 E33.31103
G1 X67.553 Y22.5 E33.33229
G1 X67.32 Y23.006 E33.35361
G1 X67.018 Y23.473 E33.37489
G1 X66.651 Y23.892 E33.39621
G1 X66.229 Y24.254 E33.41749
G1 X65.759 Y24.551 E33.43876
G1 X65.251 Y24.779 E33.46007
G1 X64.716 Y24.931 E33.48136
G1 X64.072 Y25.01 E33.50619
G1 X63.432 Y25.023 E33.53069
G1 X-36.526 Y25.023 E37.35603
G1 X-37.202 Y25.013 E37.3819
G1 X-37.757 Y24.964 E37.40323
G1 X-38.298 Y24.837 E37.42449
G1 X-38.816 Y24.634 E37.44578
G1 X-39.3 Y24.359 E37.46709
G1 X-39.739 Y24.017 E37.48838
G1 X-40.124 Y23.616 E37.50966
G1 X-40.449 Y23.163 E37.53099
G1 X-40.705 Y22.669 E37.55229
G1 X-40.887 Y22.144 E37.57355
G1 X-40.993 Y21.597 E37.59487
G1 X-41.019 Y21.042 E37.61614
G1 X-40.965 Y20.488 E37.63744
G1 X-40.833 Y19.947 E37.65875
G1 X-40.518 Y19.23 E37.68872
G1 X-39.976 Y18.274 E37.73078
G0 F2040 X-39.675 Y18.453
G1 F1020 X11.14 Y-67.024 E41.53633
G1 X11.489 Y-67.594 E41.56191
G1 X11.799 Y-68.024 E41.5822
G1 X12.171 Y-68.403 E41.60252
G1 X12.595 Y-68.722 E41.62282
G1 X13.062 Y-68.974 E41.64313
G1 X13.562 Y-69.152 E41.66344
G1 X14.083 Y-69.254 E41.68376
G1 X14.613 Y-69.276 E41.70406
G1 X15.14 Y-69.218 E41.72435
G1 X15.653 Y-69.082 E41.74466
G1 X16.14 Y-68.871 E41.76497
G1 X16.589 Y-68.589 E41.78526
G1 X16.991 Y-68.242 E41.80559
G1 X17.481 Y-67.626 E41.83571
G1 X17.788 Y-67.112 E41.85862
G1 X66.685 Y18.842 E45.64305
G1 X67.013 Y19.438 E45.66908
G1 X67.233 Y19.921 E45.6894
G1 X67.379 Y20.432 E45.70973
G1 X67.445 Y20.958 E45.73002
G1 X67.433 Y21.489 E45.75035
G1 X67.34 Y22.011 E45.77064
G1 X67.17 Y22.514 E45.79096
G1 X66.927 Y22.986 E45.81128
G1 X66.616 Y23.415 E45.83155
G1 X66.243 Y23.793 E45.85188
G1 X65.818 Y24.111 E45.87219
G1 X65.351 Y24.362 E45.89248
G1 X64.851 Y24.539 E45.91278
G1 X64.329 Y24.64 E45.93312
G1 X63.428 Y24.673 E45.96763
G1 X-36.521 Y24.673 E49.79263
G1 X-37.197 Y24.663 E49.8185
G1 X-37.726 Y24.615 E49.83883
G1 X-38.241 Y24.488 E49.85913
G1 X-38.732 Y24.286 E49.87945
G1 X-39.186 Y24.012 E49.89974
G1 X-39.594 Y23.673 E49.92004
G1 X-39.947 Y23.277 E49.94034
G1 X-40.236 Y22.832 E49.96065
G1 X-40.456 Y22.348 E49.981
G1 X-40.6 Y21.838 E50.00128
G1 X-40.666 Y21.311 E50.0216
G1 X-40.652 Y20.781 E50.04189
G1 X-40.558 Y20.258 E50.06223
G1 X-40.388 Y19.756 E50.08251
G1 X-40.213 Y19.403 E50.09759
G1 X-39.675 Y18.453 E50.13937
G0 F2040 X-39.374 Y18.632
G1 F1020 X11.438 Y-66.841 E53.94473
G1 X11.787 Y-67.411 E53.97031
G1 X12.083 Y-67.818 E53.98957
G1 X12.44 Y-68.173 E54.00884
G1 X12.849 Y-68.468 E54.02814
G1 X13.299 Y-68.694 E54.04741
G1 X13.779 Y-68.846 E54.06667
G1 X14.277 Y-68.921 E54.08595
G1 X14.78 Y-68.915 E54.1052
G1 X15.277 Y-68.83 E54.1245
G1 X15.754 Y-68.668 E54.14377
G1 X16.199 Y-68.432 E54.16305
G1 X16.601 Y-68.129 E54.18232
G1 X16.95 Y-67.766 E54.20159
G1 X17.254 Y-67.33 E54.22193
G1 X17.506 Y-66.902 E54.24093
G1 X66.379 Y19.011 E58.02355
G1 X66.707 Y19.607 E58.04958
G1 X66.914 Y20.066 E58.06885
G1 X67.046 Y20.552 E58.08812
G1 X67.099 Y21.053 E58.1074
G1 X67.072 Y21.556 E58.12668
G1 X66.967 Y22.048 E58.14593
G1 X66.785 Y22.518 E58.16522
G1 X66.53 Y22.953 E58.18452
G1 X66.211 Y23.342 E58.20377
G1 X65.834 Y23.675 E58.22302
G1 X65.408 Y23.945 E58.24232
G1 X64.946 Y24.144 E58.26157
G1 X64.458 Y24.268 E58.28084
G1 X63.913 Y24.316 E58.30178
G1 X63.424 Y24.323 E58.32049
G1 X-36.516 Y24.323 E62.14515
G1 X-37.192 Y24.313 E62.17102
G1 X-37.693 Y24.265 E62.19028
G1 X-38.181 Y24.139 E62.20957
G1 X-38.642 Y23.938 E62.22882
G1 X-39.066 Y23.666 E62.2481
G1 X-39.442 Y23.33 E62.26739
G1 X-39.759 Y22.939 E62.28666
G1 X-40.011 Y22.503 E62.30593
G1 X-40.191 Y22.033 E62.32519
G1 X-40.294 Y21.54 E62.34446
G1 X-40.318 Y21.037 E62.36374
G1 X-40.263 Y20.537 E62.38299
G1 X-40.128 Y20.051 E62.40229
G1 X-39.909 Y19.575 E62.42234
G1 X-39.374 Y18.632 E62.46383
G1 F3600 E58.66383
;MESH:support_tri_0_008.stl
G0 F2040 X-37.218 Y19.917
G0 X-36.328 Y20.445
G0 X63.041 Y20.623
;TYPE:WALL-INNER
G1 F3600 E62.46383
G1 F1020 X-36.253 Y20.623 E66.26377
G1 X14.486 Y-64.728 E70.06369
G1 X63.041 Y20.623 E73.82159
G0 F2040 X63.599 Y20.948
;TYPE:WALL-OUTER
G1 F1020 X-36.824 Y20.948 E77.66473
G1 X14.492 Y-65.374 E81.50788
G1 X63.599 Y20.948 E85.30852
G0 F2040 X63.399 Y20.948
G0 X63.256 Y20.748
G0 X62.456 Y20.283
;TYPE:SKIN
G1 F1020 X-35.656 Y20.283 E89.06322
G1 X14.479 Y-64.052 E92.81791
G1 X62.456 Y20.283 E96.53107
G0 F2040 X14.287 Y-63.423
G1 F1020 X15.139 Y-62.571 E96.57719
G1 X15.201 Y-62.509
G0 F2040 X14.102 Y-63.113
G1 F1020 X15.793 Y-61.422 E96.6687
G1 X15.855 Y-61.36
G0 F2040 X16.445 Y-60.275
G1 F1020 X13.917 Y-62.803 E96.80552
G0 F2040 X13.733 Y-62.492
G1 F1020 X17.099 Y-59.126 E96.98769
G1 X17.161 Y-59.064
G0 F2040 X17.752 Y-57.978
G1 F1020 X13.548 Y-62.182 E97.21522
G0 F2040 X13.364 Y-61.871
G1 F1020 X18.405 Y-56.83 E97.48805
G1 X18.467 Y-56.768
G0 F2040 X19.058 Y-55.682
G1 F1020 X13.179 Y-61.561 E97.80623
G0 F2040 X12.995 Y-61.251
G1 F1020 X19.712 Y-54.534 E98.16976
G1 X19.774 Y-54.472
G0 F2040 X20.365 Y-53.385
G1 F1020 X12.81 Y-60.94 E98.57864
G0 F2040 X12.626 Y-60.63
G1 F1020 X21.018 Y-52.238 E99.03283
G1 X21.08 Y-52.176
G0 F2040 X21.671 Y-51.089
G1 F1020 X12.441 Y-60.319 E99.53237
G0 F2040 X12.256 Y-60.009
G1 F1020 X22.324 Y-49.941 E100.07726
G1 X22.386 Y-49.879
G0 F2040 X22.977 Y-48.793
G1 F1020 X12.072 Y-59.698 E100.66745
G0 F2040 X11.887 Y-59.388
G1 F1020 X23.63 Y-47.645 E101.303
G1 X23.692 Y-47.583
G0 F2040 X24.284 Y-46.497
G1 F1020 X11.703 Y-59.078 E101.9839
G0 F2040 X11.518 Y-58.767
G1 F1020 X24.936 Y-45.349 E102.7101
G1 X24.998 Y-45.287
G0 F2040 X25.59 Y-44.201
G1 F1020 X11.334 Y-58.457 E103.48165
G0 F2040 X11.149 Y-58.146
G1 F1020 X26.243 Y-43.052 E104.29856
G1 X26.305 Y-42.99
G0 F2040 X26.896 Y-41.904
G1 F1020 X10.965 Y-57.836 E105.16079
G0 F2040 X10.78 Y-57.525
G1 F1020 X27.549 Y-40.756 E106.06835
G1 X27.611 Y-40.694
G0 F2040 X28.202 Y-39.608
G1 F1020 X10.595 Y-57.215 E107.02126
G0 F2040 X10.411 Y-56.905
G1 F1020 X28.856 Y-38.46 E108.01953
G1 X28.918 Y-38.398
G0 F2040 X29.508 Y-37.312
G1 F1020 X10.226 Y-56.594 E109.0631
G0 F2040 X10.043 Y-56.283
G1 F1020 X30.162 Y-36.164 E110.15196
G1 X30.224 Y-36.102
G0 F2040 X30.815 Y-35.015
G1 F1020 X9.858 Y-55.973 E111.28621
G0 F2040 X9.673 Y-55.662
G1 F1020 X31.468 Y-33.868 E112.46576
G1 X31.53 Y-33.806
G0 F2040 X32.121 Y-32.719
G1 F1020 X9.489 Y-55.352 E113.69066
G0 F2040 X9.304 Y-55.041
G1 F1020 X32.775 Y-31.571 E114.96091
G1 X32.837 Y-31.509
G0 F2040 X33.428 Y-30.423
G1 F1020 X9.12 Y-54.731 E116.27649
G0 F2040 X8.935 Y-54.421
G1 F1020 X34.081 Y-29.275 E117.63742
G1 X34.143 Y-29.213
G0 F2040 X34.734 Y-28.127
G1 F1020 X8.751 Y-54.11 E119.04366
G0 F2040 X8.566 Y-53.8
G1 F1020 X35.387 Y-26.978 E120.49527
G1 X35.449 Y-26.916
G0 F2040 X36.04 Y-25.831
G1 F1020 X8.382 Y-53.489 E121.99216
G0 F2040 X8.197 Y-53.179
G1 F1020 X36.693 Y-24.682 E123.53442
G1 X36.755 Y-24.62
G0 F2040 X37.347 Y-23.534
G1 F1020 X8.012 Y-52.868 E125.12204
G0 F2040 X7.828 Y-52.558
G1 F1020 X37.999 Y-22.387 E126.75494
G1 X38.061 Y-22.325
G0 F2040 X38.653 Y-21.238
G1 F1020 X7.643 Y-52.248 E128.43324
G0 F2040 X7.459 Y-51.937
G1 F1020 X39.306 Y-20.09 E130.15684
G1 X39.368 Y-20.028
G0 F2040 X39.959 Y-18.942
G1 F1020 X7.274 Y-51.627 E131.92579
G0 F2040 X7.09 Y-51.316
G1 F1020 X40.612 Y-17.794 E133.74005
G1 X40.674 Y-17.732
G0 F2040 X41.266 Y-16.646
G1 F1020 X6.905 Y-51.006 E135.59968
G0 F2040 X6.721 Y-50.696
G1 F1020 X41.919 Y-15.497 E137.50467
G1 X41.981 Y-15.435
G0 F2040 X42.572 Y-14.35
G1 F1020 X6.536 Y-50.385 E139.45495
G0 F2040 X6.351 Y-50.075
G1 F1020 X43.225 Y-13.201 E141.45062
G1 X43.287 Y-13.139
G0 F2040 X43.878 Y-12.053
G1 F1020 X6.167 Y-49.764 E143.49159
G0 F2040 X5.982 Y-49.454
G1 F1020 X44.531 Y-10.905 E145.57791
G1 X44.593 Y-10.843
G0 F2040 X45.184 Y-9.757
G1 F1020 X5.798 Y-49.143 E147.70953
G0 F2040 X5.613 Y-48.833
G1 F1020 X45.838 Y-8.609 E149.88653
G1 X45.9 Y-8.547
G0 F2040 X46.49 Y-7.461
G1 F1020 X5.429 Y-48.523 E152.10883
G0 F2040 X5.244 Y-48.212
G1 F1020 X47.144 Y-6.313 E154.37649
G1 X47.206 Y-6.251
G0 F2040 X47.797 Y-5.164
G1 F1020 X5.06 Y-47.902 E156.68949
G0 F2040 X4.875 Y-47.591
G1 F1020 X48.45 Y-4.016 E159.04783
G1 X48.512 Y-3.954
G0 F2040 X49.103 Y-2.868
G1 F1020 X4.69 Y-47.281 E161.45152
G0 F2040 X4.506 Y-46.97
G1 F1020 X49.756 Y-1.72 E163.90051
G1 X49.818 Y-1.658
G0 F2040 X50.41 Y-.572
G1 F1020 X4.321 Y-46.66 E166.39487
G0 F2040 X4.137 Y-46.35
G1 F1020 X51.063 Y0.575 E168.93454
G1 X51.125 Y0.637
G0 F2040 X51.716 Y1.723
G1 F1020 X3.952 Y-46.039 E171.51954
G0 F2040 X3.768 Y-45.729
G1 F1020 X52.369 Y2.872 E174.14988
G1 X52.431 Y2.934
G0 F2040 X53.022 Y4.019
G1 F1020 X3.583 Y-45.418 E176.82553
G0 F2040 X3.399 Y-45.108
G1 F1020 X53.675 Y5.168 E179.54653
G1 X53.737 Y5.23
G0 F2040 X54.329 Y6.316
G1 F1020 X3.214 Y-44.798 E182.31291
G0 F2040 X3.029 Y-44.487
G1 F1020 X54.981 Y7.464 E185.1246
G1 X55.043 Y7.526
G0 F2040 X55.635 Y8.612
G1 F1020 X2.845 Y-44.177 E187.98163
G0 F2040 X2.66 Y-43.866
G1 F1020 X56.288 Y9.76 E190.88399
G1 X56.35 Y9.822
G0 F2040 X56.941 Y10.909
G1 F1020 X2.476 Y-43.556 E193.83171
G0 F2040 X2.291 Y-43.245
G1 F1020 X57.594 Y12.056 E196.82472
G1 X57.656 Y12.118
G0 F2040 X58.247 Y13.205
G1 F1020 X2.107 Y-42.935 E199.86309
G0 F2040 X1.922 Y-42.625
G1 F1020 X58.901 Y14.353 E202.94684
G1 X58.963 Y14.415
G0 F2040 X59.553 Y15.501
G1 F1020 X1.738 Y-42.314 E206.07586
G0 F2040 X1.553 Y-42.004
G1 F1020 X60.207 Y16.649 E209.25026
G1 X60.269 Y16.711
G0 F2040 X60.86 Y17.797
G1 F1020 X1.368 Y-41.693 E212.46999
G0 F2040 X1.184 Y-41.383
G1 F1020 X61.513 Y18.945 E215.73505
G1 X61.575 Y19.007
G0 F2040 X61.703 Y20.125
G1 F1020 X0.815 Y-40.762 E219.03036
G0 F2040 X0.999 Y-41.073
G1 F1020 X62.166 Y20.093 E222.34077
G1 X62.228 Y20.155
G0 F2040 X61.208 Y20.125
G1 F1020 X0.631 Y-40.451 E225.61924
G0 F2040 X0.446 Y-40.141
G1 F1020 X60.713 Y20.125 E228.88094
G0 F2040 X60.218 Y20.125
G1 F1020 X0.262 Y-39.83 E232.12581
G0 F2040 X0.077 Y-39.52
G1 F1020 X59.723 Y20.125 E235.3539
G0 F2040 X59.228 Y20.125
G1 F1020 X-.106 Y-39.209 E238.56513
G0 F2040 X-.291 Y-38.899
G1 F1020 X58.733 Y20.125 E241.75959
G0 F2040 X58.238 Y20.125
G1 F1020 X-.475 Y-38.588 E244.93721
G0 F2040 X-.66 Y-38.278
G1 F1020 X57.743 Y20.125 E248.09805
G0 F2040 X57.248 Y20.125
G1 F1020 X-.844 Y-37.968 E251.24209
G0 F2040 X-1.029 Y-37.657
G1 F1020 X56.753 Y20.125 E254.36933
G0 F2040 X56.258 Y20.125
G1 F1020 X-1.214 Y-37.347 E257.47979
G0 F2040 X-1.398 Y-37.036
G1 F1020 X55.763 Y20.125 E260.57341
G0 F2040 X55.268 Y20.125
G1 F1020 X-1.583 Y-36.726 E263.65026
G0 F2040 X-1.767 Y-36.415
G1 F1020 X54.773 Y20.125 E266.71028
G0 F2040 X54.278 Y20.125
G1 F1020 X-1.952 Y-36.105 E269.75352
G0 F2040 X-2.136 Y-35.795
G1 F1020 X53.783 Y20.125 E272.77995
G0 F2040 X53.288 Y20.125
G1 F1020 X-2.321 Y-35.484 E275.78958
G0 F2040 X-2.505 Y-35.174
G1 F1020 X52.794 Y20.125 E278.78243
G0 F2040 X52.299 Y20.125
G1 F1020 X-2.69 Y-34.863 E281.75848
G0 F2040 X-2.875 Y-34.553
G1 F1020 X51.804 Y20.125 E284.71775
G0 F2040 X51.309 Y20.125
G1 F1020 X-3.059 Y-34.243 E287.66022
G0 F2040 X-3.244 Y-33.932
G1 F1020 X50.814 Y20.125 E290.58588
G0 F2040 X50.319 Y20.125
G1 F1020 X-3.428 Y-33.622 E293.49473
G0 F2040 X-3.613 Y-33.311
G1 F1020 X49.824 Y20.125 E296.38679
G0 F2040 X49.329 Y20.125
G1 F1020 X-3.797 Y-33.001 E299.26203
G0 F2040 X-3.982 Y-32.69
G1 F1020 X48.834 Y20.125 E302.12048
G0 F2040 X48.339 Y20.125
G1 F1020 X-4.166 Y-32.38 E304.96211
G0 F2040 X-4.351 Y-32.07
G1 F1020 X47.844 Y20.125 E307.78697
G0 F2040 X47.349 Y20.125
G1 F1020 X-4.536 Y-31.759 E310.59503
G0 F2040 X-4.72 Y-31.449
G1 F1020 X46.854 Y20.125 E313.38628
G0 F2040 X46.359 Y20.125
G1 F1020 X-4.905 Y-31.138 E316.16072
G0 F2040 X-5.089 Y-30.828
G1 F1020 X45.864 Y20.125 E318.91837
G0 F2040 X45.369 Y20.125
G1 F1020 X-5.274 Y-30.518 E321.65923
G0 F2040 X-5.458 Y-30.207
