;FLAVOR:Marlin
;TIME:6273
;Filament used: 8.02384m
;Layer height: 0.3
;MINX:-53.027
;MINY:-45.651
;MINZ:0.26
;MAXX:59.148
;MAXY:50.917
;MAXZ:22.76
;Generated with Cura_SteamEngine 4.9.1
M82 ;absolute extrusion mode
;Gcode by Cura
G90
G28
M107
M109 R100
G30
M109 S215 U-55 X55 V-85 Y-85 W0.26 Z0.26
M82
G92 E0
G1 F200 E6
G92 E0
G1 F200 E-3.5
G0 Z0.15
G0 X10
G0 Z3
G1 F6000
G92 E0
G92 E0
G1 F3600 E-3.8
;LAYER_COUNT:76
;LAYER:0
M107
G0 F2040 X1.693 Y47.954 Z0.26
;TYPE:SKIRT
G1 F3600 E0
G1 F1020 X-52.048 Y-38.164 E3.88476
G1 X-52.37 Y-38.698 E3.90863
G1 X-52.647 Y-39.235 E3.93175
G1 X-52.851 Y-39.804 E3.95488
G1 X-52.978 Y-40.395 E3.97802
G1 X-53.027 Y-40.998 E4.00117
G1 X-52.995 Y-41.602 E4.02432
G1 X-52.884 Y-42.196 E4.04744
G1 X-52.695 Y-42.771 E4.0706
G1 X-52.433 Y-43.315 E4.09371
G1 X-52.1 Y-43.82 E4.11686
G1 X-51.704 Y-44.277 E4.14
G1 X-51.252 Y-44.678 E4.16313
G1 X-50.75 Y-45.016 E4.18629
G1 X-50.208 Y-45.284 E4.20943
G1 X-49.636 Y-45.479 E4.23255
G1 X-49.043 Y-45.597 E4.25569
G1 X-48.535 Y-45.634 E4.27518
G1 X-47.569 Y-45.651 E4.31216
G1 X53.964 Y-45.651 E8.19778
G1 X54.642 Y-45.641 E8.22373
G1 X55.245 Y-45.592 E8.24688
G1 X55.836 Y-45.464 E8.27002
G1 X56.405 Y-45.259 E8.29317
G1 X56.942 Y-44.981 E8.31631
G1 X57.438 Y-44.635 E8.33945
G1 X57.883 Y-44.226 E8.36258
G1 X58.271 Y-43.762 E8.38573
G1 X58.594 Y-43.251 E8.40886
G1 X58.847 Y-42.702 E8.432
G1 X59.026 Y-42.124 E8.45515
G1 X59.127 Y-41.528 E8.47829
G1 X59.148 Y-40.924 E8.50142
G1 X59.089 Y-40.322 E8.52457
G1 X58.952 Y-39.733 E8.54771
G1 X58.619 Y-38.926 E8.58112
G1 X58.112 Y-37.97 E8.62253
G1 X10.399 Y48.047 E12.38687
G1 X10.073 Y48.616 E12.41197
G1 X9.738 Y49.12 E12.43512
G1 X9.34 Y49.575 E12.45826
G1 X8.885 Y49.974 E12.48142
G1 X8.382 Y50.309 E12.50455
G1 X7.839 Y50.575 E12.52769
G1 X7.266 Y50.767 E12.55081
G1 X6.672 Y50.881 E12.57396
G1 X6.068 Y50.917 E12.59712
G1 X5.465 Y50.872 E12.62026
G1 X4.874 Y50.749 E12.64336
G1 X4.303 Y50.548 E12.66652
G1 X3.764 Y50.274 E12.68966
G1 X3.266 Y49.931 E12.71281
G1 X2.818 Y49.526 E12.73592
G1 X2.273 Y48.844 E12.76933
G1 X1.693 Y47.954 E12.80998
G0 F2040 X1.99 Y47.769
G1 F1020 X-51.748 Y-38.344 E16.69452
G1 X-52.07 Y-38.878 E16.71838
G1 X-52.335 Y-39.395 E16.74062
G1 X-52.527 Y-39.944 E16.76288
G1 X-52.641 Y-40.513 E16.78508
G1 X-52.677 Y-41.093 E16.80732
G1 X-52.632 Y-41.673 E16.82959
G1 X-52.509 Y-42.24 E16.85179
G1 X-52.308 Y-42.786 E16.87406
G1 X-52.035 Y-43.299 E16.89629
G1 X-51.694 Y-43.769 E16.91852
G1 X-51.292 Y-44.188 E16.94074
G1 X-50.836 Y-44.548 E16.96297
G1 X-50.335 Y-44.842 E16.9852
G1 X-49.798 Y-45.065 E17.00745
G1 X-49.236 Y-45.212 E17.02969
G1 X-48.529 Y-45.284 E17.05688
G1 X-47.569 Y-45.301 E17.09363
G1 X53.959 Y-45.301 E20.97905
G1 X54.637 Y-45.291 E21.005
G1 X55.216 Y-45.242 E21.02724
G1 X55.783 Y-45.115 E21.04948
G1 X56.327 Y-44.911 E21.07171
G1 X56.838 Y-44.634 E21.09396
G1 X57.306 Y-44.29 E21.11618
G1 X57.723 Y-43.884 E21.13846
G1 X58.08 Y-43.426 E21.16068
G1 X58.37 Y-42.923 E21.1829
G1 X58.589 Y-42.384 E21.20516
G1 X58.732 Y-41.821 E21.22739
G1 X58.796 Y-41.244 E21.24961
G1 X58.781 Y-40.663 E21.27185
G1 X58.686 Y-40.09 E21.29408
G1 X58.513 Y-39.535 E21.31633
G1 X58.31 Y-39.09 E21.33505
G1 X57.806 Y-38.14 E21.3762
G1 X10.095 Y47.873 E25.14037
G1 X9.769 Y48.442 E25.16547
G1 X9.446 Y48.925 E25.1877
G1 X9.06 Y49.36 E25.20996
G1 X8.618 Y49.737 E25.23219
G1 X8.129 Y50.05 E25.25441
G1 X7.601 Y50.293 E25.27665
G1 X7.045 Y50.461 E25.29888
G1 X6.471 Y50.551 E25.32112
G1 X5.89 Y50.562 E25.34336
G1 X5.313 Y50.492 E25.3656
G1 X4.751 Y50.345 E25.38783
G1 X4.214 Y50.121 E25.4101
G1 X3.714 Y49.827 E25.43229
G1 X3.258 Y49.466 E25.45455
G1 X2.857 Y49.046 E25.47677
G1 X2.566 Y48.652 E25.49552
G1 X1.99 Y47.769 E25.53587
G0 F2040 X2.287 Y47.583
G1 F1020 X-51.448 Y-38.525 E29.42018
G1 X-51.77 Y-39.059 E29.44405
G1 X-52.023 Y-39.555 E29.46535
G1 X-52.202 Y-40.082 E29.48665
G1 X-52.303 Y-40.629 E29.50794
G1 X-52.325 Y-41.185 E29.52924
G1 X-52.267 Y-41.738 E29.55051
G1 X-52.131 Y-42.278 E29.57183
G1 X-51.918 Y-42.792 E29.59312
G1 X-51.635 Y-43.271 E29.61441
G1 X-51.285 Y-43.704 E29.63572
G1 X-50.877 Y-44.082 E29.657
G1 X-50.419 Y-44.398 E29.6783
G1 X-49.921 Y-44.646 E29.69959
G1 X-49.392 Y-44.819 E29.72089
G1 X-48.844 Y-44.915 E29.74218
G1 X-48.522 Y-44.934 E29.75452
G1 X-47.569 Y-44.951 E29.791
G1 X53.954 Y-44.951 E33.67624
G1 X54.632 Y-44.941 E33.70218
G1 X55.186 Y-44.892 E33.72347
G1 X55.728 Y-44.765 E33.74477
G1 X56.246 Y-44.562 E33.76606
G1 X56.73 Y-44.287 E33.78737
G1 X57.169 Y-43.945 E33.80866
G1 X57.554 Y-43.544 E33.82994
G1 X57.878 Y-43.092 E33.85122
G1 X58.134 Y-42.598 E33.87251
G1 X58.317 Y-42.072 E33.89383
G1 X58.423 Y-41.526 E33.91511
G1 X58.449 Y-40.97 E33.93641
G1 X58.395 Y-40.416 E33.95772
G1 X58.263 Y-39.876 E33.97899
G1 X58 Y-39.254 E34.00483
G1 X57.5 Y-38.309 E34.04575
G1 X9.791 Y47.699 E37.80971
G1 X9.465 Y48.268 E37.83481
G1 X9.155 Y48.73 E37.8561
G1 X8.781 Y49.142 E37.87739
G1 X8.353 Y49.497 E37.89867
G1 X7.877 Y49.787 E37.92001
G1 X7.366 Y50.005 E37.94127
G1 X6.828 Y50.149 E37.96258
G1 X6.275 Y50.213 E37.98388
G1 X5.719 Y50.198 E38.00517
G1 X5.171 Y50.103 E38.02645
G1 X4.642 Y49.931 E38.04774
G1 X4.143 Y49.685 E38.06903
G1 X3.684 Y49.369 E38.09036
G1 X3.276 Y48.992 E38.11162
G1 X2.859 Y48.461 E38.13746
G1 X2.287 Y47.583 E38.17756
G0 F2040 X2.584 Y47.398
G1 F1020 X-51.149 Y-38.706 E42.0617
G1 X-51.471 Y-39.24 E42.08557
G1 X-51.71 Y-39.714 E42.10588
G1 X-51.875 Y-40.218 E42.12618
G1 X-51.963 Y-40.741 E42.14648
G1 X-51.971 Y-41.272 E42.1668
G1 X-51.899 Y-41.798 E42.18712
G1 X-51.749 Y-42.307 E42.20742
G1 X-51.525 Y-42.787 E42.22769
G1 X-51.231 Y-43.229 E42.24801
G1 X-50.873 Y-43.622 E42.26835
G1 X-50.461 Y-43.956 E42.28865
G1 X-50.004 Y-44.225 E42.30895
G1 X-49.511 Y-44.422 E42.32926
G1 X-48.995 Y-44.543 E42.34955
G1 X-48.516 Y-44.584 E42.36794
G1 X-47.569 Y-44.601 E42.40419
G1 X53.949 Y-44.601 E46.28924
G1 X54.627 Y-44.591 E46.31519
G1 X55.155 Y-44.543 E46.33548
G1 X55.671 Y-44.416 E46.35581
G1 X56.161 Y-44.214 E46.3761
G1 X56.616 Y-43.94 E46.39642
G1 X57.024 Y-43.601 E46.41672
G1 X57.377 Y-43.205 E46.43702
G1 X57.666 Y-42.76 E46.45733
G1 X57.886 Y-42.277 E46.47764
G1 X58.03 Y-41.766 E46.49796
G1 X58.096 Y-41.239 E46.51828
G1 X58.082 Y-40.709 E46.53857
G1 X57.989 Y-40.187 E46.55886
G1 X57.818 Y-39.684 E46.5792
G1 X57.691 Y-39.418 E46.59048
G1 X57.194 Y-38.479 E46.63114
G1 X9.488 Y47.525 E50.39491
G1 X9.162 Y48.094 E50.42
G1 X8.864 Y48.534 E50.44034
G1 X8.504 Y48.923 E50.46063
G1 X8.089 Y49.254 E50.48094
G1 X7.629 Y49.519 E50.50126
G1 X7.135 Y49.713 E50.52157
G1 X6.617 Y49.829 E50.54188
G1 X6.088 Y49.867 E50.56218
G1 X5.559 Y49.825 E50.58249
G1 X5.042 Y49.704 E50.60281
G1 X4.55 Y49.506 E50.6231
G1 X4.092 Y49.237 E50.64343
G1 X3.68 Y48.903 E50.66373
G1 X3.324 Y48.51 E50.68402
G1 X3.152 Y48.269 E50.69535
G1 X2.584 Y47.398 E50.73515
G0 F2040 X2.88 Y47.213
G1 F1020 X-50.849 Y-38.886 E54.61905
G1 X-51.171 Y-39.42 E54.64291
G1 X-51.396 Y-39.871 E54.6622
G1 X-51.547 Y-40.351 E54.68146
G1 X-51.62 Y-40.85 E54.70076
G1 X-51.613 Y-41.353 E54.72001
G1 X-51.527 Y-41.849 E54.73927
G1 X-51.364 Y-42.326 E54.75856
G1 X-51.127 Y-42.77 E54.77782
G1 X-50.823 Y-43.172 E54.79711
G1 X-50.459 Y-43.52 E54.81638
G1 X-50.045 Y-43.806 E54.83564
G1 X-49.591 Y-44.024 E54.85491
G1 X-49.108 Y-44.167 E54.87419
G1 X-48.51 Y-44.234 E54.89722
G1 X-47.569 Y-44.251 E54.93324
G1 X53.944 Y-44.251 E58.81809
G1 X54.622 Y-44.241 E58.84404
G1 X55.123 Y-44.193 E58.8633
G1 X55.611 Y-44.067 E58.88259
G1 X56.072 Y-43.866 E58.90184
G1 X56.496 Y-43.594 E58.92111
G1 X56.872 Y-43.258 E58.94041
G1 X57.189 Y-42.868 E58.95965
G1 X57.441 Y-42.432 E58.97892
G1 X57.621 Y-41.961 E58.99821
G1 X57.724 Y-41.468 E59.01749
G1 X57.748 Y-40.965 E59.03676
G1 X57.693 Y-40.465 E59.05601
G1 X57.558 Y-39.979 E59.07531
G1 X57.381 Y-39.581 E59.09198
G1 X56.887 Y-38.649 E59.13235
G1 X9.184 Y47.351 E62.89593
G1 X8.858 Y47.92 E62.92103
G1 X8.574 Y48.336 E62.94031
G1 X8.227 Y48.702 E62.95961
G1 X7.828 Y49.008 E62.97885
G1 X7.384 Y49.247 E62.99815
G1 X6.909 Y49.413 E63.0174
G1 X6.413 Y49.502 E63.03669
G1 X5.91 Y49.511 E63.05594
G1 X5.411 Y49.441 E63.07523
G1 X4.93 Y49.292 E63.0945
G1 X4.478 Y49.07 E63.11377
G1 X4.067 Y48.778 E63.13306
G1 X3.708 Y48.426 E63.1523
G1 X3.445 Y48.078 E63.169
G1 X2.88 Y47.213 E63.20854
G1 F3600 E59.40854
;MESH:support_tri_0_069.stl
G0 F2040 X5.011 Y45.886
G0 X5.872 Y45.347
G0 X6.071 Y45.336
;TYPE:WALL-INNER
G1 F3600 E63.20854
G1 F1020 X-47.526 Y-40.551 E67.08288
G1 X53.712 Y-40.551 E70.95721
G1 X6.071 Y45.336 E74.71586
G0 F2040 X6.087 Y45.977
;TYPE:WALL-OUTER
G1 F1020 X-48.112 Y-40.876 E78.63377
G1 X54.264 Y-40.876 E82.55165
G1 X6.087 Y45.977 E86.35258
G0 F2040 X5.982 Y45.808
G0 X6.078 Y45.582
G0 X6.054 Y44.666
;TYPE:SKIN
G1 F1020 X-46.914 Y-40.211 E90.18139
G1 X53.135 Y-40.211 E94.01021
G1 X6.054 Y44.666 E97.72467
G0 F2040 X6.116 Y44.229
G1 F1020 X5.719 Y43.832 E97.74616
G0 F2040 X6.292 Y43.91
G1 F1020 X4.897 Y42.515 E97.82166
G1 X4.835 Y42.453
G0 F2040 X4.075 Y41.198
G1 F1020 X6.469 Y43.592 E97.95122
G0 F2040 X6.646 Y43.274
G1 F1020 X3.254 Y39.882 E98.1348
G1 X3.192 Y39.82
G0 F2040 X2.432 Y38.565
G1 F1020 X6.822 Y42.956 E98.37242
G0 F2040 X6.998 Y42.637
G1 F1020 X1.61 Y37.248 E98.66405
G1 X1.548 Y37.186
G0 F2040 X0.789 Y35.932
G1 F1020 X7.175 Y42.318 E99.00967
G0 F2040 X7.352 Y42
G1 F1020 X-0.032 Y34.615 E99.40933
G1 X-0.094 Y34.553
G0 F2040 X-.854 Y33.299
G1 F1020 X7.529 Y41.682 E99.86303
G0 F2040 X7.705 Y41.363
G1 F1020 X-1.675 Y31.982 E100.37071
G1 X-1.737 Y31.92
G0 F2040 X-2.497 Y30.665
G1 F1020 X7.882 Y41.045 E100.93246
G0 F2040 X8.058 Y40.727
G1 F1020 X-3.319 Y29.349 E101.54823
G1 X-3.381 Y29.287
G0 F2040 X-4.14 Y28.032
G1 F1020 X8.235 Y40.409 E102.21803
G0 F2040 X8.411 Y40.09
G1 F1020 X-4.962 Y26.715 E102.94185
G1 X-5.024 Y26.653
G0 F2040 X-5.784 Y25.398
G1 F1020 X8.588 Y39.771 E103.71971
G0 F2040 X8.765 Y39.453
G1 F1020 X-6.606 Y24.081 E104.55164
G1 X-6.668 Y24.019
G0 F2040 X-7.428 Y22.765
G1 F1020 X8.942 Y39.135 E105.4376
G0 F2040 X9.118 Y38.817
G1 F1020 X-8.249 Y21.448 E106.37758
G1 X-8.311 Y21.386
G0 F2040 X-9.071 Y20.132
G1 F1020 X9.294 Y38.498 E107.37154
G0 F2040 X9.471 Y38.18
G1 F1020 X-9.893 Y18.815 E108.41957
G1 X-9.955 Y18.753
G0 F2040 X-10.714 Y17.498
G1 F1020 X9.648 Y37.862 E109.52165
G0 F2040 X9.825 Y37.543
G1 F1020 X-11.536 Y16.182 E110.67773
G1 X-11.598 Y16.12
G0 F2040 X-12.358 Y14.865
G1 F1020 X10.001 Y37.224 E111.88783
G0 F2040 X10.178 Y36.906
G1 F1020 X-13.179 Y13.548 E113.15197
G1 X-13.241 Y13.486
G0 F2040 X-14.001 Y12.232
G1 F1020 X10.354 Y36.588 E114.47012
G0 F2040 X10.531 Y36.27
G1 F1020 X-14.823 Y10.915 E115.84233
G1 X-14.885 Y10.853
G0 F2040 X-15.644 Y9.598
G1 F1020 X10.707 Y35.951 E117.26854
G0 F2040 X10.884 Y35.633
G1 F1020 X-16.466 Y8.282 E118.74878
G1 X-16.528 Y8.22
G0 F2040 X-17.288 Y6.965
G1 F1020 X11.061 Y35.315 E120.28309
G0 F2040 X11.238 Y34.996
G1 F1020 X-18.109 Y5.649 E121.87139
G1 X-18.171 Y5.587
G0 F2040 X-18.931 Y4.332
G1 F1020 X11.414 Y34.677 E123.5137
G0 F2040 X11.59 Y34.359
G1 F1020 X-19.753 Y3.015 E125.21005
G1 X-19.815 Y2.953
G0 F2040 X-20.574 Y1.699
G1 F1020 X11.767 Y34.041 E126.96041
G0 F2040 X11.944 Y33.723
G1 F1020 X-21.396 Y0.382 E128.76484
G1 X-21.458 Y0.32
G0 F2040 X-22.218 Y-.934
G1 F1020 X12.12 Y33.404 E130.62326
G0 F2040 X12.297 Y33.086
G1 F1020 X-23.039 Y-2.25 E132.53569
G1 X-23.101 Y-2.312
G0 F2040 X-23.861 Y-3.567
G1 F1020 X12.474 Y32.768 E134.50219
G0 F2040 X12.65 Y32.449
G1 F1020 X-24.682 Y-4.883 E136.52264
G1 X-24.744 Y-4.945
G0 F2040 X-25.504 Y-6.2
G1 F1020 X12.826 Y32.13 E138.59711
G0 F2040 X13.003 Y31.812
G1 F1020 X-26.326 Y-7.517 E140.72565
G1 X-26.388 Y-7.579
G0 F2040 X-27.148 Y-8.834
G1 F1020 X13.18 Y31.494 E142.90825
G0 F2040 X13.357 Y31.176
G1 F1020 X-27.97 Y-10.151 E145.14492
G1 X-28.032 Y-10.213
G0 F2040 X-28.791 Y-11.467
G1 F1020 X13.533 Y30.857 E147.43555
G0 F2040 X13.71 Y30.539
G1 F1020 X-29.613 Y-12.784 E149.78024
G1 X-29.675 Y-12.846
G0 F2040 X-30.435 Y-14.101
G1 F1020 X13.886 Y30.221 E152.17898
G0 F2040 X14.063 Y29.902
G1 F1020 X-31.256 Y-15.417 E154.6317
G1 X-31.318 Y-15.479
G0 F2040 X-32.078 Y-16.734
G1 F1020 X14.239 Y29.583 E157.13844
G0 F2040 X14.416 Y29.265
G1 F1020 X-32.9 Y-18.051 E159.69924
G1 X-32.962 Y-18.113
G0 F2040 X-33.721 Y-19.367
G1 F1020 X14.593 Y28.947 E162.31405
G0 F2040 X14.77 Y28.629
G1 F1020 X-34.543 Y-20.684 E164.98294
G1 X-34.605 Y-20.746
G0 F2040 X-35.365 Y-22
G1 F1020 X14.946 Y28.31 E167.7058
G0 F2040 X15.122 Y27.992
G1 F1020 X-36.186 Y-23.317 E170.48269
G1 X-36.248 Y-23.379
G0 F2040 X-37.008 Y-24.634
G1 F1020 X15.299 Y27.674 E173.31363
G0 F2040 X15.476 Y27.355
G1 F1020 X-37.83 Y-25.95 E176.1986
G1 X-37.892 Y-26.012
G0 F2040 X-38.651 Y-27.267
G1 F1020 X15.652 Y27.036 E179.13754
G0 F2040 X15.829 Y26.718
G1 F1020 X-39.473 Y-28.584 E182.13056
G1 X-39.535 Y-28.646
G0 F2040 X-40.295 Y-29.9
G1 F1020 X16.006 Y26.4 E185.17761
G0 F2040 X16.182 Y26.082
G1 F1020 X-41.116 Y-31.217 E188.27868
G1 X-41.178 Y-31.279
G0 F2040 X-41.938 Y-32.533
G1 F1020 X16.358 Y25.763 E191.43373
G0 F2040 X16.535 Y25.445
G1 F1020 X-42.76 Y-33.85 E194.64286
G1 X-42.822 Y-33.912
G0 F2040 X-43.581 Y-35.167
G1 F1020 X16.712 Y25.127 E197.90602
G0 F2040 X16.889 Y24.808
G1 F1020 X-44.403 Y-36.483 E201.22319
G1 X-44.465 Y-36.545
G0 F2040 X-45.225 Y-37.8
G1 F1020 X17.065 Y24.489 E204.59438
G0 F2040 X17.242 Y24.171
G1 F1020 X-46.046 Y-39.117 E208.0196
G1 X-46.108 Y-39.179
G0 F2040 X-45.993 Y-40.054
G1 F1020 X17.595 Y23.535 E211.4611
G0 F2040 X17.418 Y23.853
G1 F1020 X-46.488 Y-40.054 E214.9198
G1 X-46.55 Y-40.116
G0 F2040 X-45.498 Y-40.054
G1 F1020 X17.771 Y23.216 E218.34402
G0 F2040 X17.948 Y22.898
G1 F1020 X-45.003 Y-40.054 E221.75104
G0 F2040 X-44.508 Y-40.054
G1 F1020 X18.125 Y22.58 E225.14084
G0 F2040 X18.302 Y22.261
G1 F1020 X-44.013 Y-40.054 E228.51341
G0 F2040 X-43.518 Y-40.054
G1 F1020 X18.478 Y21.942 E231.86871
G0 F2040 X18.654 Y21.624
G1 F1020 X-43.023 Y-40.054 E235.20678
G0 F2040 X-42.528 Y-40.054
G1 F1020 X18.831 Y21.306 E238.52763
G0 F2040 X19.008 Y20.988
G1 F1020 X-42.033 Y-40.054 E241.83128
G0 F2040 X-41.538 Y-40.054
G1 F1020 X19.185 Y20.67 E245.11771
G0 F2040 X19.361 Y20.351
G1 F1020 X-41.044 Y-40.054 E248.3869
G0 F2040 X-40.549 Y-40.054
G1 F1020 X19.538 Y20.033 E251.63889
G0 F2040 X19.714 Y19.714
G1 F1020 X-40.054 Y-40.054 E254.87361
G0 F2040 X-39.559 Y-40.054
G1 F1020 X19.891 Y19.396 E258.09112
G0 F2040 X20.067 Y19.077
G1 F1020 X-39.064 Y-40.054 E261.29136
G0 F2040 X-38.569 Y-40.054
G1 F1020 X20.244 Y18.759 E264.4744
G0 F2040 X20.421 Y18.441
G1 F1020 X-38.074 Y-40.054 E267.64022
G0 F2040 X-37.579 Y-40.054
G1 F1020 X20.598 Y18.123 E270.78884
G0 F2040 X20.774 Y17.804
G1 F1020 X-37.084 Y-40.054 E273.92018
G0 F2040 X-36.589 Y-40.054
G1 F1020 X20.95 Y17.486 E277.0343
G0 F2040 X21.127 Y17.167
G1 F1020 X-36.094 Y-40.054 E280.13117
G0 F2040 X-35.599 Y-40.054
G1 F1020 X21.304 Y16.849 E283.21083
G0 F2040 X21.48 Y16.53
G1 F1020 X-35.104 Y-40.054 E286.27323
G0 F2040 X-34.609 Y-40.054
G1 F1020 X21.657 Y16.212 E289.31842
G0 F2040 X21.834 Y15.894
G1 F1020 X-34.114 Y-40.054 E292.3464
G0 F2040 X-33.619 Y-40.054
G1 F1020 X22.01 Y15.576 E295.35713
G0 F2040 X22.186 Y15.257
G1 F1020 X-33.124 Y-40.054 E298.35061
G0 F2040 X-32.629 Y-40.054
G1 F1020 X22.363 Y14.939 E301.32687
G0 F2040 X22.54 Y14.62
G1 F1020 X-32.134 Y-40.054 E304.2859
G0 F2040 X-31.639 Y-40.054
G1 F1020 X22.717 Y14.302 E307.22772
G0 F2040 X22.893 Y13.983
G1 F1020 X-31.144 Y-40.054 E310.15227
G0 F2040 X-30.649 Y-40.054
G1 F1020 X23.07 Y13.665 E313.05961
G0 F2040 X23.246 Y13.347
G1 F1020 X-30.154 Y-40.054 E315.94971
G0 F2040 X-29.659 Y-40.054
G1 F1020 X23.423 Y13.029 E318.8226
G0 F2040 X23.599 Y12.71
G1 F1020 X-29.164 Y-40.054 E321.67823
G0 F2040 X-28.669 Y-40.054
G1 F1020 X23.776 Y12.392 E324.51665
G0 F2040 X23.953 Y12.073
G1 F1020 X-28.174 Y-40.054 E327.33783
G0 F2040 X-27.679 Y-40.054
G1 F1020 X24.13 Y11.755 E330.1418
G0 F2040 X24.306 Y11.436
G1 F1020 X-27.184 Y-40.054 E332.9285
G0 F2040 X-26.689 Y-40.054
G1 F1020 X24.482 Y11.118 E335.69797
G0 F2040 X24.659 Y10.8
G1 F1020 X-26.194 Y-40.054 E338.45022
G0 F2040 X-25.699 Y-40.054
G1 F1020 X24.836 Y10.482 E341.18527
G0 F2040 X25.012 Y10.163
