;FLAVOR:Marlin
;TIME:6326
;Filament used: 7.99019m
;Layer height: 0.3
;MINX:-54.155
;MINY:-45.424
;MINZ:0.26
;MAXX:55.736
;MAXY:52.285
;MAXZ:23.06
;Generated with Cura_SteamEngine 4.9.1
M82 ;absolute extrusion mode
;Gcode by Cura
G90
G28
M107
M109 R100
G30
M109 S215 U-55 X55 V-85 Y-85 W0.26 Z0.26
M82
G92 E0
G1 F200 E6
G92 E0
G1 F200 E-3.5
G0 Z0.15
G0 X10
G0 Z3
G1 F6000
G92 E0
G92 E0
G1 F3600 E-3.8
;LAYER_COUNT:77
;LAYER:0
M107
G0 F2040 X-1 Y49.756 Z0.26
;TYPE:SKIRT
G1 F3600 E0
G1 F1020 X-53.205 Y-37.967 E3.90662
G1 X-53.543 Y-38.553 E3.93251
G1 X-53.81 Y-39.096 E3.95567
G1 X-54.003 Y-39.669 E3.9788
G1 X-54.119 Y-40.262 E4.00193
G1 X-54.155 Y-40.866 E4.02508
G1 X-54.111 Y-41.469 E4.04822
G1 X-53.989 Y-42.061 E4.07135
G1 X-53.789 Y-42.632 E4.09451
G1 X-53.516 Y-43.171 E4.11763
G1 X-53.174 Y-43.67 E4.14078
G1 X-52.769 Y-44.119 E4.16392
G1 X-52.309 Y-44.511 E4.18705
G1 X-51.801 Y-44.839 E4.21019
G1 X-51.254 Y-45.097 E4.23334
G1 X-50.678 Y-45.28 E4.25647
G1 X-50.083 Y-45.386 E4.27959
G1 X-49.37 Y-45.422 E4.30692
G1 X-49.237 Y-45.424 E4.31201
G1 X50.54 Y-45.424 E8.13042
G1 X51.229 Y-45.414 E8.15679
G1 X51.832 Y-45.365 E8.17995
G1 X52.423 Y-45.237 E8.20309
G1 X52.992 Y-45.032 E8.22623
G1 X53.529 Y-44.755 E8.24936
G1 X54.025 Y-44.408 E8.27252
G1 X54.471 Y-44 E8.29566
G1 X54.858 Y-43.536 E8.31878
G1 X55.182 Y-43.025 E8.34193
G1 X55.435 Y-42.476 E8.36507
G1 X55.614 Y-41.898 E8.38822
G1 X55.714 Y-41.302 E8.41135
G1 X55.736 Y-40.698 E8.43448
G1 X55.677 Y-40.096 E8.45763
G1 X55.54 Y-39.507 E8.48077
G1 X55.217 Y-38.719 E8.51336
G1 X54.863 Y-38.043 E8.54257
G1 X7.452 Y49.336 E12.34704
G1 X7.105 Y49.953 E12.37413
G1 X6.774 Y50.459 E12.39727
G1 X6.38 Y50.917 E12.42039
G1 X5.928 Y51.319 E12.44354
G1 X5.428 Y51.659 E12.46668
G1 X4.887 Y51.929 E12.48982
G1 X4.315 Y52.125 E12.51296
G1 X3.722 Y52.245 E12.53612
G1 X3.119 Y52.285 E12.55924
G1 X2.516 Y52.245 E12.58237
G1 X1.923 Y52.126 E12.60552
G1 X1.351 Y51.93 E12.62866
G1 X0.81 Y51.66 E12.6518
G1 X0.309 Y51.322 E12.67492
G1 X-.143 Y50.92 E12.69807
G1 X-.538 Y50.462 E12.72122
G1 X-.935 Y49.862 E12.74875
G1 X-1 Y49.756 E12.75351
G0 F2040 X-.7 Y49.577
G1 F1020 X-52.902 Y-38.142 E16.65994
G1 X-53.24 Y-38.728 E16.68583
G1 X-53.495 Y-39.25 E16.70806
G1 X-53.676 Y-39.802 E16.73029
G1 X-53.779 Y-40.374 E16.75254
G1 X-53.803 Y-40.955 E16.77479
G1 X-53.748 Y-41.533 E16.79701
G1 X-53.613 Y-42.098 E16.81924
G1 X-53.402 Y-42.64 E16.8415
G1 X-53.119 Y-43.147 E16.86372
G1 X-52.769 Y-43.611 E16.88596
G1 X-52.358 Y-44.022 E16.90821
G1 X-51.896 Y-44.373 E16.93041
G1 X-51.389 Y-44.657 E16.95265
G1 X-50.848 Y-44.869 E16.97489
G1 X-50.283 Y-45.005 E16.99713
G1 X-49.703 Y-45.062 E17.01943
G1 X-49.237 Y-45.074 E17.03727
G1 X50.535 Y-45.074 E20.85549
G1 X51.224 Y-45.064 E20.88187
G1 X51.803 Y-45.015 E20.9041
G1 X52.37 Y-44.888 E20.92634
G1 X52.914 Y-44.684 E20.94857
G1 X53.425 Y-44.407 E20.97082
G1 X53.893 Y-44.063 E20.99305
G1 X54.31 Y-43.658 E21.01529
G1 X54.667 Y-43.2 E21.03751
G1 X54.958 Y-42.697 E21.05975
G1 X55.177 Y-42.158 E21.08202
G1 X55.32 Y-41.595 E21.10425
G1 X55.384 Y-41.018 E21.12647
G1 X55.369 Y-40.437 E21.14871
G1 X55.274 Y-39.864 E21.17094
G1 X55.101 Y-39.309 E21.19318
G1 X54.907 Y-38.882 E21.21113
G1 X54.556 Y-38.21 E21.24015
G1 X7.147 Y49.164 E25.04442
G1 X6.8 Y49.781 E25.07151
G1 X6.481 Y50.267 E25.09376
G1 X6.098 Y50.704 E25.11599
G1 X5.659 Y51.085 E25.13824
G1 X5.172 Y51.402 E25.16048
G1 X4.646 Y51.649 E25.18272
G1 X4.091 Y51.821 E25.20495
G1 X3.518 Y51.916 E25.22718
G1 X2.937 Y51.931 E25.24942
G1 X2.36 Y51.867 E25.27164
G1 X1.797 Y51.723 E25.29388
G1 X1.259 Y51.504 E25.31611
G1 X0.756 Y51.213 E25.33835
G1 X0.297 Y50.856 E25.3606
G1 X-.108 Y50.44 E25.38282
G1 X-.453 Y49.969 E25.40516
G1 X-.7 Y49.577 E25.42289
G0 F2040 X-.399 Y49.398
G1 F1020 X-52.599 Y-38.317 E29.32915
G1 X-52.937 Y-38.903 E29.35504
G1 X-53.179 Y-39.404 E29.37633
G1 X-53.348 Y-39.934 E29.39762
G1 X-53.439 Y-40.483 E29.41892
G1 X-53.45 Y-41.039 E29.4402
G1 X-53.381 Y-41.591 E29.46149
G1 X-53.234 Y-42.128 E29.4828
G1 X-53.012 Y-42.638 E29.50408
G1 X-52.719 Y-43.111 E29.52538
G1 X-52.361 Y-43.537 E29.54667
G1 X-51.946 Y-43.908 E29.56797
G1 X-51.482 Y-44.215 E29.58927
G1 X-50.979 Y-44.453 E29.61056
G1 X-50.447 Y-44.616 E29.63186
G1 X-49.693 Y-44.712 E29.66094
G1 X-49.237 Y-44.724 E29.6784
G1 X50.53 Y-44.724 E33.49644
G1 X51.219 Y-44.714 E33.52281
G1 X51.774 Y-44.666 E33.54413
G1 X52.315 Y-44.539 E33.56539
G1 X52.833 Y-44.336 E33.58668
G1 X53.317 Y-44.06 E33.60801
G1 X53.756 Y-43.719 E33.62928
G1 X54.142 Y-43.317 E33.65061
G1 X54.466 Y-42.865 E33.67189
G1 X54.722 Y-42.371 E33.69318
G1 X54.905 Y-41.846 E33.71446
G1 X55.011 Y-41.3 E33.73575
G1 X55.037 Y-40.744 E33.75705
G1 X54.983 Y-40.19 E33.77835
G1 X54.851 Y-39.649 E33.79966
G1 X54.597 Y-39.044 E33.82477
G1 X54.248 Y-38.377 E33.85358
G1 X6.842 Y48.993 E37.65766
G1 X6.495 Y49.61 E37.68475
G1 X6.188 Y50.074 E37.70605
G1 X5.817 Y50.489 E37.72735
G1 X5.392 Y50.847 E37.74861
G1 X4.919 Y51.141 E37.76993
G1 X4.409 Y51.363 E37.79121
G1 X3.872 Y51.511 E37.81253
G1 X3.32 Y51.58 E37.83382
G1 X2.764 Y51.569 E37.8551
G1 X2.215 Y51.479 E37.87639
G1 X1.684 Y51.31 E37.89772
G1 X1.184 Y51.068 E37.91898
G1 X0.723 Y50.757 E37.94026
G1 X0.311 Y50.382 E37.96158
G1 X-.158 Y49.782 E37.99072
G1 X-.399 Y49.398 E38.00807
G0 F2040 X-0.048 Y49.301
G1 F1020 X-52.271 Y-38.45 E41.91597
G1 X-52.633 Y-39.078 E41.94371
G1 X-52.863 Y-39.556 E41.96401
G1 X-53.019 Y-40.064 E41.98434
G1 X-53.096 Y-40.588 E42.00461
G1 X-53.094 Y-41.119 E42.02493
G1 X-53.012 Y-41.643 E42.04523
G1 X-52.852 Y-42.15 E42.06558
G1 X-52.619 Y-42.626 E42.08586
G1 X-52.316 Y-43.062 E42.10618
G1 X-51.951 Y-43.447 E42.12648
G1 X-51.533 Y-43.774 E42.14679
G1 X-51.07 Y-44.034 E42.16711
G1 X-50.574 Y-44.221 E42.1874
G1 X-50.055 Y-44.332 E42.20771
G1 X-49.34 Y-44.373 E42.23512
G1 X50.525 Y-44.374 E46.0569
G1 X51.214 Y-44.364 E46.08327
G1 X51.743 Y-44.316 E46.1036
G1 X52.258 Y-44.19 E46.12389
G1 X52.749 Y-43.987 E46.14422
G1 X53.203 Y-43.714 E46.1645
G1 X53.612 Y-43.375 E46.18483
G1 X53.965 Y-42.978 E46.20516
G1 X54.254 Y-42.534 E46.22543
G1 X54.473 Y-42.05 E46.24576
G1 X54.618 Y-41.54 E46.26605
G1 X54.684 Y-41.013 E46.28638
G1 X54.67 Y-40.483 E46.30667
G1 X54.577 Y-39.96 E46.327
G1 X54.406 Y-39.458 E46.34729
G1 X54.287 Y-39.206 E46.35796
G1 X53.94 Y-38.544 E46.38656
G1 X6.536 Y48.821 E50.19044
G1 X6.189 Y49.438 E50.21753
G1 X5.895 Y49.88 E50.23784
G1 X5.538 Y50.272 E50.25814
G1 X5.126 Y50.606 E50.27843
G1 X4.668 Y50.875 E50.29876
G1 X4.176 Y51.072 E50.31904
G1 X3.659 Y51.193 E50.33936
G1 X3.13 Y51.235 E50.35967
G1 X2.601 Y51.197 E50.37997
G1 X2.083 Y51.08 E50.40029
G1 X1.589 Y50.887 E50.42059
G1 X1.129 Y50.621 E50.44092
G1 X0.715 Y50.29 E50.46121
G1 X0.355 Y49.9 E50.48152
G1 X-0.048 Y49.301 E50.50915
G0 F2040 X0.203 Y49.04
G1 F1020 X-51.992 Y-38.667 E54.41504
G1 X-52.33 Y-39.253 E54.44093
G1 X-52.547 Y-39.707 E54.46019
G1 X-52.688 Y-40.191 E54.47948
G1 X-52.752 Y-40.69 E54.49874
G1 X-52.735 Y-41.194 E54.51804
G1 X-52.639 Y-41.688 E54.53729
G1 X-52.467 Y-42.161 E54.55655
G1 X-52.221 Y-42.601 E54.57585
G1 X-51.91 Y-42.996 E54.59509
G1 X-51.539 Y-43.337 E54.61437
G1 X-51.119 Y-43.616 E54.63367
G1 X-50.661 Y-43.824 E54.65292
G1 X-50.175 Y-43.958 E54.67221
G1 X-49.673 Y-44.013 E54.69154
G1 X-49.237 Y-44.024 E54.70823
G1 X50.52 Y-44.024 E58.52588
G1 X51.209 Y-44.014 E58.55225
G1 X51.71 Y-43.966 E58.57151
G1 X52.198 Y-43.841 E58.59079
G1 X52.66 Y-43.639 E58.61009
G1 X53.084 Y-43.367 E58.62936
G1 X53.459 Y-43.032 E58.64861
G1 X53.777 Y-42.641 E58.6679
G1 X54.029 Y-42.205 E58.68717
G1 X54.209 Y-41.735 E58.70643
G1 X54.312 Y-41.242 E58.7257
G1 X54.336 Y-40.739 E58.74497
G1 X54.281 Y-40.239 E58.76422
G1 X54.147 Y-39.753 E58.78352
G1 X53.977 Y-39.368 E58.79962
G1 X53.633 Y-38.711 E58.828
G1 X6.231 Y48.649 E62.63168
G1 X5.884 Y49.266 E62.65877
G1 X5.603 Y49.684 E62.67804
G1 X5.26 Y50.053 E62.69732
G1 X4.863 Y50.362 E62.71658
G1 X4.421 Y50.605 E62.73588
G1 X3.947 Y50.775 E62.75515
G1 X3.452 Y50.867 E62.77442
G1 X2.949 Y50.881 E62.79368
G1 X2.45 Y50.814 E62.81294
G1 X1.967 Y50.67 E62.83223
G1 X1.514 Y50.451 E62.85149
G1 X1.101 Y50.163 E62.87076
G1 X0.738 Y49.813 E62.89005
G1 X0.434 Y49.407 E62.90946
G1 X0.203 Y49.04 E62.92606
G1 F3600 E59.12606
;MESH:support_tri_0_096.stl
G0 F2040 X2.349 Y47.737
G0 X3.109 Y47.284
G0 X3.097 Y46.668
;TYPE:WALL-INNER
G1 F3600 E62.92606
G1 F1020 X-48.674 Y-40.324 E66.80015
G1 X50.299 Y-40.324 E70.58779
G1 X3.097 Y46.668 E74.37544
G0 F2040 X3.11 Y47.325
;TYPE:WALL-OUTER
G1 F1020 X-49.245 Y-40.649 E78.29325
G1 X50.845 Y-40.649 E82.12365
G1 X3.11 Y47.325 E85.95405
G0 F2040 X3.008 Y47.154
G0 X3.095 Y47.103
G0 X3.083 Y45.981
;TYPE:SKIN
G1 F1020 X-48.077 Y-39.984 E89.78241
G1 X49.728 Y-39.984 E93.52536
G1 X3.083 Y45.981 E97.26829
G0 F2040 X3.258 Y45.331
G1 F1020 X2.321 Y44.394 E97.319
G1 X2.259 Y44.332
G0 F2040 X3.432 Y45.01
G1 F1020 X1.593 Y43.171 E97.41853
G1 X1.531 Y43.109
G0 F2040 X0.866 Y41.949
G1 F1020 X3.606 Y44.689 E97.56682
G0 F2040 X3.78 Y44.368
G1 F1020 X0.138 Y40.726 E97.76393
G1 X0.076 Y40.664
G0 F2040 X-.589 Y39.503
G1 F1020 X3.954 Y44.047 E98.00983
G0 F2040 X4.128 Y43.726
G1 F1020 X-1.316 Y38.281 E98.3045
G1 X-1.378 Y38.219
G0 F2040 X-2.044 Y37.058
G1 F1020 X4.302 Y43.405 E98.64798
G0 F2040 X4.476 Y43.084
G1 F1020 X-2.771 Y35.836 E99.04022
G1 X-2.833 Y35.774
G0 F2040 X-3.499 Y34.613
G1 F1020 X4.651 Y42.764 E99.48134
G0 F2040 X4.825 Y42.443
G1 F1020 X-4.227 Y33.39 E99.97127
G1 X-4.289 Y33.328
G0 F2040 X-4.954 Y32.168
G1 F1020 X4.999 Y42.122 E100.50997
G0 F2040 X5.173 Y41.801
G1 F1020 X-5.682 Y30.945 E101.09748
G1 X-5.744 Y30.883
G0 F2040 X-6.409 Y29.723
G1 F1020 X5.347 Y41.48 E101.73376
G0 F2040 X5.521 Y41.159
G1 F1020 X-7.137 Y28.5 E102.41885
G1 X-7.199 Y28.438
G0 F2040 X-7.865 Y27.278
G1 F1020 X5.695 Y40.838 E103.15273
G0 F2040 X5.869 Y40.517
G1 F1020 X-8.592 Y26.055 E103.93541
G1 X-8.654 Y25.993
G0 F2040 X-9.319 Y24.833
G1 F1020 X6.043 Y40.196 E104.76685
G0 F2040 X6.217 Y39.875
G1 F1020 X-10.047 Y23.611 E105.64708
G1 X-10.109 Y23.549
G0 F2040 X-10.774 Y22.388
G1 F1020 X6.392 Y39.555 E106.57615
G0 F2040 X6.566 Y39.234
G1 F1020 X-11.502 Y21.165 E107.55404
G1 X-11.564 Y21.103
G0 F2040 X-12.23 Y19.943
G1 F1020 X6.74 Y38.913 E108.58072
G0 F2040 X6.914 Y38.592
G1 F1020 X-12.957 Y18.72 E109.65619
G1 X-13.019 Y18.658
G0 F2040 X-13.685 Y17.498
G1 F1020 X7.088 Y38.272 E110.78048
G0 F2040 X7.262 Y37.951
G1 F1020 X-14.412 Y16.275 E111.95356
G1 X-14.474 Y16.213
G0 F2040 X-15.14 Y15.052
G1 F1020 X7.436 Y37.63 E113.17545
G0 F2040 X7.61 Y37.309
G1 F1020 X-15.868 Y13.83 E114.44614
G1 X-15.93 Y13.768
G0 F2040 X-16.595 Y12.607
G1 F1020 X7.784 Y36.988 E115.76562
G0 F2040 X7.959 Y36.667
G1 F1020 X-17.323 Y11.385 E117.13391
G1 X-17.385 Y11.323
G0 F2040 X-18.051 Y10.162
G1 F1020 X8.133 Y36.346 E118.55102
G0 F2040 X8.307 Y36.025
G1 F1020 X-18.778 Y8.939 E120.01692
G1 X-18.84 Y8.877
G0 F2040 X-19.506 Y7.717
G1 F1020 X8.481 Y35.704 E121.53162
G0 F2040 X8.655 Y35.384
G1 F1020 X-20.233 Y6.494 E123.09513
G1 X-20.295 Y6.432
G0 F2040 X-20.961 Y5.272
G1 F1020 X8.829 Y35.063 E124.70743
G0 F2040 X9.003 Y34.742
G1 F1020 X-21.689 Y4.049 E126.36854
G1 X-21.751 Y3.987
G0 F2040 X-22.416 Y2.827
G1 F1020 X9.177 Y34.421 E128.07842
G0 F2040 X9.351 Y34.1
G1 F1020 X-23.144 Y1.604 E129.83712
G1 X-23.206 Y1.542
G0 F2040 X-23.871 Y0.381
G1 F1020 X9.526 Y33.779 E131.64464
G0 F2040 X9.7 Y33.458
G1 F1020 X-24.599 Y-.84 E133.50091
G1 X-24.661 Y-.902
G0 F2040 X-25.327 Y-2.063
G1 F1020 X9.874 Y33.137 E135.40601
G0 F2040 X10.047 Y32.816
G1 F1020 X-26.054 Y-3.285 E137.35984
G1 X-26.116 Y-3.347
G0 F2040 X-26.782 Y-4.508
G1 F1020 X10.221 Y32.495 E139.36249
G0 F2040 X10.396 Y32.175
G1 F1020 X-27.509 Y-5.731 E141.41399
G1 X-27.571 Y-5.793
G0 F2040 X-28.237 Y-6.953
G1 F1020 X10.57 Y31.854 E143.51427
G0 F2040 X10.744 Y31.533
G1 F1020 X-28.965 Y-8.176 E145.66337
G1 X-29.027 Y-8.238
G0 F2040 X-29.692 Y-9.398
G1 F1020 X10.918 Y31.212 E147.86124
G0 F2040 X11.093 Y30.892
G1 F1020 X-30.42 Y-10.621 E150.10797
G1 X-30.482 Y-10.683
G0 F2040 X-31.148 Y-11.844
G1 F1020 X11.267 Y30.571 E152.40353
G0 F2040 X11.44 Y30.25
G1 F1020 X-31.875 Y-13.066 E154.74782
G1 X-31.937 Y-13.128
G0 F2040 X-32.603 Y-14.289
G1 F1020 X11.614 Y29.929 E157.14092
G0 F2040 X11.788 Y29.607
G1 F1020 X-33.33 Y-15.511 E159.58277
G1 X-33.392 Y-15.573
G0 F2040 X-34.057 Y-16.733
G1 F1020 X11.963 Y29.287 E162.07343
G0 F2040 X12.137 Y28.966
G1 F1020 X-34.785 Y-17.956 E164.61291
G1 X-34.847 Y-18.018
G0 F2040 X-35.513 Y-19.178
G1 F1020 X12.311 Y28.645 E167.20118
G0 F2040 X12.485 Y28.324
G1 F1020 X-36.24 Y-20.401 E169.83824
G1 X-36.302 Y-20.463
G0 F2040 X-36.968 Y-21.624
G1 F1020 X12.66 Y28.004 E172.52417
G0 F2040 X12.833 Y27.683
G1 F1020 X-37.695 Y-22.846 E175.25883
G1 X-37.757 Y-22.908
G0 F2040 X-38.423 Y-24.069
G1 F1020 X13.007 Y27.362 E178.04232
G0 F2040 X13.181 Y27.041
G1 F1020 X-39.151 Y-25.291 E180.87459
G1 X-39.213 Y-25.353
G0 F2040 X-39.878 Y-26.514
G1 F1020 X13.355 Y26.72 E183.75566
G0 F2040 X13.53 Y26.399
G1 F1020 X-40.606 Y-27.736 E186.68554
G1 X-40.668 Y-27.798
G0 F2040 X-41.333 Y-28.959
G1 F1020 X13.704 Y26.078 E189.66421
G0 F2040 X13.878 Y25.757
G1 F1020 X-42.061 Y-30.182 E192.6917
G1 X-42.123 Y-30.244
G0 F2040 X-42.789 Y-31.404
G1 F1020 X14.052 Y25.436 E195.76798
G0 F2040 X14.226 Y25.115
G1 F1020 X-43.516 Y-32.627 E198.89305
G1 X-43.578 Y-32.689
G0 F2040 X-44.244 Y-33.849
G1 F1020 X14.4 Y24.795 E202.06694
G0 F2040 X14.574 Y24.474
G1 F1020 X-44.971 Y-35.072 E205.28962
G1 X-45.033 Y-35.134
G0 F2040 X-45.699 Y-36.295
G1 F1020 X14.748 Y24.153 E208.56111
G0 F2040 X14.922 Y23.832
G1 F1020 X-46.427 Y-37.517 E211.8814
G1 X-46.489 Y-37.579
G0 F2040 X-47.154 Y-38.74
G1 F1020 X15.097 Y23.512 E215.25053
G0 F2040 X15.271 Y23.19
G1 F1020 X-47.746 Y-39.827 E218.66109
G0 F2040 X-47.251 Y-39.827
G1 F1020 X15.445 Y22.869 E222.05428
G0 F2040 X15.619 Y22.548
G1 F1020 X-46.756 Y-39.827 E225.43009
G0 F2040 X-46.261 Y-39.827
G1 F1020 X15.793 Y22.227 E228.78853
G0 F2040 X15.967 Y21.907
G1 F1020 X-45.766 Y-39.827 E232.12963
G0 F2040 X-45.271 Y-39.827
G1 F1020 X16.141 Y21.586 E235.45335
G0 F2040 X16.315 Y21.265
G1 F1020 X-44.776 Y-39.827 E238.7597
G0 F2040 X-44.281 Y-39.827
G1 F1020 X16.489 Y20.944 E242.04868
G0 F2040 X16.664 Y20.624
G1 F1020 X-43.786 Y-39.827 E245.32034
G0 F2040 X-43.291 Y-39.827
G1 F1020 X16.838 Y20.303 E248.57462
G0 F2040 X17.012 Y19.982
G1 F1020 X-42.796 Y-39.827 E251.81153
G0 F2040 X-42.301 Y-39.827
G1 F1020 X17.186 Y19.661 E255.03107
G0 F2040 X17.36 Y19.34
G1 F1020 X-41.806 Y-39.827 E258.23324
G0 F2040 X-41.312 Y-39.827
G1 F1020 X17.534 Y19.019 E261.41806
G0 F2040 X17.708 Y18.698
G1 F1020 X-40.817 Y-39.827 E264.58551
G0 F2040 X-40.322 Y-39.827
G1 F1020 X17.882 Y18.377 E267.73558
G0 F2040 X18.056 Y18.056
G1 F1020 X-39.827 Y-39.827 E270.86829
G0 F2040 X-39.332 Y-39.827
G1 F1020 X18.23 Y17.735 E273.98361
G0 F2040 X18.405 Y17.415
G1 F1020 X-38.837 Y-39.827 E277.08162
G0 F2040 X-38.342 Y-39.827
G1 F1020 X18.579 Y17.094 E280.16226
G0 F2040 X18.753 Y16.773
G1 F1020 X-37.847 Y-39.827 E283.22552
G0 F2040 X-37.352 Y-39.827
G1 F1020 X18.927 Y16.452 E286.27142
G0 F2040 X19.101 Y16.131
G1 F1020 X-36.857 Y-39.827 E289.29993
G0 F2040 X-36.362 Y-39.827
G1 F1020 X19.275 Y15.81 E292.31108
G0 F2040 X19.449 Y15.489
G1 F1020 X-35.867 Y-39.827 E295.30485
G0 F2040 X-35.372 Y-39.827
G1 F1020 X19.623 Y15.168 E298.28125
G0 F2040 X19.797 Y14.847
G1 F1020 X-34.877 Y-39.827 E301.24028
G0 F2040 X-34.382 Y-39.827
G1 F1020 X19.972 Y14.527 E304.18199
G0 F2040 X20.146 Y14.206
G1 F1020 X-33.887 Y-39.827 E307.10632
G0 F2040 X-33.392 Y-39.827
G1 F1020 X20.32 Y13.885 E310.01328
G0 F2040 X20.494 Y13.564
G1 F1020 X-32.897 Y-39.827 E312.90287
G0 F2040 X-32.402 Y-39.827
G1 F1020 X20.668 Y13.244 E315.77511
G0 F2040 X20.842 Y12.923
G1 F1020 X-31.907 Y-39.827 E318.62998
G0 F2040 X-31.412 Y-39.827
G1 F1020 X21.016 Y12.602 E321.46748
G0 F2040 X21.19 Y12.281
G1 F1020 X-30.917 Y-39.827 E324.28761
G0 F2040 X-30.422 Y-39.827
G1 F1020 X21.364 Y11.96 E327.09036
G0 F2040 X21.539 Y11.639
G1 F1020 X-29.927 Y-39.827 E329.87576
G0 F2040 X-29.432 Y-39.827
G1 F1020 X21.713 Y11.318 E332.6438
G0 F2040 X21.887 Y10.997
