;FLAVOR:Marlin
;TIME:6336
;Filament used: 8.00968m
;Layer height: 0.3
;MINX:-54.55
;MINY:-45.94
;MINZ:0.26
;MAXX:54.545
;MAXY:53.325
;MAXZ:22.76
;Generated with Cura_SteamEngine 4.9.1
M82 ;absolute extrusion mode
;Gcode by Cura
G90
G28
M107
M109 R100
G30
M109 S215 U-55 X55 V-85 Y-85 W0.26 Z0.26
M82
G92 E0
G1 F200 E6
G92 E0
G1 F200 E-3.5
G0 Z0.15
G0 X10
G0 Z3
G1 F6000
G92 E0
G92 E0
G1 F3600 E-3.8
;LAYER_COUNT:76
;LAYER:0
M107
G0 F2040 X-4.424 Y50.231 Z0.26
;TYPE:SKIRT
G1 F3600 E0
G1 F1020 X-53.704 Y-38.613 E3.88804
G1 X-54.01 Y-39.184 E3.91283
G1 X-54.26 Y-39.735 E3.93598
G1 X-54.435 Y-40.313 E3.95909
G1 X-54.532 Y-40.91 E3.98224
G1 X-54.55 Y-41.515 E4.0054
G1 X-54.488 Y-42.116 E4.02853
G1 X-54.346 Y-42.704 E4.05168
G1 X-54.129 Y-43.268 E4.0748
G1 X-53.839 Y-43.799 E4.09796
G1 X-53.482 Y-44.287 E4.1211
G1 X-53.063 Y-44.723 E4.14424
G1 X-52.591 Y-45.1 E4.16735
G1 X-52.073 Y-45.412 E4.1905
G1 X-51.518 Y-45.653 E4.21365
G1 X-50.937 Y-45.818 E4.23677
G1 X-50.071 Y-45.919 E4.27013
G1 X-48.994 Y-45.94 E4.31136
G1 X49.36 Y-45.94 E8.07532
G1 X50.039 Y-45.93 E8.1013
G1 X50.642 Y-45.881 E8.12446
G1 X51.233 Y-45.753 E8.1476
G1 X51.802 Y-45.548 E8.17074
G1 X52.339 Y-45.27 E8.19389
G1 X52.835 Y-44.924 E8.21703
G1 X53.28 Y-44.515 E8.24016
G1 X53.668 Y-44.051 E8.26331
G1 X53.991 Y-43.54 E8.28644
G1 X54.244 Y-42.991 E8.30958
G1 X54.423 Y-42.413 E8.33273
G1 X54.524 Y-41.817 E8.35587
G1 X54.545 Y-41.213 E8.37899
G1 X54.486 Y-40.611 E8.40214
G1 X54.349 Y-40.022 E8.42528
G1 X54.017 Y-39.217 E8.45861
G1 X53.518 Y-38.275 E8.4994
G1 X4.3 Y50.453 E12.38241
G1 X3.976 Y51.02 E12.4074
G1 X3.642 Y51.524 E12.43054
G1 X3.245 Y51.979 E12.45365
G1 X2.79 Y52.379 E12.47683
G1 X2.288 Y52.714 E12.49993
G1 X1.745 Y52.981 E12.52308
G1 X1.172 Y53.173 E12.54621
G1 X0.578 Y53.289 E12.56937
G1 X-0.025 Y53.325 E12.59249
G1 X-.628 Y53.281 E12.61563
G1 X-1.22 Y53.158 E12.63877
G1 X-1.791 Y52.958 E12.66192
G1 X-2.33 Y52.685 E12.68504
G1 X-2.829 Y52.342 E12.70822
G1 X-3.278 Y51.937 E12.73136
G1 X-3.67 Y51.477 E12.75448
G1 X-3.956 Y51.041 E12.77444
G1 X-4.424 Y50.231 E12.81024
G0 F2040 X-4.118 Y50.061
G1 F1020 X-53.396 Y-38.778 E16.69807
G1 X-53.702 Y-39.349 E16.72286
G1 X-53.941 Y-39.879 E16.74511
G1 X-54.104 Y-40.437 E16.76736
G1 X-54.19 Y-41.011 E16.78957
G1 X-54.196 Y-41.592 E16.81181
G1 X-54.122 Y-42.169 E16.83407
G1 X-53.97 Y-42.729 E16.85628
G1 X-53.742 Y-43.264 E16.87853
G1 X-53.443 Y-43.762 E16.90076
G1 X-53.079 Y-44.215 E16.923
G1 X-52.656 Y-44.613 E16.94523
G1 X-52.182 Y-44.95 E16.96748
G1 X-51.667 Y-45.218 E16.9897
G1 X-51.119 Y-45.413 E17.01196
G1 X-50.55 Y-45.531 E17.0342
G1 X-50.064 Y-45.569 E17.05286
G1 X-48.994 Y-45.59 E17.09381
G1 X49.355 Y-45.59 E20.85758
G1 X50.034 Y-45.58 E20.88357
G1 X50.613 Y-45.531 E20.90581
G1 X51.18 Y-45.404 E20.92804
G1 X51.724 Y-45.2 E20.95028
G1 X52.235 Y-44.923 E20.97252
G1 X52.703 Y-44.579 E20.99475
G1 X53.12 Y-44.173 E21.01702
G1 X53.476 Y-43.715 E21.03922
G1 X53.767 Y-43.212 E21.06146
G1 X53.986 Y-42.674 E21.08369
G1 X54.129 Y-42.11 E21.10596
G1 X54.193 Y-41.533 E21.12817
G1 X54.178 Y-40.952 E21.15042
G1 X54.083 Y-40.379 E21.17264
G1 X53.91 Y-39.824 E21.19489
G1 X53.707 Y-39.381 E21.21354
G1 X53.212 Y-38.445 E21.25406
G1 X3.996 Y50.279 E25.13689
G1 X3.672 Y50.846 E25.16188
G1 X3.35 Y51.33 E25.18413
G1 X2.964 Y51.764 E25.20636
G1 X2.523 Y52.142 E25.22859
G1 X2.034 Y52.456 E25.25083
G1 X1.506 Y52.699 E25.27307
G1 X0.95 Y52.868 E25.29531
G1 X0.376 Y52.959 E25.31755
G1 X-.205 Y52.97 E25.33979
G1 X-.782 Y52.901 E25.36203
G1 X-1.344 Y52.754 E25.38426
G1 X-1.88 Y52.532 E25.40646
G1 X-2.381 Y52.237 E25.42871
G1 X-2.837 Y51.877 E25.45095
G1 X-3.239 Y51.458 E25.47317
G1 X-3.653 Y50.866 E25.50081
G1 X-4.118 Y50.061 E25.53639
G0 F2040 X-3.812 Y49.892
G1 F1020 X-53.061 Y-38.894 E29.42191
G1 X-53.393 Y-39.515 E29.44886
G1 X-53.62 Y-40.023 E29.47015
G1 X-53.772 Y-40.558 E29.49144
G1 X-53.846 Y-41.11 E29.51275
G1 X-53.84 Y-41.666 E29.53403
G1 X-53.754 Y-42.216 E29.55533
G1 X-53.59 Y-42.747 E29.5766
G1 X-53.352 Y-43.25 E29.5979
G1 X-53.045 Y-43.714 E29.61919
G1 X-52.674 Y-44.129 E29.64049
G1 X-52.247 Y-44.486 E29.66179
G1 X-51.774 Y-44.779 E29.68308
G1 X-51.264 Y-45.001 E29.70437
G1 X-50.727 Y-45.147 E29.72567
G1 X-50.057 Y-45.219 E29.75146
G1 X-48.994 Y-45.24 E29.79214
G1 X49.35 Y-45.24 E33.55572
G1 X50.029 Y-45.23 E33.58171
G1 X50.583 Y-45.181 E33.60299
G1 X51.125 Y-45.054 E33.6243
G1 X51.643 Y-44.851 E33.64559
G1 X52.127 Y-44.576 E33.66689
G1 X52.566 Y-44.234 E33.68819
G1 X52.951 Y-43.833 E33.70946
G1 X53.275 Y-43.381 E33.73075
G1 X53.531 Y-42.887 E33.75204
G1 X53.714 Y-42.361 E33.77335
G1 X53.82 Y-41.815 E33.79464
G1 X53.846 Y-41.259 E33.81594
G1 X53.792 Y-40.705 E33.83724
G1 X53.66 Y-40.165 E33.85851
G1 X53.398 Y-39.544 E33.88431
G1 X52.906 Y-38.614 E33.92457
G1 X3.692 Y50.106 E37.80723
G1 X3.368 Y50.673 E37.83222
G1 X3.058 Y51.135 E37.85352
G1 X2.685 Y51.547 E37.87479
G1 X2.257 Y51.903 E37.89609
G1 X1.782 Y52.193 E37.91739
G1 X1.271 Y52.412 E37.93866
G1 X0.733 Y52.556 E37.95998
G1 X0.181 Y52.621 E37.98125
G1 X-.375 Y52.606 E38.00253
G1 X-.924 Y52.512 E38.02385
G1 X-1.453 Y52.341 E38.04513
G1 X-1.952 Y52.095 E38.06642
G1 X-2.411 Y51.78 E38.08772
G1 X-2.82 Y51.403 E38.10901
G1 X-3.171 Y50.971 E38.13031
G1 X-3.35 Y50.691 E38.14303
G1 X-3.812 Y49.892 E38.17835
G0 F2040 X-3.506 Y49.722
G1 F1020 X-52.779 Y-39.109 E42.06582
G1 X-53.085 Y-39.68 E42.09061
G1 X-53.3 Y-40.165 E42.11091
G1 X-53.439 Y-40.677 E42.13122
G1 X-53.5 Y-41.204 E42.15152
G1 X-53.481 Y-41.735 E42.17185
G1 X-53.383 Y-42.256 E42.19214
G1 X-53.208 Y-42.757 E42.21245
G1 X-52.959 Y-43.226 E42.23277
G1 X-52.643 Y-43.652 E42.25307
G1 X-52.267 Y-44.026 E42.27337
G1 X-51.838 Y-44.339 E42.29369
G1 X-51.368 Y-44.585 E42.31399
G1 X-50.866 Y-44.756 E42.33429
G1 X-50.343 Y-44.851 E42.35463
G1 X-50.05 Y-44.869 E42.36586
G1 X-48.994 Y-44.89 E42.40628
G1 X49.345 Y-44.89 E46.16967
G1 X50.024 Y-44.88 E46.19566
G1 X50.552 Y-44.832 E46.21595
G1 X51.068 Y-44.705 E46.23628
G1 X51.558 Y-44.503 E46.25657
G1 X52.013 Y-44.229 E46.27689
G1 X52.421 Y-43.89 E46.29719
G1 X52.774 Y-43.494 E46.31749
G1 X53.063 Y-43.049 E46.3378
G1 X53.283 Y-42.566 E46.35811
G1 X53.427 Y-42.055 E46.37843
G1 X53.493 Y-41.528 E46.39875
G1 X53.479 Y-40.998 E46.41904
G1 X53.386 Y-40.476 E46.43934
G1 X53.215 Y-39.973 E46.45967
G1 X53.089 Y-39.708 E46.4709
G1 X52.6 Y-38.784 E46.5109
G1 X3.389 Y49.932 E50.39338
G1 X3.065 Y50.499 E50.41837
G1 X2.767 Y50.939 E50.4387
G1 X2.408 Y51.329 E50.45899
G1 X1.993 Y51.66 E50.4793
G1 X1.534 Y51.926 E50.49961
G1 X1.04 Y52.119 E50.5199
G1 X0.522 Y52.237 E50.54024
G1 X-0.007 Y52.275 E50.56053
G1 X-.536 Y52.233 E50.58084
G1 X-1.053 Y52.113 E50.60115
G1 X-1.546 Y51.916 E50.62147
G1 X-2.003 Y51.648 E50.64174
G1 X-2.416 Y51.313 E50.66209
G1 X-2.773 Y50.921 E50.68239
G1 X-3.047 Y50.515 E50.70113
G1 X-3.506 Y49.722 E50.73619
G0 F2040 X-3.199 Y49.552
G1 F1020 X-52.47 Y-39.274 E54.62346
G1 X-52.776 Y-39.845 E54.64825
G1 X-52.978 Y-40.307 E54.66755
G1 X-53.105 Y-40.794 E54.68681
G1 X-53.153 Y-41.295 E54.70607
G1 X-53.121 Y-41.798 E54.72536
G1 X-53.009 Y-42.289 E54.74463
G1 X-52.822 Y-42.757 E54.76392
G1 X-52.563 Y-43.188 E54.78316
G1 X-52.239 Y-43.574 E54.80245
G1 X-51.858 Y-43.903 E54.82171
G1 X-51.43 Y-44.169 E54.841
G1 X-50.965 Y-44.363 E54.86028
G1 X-50.476 Y-44.481 E54.87953
G1 X-50.043 Y-44.519 E54.89617
G1 X-48.994 Y-44.54 E54.93632
G1 X49.34 Y-44.54 E58.69951
G1 X50.019 Y-44.53 E58.7255
G1 X50.52 Y-44.482 E58.74476
G1 X51.008 Y-44.356 E58.76405
G1 X51.469 Y-44.155 E58.7833
G1 X51.893 Y-43.883 E58.80257
G1 X52.269 Y-43.547 E58.82187
G1 X52.586 Y-43.157 E58.84111
G1 X52.838 Y-42.721 E58.86038
G1 X53.018 Y-42.25 E58.87967
G1 X53.121 Y-41.757 E58.89895
G1 X53.145 Y-41.254 E58.91822
G1 X53.09 Y-40.754 E58.93747
G1 X52.955 Y-40.269 E58.95674
G1 X52.779 Y-39.872 E58.97335
G1 X52.293 Y-38.954 E59.01311
G1 X3.085 Y49.758 E62.89539
G1 X2.761 Y50.325 E62.92038
G1 X2.477 Y50.741 E62.93965
G1 X2.131 Y51.107 E62.95893
G1 X1.732 Y51.414 E62.9782
G1 X1.289 Y51.654 E62.99748
G1 X0.813 Y51.82 E63.01677
G1 X0.318 Y51.909 E63.03602
G1 X-.186 Y51.919 E63.05531
G1 X-.684 Y51.849 E63.07455
G1 X-1.166 Y51.702 E63.09384
G1 X-1.618 Y51.48 E63.11311
G1 X-2.029 Y51.189 E63.13238
G1 X-2.389 Y50.837 E63.15165
G1 X-2.744 Y50.34 E63.17502
G1 X-3.199 Y49.552 E63.20985
G1 F3600 E59.40985
;MESH:support_tri_0_090.stl
G0 F2040 X-.952 Y48.425
G0 X-.189 Y48.001
G0 X0.00 Y47.692
;TYPE:WALL-INNER
G1 F3600 E63.20985
G1 F1020 X-49.108 Y-40.84 E67.08425
G1 X49.108 Y-40.84 E70.84293
G1 X0.00 Y47.692 E74.71733
G0 F2040 X0.00 Y48.362
;TYPE:WALL-OUTER
G1 F1020 X-49.66 Y-41.165 E78.63528
G1 X49.66 Y-41.165 E82.4362
G1 X0.00 Y48.362 E86.35415
G0 F2040 X-0.097 Y48.188
G0 X-0.009 Y48.14
G0 X0.00 Y46.991
;TYPE:SKIN
G1 F1020 X-48.531 Y-40.5 E90.183
G1 X48.531 Y-40.5 E93.89752
G1 X0.00 Y46.991 E97.72637
G0 F2040 X0.049 Y46.577
G1 F1020 X-.173 Y46.354 E97.73841
G0 F2040 X0.226 Y46.258
G1 F1020 X-.789 Y45.242 E97.79337
G1 X-.851 Y45.18
G0 F2040 X-1.406 Y44.131
G1 F1020 X0.403 Y45.94 E97.89128
G0 F2040 X0.579 Y45.622
G1 F1020 X-2.023 Y43.019 E98.03213
G1 X-2.085 Y42.957
G0 F2040 X-2.639 Y41.908
G1 F1020 X0.755 Y45.303 E98.21584
G0 F2040 X0.932 Y44.985
G1 F1020 X-3.256 Y40.796 E98.44253
G1 X-3.318 Y40.734
G0 F2040 X-3.872 Y39.684
G1 F1020 X1.109 Y44.667 E98.71216
G0 F2040 X1.286 Y44.349
G1 F1020 X-4.489 Y38.573 E99.02474
G1 X-4.551 Y38.511
G0 F2040 X-5.106 Y37.461
G1 F1020 X1.462 Y44.03 E99.38024
G0 F2040 X1.639 Y43.711
G1 F1020 X-5.722 Y36.35 E99.77862
G1 X-5.784 Y36.288
G0 F2040 X-6.338 Y35.239
G1 F1020 X1.815 Y43.393 E100.2199
G0 F2040 X1.992 Y43.075
G1 F1020 X-6.955 Y34.127 E100.70415
G1 X-7.017 Y34.065
G0 F2040 X-7.571 Y33.016
G1 F1020 X2.168 Y42.756 E101.23126
G0 F2040 X2.345 Y42.438
G1 F1020 X-8.188 Y31.904 E101.80135
G1 X-8.25 Y31.842
G0 F2040 X-8.804 Y30.793
G1 F1020 X2.522 Y42.12 E102.41436
G0 F2040 X2.699 Y41.802
G1 F1020 X-9.421 Y29.681 E103.07033
G1 X-9.483 Y29.619
G0 F2040 X-10.038 Y28.569
G1 F1020 X2.875 Y41.483 E103.76923
G0 F2040 X3.051 Y41.164
G1 F1020 X-10.654 Y27.458 E104.51099
G1 X-10.716 Y27.396
G0 F2040 X-11.271 Y26.346
G1 F1020 X3.228 Y40.846 E105.29572
G0 F2040 X3.405 Y40.528
G1 F1020 X-11.887 Y25.235 E106.12337
G1 X-11.949 Y25.173
G0 F2040 X-12.504 Y24.123
G1 F1020 X3.581 Y40.209 E106.99394
G0 F2040 X3.758 Y39.891
G1 F1020 X-13.121 Y23.012 E107.90745
G1 X-13.183 Y22.95
G0 F2040 X-13.737 Y21.9
G1 F1020 X3.935 Y39.573 E108.86391
G0 F2040 X4.111 Y39.255
G1 F1020 X-14.354 Y20.788 E109.86331
G1 X-14.416 Y20.726
G0 F2040 X-14.97 Y19.677
G1 F1020 X4.288 Y38.936 E110.9056
G0 F2040 X4.464 Y38.617
G1 F1020 X-15.587 Y18.565 E111.99082
G1 X-15.649 Y18.503
G0 F2040 X-16.204 Y17.454
G1 F1020 X4.641 Y38.299 E113.11898
G0 F2040 X4.818 Y37.981
G1 F1020 X-16.82 Y16.342 E114.29008
G1 X-16.882 Y16.28
G0 F2040 X-17.437 Y15.231
G1 F1020 X4.995 Y37.663 E115.50413
G0 F2040 X5.171 Y37.344
G1 F1020 X-18.053 Y14.119 E116.76107
G1 X-18.115 Y14.057
G0 F2040 X-18.67 Y13.007
G1 F1020 X5.347 Y37.026 E118.06095
G0 F2040 X5.524 Y36.708
G1 F1020 X-19.287 Y11.896 E119.40378
G1 X-19.349 Y11.834
G0 F2040 X-19.903 Y10.784
G1 F1020 X5.701 Y36.389 E120.78953
G0 F2040 X5.877 Y36.07
G1 F1020 X-20.52 Y9.673 E122.21817
G1 X-20.582 Y9.611
G0 F2040 X-21.136 Y8.561
G1 F1020 X6.054 Y35.752 E123.68975
G0 F2040 X6.231 Y35.434
G1 F1020 X-21.753 Y7.45 E125.20428
G1 X-21.815 Y7.388
G0 F2040 X-22.37 Y6.338
G1 F1020 X6.407 Y35.116 E126.76176
G0 F2040 X6.583 Y34.797
G1 F1020 X-22.986 Y5.226 E128.36212
G1 X-23.048 Y5.164
G0 F2040 X-23.603 Y4.115
G1 F1020 X6.76 Y34.479 E130.00544
G0 F2040 X6.937 Y34.161
G1 F1020 X-24.219 Y3.003 E131.69169
G1 X-24.281 Y2.941
G0 F2040 X-24.836 Y1.892
G1 F1020 X7.114 Y33.842 E133.42087
G0 F2040 X7.29 Y33.523
G1 F1020 X-25.453 Y0.78 E135.19296
G1 X-25.515 Y0.718
G0 F2040 X-26.069 Y-.33
G1 F1020 X7.467 Y33.205 E137.00794
G0 F2040 X7.643 Y32.887
G1 F1020 X-26.686 Y-1.442 E138.86587
G1 X-26.748 Y-1.504
G0 F2040 X-27.302 Y-2.554
G1 F1020 X7.82 Y32.569 E140.76675
G0 F2040 X7.996 Y32.25
G1 F1020 X-27.919 Y-3.665 E142.71051
G1 X-27.981 Y-3.727
G0 F2040 X-28.536 Y-4.777
G1 F1020 X8.173 Y31.932 E144.69725
G0 F2040 X8.35 Y31.614
G1 F1020 X-29.152 Y-5.888 E146.72691
G1 X-29.214 Y-5.95
G0 F2040 X-29.769 Y-7
G1 F1020 X8.527 Y31.295 E148.79951
G0 F2040 X8.703 Y30.976
G1 F1020 X-30.385 Y-8.111 E150.91497
G1 X-30.447 Y-8.173
G0 F2040 X-31.002 Y-9.223
G1 F1020 X8.879 Y30.658 E153.07338
G0 F2040 X9.056 Y30.34
G1 F1020 X-31.618 Y-10.335 E155.27474
G1 X-31.68 Y-10.397
G0 F2040 X-32.235 Y-11.446
G1 F1020 X9.233 Y30.022 E157.51904
G0 F2040 X9.409 Y29.703
G1 F1020 X-32.852 Y-12.558 E159.80626
G1 X-32.914 Y-12.62
G0 F2040 X-33.468 Y-13.669
G1 F1020 X9.586 Y29.385 E162.1364
G0 F2040 X9.763 Y29.067
G1 F1020 X-34.084 Y-14.78 E164.50945
G1 X-34.146 Y-14.842
G0 F2040 X-34.701 Y-15.892
G1 F1020 X9.939 Y28.748 E166.92543
G0 F2040 X10.115 Y28.429
G1 F1020 X-35.317 Y-17.003 E169.38426
G1 X-35.379 Y-17.065
G0 F2040 X-35.934 Y-18.115
G1 F1020 X10.292 Y28.111 E171.88607
G0 F2040 X10.469 Y27.793
G1 F1020 X-36.551 Y-19.226 E174.43083
G1 X-36.613 Y-19.288
G0 F2040 X-37.167 Y-20.338
G1 F1020 X10.646 Y27.475 E177.01853
G0 F2040 X10.822 Y27.156
G1 F1020 X-37.784 Y-21.45 E179.64915
G1 X-37.846 Y-21.512
G0 F2040 X-38.4 Y-22.561
G1 F1020 X10.999 Y26.838 E182.32269
G0 F2040 X11.175 Y26.52
G1 F1020 X-39.017 Y-23.673 E185.03917
G1 X-39.079 Y-23.735
G0 F2040 X-39.634 Y-24.784
G1 F1020 X11.352 Y26.201 E187.79857
G0 F2040 X11.528 Y25.882
G1 F1020 X-40.25 Y-25.896 E190.60086
G1 X-40.312 Y-25.958
G0 F2040 X-40.867 Y-27.007
G1 F1020 X11.705 Y25.564 E193.4461
G0 F2040 X11.882 Y25.246
G1 F1020 X-41.483 Y-28.119 E196.33428
G1 X-41.545 Y-28.181
G0 F2040 X-42.1 Y-29.231
G1 F1020 X12.058 Y24.928 E199.2654
G0 F2040 X12.235 Y24.609
G1 F1020 X-42.717 Y-30.342 E202.23945
G1 X-42.779 Y-30.404
G0 F2040 X-43.333 Y-31.454
G1 F1020 X12.411 Y24.291 E205.25641
G0 F2040 X12.588 Y23.973
G1 F1020 X-43.95 Y-32.565 E208.31632
G1 X-44.012 Y-32.627
G0 F2040 X-44.566 Y-33.677
G1 F1020 X12.765 Y23.654 E211.41915
G0 F2040 X12.941 Y23.335
G1 F1020 X-45.183 Y-34.788 E214.56487
G1 X-45.245 Y-34.85
G0 F2040 X-45.8 Y-35.9
G1 F1020 X13.118 Y23.017 E217.75356
G0 F2040 X13.295 Y22.699
G1 F1020 X-46.416 Y-37.012 E220.98519
G1 X-46.478 Y-37.074
G0 F2040 X-47.033 Y-38.123
G1 F1020 X13.471 Y22.381 E224.25974
G0 F2040 X13.647 Y22.062
G1 F1020 X-47.649 Y-39.235 E227.57719
G1 X-47.711 Y-39.297
G0 F2040 X-47.767 Y-40.343
G1 F1020 X14.001 Y21.426 E230.92018
G0 F2040 X13.824 Y21.744
G1 F1020 X-48.262 Y-40.343 E234.28038
G1 X-48.324 Y-40.405
G0 F2040 X-47.272 Y-40.343
G1 F1020 X14.178 Y21.107 E237.60613
G0 F2040 X14.354 Y20.788
G1 F1020 X-46.777 Y-40.343 E240.91462
G0 F2040 X-46.282 Y-40.343
G1 F1020 X14.531 Y20.47 E244.2059
G0 F2040 X14.707 Y20.152
G1 F1020 X-45.787 Y-40.343 E247.47994
G0 F2040 X-45.293 Y-40.343
G1 F1020 X14.884 Y19.834 E250.73679
G0 F2040 X15.06 Y19.515
G1 F1020 X-44.798 Y-40.343 E253.97638
G0 F2040 X-44.303 Y-40.343
G1 F1020 X15.237 Y19.197 E257.19876
G0 F2040 X15.414 Y18.879
G1 F1020 X-43.808 Y-40.343 E260.40393
G0 F2040 X-43.313 Y-40.343
G1 F1020 X15.59 Y18.56 E263.59184
G0 F2040 X15.767 Y18.241
G1 F1020 X-42.818 Y-40.343 E266.76251
G0 F2040 X-42.323 Y-40.343
G1 F1020 X15.943 Y17.923 E269.91594
G0 F2040 X16.12 Y17.605
G1 F1020 X-41.828 Y-40.343 E273.05216
G0 F2040 X-41.333 Y-40.343
G1 F1020 X16.297 Y17.287 E276.17117
G0 F2040 X16.473 Y16.968
G1 F1020 X-40.838 Y-40.343 E279.27291
G0 F2040 X-40.343 Y-40.343
G1 F1020 X16.65 Y16.65 E282.35744
G0 F2040 X16.827 Y16.332
G1 F1020 X-39.848 Y-40.343 E285.42477
G0 F2040 X-39.353 Y-40.343
G1 F1020 X17.003 Y16.013 E288.47483
G0 F2040 X17.179 Y15.694
G1 F1020 X-38.858 Y-40.343 E291.50762
G0 F2040 X-38.363 Y-40.343
G1 F1020 X17.356 Y15.376 E294.5232
G0 F2040 X17.533 Y15.058
G1 F1020 X-37.868 Y-40.343 E297.52158
G0 F2040 X-37.373 Y-40.343
G1 F1020 X17.71 Y14.74 E300.50274
G0 F2040 X17.886 Y14.421
G1 F1020 X-36.878 Y-40.343 E303.46664
G0 F2040 X-36.383 Y-40.343
G1 F1020 X18.063 Y14.103 E306.41332
G0 F2040 X18.239 Y13.785
G1 F1020 X-35.888 Y-40.343 E309.34277
G0 F2040 X-35.393 Y-40.343
G1 F1020 X18.416 Y13.466 E312.25498
G0 F2040 X18.592 Y13.147
