;FLAVOR:Marlin
;TIME:6239
;Filament used: 7.94051m
;Layer height: 0.3
;MINX:-66.508
;MINY:-25.634
;MINZ:0.26
;MAXX:43.38
;MAXY:70.321
;MAXZ:23.66
;Generated with Cura_SteamEngine 4.9.1
M82 ;absolute extrusion mode
;Gcode by Cura
G90
G28
M107
M109 R100
G30
M109 S215 U-55 X55 V-85 Y-85 W0.26 Z0.26
M82
G92 E0
G1 F200 E6
G92 E0
G1 F200 E-3.5
G0 Z0.15
G0 X10
G0 Z3
G1 F6000
G92 E0
G92 E0
G1 F3600 E-3.8
;LAYER_COUNT:79
;LAYER:0
M107
G0 F2040 X38.183 Y-25.634 Z0.26
;TYPE:SKIRT
G1 F3600 E0
G1 F1020 X38.873 Y-25.624 E0.02641
G1 X39.476 Y-25.575 E0.04956
G1 X40.067 Y-25.447 E0.0727
G1 X40.636 Y-25.243 E0.09584
G1 X41.173 Y-24.965 E0.11898
G1 X41.669 Y-24.618 E0.14214
G1 X42.114 Y-24.21 E0.16525
G1 X42.502 Y-23.746 E0.18839
G1 X42.826 Y-23.235 E0.21155
G1 X43.079 Y-22.686 E0.23468
G1 X43.258 Y-22.108 E0.25784
G1 X43.358 Y-21.512 E0.28097
G1 X43.38 Y-20.908 E0.3041
G1 X43.321 Y-20.306 E0.32725
G1 X43.184 Y-19.717 E0.35039
G1 X42.92 Y-19.045 E0.37802
G1 X42.788 Y-18.789 E0.38904
G1 X42.473 Y-18.223 E0.41383
G1 X-6.477 Y67.44 E4.18959
G1 X-6.854 Y68.077 E4.21792
G1 X-7.196 Y68.576 E4.24107
G1 X-7.6 Y69.025 E4.26418
G1 X-8.06 Y69.418 E4.28734
G1 X-8.568 Y69.746 E4.31048
G1 X-9.115 Y70.004 E4.33362
G1 X-9.691 Y70.188 E4.35676
G1 X-10.286 Y70.294 E4.37989
G1 X-10.89 Y70.321 E4.40303
G1 X-11.492 Y70.268 E4.42616
G1 X-12.083 Y70.136 E4.44933
G1 X-12.65 Y69.927 E4.47246
G1 X-13.185 Y69.646 E4.49558
G1 X-13.678 Y69.296 E4.51872
G1 X-14.121 Y68.884 E4.54187
G1 X-14.634 Y68.229 E4.57371
G1 X-14.736 Y68.068 E4.58101
G1 X-15.054 Y67.543 E4.6045
G1 X-65.569 Y-18.183 E8.4124
G1 X-65.905 Y-18.771 E8.43832
G1 X-66.17 Y-19.315 E8.46148
G1 X-66.36 Y-19.889 E8.48462
G1 X-66.474 Y-20.483 E8.50776
G1 X-66.508 Y-21.086 E8.53088
G1 X-66.462 Y-21.689 E8.55402
G1 X-66.337 Y-22.281 E8.57718
G1 X-66.135 Y-22.851 E8.60032
G1 X-65.86 Y-23.389 E8.62344
G1 X-65.516 Y-23.886 E8.64657
G1 X-65.109 Y-24.334 E8.66974
G1 X-64.647 Y-24.724 E8.69287
G1 X-64.138 Y-25.05 E8.71601
G1 X-63.59 Y-25.305 E8.73914
G1 X-63.013 Y-25.487 E8.76229
G1 X-62.417 Y-25.59 E8.78544
G1 X-62.018 Y-25.615 E8.80074
G1 X-60.97 Y-25.634 E8.84085
G1 X38.183 Y-25.634 E12.63539
G0 F2040 X38.178 Y-25.284
G1 F1020 X38.868 Y-25.274 E12.6618
G1 X39.447 Y-25.225 E12.68403
G1 X40.014 Y-25.098 E12.70627
G1 X40.558 Y-24.894 E12.72851
G1 X41.069 Y-24.617 E12.75075
G1 X41.537 Y-24.273 E12.77298
G1 X41.954 Y-23.868 E12.79522
G1 X42.311 Y-23.41 E12.81745
G1 X42.602 Y-22.907 E12.83969
G1 X42.821 Y-22.369 E12.86192
G1 X42.964 Y-21.805 E12.88418
G1 X43.028 Y-21.228 E12.9064
G1 X43.013 Y-20.647 E12.92864
G1 X42.918 Y-20.074 E12.95087
G1 X42.745 Y-19.519 E12.97312
G1 X42.482 Y-18.959 E12.99679
G1 X42.169 Y-18.397 E13.02141
G1 X-6.778 Y67.262 E16.79698
G1 X-7.155 Y67.899 E16.82531
G1 X-7.485 Y68.377 E16.84754
G1 X-7.877 Y68.806 E16.86978
G1 X-8.324 Y69.177 E16.89201
G1 X-8.818 Y69.483 E16.91425
G1 X-9.349 Y69.718 E16.93647
G1 X-9.908 Y69.879 E16.95873
G1 X-10.483 Y69.961 E16.98096
G1 X-11.064 Y69.963 E17.00319
G1 X-11.64 Y69.886 E17.02543
G1 X-12.2 Y69.73 E17.04768
G1 X-12.733 Y69.499 E17.06991
G1 X-13.229 Y69.197 E17.09213
G1 X-13.68 Y68.83 E17.11438
G1 X-14.075 Y68.405 E17.13659
G1 X-14.371 Y67.991 E17.15607
G1 X-14.436 Y67.887 E17.16076
G1 X-14.752 Y67.365 E17.18411
G1 X-65.237 Y-18.308 E20.98969
G1 X-65.601 Y-18.945 E21.01776
G1 X-65.854 Y-19.468 E21.04
G1 X-66.033 Y-20.021 E21.06224
G1 X-66.134 Y-20.593 E21.08447
G1 X-66.156 Y-21.174 E21.10672
G1 X-66.098 Y-21.752 E21.12895
G1 X-65.961 Y-22.316 E21.15116
G1 X-65.748 Y-22.857 E21.17341
G1 X-65.463 Y-23.363 E21.19564
G1 X-65.111 Y-23.825 E21.21787
G1 X-64.699 Y-24.235 E21.24011
G1 X-64.234 Y-24.584 E21.26236
G1 X-63.726 Y-24.867 E21.28461
G1 X-63.185 Y-25.076 E21.30681
G1 X-62.619 Y-25.21 E21.32907
G1 X-62.012 Y-25.265 E21.35239
G1 X-60.97 Y-25.284 E21.39228
G1 X38.178 Y-25.284 E25.18662
G0 F2040 X38.173 Y-24.934
G1 F1020 X38.863 Y-24.924 E25.21303
G1 X39.417 Y-24.876 E25.23431
G1 X39.959 Y-24.749 E25.25562
G1 X40.477 Y-24.546 E25.27691
G1 X40.961 Y-24.27 E25.29823
G1 X41.4 Y-23.929 E25.3195
G1 X41.786 Y-23.528 E25.3408
G1 X42.11 Y-23.075 E25.36212
G1 X42.366 Y-22.581 E25.38341
G1 X42.549 Y-22.056 E25.40469
G1 X42.655 Y-21.51 E25.42597
G1 X42.681 Y-20.954 E25.44727
G1 X42.627 Y-20.4 E25.46858
G1 X42.495 Y-19.86 E25.48985
G1 X42.291 Y-19.352 E25.5108
G1 X42.176 Y-19.129 E25.5204
G1 X41.865 Y-18.57 E25.54488
G1 X-7.079 Y67.084 E29.32023
G1 X-7.456 Y67.721 E29.34856
G1 X-7.773 Y68.178 E29.36984
G1 X-8.153 Y68.585 E29.39115
G1 X-8.586 Y68.934 E29.41243
G1 X-9.065 Y69.217 E29.43373
G1 X-9.58 Y69.428 E29.45502
G1 X-10.12 Y69.563 E29.47633
G1 X-10.673 Y69.62 E29.4976
G1 X-11.229 Y69.597 E29.5189
G1 X-11.776 Y69.495 E29.54019
G1 X-12.303 Y69.315 E29.5615
G1 X-12.798 Y69.062 E29.58278
G1 X-13.252 Y68.74 E29.60408
G1 X-13.655 Y68.357 E29.62535
G1 X-14.046 Y67.849 E29.64989
G1 X-14.137 Y67.706 E29.65637
G1 X-14.45 Y67.187 E29.67957
G1 X-64.961 Y-18.53 E33.4871
G1 X-65.297 Y-19.118 E33.51302
G1 X-65.538 Y-19.62 E33.53433
G1 X-65.704 Y-20.151 E33.55562
G1 X-65.793 Y-20.7 E33.5769
G1 X-65.802 Y-21.257 E33.59822
G1 X-65.731 Y-21.809 E33.61952
G1 X-65.582 Y-22.345 E33.64081
G1 X-65.358 Y-22.854 E33.66209
G1 X-65.063 Y-23.326 E33.68339
G1 X-64.703 Y-23.75 E33.70468
G1 X-64.287 Y-24.119 E33.72596
G1 X-63.822 Y-24.425 E33.74726
G1 X-63.317 Y-24.66 E33.76858
G1 X-62.785 Y-24.821 E33.78985
G1 X-62.005 Y-24.915 E33.81992
G1 X-60.97 Y-24.934 E33.85953
G1 X38.173 Y-24.934 E37.65369
G0 F2040 X38.168 Y-24.584
G1 F1020 X38.858 Y-24.574 E37.6801
G1 X39.387 Y-24.526 E37.70042
G1 X39.902 Y-24.4 E37.72071
G1 X40.393 Y-24.197 E37.74105
G1 X40.847 Y-23.924 E37.76132
G1 X41.256 Y-23.585 E37.78165
G1 X41.608 Y-23.188 E37.80196
G1 X41.898 Y-22.744 E37.82225
G1 X42.117 Y-22.26 E37.84258
G1 X42.262 Y-21.75 E37.86287
G1 X42.328 Y-21.223 E37.8832
G1 X42.314 Y-20.693 E37.90349
G1 X42.221 Y-20.17 E37.92382
G1 X41.976 Y-19.505 E37.95094
G1 X41.87 Y-19.299 E37.9598
G1 X41.562 Y-18.744 E37.9841
G1 X-7.38 Y66.905 E41.75924
G1 X-7.757 Y67.542 E41.78756
G1 X-8.061 Y67.977 E41.80787
G1 X-8.427 Y68.362 E41.8282
G1 X-8.846 Y68.687 E41.8485
G1 X-9.31 Y68.946 E41.86883
G1 X-9.807 Y69.132 E41.88914
G1 X-10.326 Y69.241 E41.90944
G1 X-10.856 Y69.271 E41.92975
G1 X-11.384 Y69.222 E41.95004
G1 X-11.899 Y69.093 E41.97036
G1 X-12.389 Y68.889 E41.99067
G1 X-12.842 Y68.614 E42.01095
G1 X-13.249 Y68.273 E42.03127
G1 X-13.752 Y67.659 E42.06165
G1 X-13.837 Y67.525 E42.06772
G1 X-14.149 Y67.01 E42.09077
G1 X-64.658 Y-18.704 E45.89816
G1 X-64.994 Y-19.292 E45.92408
G1 X-65.221 Y-19.771 E45.94436
G1 X-65.375 Y-20.279 E45.96468
G1 X-65.45 Y-20.805 E45.98501
G1 X-65.446 Y-21.335 E46.00529
G1 X-65.362 Y-21.859 E46.0256
G1 X-65.2 Y-22.365 E46.04594
G1 X-64.964 Y-22.84 E46.06623
G1 X-64.66 Y-23.275 E46.08654
G1 X-64.294 Y-23.659 E46.10685
G1 X-63.874 Y-23.984 E46.12717
G1 X-63.41 Y-24.242 E46.14749
G1 X-62.913 Y-24.427 E46.16778
G1 X-62.394 Y-24.536 E46.18808
G1 X-61.999 Y-24.565 E46.20323
G1 X-60.97 Y-24.584 E46.24262
G1 X38.168 Y-24.584 E50.03658
G0 F2040 X38.163 Y-24.234
G1 F1020 X38.853 Y-24.224 E50.06299
G1 X39.354 Y-24.176 E50.08225
G1 X39.842 Y-24.051 E50.10153
G1 X40.304 Y-23.849 E50.12083
G1 X40.727 Y-23.577 E50.14007
G1 X41.103 Y-23.242 E50.15935
G1 X41.421 Y-22.851 E50.17863
G1 X41.673 Y-22.415 E50.19791
G1 X41.853 Y-21.945 E50.21717
G1 X41.956 Y-21.452 E50.23644
G1 X41.98 Y-20.949 E50.25571
G1 X41.925 Y-20.449 E50.27496
G1 X41.791 Y-19.963 E50.29425
G1 X41.564 Y-19.469 E50.31506
G1 X41.258 Y-18.918 E50.33918
G1 X-7.682 Y66.727 E54.11415
G1 X-8.059 Y67.364 E54.14248
G1 X-8.349 Y67.776 E54.16176
G1 X-8.7 Y68.136 E54.181
G1 X-9.104 Y68.437 E54.20028
G1 X-9.551 Y68.67 E54.21957
G1 X-10.029 Y68.829 E54.23885
G1 X-10.525 Y68.911 E54.25809
G1 X-11.029 Y68.913 E54.27738
G1 X-11.527 Y68.836 E54.29666
G1 X-12.006 Y68.68 E54.31594
G1 X-12.454 Y68.451 E54.3352
G1 X-12.861 Y68.154 E54.35448
G1 X-13.216 Y67.797 E54.37375
G1 X-13.538 Y67.343 E54.39505
G1 X-13.847 Y66.832 E54.4179
G1 X-64.354 Y-18.878 E58.22512
G1 X-64.69 Y-19.466 E58.25104
G1 X-64.904 Y-19.921 E58.27028
G1 X-65.044 Y-20.405 E58.28956
G1 X-65.105 Y-20.905 E58.30884
G1 X-65.087 Y-21.408 E58.3281
G1 X-64.989 Y-21.902 E58.34738
G1 X-64.814 Y-22.375 E58.36668
G1 X-64.567 Y-22.813 E58.38592
G1 X-64.254 Y-23.208 E58.40521
G1 X-63.882 Y-23.547 E58.42447
G1 X-63.461 Y-23.824 E58.44375
G1 X-63.002 Y-24.031 E58.46302
G1 X-62.516 Y-24.162 E58.48229
G1 X-61.992 Y-24.215 E58.50244
G1 X-60.97 Y-24.234 E58.54156
G1 X38.163 Y-24.234 E62.33533
G1 F3600 E58.53533
;MESH:support_tri_0_005.stl
G0 F2040 X38.163 Y-21.724
G0 X38.163 Y-20.689
G0 X-61.035 Y-20.534
;TYPE:WALL-INNER
G1 F3600 E62.33533
G1 F1020 X37.919 Y-20.534 E66.12226
G1 X-10.797 Y64.72 E69.87998
G1 X-61.035 Y-20.534 E73.66694
G0 F2040 X-61.604 Y-20.859
;TYPE:WALL-OUTER
G1 F1020 X38.479 Y-20.859 E77.49707
G1 X-10.793 Y65.367 E81.29765
G1 X-61.604 Y-20.859 E85.12779
G0 F2040 X-61.404 Y-20.859
G0 X-61.404 Y-20.759
G0 X-60.439 Y-20.194
;TYPE:SKIN
G1 F1020 X37.333 Y-20.194 E88.86948
G1 X-10.801 Y64.042 E92.58233
G1 X-60.439 Y-20.194 E96.32407
G0 F2040 X36.997 Y-19.924
G1 F1020 X36.884 Y-20.037 E96.33019
G0 F2040 X36.817 Y-19.609
G1 F1020 X36.389 Y-20.037 E96.35335
G0 F2040 X35.894 Y-20.037
G1 F1020 X36.638 Y-19.294 E96.39359
G0 F2040 X36.457 Y-18.979
G1 F1020 X35.399 Y-20.037 E96.45085
G0 F2040 X34.904 Y-20.037
G1 F1020 X36.277 Y-18.664 E96.52516
G0 F2040 X36.097 Y-18.349
G1 F1020 X34.409 Y-20.037 E96.61652
G0 F2040 X33.914 Y-20.037
G1 F1020 X35.917 Y-18.034 E96.72492
G0 F2040 X35.737 Y-17.719
G1 F1020 X33.419 Y-20.037 E96.85038
G0 F2040 X32.925 Y-20.037
G1 F1020 X35.557 Y-17.404 E96.99285
G0 F2040 X35.377 Y-17.089
G1 F1020 X32.43 Y-20.037 E97.15237
G0 F2040 X31.935 Y-20.037
G1 F1020 X35.197 Y-16.774 E97.32894
G0 F2040 X35.018 Y-16.459
G1 F1020 X31.44 Y-20.037 E97.52259
G0 F2040 X30.945 Y-20.037
G1 F1020 X34.837 Y-16.144 E97.73326
G0 F2040 X34.658 Y-15.829
G1 F1020 X30.45 Y-20.037 E97.961
G0 F2040 X29.955 Y-20.037
G1 F1020 X34.477 Y-15.514 E98.20576
G0 F2040 X34.297 Y-15.199
G1 F1020 X29.46 Y-20.037 E98.46757
G0 F2040 X28.965 Y-20.037
G1 F1020 X34.117 Y-14.884 E98.74643
G0 F2040 X33.937 Y-14.569
G1 F1020 X28.47 Y-20.037 E99.04234
G0 F2040 X27.975 Y-20.037
G1 F1020 X33.757 Y-14.254 E99.3553
G0 F2040 X33.577 Y-13.939
G1 F1020 X27.48 Y-20.037 E99.6853
G0 F2040 X26.985 Y-20.037
G1 F1020 X33.398 Y-13.624 E100.03238
G0 F2040 X33.217 Y-13.309
G1 F1020 X26.49 Y-20.037 E100.39648
G0 F2040 X25.995 Y-20.037
G1 F1020 X33.038 Y-12.994 E100.77766
G0 F2040 X32.857 Y-12.679
G1 F1020 X25.5 Y-20.037 E101.17586
G0 F2040 X25.005 Y-20.037
G1 F1020 X32.678 Y-12.364 E101.59113
G0 F2040 X32.497 Y-12.049
G1 F1020 X24.51 Y-20.037 E102.02342
G0 F2040 X24.015 Y-20.037
G1 F1020 X32.318 Y-11.734 E102.47279
G0 F2040 X32.138 Y-11.419
G1 F1020 X23.52 Y-20.037 E102.93921
G0 F2040 X23.025 Y-20.037
G1 F1020 X31.957 Y-11.105 E103.42262
G0 F2040 X31.778 Y-10.789
G1 F1020 X22.53 Y-20.037 E103.92313
G0 F2040 X22.035 Y-20.037
G1 F1020 X31.597 Y-10.475 E104.44064
G0 F2040 X31.418 Y-10.159
G1 F1020 X21.54 Y-20.037 E104.97525
G0 F2040 X21.045 Y-20.037
G1 F1020 X31.237 Y-9.845 E105.52685
G0 F2040 X31.058 Y-9.529
G1 F1020 X20.55 Y-20.037 E106.09556
G0 F2040 X20.055 Y-20.037
G1 F1020 X30.877 Y-9.215 E106.68126
G0 F2040 X30.698 Y-8.899
G1 F1020 X19.56 Y-20.037 E107.28406
G0 F2040 X19.065 Y-20.037
G1 F1020 X30.518 Y-8.584 E107.90392
G0 F2040 X30.338 Y-8.269
G1 F1020 X18.57 Y-20.037 E108.54081
G0 F2040 X18.075 Y-20.037
G1 F1020 X30.158 Y-7.954 E109.19476
G0 F2040 X29.978 Y-7.639
G1 F1020 X17.58 Y-20.037 E109.86576
G0 F2040 X17.085 Y-20.037
G1 F1020 X29.798 Y-7.324 E110.5538
G0 F2040 X29.617 Y-7.01
G1 F1020 X16.59 Y-20.037 E111.25884
G0 F2040 X16.095 Y-20.037
G1 F1020 X29.438 Y-6.694 E111.98098
G0 F2040 X29.257 Y-6.38
G1 F1020 X15.6 Y-20.037 E112.72011
G0 F2040 X15.105 Y-20.037
G1 F1020 X29.078 Y-6.064 E113.47635
G0 F2040 X28.898 Y-5.75
G1 F1020 X14.61 Y-20.037 E114.24961
G0 F2040 X14.115 Y-20.037
G1 F1020 X28.718 Y-5.434 E115.03994
G0 F2040 X28.538 Y-5.12
G1 F1020 X13.62 Y-20.037 E115.84729
G0 F2040 X13.126 Y-20.037
G1 F1020 X28.358 Y-4.804 E116.6717
G0 F2040 X28.178 Y-4.49
G1 F1020 X12.631 Y-20.037 E117.51312
G0 F2040 X12.136 Y-20.037
G1 F1020 X27.998 Y-4.174 E118.37162
G0 F2040 X27.818 Y-3.86
G1 F1020 X11.641 Y-20.037 E119.24714
G0 F2040 X11.146 Y-20.037
G1 F1020 X27.637 Y-3.545 E120.13968
G0 F2040 X27.458 Y-3.23
G1 F1020 X10.651 Y-20.037 E121.0493
G0 F2040 X10.156 Y-20.037
G1 F1020 X27.278 Y-2.915 E121.97596
G0 F2040 X27.098 Y-2.6
G1 F1020 X9.661 Y-20.037 E122.91967
G0 F2040 X9.166 Y-20.037
G1 F1020 X26.918 Y-2.285 E123.88043
G0 F2040 X26.738 Y-1.969
G1 F1020 X8.671 Y-20.037 E124.85827
G0 F2040 X8.176 Y-20.037
G1 F1020 X26.558 Y-1.655 E125.85313
G0 F2040 X26.378 Y-1.339
G1 F1020 X7.681 Y-20.037 E126.86506
G0 F2040 X7.186 Y-20.037
G1 F1020 X26.198 Y-1.025 E127.89401
G0 F2040 X26.018 Y-.709
G1 F1020 X6.691 Y-20.037 E128.94004
G0 F2040 X6.196 Y-20.037
G1 F1020 X25.838 Y-.395 E130.00309
G0 F2040 X25.658 Y-0.079
G1 F1020 X5.701 Y-20.037 E131.08322
G0 F2040 X5.206 Y-20.037
G1 F1020 X25.478 Y0.234 E132.18034
G0 F2040 X25.298 Y0.549
G1 F1020 X4.711 Y-20.037 E133.29451
G0 F2040 X4.216 Y-20.037
G1 F1020 X25.118 Y0.864 E134.42572
G0 F2040 X24.938 Y1.179
G1 F1020 X3.721 Y-20.037 E135.57399
G0 F2040 X3.226 Y-20.037
G1 F1020 X24.758 Y1.494 E136.7393
G0 F2040 X24.578 Y1.809
G1 F1020 X2.731 Y-20.037 E137.92166
G0 F2040 X2.236 Y-20.037
G1 F1020 X24.398 Y2.124 E139.12107
G0 F2040 X24.218 Y2.439
G1 F1020 X1.741 Y-20.037 E140.33752
G0 F2040 X1.246 Y-20.037
G1 F1020 X24.038 Y2.754 E141.57103
G0 F2040 X23.858 Y3.069
G1 F1020 X0.751 Y-20.037 E142.82158
G0 F2040 X0.256 Y-20.037
G1 F1020 X23.678 Y3.384 E144.08918
G0 F2040 X23.498 Y3.699
G1 F1020 X-.238 Y-20.037 E145.37381
G0 F2040 X-.733 Y-20.037
G1 F1020 X23.318 Y4.014 E146.67548
G0 F2040 X23.138 Y4.329
G1 F1020 X-1.228 Y-20.037 E147.9942
G0 F2040 X-1.723 Y-20.037
G1 F1020 X22.958 Y4.644 E149.32996
G0 F2040 X22.778 Y4.959
G1 F1020 X-2.218 Y-20.037 E150.68278
G0 F2040 X-2.713 Y-20.037
G1 F1020 X22.598 Y5.274 E152.05264
G0 F2040 X22.418 Y5.589
G1 F1020 X-3.208 Y-20.037 E153.43955
G0 F2040 X-3.703 Y-20.037
G1 F1020 X22.238 Y5.904 E154.84351
G0 F2040 X22.058 Y6.219
G1 F1020 X-4.198 Y-20.037 E156.26452
G0 F2040 X-4.693 Y-20.037
G1 F1020 X21.878 Y6.534 E157.70258
G0 F2040 X21.698 Y6.849
G1 F1020 X-5.188 Y-20.037 E159.15768
G0 F2040 X-5.683 Y-20.037
G1 F1020 X21.518 Y7.164 E160.62983
G0 F2040 X21.339 Y7.479
G1 F1020 X-6.177 Y-20.037 E162.11904
G0 F2040 X-6.672 Y-20.037
G1 F1020 X21.158 Y7.794 E163.62526
G0 F2040 X20.979 Y8.109
G1 F1020 X-7.167 Y-20.037 E165.14856
G0 F2040 X-7.662 Y-20.037
G1 F1020 X20.798 Y8.424 E166.68887
G0 F2040 X20.618 Y8.739
G1 F1020 X-8.157 Y-20.037 E168.24624
G0 F2040 X-8.652 Y-20.037
G1 F1020 X20.438 Y9.054 E169.82066
G0 F2040 X20.258 Y9.369
G1 F1020 X-9.147 Y-20.037 E171.41212
G0 F2040 X-9.642 Y-20.037
G1 F1020 X20.079 Y9.684 E173.02066
G0 F2040 X19.898 Y9.999
G1 F1020 X-10.137 Y-20.037 E174.64622
G0 F2040 X-10.632 Y-20.037
G1 F1020 X19.719 Y10.314 E176.28885
G0 F2040 X19.538 Y10.629
G1 F1020 X-11.127 Y-20.037 E177.94851
G0 F2040 X-11.622 Y-20.037
G1 F1020 X19.359 Y10.944 E179.62524
G0 F2040 X19.178 Y11.259
G1 F1020 X-12.117 Y-20.037 E181.31899
G0 F2040 X-12.612 Y-20.037
G1 F1020 X18.999 Y11.574 E183.02982
G0 F2040 X18.818 Y11.889
G1 F1020 X-13.107 Y-20.037 E184.75767
G0 F2040 X-13.602 Y-20.037
G1 F1020 X18.638 Y12.203 E186.50254
G0 F2040 X18.459 Y12.519
G1 F1020 X-14.097 Y-20.037 E188.26451
G0 F2040 X-14.592 Y-20.037
G1 F1020 X18.278 Y12.833 E190.04348
G0 F2040 X18.099 Y13.149
G1 F1020 X-15.087 Y-20.037 E191.83954
G0 F2040 X-15.582 Y-20.037
G1 F1020 X17.918 Y13.464 E193.65263
G0 F2040 X17.739 Y13.779
G1 F1020 X-16.077 Y-20.037 E195.4828
G0 F2040 X-16.572 Y-20.037
G1 F1020 X17.558 Y14.094 E197.32998
G0 F2040 X17.379 Y14.409
G1 F1020 X-17.067 Y-20.037 E199.19425
G0 F2040 X-17.562 Y-20.037
G1 F1020 X17.198 Y14.724 E201.07553
G0 F2040 X17.019 Y15.039
G1 F1020 X-18.057 Y-20.037 E202.97389
G0 F2040 X-18.552 Y-20.037
G1 F1020 X16.839 Y15.354 E204.88929
G0 F2040 X16.659 Y15.669
