;FLAVOR:Marlin
;TIME:6304
;Filament used: 7.94365m
;Layer height: 0.3
;MINX:-67.009
;MINY:-70.611
;MINZ:0.26
;MAXX:42.105
;MAXY:26.011
;MAXZ:23.66
;Generated with Cura_SteamEngine 4.9.1
M82 ;absolute extrusion mode
;Gcode by Cura
G90
G28
M107
M109 R100
G30
M109 S215 U-55 X55 V-85 Y-85 W0.26 Z0.26
M82
G92 E0
G1 F200 E6
G92 E0
G1 F200 E-3.5
G0 Z0.15
G0 X10
G0 Z3
G1 F6000
G92 E0
G92 E0
G1 F3600 E-3.8
;LAYER_COUNT:79
;LAYER:0
M107
G0 F2040 X41.182 Y18.577 Z0.26
;TYPE:SKIRT
G1 F3600 E0
G1 F1020 X41.531 Y19.206 E0.02753
G1 X41.789 Y19.753 E0.05067
G1 X41.973 Y20.329 E0.07381
G1 X42.078 Y20.925 E0.09697
G1 X42.105 Y21.529 E0.12011
G1 X42.051 Y22.131 E0.14324
G1 X41.919 Y22.721 E0.16638
G1 X41.71 Y23.288 E0.18951
G1 X41.428 Y23.823 E0.21265
G1 X41.077 Y24.316 E0.23581
G1 X40.665 Y24.759 E0.25896
G1 X40.199 Y25.143 E0.28207
G1 X39.685 Y25.462 E0.30522
G1 X39.134 Y25.711 E0.32836
G1 X38.555 Y25.885 E0.3515
G1 X37.742 Y25.996 E0.3829
G1 X37.523 Y26.004 E0.39129
G1 X36.962 Y26.011 E0.41276
G1 X-61.812 Y26.011 E4.19279
G1 X-62.502 Y26.001 E4.2192
G1 X-63.105 Y25.952 E4.24235
G1 X-63.696 Y25.824 E4.26549
G1 X-64.265 Y25.62 E4.28863
G1 X-64.802 Y25.342 E4.31177
G1 X-65.298 Y24.995 E4.33493
G1 X-65.743 Y24.587 E4.35804
G1 X-66.131 Y24.123 E4.38119
G1 X-66.455 Y23.612 E4.40434
G1 X-66.708 Y23.063 E4.42747
G1 X-66.887 Y22.485 E4.45063
G1 X-66.987 Y21.889 E4.47376
G1 X-67.009 Y21.285 E4.49689
G1 X-66.95 Y20.683 E4.52004
G1 X-66.813 Y20.094 E4.54318
G1 X-66.549 Y19.422 E4.57081
G1 X-66.416 Y19.165 E4.58188
G1 X-66.079 Y18.559 E4.60842
G1 X-16.738 Y-67.787 E8.4143
G1 X-16.394 Y-68.368 E8.44014
G1 X-16.052 Y-68.867 E8.46329
G1 X-15.647 Y-69.316 E8.48643
G1 X-15.187 Y-69.708 E8.50956
G1 X-14.679 Y-70.036 E8.5327
G1 X-14.132 Y-70.294 E8.55584
G1 X-13.556 Y-70.478 E8.57898
G1 X-12.961 Y-70.584 E8.60211
G1 X-12.357 Y-70.611 E8.62525
G1 X-11.755 Y-70.558 E8.64838
G1 X-11.165 Y-70.426 E8.67152
G1 X-10.597 Y-70.217 E8.69468
G1 X-10.062 Y-69.935 E8.71782
G1 X-9.569 Y-69.585 E8.74096
G1 X-9.126 Y-69.173 E8.76411
G1 X-8.742 Y-68.707 E8.78722
G1 X-8.527 Y-68.379 E8.80223
G1 X-8.022 Y-67.53 E8.84003
G1 X41.182 Y18.577 E12.63537
G0 F2040 X40.876 Y18.747
G1 F1020 X41.225 Y19.376 E12.6629
G1 X41.472 Y19.902 E12.68514
G1 X41.643 Y20.457 E12.70736
G1 X41.737 Y21.031 E12.72962
G1 X41.752 Y21.612 E12.75186
G1 X41.687 Y22.189 E12.77408
G1 X41.543 Y22.752 E12.79632
G1 X41.323 Y23.29 E12.81857
G1 X41.031 Y23.792 E12.84079
G1 X40.673 Y24.25 E12.86304
G1 X40.256 Y24.655 E12.88528
G1 X39.787 Y24.998 E12.90752
G1 X39.276 Y25.274 E12.92975
G1 X38.732 Y25.477 E12.95197
G1 X38.165 Y25.603 E12.9742
G1 X37.661 Y25.65 E12.99357
G1 X37.519 Y25.654 E12.999
G1 X36.958 Y25.661 E13.02047
G1 X-61.807 Y25.661 E16.80016
G1 X-62.497 Y25.651 E16.82657
G1 X-63.076 Y25.602 E16.84881
G1 X-63.643 Y25.475 E16.87105
G1 X-64.187 Y25.271 E16.89328
G1 X-64.698 Y24.994 E16.91552
G1 X-65.166 Y24.65 E16.93775
G1 X-65.583 Y24.245 E16.96
G1 X-65.94 Y23.787 E16.98222
G1 X-66.231 Y23.284 E17.00446
G1 X-66.45 Y22.746 E17.02669
G1 X-66.593 Y22.182 E17.04896
G1 X-66.657 Y21.605 E17.07117
G1 X-66.642 Y21.024 E17.09342
G1 X-66.547 Y20.451 E17.11564
G1 X-66.374 Y19.896 E17.13789
G1 X-66.11 Y19.335 E17.16162
G1 X-65.775 Y18.733 E17.18798
G1 X-16.437 Y-67.609 E20.99367
G1 X-16.093 Y-68.19 E21.01951
G1 X-15.763 Y-68.668 E21.04174
G1 X-15.371 Y-69.097 E21.06398
G1 X-14.923 Y-69.467 E21.08622
G1 X-14.429 Y-69.773 E21.10845
G1 X-13.898 Y-70.009 E21.13069
G1 X-13.34 Y-70.169 E21.15291
G1 X-12.764 Y-70.251 E21.17517
G1 X-12.183 Y-70.253 E21.19741
G1 X-11.607 Y-70.176 E21.21965
G1 X-11.048 Y-70.02 E21.24186
G1 X-10.515 Y-69.789 E21.26409
G1 X-10.018 Y-69.487 E21.28634
G1 X-9.568 Y-69.12 E21.30856
G1 X-9.172 Y-68.694 E21.33082
G1 X-8.828 Y-68.2 E21.35386
G1 X-8.326 Y-67.356 E21.39144
G1 X40.876 Y18.747 E25.18661
G0 F2040 X40.57 Y18.917
G1 F1020 X40.919 Y19.546 E25.21413
G1 X41.154 Y20.051 E25.23545
G1 X41.313 Y20.584 E25.25674
G1 X41.395 Y21.134 E25.27802
G1 X41.397 Y21.69 E25.2993
G1 X41.319 Y22.241 E25.32059
G1 X41.163 Y22.776 E25.34192
G1 X40.933 Y23.282 E25.36319
G1 X40.632 Y23.75 E25.38448
G1 X40.267 Y24.17 E25.40578
G1 X39.846 Y24.534 E25.42708
G1 X39.377 Y24.833 E25.44836
G1 X38.87 Y25.062 E25.46965
G1 X38.335 Y25.217 E25.49097
G1 X37.71 Y25.297 E25.51508
G1 X37.514 Y25.304 E25.52259
G1 X36.953 Y25.311 E25.54406
G1 X-61.802 Y25.311 E29.32337
G1 X-62.492 Y25.301 E29.34977
G1 X-63.046 Y25.253 E29.37106
G1 X-63.588 Y25.126 E29.39236
G1 X-64.106 Y24.923 E29.41365
G1 X-64.59 Y24.647 E29.43497
G1 X-65.029 Y24.306 E29.45625
G1 X-65.415 Y23.905 E29.47755
G1 X-65.739 Y23.452 E29.49886
G1 X-65.995 Y22.958 E29.52015
G1 X-66.178 Y22.433 E29.54143
G1 X-66.284 Y21.887 E29.56272
G1 X-66.31 Y21.331 E29.58402
G1 X-66.256 Y20.777 E29.60532
G1 X-66.124 Y20.237 E29.62659
G1 X-65.92 Y19.729 E29.64754
G1 X-65.804 Y19.505 E29.6572
G1 X-65.471 Y18.906 E29.68342
G1 X-16.135 Y-67.43 E33.48887
G1 X-15.791 Y-68.011 E33.51471
G1 X-15.474 Y-68.468 E33.536
G1 X-15.095 Y-68.875 E33.55728
G1 X-14.661 Y-69.224 E33.5786
G1 X-14.182 Y-69.507 E33.59989
G1 X-13.667 Y-69.718 E33.62119
G1 X-13.128 Y-69.854 E33.64246
G1 X-12.574 Y-69.91 E33.66377
G1 X-12.018 Y-69.887 E33.68506
G1 X-11.471 Y-69.785 E33.70636
G1 X-10.945 Y-69.605 E33.72763
G1 X-10.449 Y-69.351 E33.74896
G1 X-9.995 Y-69.03 E33.77024
G1 X-9.592 Y-68.646 E33.79154
G1 X-9.128 Y-68.021 E33.82133
G1 X-8.63 Y-67.183 E33.85864
G1 X40.57 Y18.917 E37.65366
G0 F2040 X40.264 Y19.087
G1 F1020 X40.613 Y19.716 E37.68119
G1 X40.835 Y20.198 E37.7015
G1 X40.982 Y20.708 E37.72181
G1 X41.051 Y21.234 E37.74211
G1 X41.04 Y21.765 E37.76244
G1 X40.949 Y22.287 E37.78272
G1 X40.781 Y22.791 E37.80305
G1 X40.539 Y23.263 E37.82335
G1 X40.23 Y23.694 E37.84364
G1 X39.858 Y24.073 E37.86397
G1 X39.435 Y24.393 E37.88427
G1 X38.968 Y24.645 E37.90457
G1 X38.468 Y24.824 E37.9249
G1 X37.694 Y24.947 E37.95489
G1 X37.51 Y24.954 E37.96194
G1 X36.949 Y24.961 E37.98341
G1 X-61.797 Y24.961 E41.76237
G1 X-62.487 Y24.951 E41.78878
G1 X-63.016 Y24.903 E41.80911
G1 X-63.531 Y24.777 E41.8294
G1 X-64.022 Y24.574 E41.84973
G1 X-64.476 Y24.301 E41.87
G1 X-64.885 Y23.962 E41.89033
G1 X-65.237 Y23.565 E41.91064
G1 X-65.527 Y23.121 E41.93093
G1 X-65.746 Y22.637 E41.95126
G1 X-65.891 Y22.127 E41.97155
G1 X-65.957 Y21.6 E41.99188
G1 X-65.943 Y21.07 E42.01217
G1 X-65.85 Y20.547 E42.0325
G1 X-65.605 Y19.882 E42.05962
G1 X-65.498 Y19.675 E42.06854
G1 X-65.168 Y19.08 E42.09457
G1 X-15.834 Y-67.252 E45.89985
G1 X-15.49 Y-67.833 E45.92569
G1 X-15.186 Y-68.268 E45.946
G1 X-14.82 Y-68.652 E45.9663
G1 X-14.401 Y-68.977 E45.9866
G1 X-13.938 Y-69.236 E46.0069
G1 X-13.441 Y-69.422 E46.02721
G1 X-12.921 Y-69.531 E46.04754
G1 X-12.392 Y-69.561 E46.06782
G1 X-11.863 Y-69.512 E46.08815
G1 X-11.348 Y-69.383 E46.10847
G1 X-10.859 Y-69.179 E46.12874
G1 X-10.405 Y-68.903 E46.14908
G1 X-9.998 Y-68.563 E46.16937
G1 X-9.647 Y-68.165 E46.18968
G1 X-9.429 Y-67.841 E46.20463
G1 X-8.933 Y-67.009 E46.24169
G1 X40.264 Y19.087 E50.03653
G0 F2040 X39.958 Y19.257
G1 F1020 X40.307 Y19.886 E50.06406
G1 X40.516 Y20.344 E50.08333
G1 X40.649 Y20.829 E50.10257
G1 X40.705 Y21.33 E50.12186
G1 X40.68 Y21.833 E50.14114
G1 X40.576 Y22.326 E50.16042
G1 X40.395 Y22.796 E50.17969
G1 X40.143 Y23.232 E50.19897
G1 X39.824 Y23.622 E50.21825
G1 X39.448 Y23.957 E50.23752
G1 X39.024 Y24.228 E50.25678
G1 X38.562 Y24.429 E50.27606
G1 X38.075 Y24.554 E50.2953
G1 X37.506 Y24.604 E50.31716
G1 X36.945 Y24.611 E50.33863
G1 X-61.792 Y24.611 E54.11725
G1 X-62.482 Y24.601 E54.14366
G1 X-62.983 Y24.553 E54.16292
G1 X-63.471 Y24.428 E54.1822
G1 X-63.933 Y24.226 E54.20149
G1 X-64.356 Y23.954 E54.22074
G1 X-64.732 Y23.619 E54.24001
G1 X-65.05 Y23.228 E54.2593
G1 X-65.302 Y22.792 E54.27857
G1 X-65.482 Y22.322 E54.29783
G1 X-65.585 Y21.829 E54.31711
G1 X-65.609 Y21.326 E54.33638
G1 X-65.554 Y20.826 E54.35563
G1 X-65.42 Y20.34 E54.37492
G1 X-65.192 Y19.845 E54.39578
G1 X-64.864 Y19.254 E54.42164
G1 X-15.533 Y-67.074 E58.22673
G1 X-15.189 Y-67.655 E58.25257
G1 X-14.899 Y-68.066 E58.27182
G1 X-14.547 Y-68.427 E58.29112
G1 X-14.143 Y-68.727 E58.31038
G1 X-13.697 Y-68.96 E58.32963
G1 X-13.219 Y-69.119 E58.34891
G1 X-12.722 Y-69.201 E58.36819
G1 X-12.218 Y-69.203 E58.38748
G1 X-11.721 Y-69.125 E58.40673
G1 X-11.242 Y-68.97 E58.426
G1 X-10.793 Y-68.741 E58.44528
G1 X-10.387 Y-68.444 E58.46454
G1 X-10.032 Y-68.086 E58.48383
G1 X-9.73 Y-67.662 E58.50375
G1 X-9.237 Y-66.835 E58.5406
G1 X39.958 Y19.257 E62.33526
G1 F3600 E58.53526
;MESH:support_tri_0_004.stl
G0 F2040 X37.777 Y20.501
G0 X36.879 Y21.014
G0 X-61.548 Y20.911
;TYPE:WALL-INNER
G1 F3600 E62.33526
G1 F1020 X-12.453 Y-65.006 E66.12221
G1 X36.642 Y20.911 E69.90917
G1 X-61.548 Y20.911 E73.66685
G0 F2040 X-62.108 Y21.236
;TYPE:WALL-OUTER
G1 F1020 X-12.453 Y-65.661 E77.497
G1 X37.202 Y21.236 E81.32715
G1 X-62.108 Y21.236 E85.12769
G0 F2040 X-62.009 Y21.063
G0 X-61.763 Y21.036
G0 X-60.962 Y20.571
;TYPE:SKIN
G1 F1020 X-12.453 Y-64.321 E88.86946
G1 X36.056 Y20.571 E92.61123
G1 X-60.962 Y20.571 E96.32406
G0 F2040 X-60.536 Y20.144
G1 F1020 X-60.267 Y20.413 E96.33862
G0 F2040 X-59.772 Y20.413
G1 F1020 X-60.357 Y19.828 E96.37028
G0 F2040 X-60.176 Y19.514
G1 F1020 X-59.277 Y20.413 E96.41894
G0 F2040 X-58.782 Y20.413
G1 F1020 X-59.996 Y19.199 E96.48464
G0 F2040 X-59.816 Y18.883
G1 F1020 X-58.287 Y20.413 E96.56742
G0 F2040 X-57.792 Y20.413
G1 F1020 X-59.636 Y18.569 E96.66722
G0 F2040 X-59.457 Y18.253
G1 F1020 X-57.297 Y20.413 E96.78412
G0 F2040 X-56.802 Y20.413
G1 F1020 X-59.276 Y17.939 E96.91801
G0 F2040 X-59.097 Y17.623
G1 F1020 X-56.307 Y20.413 E97.06901
G0 F2040 X-55.812 Y20.413
G1 F1020 X-58.916 Y17.309 E97.23701
G0 F2040 X-58.737 Y16.993
G1 F1020 X-55.317 Y20.413 E97.4221
G0 F2040 X-54.822 Y20.413
G1 F1020 X-58.556 Y16.679 E97.62419
G0 F2040 X-58.377 Y16.363
G1 F1020 X-54.327 Y20.413 E97.84338
G0 F2040 X-53.832 Y20.413
G1 F1020 X-58.197 Y16.049 E98.07959
G0 F2040 X-58.016 Y15.734
G1 F1020 X-53.337 Y20.413 E98.33283
G0 F2040 X-52.842 Y20.413
G1 F1020 X-57.837 Y15.419 E98.60313
G0 F2040 X-57.656 Y15.104
G1 F1020 X-52.347 Y20.413 E98.89046
G0 F2040 X-51.852 Y20.413
G1 F1020 X-57.477 Y14.789 E99.19487
G0 F2040 X-57.296 Y14.474
G1 F1020 X-51.357 Y20.413 E99.5163
G0 F2040 X-50.862 Y20.413
G1 F1020 X-57.117 Y14.159 E99.8548
G0 F2040 X-56.936 Y13.844
G1 F1020 X-50.367 Y20.413 E100.21032
G0 F2040 X-49.872 Y20.413
G1 F1020 X-56.757 Y13.529 E100.58292
G0 F2040 X-56.577 Y13.214
G1 F1020 X-49.377 Y20.413 E100.97256
G0 F2040 X-48.882 Y20.413
G1 F1020 X-56.397 Y12.899 E101.37926
G0 F2040 X-56.217 Y12.584
G1 F1020 X-48.388 Y20.413 E101.80297
G0 F2040 X-47.893 Y20.413
G1 F1020 X-56.036 Y12.269 E102.24371
G0 F2040 X-55.857 Y11.954
G1 F1020 X-47.398 Y20.413 E102.70152
G0 F2040 X-46.903 Y20.413
G1 F1020 X-55.676 Y11.639 E103.17636
G0 F2040 X-55.497 Y11.324
G1 F1020 X-46.408 Y20.413 E103.66826
G0 F2040 X-45.913 Y20.413
G1 F1020 X-55.316 Y11.009 E104.17719
G0 F2040 X-55.137 Y10.694
G1 F1020 X-45.418 Y20.413 E104.7032
G0 F2040 X-44.923 Y20.413
G1 F1020 X-54.957 Y10.379 E105.24625
G0 F2040 X-54.777 Y10.064
G1 F1020 X-44.428 Y20.413 E105.80635
G0 F2040 X-43.933 Y20.413
G1 F1020 X-54.597 Y9.749 E106.3835
G0 F2040 X-54.417 Y9.434
G1 F1020 X-43.438 Y20.413 E106.9777
G0 F2040 X-42.943 Y20.413
G1 F1020 X-54.237 Y9.119 E107.58894
G0 F2040 X-54.056 Y8.804
G1 F1020 X-42.448 Y20.413 E108.21721
G0 F2040 X-41.953 Y20.413
G1 F1020 X-53.877 Y8.489 E108.86255
G0 F2040 X-53.696 Y8.174
G1 F1020 X-41.458 Y20.413 E109.52492
G0 F2040 X-40.963 Y20.413
G1 F1020 X-53.517 Y7.859 E110.20435
G0 F2040 X-53.337 Y7.544
G1 F1020 X-40.468 Y20.413 E110.90084
G0 F2040 X-39.973 Y20.413
G1 F1020 X-53.157 Y7.229 E111.61438
G0 F2040 X-52.977 Y6.914
G1 F1020 X-39.478 Y20.413 E112.34496
G0 F2040 X-38.983 Y20.413
G1 F1020 X-52.797 Y6.599 E113.09259
G0 F2040 X-52.617 Y6.284
G1 F1020 X-38.488 Y20.413 E113.85727
G0 F2040 X-37.993 Y20.413
G1 F1020 X-52.437 Y5.969 E114.639
G0 F2040 X-52.257 Y5.654
G1 F1020 X-37.498 Y20.413 E115.43777
G0 F2040 X-37.003 Y20.413
G1 F1020 X-52.077 Y5.34 E116.25357
G0 F2040 X-51.897 Y5.024
G1 F1020 X-36.508 Y20.413 E117.08644
G0 F2040 X-36.013 Y20.413
G1 F1020 X-51.717 Y4.71 E117.93634
G0 F2040 X-51.537 Y4.394
G1 F1020 X-35.518 Y20.413 E118.8033
G0 F2040 X-35.023 Y20.413
G1 F1020 X-51.357 Y4.08 E119.68729
G0 F2040 X-51.177 Y3.764
G1 F1020 X-34.528 Y20.413 E120.58836
G0 F2040 X-34.033 Y20.413
G1 F1020 X-50.997 Y3.449 E121.50647
G0 F2040 X-50.817 Y3.134
G1 F1020 X-33.538 Y20.413 E122.44163
G0 F2040 X-33.043 Y20.413
G1 F1020 X-50.637 Y2.819 E123.39384
G0 F2040 X-50.457 Y2.504
G1 F1020 X-32.548 Y20.413 E124.3631
G0 F2040 X-32.053 Y20.413
G1 F1020 X-50.277 Y2.189 E125.34941
G0 F2040 X-50.097 Y1.875
G1 F1020 X-31.558 Y20.413 E126.35274
G0 F2040 X-31.063 Y20.413
G1 F1020 X-49.917 Y1.559 E127.37314
G0 F2040 X-49.737 Y1.245
G1 F1020 X-30.568 Y20.413 E128.41056
G0 F2040 X-30.073 Y20.413
G1 F1020 X-49.557 Y0.929 E129.46506
G0 F2040 X-49.377 Y0.615
G1 F1020 X-29.578 Y20.413 E130.53658
G0 F2040 X-29.084 Y20.413
G1 F1020 X-49.197 Y0.299 E131.62515
G0 F2040 X-49.017 Y-0.014
G1 F1020 X-28.589 Y20.413 E132.73071
G0 F2040 X-28.094 Y20.413
G1 F1020 X-48.837 Y-.33 E133.85335
G0 F2040 X-48.657 Y-.644
G1 F1020 X-27.599 Y20.413 E134.99301
G0 F2040 X-27.104 Y20.413
G1 F1020 X-48.477 Y-.96 E136.14974
G0 F2040 X-48.297 Y-1.274
G1 F1020 X-26.609 Y20.413 E137.3235
G0 F2040 X-26.114 Y20.413
G1 F1020 X-48.117 Y-1.59 E138.51433
G0 F2040 X-47.937 Y-1.904
G1 F1020 X-25.619 Y20.413 E139.72218
G0 F2040 X-25.124 Y20.413
G1 F1020 X-47.757 Y-2.219 E140.94708
G0 F2040 X-47.577 Y-2.534
G1 F1020 X-24.629 Y20.413 E142.18903
G0 F2040 X-24.134 Y20.413
G1 F1020 X-47.397 Y-2.849 E143.44802
G0 F2040 X-47.217 Y-3.165
G1 F1020 X-23.639 Y20.413 E144.72409
G0 F2040 X-23.144 Y20.413
G1 F1020 X-47.037 Y-3.479 E146.01719
G0 F2040 X-46.857 Y-3.795
G1 F1020 X-22.649 Y20.413 E147.32735
G0 F2040 X-22.154 Y20.413
G1 F1020 X-46.677 Y-4.109 E148.65454
G0 F2040 X-46.497 Y-4.425
G1 F1020 X-21.659 Y20.413 E149.99881
G0 F2040 X-21.164 Y20.413
G1 F1020 X-46.317 Y-4.739 E151.36009
G0 F2040 X-46.138 Y-5.055
G1 F1020 X-20.669 Y20.413 E152.73848
G0 F2040 X-20.174 Y20.413
G1 F1020 X-45.957 Y-5.369 E154.13386
G0 F2040 X-45.777 Y-5.684
G1 F1020 X-19.679 Y20.413 E155.54629
G0 F2040 X-19.184 Y20.413
G1 F1020 X-45.597 Y-5.999 E156.97577
G0 F2040 X-45.417 Y-6.314
G1 F1020 X-18.689 Y20.413 E158.4223
G0 F2040 X-18.194 Y20.413
G1 F1020 X-45.237 Y-6.629 E159.88587
G0 F2040 X-45.057 Y-6.944
G1 F1020 X-17.699 Y20.413 E161.36649
G0 F2040 X-17.204 Y20.413
G1 F1020 X-44.877 Y-7.259 E162.86416
G0 F2040 X-44.697 Y-7.574
G1 F1020 X-16.709 Y20.413 E164.37888
G0 F2040 X-16.214 Y20.413
G1 F1020 X-44.518 Y-7.889 E165.91068
G0 F2040 X-44.337 Y-8.204
G1 F1020 X-15.719 Y20.413 E167.45949
G0 F2040 X-15.224 Y20.413
G1 F1020 X-44.158 Y-8.519 E169.02538
G0 F2040 X-43.977 Y-8.834
G1 F1020 X-14.729 Y20.413 E170.6083
G0 F2040 X-14.234 Y20.413
G1 F1020 X-43.797 Y-9.149 E172.20826
G0 F2040 X-43.617 Y-9.464
G1 F1020 X-13.739 Y20.413 E173.82527
G0 F2040 X-13.244 Y20.413
G1 F1020 X-43.437 Y-9.779 E175.45932
G0 F2040 X-43.257 Y-10.094
G1 F1020 X-12.749 Y20.413 E177.11043
G0 F2040 X-12.254 Y20.413
G1 F1020 X-43.077 Y-10.409 E178.77858
G0 F2040 X-42.898 Y-10.724
G1 F1020 X-11.759 Y20.413 E180.46381
G0 F2040 X-11.264 Y20.413
G1 F1020 X-42.717 Y-11.039 E182.16606
G0 F2040 X-42.538 Y-11.354
G1 F1020 X-10.769 Y20.413 E183.88538
G0 F2040 X-10.274 Y20.413
G1 F1020 X-42.357 Y-11.669 E185.62173
G0 F2040 X-42.178 Y-11.984
G1 F1020 X-9.779 Y20.413 E187.37515
G0 F2040 X-9.285 Y20.413
G1 F1020 X-41.997 Y-12.299 E189.14556
G0 F2040 X-41.817 Y-12.614
G1 F1020 X-8.79 Y20.413 E190.93303
G0 F2040 X-8.295 Y20.413
G1 F1020 X-41.637 Y-12.929 E192.73754
G0 F2040 X-41.457 Y-13.244
G1 F1020 X-7.8 Y20.413 E194.5591
G0 F2040 X-7.305 Y20.413
G1 F1020 X-41.278 Y-13.559 E196.39773
G0 F2040 X-41.097 Y-13.874
G1 F1020 X-6.81 Y20.413 E198.25339
G0 F2040 X-6.315 Y20.413
G1 F1020 X-40.918 Y-14.189 E200.12612
G0 F2040 X-40.737 Y-14.504
G1 F1020 X-5.82 Y20.413 E202.01587
G0 F2040 X-5.325 Y20.413
G1 F1020 X-40.558 Y-14.819 E203.9227
G0 F2040 X-40.377 Y-15.134
G1 F1020 X-4.83 Y20.413 E205.84655
G0 F2040 X-4.335 Y20.413
