;FLAVOR:Marlin
;TIME:7898
;Filament used: 7.25113m
;Layer height: 0.2
;MINX:-54.556
;MINY:-49.918
;MINZ:0.26
;MAXX:54.558
;MAXY:47.092
;MAXZ:23.46
;Generated with Cura_SteamEngine 4.8.0
M82 ;absolute extrusion mode
;Gcode by Cura
G90
G28
M107
M109 R100
G30
M109 S215 U-55 X55 V-85 Y-85 W0.26 Z0.26
M82
G92 E0
G1 F200 E6
G92 E0
G1 F200 E-3.5
G0 Z0.15
G0 X10
G0 Z3
G1 F6000
G92 E0
G92 E0
G1 F3600 E-3.8
;LAYER_COUNT:117
;LAYER:0
M107
G0 F2040 X4.483 Y-46.748 Z0.26
;TYPE:SKIRT
G1 F3600 E0
G1 F1020 X53.66 Y39.7 E3.80616
G1 X53.989 Y40.296 E3.83221
G1 X54.246 Y40.844 E3.85538
G1 X54.428 Y41.42 E3.87849
G1 X54.533 Y42.016 E3.90165
G1 X54.558 Y42.62 E3.92479
G1 X54.503 Y43.222 E3.94792
G1 X54.369 Y43.812 E3.97108
G1 X54.159 Y44.378 E3.99418
G1 X53.875 Y44.913 E4.01736
G1 X53.524 Y45.405 E4.04049
G1 X53.111 Y45.846 E4.06361
G1 X52.643 Y46.23 E4.08678
G1 X52.129 Y46.548 E4.10991
G1 X51.578 Y46.795 E4.13302
G1 X50.998 Y46.968 E4.15618
G1 X50.155 Y47.079 E4.18872
G1 X49.498 Y47.092 E4.21387
G1 X-49.36 Y47.092 E7.99712
G1 X-50.049 Y47.082 E8.02349
G1 X-50.652 Y47.033 E8.04664
G1 X-51.243 Y46.905 E8.06978
G1 X-51.812 Y46.7 E8.09293
G1 X-52.349 Y46.423 E8.11605
G1 X-52.845 Y46.076 E8.13922
G1 X-53.291 Y45.668 E8.16235
G1 X-53.678 Y45.204 E8.18547
G1 X-54.002 Y44.693 E8.20863
G1 X-54.255 Y44.144 E8.23176
G1 X-54.434 Y43.566 E8.25492
G1 X-54.534 Y42.97 E8.27804
G1 X-54.556 Y42.366 E8.30117
G1 X-54.497 Y41.764 E8.32432
G1 X-54.36 Y41.175 E8.34747
G1 X-54.058 Y40.426 E8.37837
G1 X-53.696 Y39.762 E8.40731
G1 X-4.309 Y-47.054 E12.22969
G1 X-3.949 Y-47.665 E12.25683
G1 X-3.609 Y-48.165 E12.27997
G1 X-3.205 Y-48.615 E12.30311
G1 X-2.746 Y-49.008 E12.32624
G1 X-2.239 Y-49.338 E12.34939
G1 X-1.693 Y-49.597 E12.37251
G1 X-1.117 Y-49.782 E12.39567
G1 X-.522 Y-49.89 E12.41881
G1 X0.082 Y-49.918 E12.44195
G1 X0.684 Y-49.866 E12.46507
G1 X1.275 Y-49.736 E12.48823
G1 X1.843 Y-49.528 E12.51138
G1 X2.378 Y-49.248 E12.53449
G1 X2.872 Y-48.899 E12.55763
G1 X3.316 Y-48.489 E12.58076
G1 X3.702 Y-48.023 E12.60392
G1 X3.92 Y-47.692 E12.61909
G1 X4.483 Y-46.748 E12.66115
G0 F2040 X4.178 Y-46.575
G1 F1020 X53.354 Y39.869 E16.46716
G1 X53.683 Y40.465 E16.49321
G1 X53.928 Y40.992 E16.51545
G1 X54.099 Y41.547 E16.53768
G1 X54.191 Y42.121 E16.55992
G1 X54.205 Y42.702 E16.58216
G1 X54.138 Y43.279 E16.60439
G1 X53.993 Y43.842 E16.62664
G1 X53.772 Y44.379 E16.64887
G1 X53.479 Y44.881 E16.67111
G1 X53.12 Y45.338 E16.69335
G1 X52.702 Y45.742 E16.7156
G1 X52.233 Y46.084 E16.73781
G1 X51.721 Y46.359 E16.76005
G1 X51.176 Y46.56 E16.78228
G1 X50.608 Y46.686 E16.80455
G1 X50.008 Y46.734 E16.82758
G1 X49.494 Y46.742 E16.84726
G1 X-49.355 Y46.742 E20.63016
G1 X-50.044 Y46.732 E20.65653
G1 X-50.623 Y46.683 E20.67877
G1 X-51.19 Y46.556 E20.701
G1 X-51.734 Y46.352 E20.72324
G1 X-52.245 Y46.075 E20.74548
G1 X-52.713 Y45.731 E20.76771
G1 X-53.13 Y45.326 E20.78996
G1 X-53.487 Y44.868 E20.81218
G1 X-53.778 Y44.365 E20.83442
G1 X-53.997 Y43.826 E20.85668
G1 X-54.14 Y43.263 E20.87891
G1 X-54.204 Y42.686 E20.90113
G1 X-54.189 Y42.105 E20.92337
G1 X-54.094 Y41.532 E20.9456
G1 X-53.921 Y40.977 E20.96785
G1 X-53.698 Y40.492 E20.98828
G1 X-53.39 Y39.932 E21.01274
G1 X-3.973 Y-46.936 E24.83741
G1 X-3.648 Y-47.488 E24.86192
G1 X-3.319 Y-47.967 E24.88416
G1 X-2.928 Y-48.396 E24.90637
G1 X-2.482 Y-48.768 E24.9286
G1 X-1.988 Y-49.076 E24.95088
G1 X-1.458 Y-49.312 E24.97308
G1 X-.9 Y-49.474 E24.99532
G1 X-.325 Y-49.557 E25.01755
G1 X0.256 Y-49.561 E25.03979
G1 X0.832 Y-49.485 E25.06202
G1 X1.393 Y-49.33 E25.08429
G1 X1.926 Y-49.101 E25.10649
G1 X2.423 Y-48.8 E25.12873
G1 X2.875 Y-48.434 E25.15099
G1 X3.271 Y-48.009 E25.17322
G1 X3.619 Y-47.512 E25.19644
G1 X4.178 Y-46.575 E25.23819
G0 F2040 X3.874 Y-46.402
G1 F1020 X53.047 Y40.038 E29.04401
G1 X53.376 Y40.634 E29.07006
G1 X53.61 Y41.139 E29.09136
G1 X53.768 Y41.673 E29.11268
G1 X53.849 Y42.223 E29.13395
G1 X53.849 Y42.78 E29.15527
G1 X53.77 Y43.331 E29.17657
G1 X53.613 Y43.864 E29.19783
G1 X53.382 Y44.37 E29.21912
G1 X53.08 Y44.838 E29.24044
G1 X52.714 Y45.257 E29.26173
G1 X52.292 Y45.62 E29.28303
G1 X51.822 Y45.918 E29.30433
G1 X51.315 Y46.146 E29.3256
G1 X50.78 Y46.299 E29.3469
G1 X50.128 Y46.379 E29.37203
G1 X49.489 Y46.392 E29.39649
G1 X-49.35 Y46.392 E33.17902
G1 X-50.039 Y46.382 E33.20539
G1 X-50.594 Y46.334 E33.2267
G1 X-51.135 Y46.207 E33.24797
G1 X-51.653 Y46.004 E33.26926
G1 X-52.137 Y45.728 E33.29058
G1 X-52.576 Y45.387 E33.31186
G1 X-52.962 Y44.985 E33.33319
G1 X-53.286 Y44.533 E33.35447
G1 X-53.542 Y44.039 E33.37576
G1 X-53.725 Y43.514 E33.39704
G1 X-53.831 Y42.968 E33.41832
G1 X-53.857 Y42.412 E33.43963
G1 X-53.803 Y41.858 E33.46093
G1 X-53.671 Y41.317 E33.48224
G1 X-53.434 Y40.745 E33.50593
G1 X-53.084 Y40.101 E33.53398
G1 X-3.671 Y-46.758 E37.35828
G1 X-3.346 Y-47.31 E37.38279
G1 X-3.03 Y-47.768 E37.40409
G1 X-2.652 Y-48.176 E37.42537
G1 X-2.219 Y-48.526 E37.44668
G1 X-1.741 Y-48.81 E37.46796
G1 X-1.226 Y-49.022 E37.48927
G1 X-.687 Y-49.159 E37.51056
G1 X-.134 Y-49.217 E37.53184
G1 X0.422 Y-49.195 E37.55313
G1 X0.97 Y-49.094 E37.57445
G1 X1.497 Y-48.915 E37.59575
G1 X1.993 Y-48.663 E37.61705
G1 X2.447 Y-48.343 E37.6383
G1 X2.851 Y-47.96 E37.65961
G1 X3.319 Y-47.333 E37.68955
G1 X3.874 Y-46.402 E37.73103
G0 F2040 X3.57 Y-46.229
G1 F1020 X52.741 Y40.207 E41.53668
G1 X53.07 Y40.803 E41.56273
G1 X53.291 Y41.286 E41.58306
G1 X53.437 Y41.796 E41.60336
G1 X53.504 Y42.323 E41.62369
G1 X53.492 Y42.853 E41.64398
G1 X53.4 Y43.376 E41.6643
G1 X53.231 Y43.879 E41.6846
G1 X52.988 Y44.351 E41.70492
G1 X52.678 Y44.781 E41.72521
G1 X52.306 Y45.159 E41.7455
G1 X51.881 Y45.478 E41.76584
G1 X51.414 Y45.729 E41.78613
G1 X50.914 Y45.907 E41.80644
G1 X50.393 Y46.008 E41.82675
G1 X49.893 Y46.037 E41.84592
G1 X49.485 Y46.042 E41.86153
G1 X-49.345 Y46.042 E45.64371
G1 X-50.034 Y46.032 E45.67008
G1 X-50.563 Y45.984 E45.69041
G1 X-51.078 Y45.858 E45.7107
G1 X-51.569 Y45.655 E45.73103
G1 X-52.023 Y45.382 E45.7513
G1 X-52.432 Y45.043 E45.77163
G1 X-52.785 Y44.646 E45.79196
G1 X-53.074 Y44.202 E45.81224
G1 X-53.293 Y43.718 E45.83257
G1 X-53.438 Y43.208 E45.85286
G1 X-53.504 Y42.681 E45.87319
G1 X-53.49 Y42.151 E45.89348
G1 X-53.397 Y41.628 E45.9138
G1 X-53.122 Y40.904 E45.94344
G1 X-52.778 Y40.271 E45.97101
G1 X-3.37 Y-46.58 E49.79495
G1 X-3.045 Y-47.132 E49.81946
G1 X-2.742 Y-47.568 E49.83978
G1 X-2.377 Y-47.953 E49.86009
G1 X-1.958 Y-48.28 E49.88043
G1 X-1.495 Y-48.539 E49.90073
G1 X-.999 Y-48.727 E49.92103
G1 X-.48 Y-48.837 E49.94133
G1 X0.05 Y-48.869 E49.96165
G1 X0.578 Y-48.82 E49.98194
G1 X1.093 Y-48.693 E50.00224
G1 X1.584 Y-48.49 E50.02258
G1 X2.038 Y-48.215 E50.04289
G1 X2.446 Y-47.876 E50.06319
G1 X2.798 Y-47.479 E50.08349
G1 X3.018 Y-47.153 E50.09855
G1 X3.57 Y-46.229 E50.13974
G0 F2040 X3.266 Y-46.056
G1 F1020 X52.435 Y40.377 E53.94525
G1 X52.764 Y40.973 E53.9713
G1 X52.971 Y41.431 E53.99053
G1 X53.104 Y41.917 E54.00982
G1 X53.158 Y42.418 E54.0291
G1 X53.132 Y42.921 E54.04838
G1 X53.027 Y43.413 E54.06763
G1 X52.845 Y43.883 E54.08692
G1 X52.592 Y44.318 E54.10617
G1 X52.273 Y44.708 E54.12546
G1 X51.896 Y45.042 E54.14473
G1 X51.471 Y45.312 E54.164
G1 X51.009 Y45.512 E54.18327
G1 X50.521 Y45.636 E54.20254
G1 X49.968 Y45.685 E54.22378
G1 X49.481 Y45.692 E54.24242
G1 X-49.34 Y45.692 E58.02425
G1 X-50.029 Y45.682 E58.05062
G1 X-50.53 Y45.634 E58.06988
G1 X-51.018 Y45.509 E58.08916
G1 X-51.48 Y45.307 E58.10846
G1 X-51.904 Y45.035 E58.12774
G1 X-52.279 Y44.7 E58.14698
G1 X-52.597 Y44.309 E58.16627
G1 X-52.849 Y43.873 E58.18554
G1 X-53.029 Y43.403 E58.2048
G1 X-53.132 Y42.91 E58.22408
G1 X-53.156 Y42.407 E58.24335
G1 X-53.101 Y41.907 E58.2626
G1 X-52.967 Y41.421 E58.28189
G1 X-52.712 Y40.874 E58.30499
G1 X-52.455 Y40.41 E58.32529
G1 X-3.068 Y-46.403 E62.14756
G1 X-2.743 Y-46.955 E62.17207
G1 X-2.454 Y-47.367 E62.19133
G1 X-2.103 Y-47.729 E62.21063
G1 X-1.7 Y-48.03 E62.22988
G1 X-1.254 Y-48.264 E62.24916
G1 X-.776 Y-48.424 E62.26845
G1 X-.28 Y-48.507 E62.28769
G1 X0.224 Y-48.511 E62.30698
G1 X0.722 Y-48.434 E62.32626
G1 X1.201 Y-48.28 E62.34552
G1 X1.65 Y-48.052 E62.36479
G1 X2.057 Y-47.756 E62.38405
G1 X2.413 Y-47.399 E62.40334
G1 X2.718 Y-46.973 E62.4234
G1 X3.266 Y-46.056 E62.46428
G1 F3600 E58.66428
;MESH:support_tri_0_024.stl
G0 F2040 X1.083 Y-44.815
G0 X0.201 Y-44.313
G0 X49.098 Y41.992
;TYPE:WALL-INNER
G1 F3600 E62.46428
G1 F1020 X-49.098 Y41.992 E66.22219
G1 X0.00 Y-44.313 E70.0221
G1 X49.098 Y41.992 E73.82201
G0 F2040 X49.656 Y42.317
;TYPE:WALL-OUTER
G1 F1020 X-49.656 Y42.317 E77.62263
G1 X0.00 Y-44.97 E81.46576
G1 X49.656 Y42.317 E85.30889
G0 F2040 X49.456 Y42.317
G0 X49.313 Y42.117
G0 X48.513 Y41.652
;TYPE:SKIN
G1 F1020 X-48.513 Y41.652 E89.02203
G1 X0.00 Y-43.626 E92.77671
G1 X48.513 Y41.652 E96.53139
G0 F2040 X-48.189 Y41.401
G1 F1020 X-48.095 Y41.495 E96.53647
G0 F2040 X-48.009 Y41.085
G1 F1020 X-47.6 Y41.495 E96.55864
G0 F2040 X-47.105 Y41.495
G1 F1020 X-47.83 Y40.77 E96.59787
G0 F2040 X-47.651 Y40.454
G1 F1020 X-46.61 Y41.495 E96.65421
G0 F2040 X-46.115 Y41.495
G1 F1020 X-47.471 Y40.138 E96.72763
G0 F2040 X-47.292 Y39.823
G1 F1020 X-45.62 Y41.495 E96.81812
G0 F2040 X-45.125 Y41.495
G1 F1020 X-47.112 Y39.508 E96.92566
G0 F2040 X-46.932 Y39.192
G1 F1020 X-44.63 Y41.495 E97.05027
G0 F2040 X-44.135 Y41.495
G1 F1020 X-46.753 Y38.877 E97.19196
G0 F2040 X-46.574 Y38.561
G1 F1020 X-43.64 Y41.495 E97.35076
G0 F2040 X-43.145 Y41.495
G1 F1020 X-46.394 Y38.245 E97.52662
G0 F2040 X-46.215 Y37.93
G1 F1020 X-42.65 Y41.495 E97.71956
G0 F2040 X-42.155 Y41.495
G1 F1020 X-46.035 Y37.615 E97.92956
G0 F2040 X-45.855 Y37.299
G1 F1020 X-41.66 Y41.495 E98.15662
G0 F2040 X-41.165 Y41.495
G1 F1020 X-45.676 Y36.983 E98.40079
G0 F2040 X-45.497 Y36.668
G1 F1020 X-40.67 Y41.495 E98.66203
G0 F2040 X-40.175 Y41.495
G1 F1020 X-45.317 Y36.353 E98.94032
G0 F2040 X-45.138 Y36.037
G1 F1020 X-39.68 Y41.495 E99.23572
G0 F2040 X-39.185 Y41.495
G1 F1020 X-44.958 Y35.722 E99.54816
G0 F2040 X-44.778 Y35.406
G1 F1020 X-38.69 Y41.495 E99.87768
G0 F2040 X-38.195 Y41.495
G1 F1020 X-44.6 Y35.09 E100.22432
G0 F2040 X-44.42 Y34.775
G1 F1020 X-37.7 Y41.495 E100.58802
G0 F2040 X-37.205 Y41.495
G1 F1020 X-44.24 Y34.46 E100.96876
G0 F2040 X-44.061 Y34.144
G1 F1020 X-36.71 Y41.495 E101.36661
G0 F2040 X-36.215 Y41.495
G1 F1020 X-43.881 Y33.829 E101.7815
G0 F2040 X-43.702 Y33.514
G1 F1020 X-35.72 Y41.495 E102.21347
G0 F2040 X-35.225 Y41.495
G1 F1020 X-43.523 Y33.197 E102.66257
G0 F2040 X-43.343 Y32.882
G1 F1020 X-34.73 Y41.495 E103.12872
G0 F2040 X-34.235 Y41.495
G1 F1020 X-43.163 Y32.567 E103.61191
G0 F2040 X-42.984 Y32.251
G1 F1020 X-33.741 Y41.495 E104.11218
G0 F2040 X-33.246 Y41.495
G1 F1020 X-42.804 Y31.936 E104.6295
G0 F2040 X-42.625 Y31.62
G1 F1020 X-32.751 Y41.495 E105.16392
G0 F2040 X-32.256 Y41.495
G1 F1020 X-42.446 Y31.305 E105.71541
G0 F2040 X-42.266 Y30.989
G1 F1020 X-31.761 Y41.495 E106.28399
G0 F2040 X-31.266 Y41.495
G1 F1020 X-42.086 Y30.674 E106.8696
G0 F2040 X-41.907 Y30.358
G1 F1020 X-30.771 Y41.495 E107.47233
G0 F2040 X-30.276 Y41.495
G1 F1020 X-41.727 Y30.043 E108.0921
G0 F2040 X-41.548 Y29.727
G1 F1020 X-29.781 Y41.495 E108.72897
G0 F2040 X-29.286 Y41.495
G1 F1020 X-41.369 Y29.412 E109.38292
G0 F2040 X-41.189 Y29.096
G1 F1020 X-28.791 Y41.495 E110.05394
G0 F2040 X-28.296 Y41.495
G1 F1020 X-41.01 Y28.781 E110.74204
G0 F2040 X-40.83 Y28.465
G1 F1020 X-27.801 Y41.495 E111.44721
G0 F2040 X-27.306 Y41.495
G1 F1020 X-40.651 Y28.149 E112.16948
G0 F2040 X-40.471 Y27.834
G1 F1020 X-26.811 Y41.495 E112.90881
G0 F2040 X-26.316 Y41.495
G1 F1020 X-40.292 Y27.519 E113.66521
G0 F2040 X-40.112 Y27.203
G1 F1020 X-25.821 Y41.495 E114.43868
G0 F2040 X-25.326 Y41.495
G1 F1020 X-39.933 Y26.888 E115.22923
G0 F2040 X-39.753 Y26.573
G1 F1020 X-24.831 Y41.495 E116.03683
G0 F2040 X-24.336 Y41.495
G1 F1020 X-39.574 Y26.256 E116.86156
G0 F2040 X-39.395 Y25.941
G1 F1020 X-23.841 Y41.495 E117.70336
G0 F2040 X-23.346 Y41.495
G1 F1020 X-39.215 Y25.626 E118.56221
G0 F2040 X-39.035 Y25.31
G1 F1020 X-22.851 Y41.495 E119.43813
G0 F2040 X-22.356 Y41.495
G1 F1020 X-38.856 Y24.995 E120.33114
G0 F2040 X-38.676 Y24.68
G1 F1020 X-21.861 Y41.495 E121.24118
G0 F2040 X-21.366 Y41.495
G1 F1020 X-38.497 Y24.364 E122.16834
G0 F2040 X-38.318 Y24.048
G1 F1020 X-20.871 Y41.495 E123.11259
G0 F2040 X-20.376 Y41.495
G1 F1020 X-38.138 Y23.733 E124.07389
G0 F2040 X-37.958 Y23.417
G1 F1020 X-19.881 Y41.495 E125.05227
G0 F2040 X-19.386 Y41.495
G1 F1020 X-37.779 Y23.102 E126.04772
G0 F2040 X-37.6 Y22.786
G1 F1020 X-18.891 Y41.495 E127.06028
G0 F2040 X-18.396 Y41.495
G1 F1020 X-37.42 Y22.471 E128.08988
G0 F2040 X-37.241 Y22.155
G1 F1020 X-17.901 Y41.495 E129.13659
G0 F2040 X-17.406 Y41.495
G1 F1020 X-37.061 Y21.84 E130.20034
G0 F2040 X-36.881 Y21.525
G1 F1020 X-16.911 Y41.495 E131.28114
G0 F2040 X-16.416 Y41.495
G1 F1020 X-36.702 Y21.209 E132.37905
G0 F2040 X-36.523 Y20.893
G1 F1020 X-15.921 Y41.495 E133.49405
G0 F2040 X-15.426 Y41.495
G1 F1020 X-36.343 Y20.578 E134.62611
G0 F2040 X-36.164 Y20.262
G1 F1020 X-14.931 Y41.495 E135.77526
G0 F2040 X-14.436 Y41.495
G1 F1020 X-35.984 Y19.947 E136.94147
G0 F2040 X-35.805 Y19.632
G1 F1020 X-13.942 Y41.495 E138.12472
G0 F2040 X-13.447 Y41.495
G1 F1020 X-35.625 Y19.316 E139.32505
G0 F2040 X-35.446 Y19
G1 F1020 X-12.952 Y41.495 E140.54248
G0 F2040 X-12.457 Y41.495
G1 F1020 X-35.266 Y18.685 E141.77696
G0 F2040 X-35.087 Y18.369
G1 F1020 X-11.962 Y41.495 E143.02854
G0 F2040 X-11.467 Y41.495
G1 F1020 X-34.907 Y18.054 E144.29717
G0 F2040 X-34.728 Y17.739
G1 F1020 X-10.972 Y41.495 E145.58288
G0 F2040 X-10.477 Y41.495
G1 F1020 X-34.549 Y17.423 E146.88568
G0 F2040 X-34.369 Y17.107
G1 F1020 X-9.982 Y41.495 E148.20557
G0 F2040 X-9.487 Y41.495
G1 F1020 X-34.19 Y16.792 E149.54252
G0 F2040 X-34.01 Y16.477
G1 F1020 X-8.992 Y41.495 E150.89653
G0 F2040 X-8.497 Y41.495
G1 F1020 X-33.83 Y16.161 E152.26761
G0 F2040 X-33.651 Y15.846
G1 F1020 X-8.002 Y41.495 E153.65577
G0 F2040 X-7.507 Y41.495
G1 F1020 X-33.472 Y15.53 E155.06103
G0 F2040 X-33.292 Y15.214
G1 F1020 X-7.012 Y41.495 E156.48336
G0 F2040 X-6.517 Y41.495
G1 F1020 X-33.113 Y14.899 E157.92277
G0 F2040 X-32.933 Y14.584
G1 F1020 X-6.022 Y41.495 E159.37923
G0 F2040 X-5.527 Y41.495
G1 F1020 X-32.753 Y14.268 E160.85276
G0 F2040 X-32.574 Y13.953
G1 F1020 X-5.032 Y41.495 E162.34337
G0 F2040 X-4.537 Y41.495
G1 F1020 X-32.395 Y13.637 E163.85108
G0 F2040 X-32.215 Y13.321
G1 F1020 X-4.042 Y41.495 E165.37587
G0 F2040 X-3.547 Y41.495
G1 F1020 X-32.036 Y13.006 E166.91773
G0 F2040 X-31.856 Y12.691
G1 F1020 X-3.052 Y41.495 E168.47664
G0 F2040 X-2.557 Y41.495
G1 F1020 X-31.676 Y12.375 E170.05262
G0 F2040 X-31.498 Y12.059
G1 F1020 X-2.062 Y41.495 E171.64573
G0 F2040 X-1.567 Y41.495
G1 F1020 X-31.318 Y11.744 E173.2559
G0 F2040 X-31.138 Y11.428
G1 F1020 X-1.072 Y41.495 E174.88313
G0 F2040 X-.577 Y41.495
G1 F1020 X-30.959 Y11.113 E176.52745
G0 F2040 X-30.779 Y10.798
G1 F1020 X-0.082 Y41.495 E178.18881
G0 F2040 X0.412 Y41.495
G1 F1020 X-30.6 Y10.482 E179.86724
G0 F2040 X-30.421 Y10.166
G1 F1020 X0.907 Y41.495 E181.56278
G0 F2040 X1.402 Y41.495
G1 F1020 X-30.241 Y9.851 E183.27537
G0 F2040 X-30.061 Y9.536
G1 F1020 X1.897 Y41.495 E185.005
G0 F2040 X2.392 Y41.495
G1 F1020 X-29.882 Y9.22 E186.75174
G0 F2040 X-29.702 Y8.905
G1 F1020 X2.887 Y41.495 E188.51552
G0 F2040 X3.382 Y41.495
G1 F1020 X-29.523 Y8.589 E190.29641
G0 F2040 X-29.344 Y8.273
G1 F1020 X3.877 Y41.495 E192.0944
G0 F2040 X4.372 Y41.495
G1 F1020 X-29.164 Y7.958 E193.90944
G0 F2040 X-28.985 Y7.643
G1 F1020 X4.867 Y41.495 E195.74155
G0 F2040 X5.361 Y41.495
G1 F1020 X-28.805 Y7.327 E197.59072
G0 F2040 X-28.625 Y7.012
G1 F1020 X5.856 Y41.495 E199.45693
G0 F2040 X6.351 Y41.495
G1 F1020 X-28.446 Y6.696 E201.34024
G0 F2040 X-28.267 Y6.38
G1 F1020 X6.846 Y41.495 E203.24065
G0 F2040 X7.341 Y41.495
G1 F1020 X-28.087 Y6.065 E205.15811
G0 F2040 X-27.908 Y5.75
G1 F1020 X7.836 Y41.495 E207.09265
G0 F2040 X8.331 Y41.495
G1 F1020 X-27.728 Y5.434 E209.04427
G0 F2040 X-27.548 Y5.119
G1 F1020 X8.826 Y41.495 E211.01293
G0 F2040 X9.321 Y41.495
G1 F1020 X-27.369 Y4.803 E212.99869
G0 F2040 X-27.19 Y4.488
G1 F1020 X9.816 Y41.495 E215.00153
G0 F2040 X10.311 Y41.495
G1 F1020 X-27.01 Y4.172 E217.02144
G0 F2040 X-26.831 Y3.857
