;FLAVOR:Marlin
;TIME:6285
;Filament used: 8.02483m
;Layer height: 0.3
;MINX:-54.546
;MINY:-53.331
;MINZ:0.26
;MAXX:54.55
;MAXY:45.934
;MAXZ:22.76
;Generated with Cura_SteamEngine 4.9.1
M82 ;absolute extrusion mode
;Gcode by Cura
G90
G28
M107
M109 R100
G30
M109 S215 U-55 X55 V-85 Y-85 W0.26 Z0.26
M82
G92 E0
G1 F200 E6
G92 E0
G1 F200 E-3.5
G0 Z0.15
G0 X10
G0 Z3
G1 F6000
G92 E0
G92 E0
G1 F3600 E-3.8
;LAYER_COUNT:76
;LAYER:0
M107
G0 F2040 X4.398 Y-50.283 Z0.26
;TYPE:SKIRT
G1 F3600 E0
G1 F1020 X53.692 Y38.584 E3.88906
G1 X54.01 Y39.177 E3.91482
G1 X54.26 Y39.727 E3.93794
G1 X54.435 Y40.306 E3.96108
G1 X54.532 Y40.903 E3.98423
G1 X54.55 Y41.507 E4.00736
G1 X54.488 Y42.109 E4.03052
G1 X54.347 Y42.697 E4.05366
G1 X54.13 Y43.261 E4.07678
G1 X53.84 Y43.792 E4.09994
G1 X53.483 Y44.28 E4.12308
G1 X53.064 Y44.716 E4.14622
G1 X52.592 Y45.094 E4.16936
G1 X52.074 Y45.406 E4.1925
G1 X51.519 Y45.647 E4.21566
G1 X50.938 Y45.812 E4.23877
G1 X50.071 Y45.913 E4.27218
G1 X48.994 Y45.934 E4.3134
G1 X-49.354 Y45.934 E8.07713
G1 X-50.034 Y45.925 E8.10316
G1 X-50.636 Y45.877 E8.12627
G1 X-51.227 Y45.75 E8.1494
G1 X-51.797 Y45.546 E8.17257
G1 X-52.334 Y45.269 E8.19569
G1 X-52.83 Y44.923 E8.21884
G1 X-53.276 Y44.515 E8.24197
G1 X-53.665 Y44.052 E8.26511
G1 X-53.989 Y43.541 E8.28827
G1 X-54.243 Y42.993 E8.31138
G1 X-54.422 Y42.415 E8.33454
G1 X-54.524 Y41.819 E8.35768
G1 X-54.546 Y41.215 E8.38081
G1 X-54.488 Y40.613 E8.40395
G1 X-54.352 Y40.024 E8.42709
G1 X-54.016 Y39.209 E8.46082
G1 X-53.506 Y38.247 E8.50249
G1 X-4.257 Y-50.536 E12.38791
G1 X-3.974 Y-51.03 E12.4097
G1 X-3.639 Y-51.534 E12.43286
G1 X-3.241 Y-51.989 E12.45599
G1 X-2.786 Y-52.388 E12.47915
G1 X-2.283 Y-52.723 E12.50228
G1 X-1.74 Y-52.989 E12.52542
G1 X-1.167 Y-53.181 E12.54855
G1 X-.573 Y-53.295 E12.57169
G1 X0.03 Y-53.331 E12.59481
G1 X0.633 Y-53.286 E12.61795
G1 X1.225 Y-53.163 E12.64109
G1 X1.796 Y-52.962 E12.66426
G1 X2.335 Y-52.688 E12.6874
G1 X2.833 Y-52.345 E12.71054
G1 X3.281 Y-51.94 E12.73365
G1 X3.673 Y-51.479 E12.75681
G1 X3.954 Y-51.05 E12.77643
G1 X4.398 Y-50.283 E12.81035
G0 F2040 X4.092 Y-50.113
G1 F1020 X53.383 Y38.749 E16.69919
G1 X53.701 Y39.342 E16.72494
G1 X53.94 Y39.872 E16.74719
G1 X54.104 Y40.429 E16.76941
G1 X54.19 Y41.004 E16.79166
G1 X54.196 Y41.585 E16.8139
G1 X54.122 Y42.162 E16.83616
G1 X53.97 Y42.722 E16.85837
G1 X53.743 Y43.257 E16.88061
G1 X53.444 Y43.755 E16.90284
G1 X53.08 Y44.208 E16.92508
G1 X52.657 Y44.606 E16.94731
G1 X52.183 Y44.943 E16.96956
G1 X51.668 Y45.211 E16.99178
G1 X51.12 Y45.407 E17.01405
G1 X50.552 Y45.525 E17.03625
G1 X50.064 Y45.563 E17.05499
G1 X48.994 Y45.584 E17.09594
G1 X-49.349 Y45.584 E20.85948
G1 X-50.029 Y45.575 E20.88551
G1 X-50.608 Y45.527 E20.90774
G1 X-51.175 Y45.4 E20.92998
G1 X-51.719 Y45.197 E20.9522
G1 X-52.231 Y44.921 E20.97446
G1 X-52.699 Y44.578 E20.99666
G1 X-53.116 Y44.173 E21.01891
G1 X-53.474 Y43.715 E21.04116
G1 X-53.765 Y43.212 E21.0634
G1 X-53.985 Y42.675 E21.0856
G1 X-54.129 Y42.112 E21.10784
G1 X-54.194 Y41.534 E21.1301
G1 X-54.179 Y40.953 E21.15234
G1 X-54.085 Y40.38 E21.17457
G1 X-53.913 Y39.825 E21.1968
G1 X-53.707 Y39.373 E21.21581
G1 X-53.2 Y38.417 E21.25722
G1 X-3.953 Y-50.362 E25.14247
G1 X-3.67 Y-50.856 E25.16426
G1 X-3.347 Y-51.339 E25.1865
G1 X-2.961 Y-51.774 E25.20875
G1 X-2.519 Y-52.151 E25.23098
G1 X-2.03 Y-52.464 E25.2532
G1 X-1.502 Y-52.707 E25.27545
G1 X-.946 Y-52.875 E25.29767
G1 X-.372 Y-52.965 E25.31991
G1 X0.209 Y-52.976 E25.34215
G1 X0.786 Y-52.906 E25.36439
G1 X1.348 Y-52.759 E25.38662
G1 X1.884 Y-52.535 E25.40885
G1 X2.385 Y-52.241 E25.43108
G1 X2.841 Y-51.88 E25.45334
G1 X3.242 Y-51.46 E25.47557
G1 X3.652 Y-50.874 E25.50293
G1 X4.092 Y-50.113 E25.53658
G0 F2040 X3.786 Y-49.944
G1 F1020 X53.075 Y38.915 E29.42528
G1 X53.393 Y39.508 E29.45103
G1 X53.62 Y40.016 E29.47232
G1 X53.772 Y40.551 E29.49361
G1 X53.846 Y41.102 E29.51488
G1 X53.84 Y41.659 E29.5362
G1 X53.754 Y42.209 E29.55751
G1 X53.591 Y42.74 E29.57876
G1 X53.353 Y43.243 E29.60006
G1 X53.045 Y43.707 E29.62137
G1 X52.674 Y44.122 E29.64267
G1 X52.248 Y44.479 E29.66395
G1 X51.775 Y44.772 E29.68524
G1 X51.265 Y44.994 E29.70652
G1 X50.728 Y45.141 E29.72783
G1 X50.057 Y45.213 E29.75366
G1 X48.994 Y45.234 E29.79435
G1 X-49.344 Y45.234 E33.55769
G1 X-50.024 Y45.225 E33.58372
G1 X-50.579 Y45.177 E33.60504
G1 X-51.121 Y45.051 E33.62633
G1 X-51.639 Y44.849 E33.64761
G1 X-52.123 Y44.574 E33.66892
G1 X-52.562 Y44.233 E33.69019
G1 X-52.949 Y43.832 E33.71152
G1 X-53.273 Y43.381 E33.73277
G1 X-53.53 Y42.887 E33.75408
G1 X-53.714 Y42.362 E33.77537
G1 X-53.82 Y41.815 E33.79669
G1 X-53.847 Y41.26 E33.81796
G1 X-53.794 Y40.706 E33.83925
G1 X-53.662 Y40.165 E33.86056
G1 X-53.398 Y39.537 E33.88663
G1 X-52.894 Y38.586 E33.92782
G1 X-3.649 Y-50.188 E37.81287
G1 X-3.366 Y-50.682 E37.83465
G1 X-3.056 Y-51.144 E37.85595
G1 X-2.682 Y-51.556 E37.87724
G1 X-2.254 Y-51.911 E37.89852
G1 X-1.779 Y-52.201 E37.91982
G1 X-1.267 Y-52.419 E37.94112
G1 X-.729 Y-52.563 E37.96243
G1 X-.177 Y-52.627 E37.9837
G1 X0.38 Y-52.612 E38.00502
G1 X0.928 Y-52.517 E38.0263
G1 X1.457 Y-52.345 E38.04759
G1 X1.956 Y-52.099 E38.06888
G1 X2.415 Y-51.784 E38.09019
G1 X2.823 Y-51.406 E38.11147
G1 X3.174 Y-50.974 E38.13277
G1 X3.349 Y-50.699 E38.14525
G1 X3.786 Y-49.944 E38.17863
G0 F2040 X3.48 Y-49.774
G1 F1020 X52.767 Y39.08 E42.06713
G1 X53.085 Y39.673 E42.09288
G1 X53.299 Y40.158 E42.11317
G1 X53.439 Y40.67 E42.13348
G1 X53.5 Y41.197 E42.15379
G1 X53.481 Y41.728 E42.17412
G1 X53.383 Y42.249 E42.19441
G1 X53.208 Y42.75 E42.21472
G1 X52.96 Y43.219 E42.23502
G1 X52.644 Y43.645 E42.25532
G1 X52.267 Y44.019 E42.27564
G1 X51.839 Y44.333 E42.29596
G1 X51.369 Y44.578 E42.31624
G1 X50.867 Y44.75 E42.33655
G1 X50.344 Y44.845 E42.35689
G1 X50.05 Y44.863 E42.36816
G1 X48.994 Y44.884 E42.40858
G1 X-49.34 Y44.884 E46.17178
G1 X-50.02 Y44.875 E46.1978
G1 X-50.548 Y44.828 E46.21809
G1 X-51.064 Y44.702 E46.23842
G1 X-51.555 Y44.5 E46.25874
G1 X-52.01 Y44.227 E46.27904
G1 X-52.418 Y43.889 E46.29932
G1 X-52.772 Y43.493 E46.31965
G1 X-53.062 Y43.049 E46.33994
G1 X-53.282 Y42.566 E46.36025
G1 X-53.427 Y42.055 E46.38058
G1 X-53.493 Y41.529 E46.40087
G1 X-53.48 Y40.998 E46.42119
G1 X-53.388 Y40.476 E46.44148
G1 X-53.218 Y39.973 E46.4618
G1 X-53.088 Y39.701 E46.47334
G1 X-52.588 Y38.756 E46.51425
G1 X-3.346 Y-50.014 E50.3991
G1 X-3.063 Y-50.508 E50.42089
G1 X-2.765 Y-50.948 E50.44123
G1 X-2.405 Y-51.337 E50.46151
G1 X-1.99 Y-51.668 E50.48183
G1 X-1.53 Y-51.933 E50.50214
G1 X-1.036 Y-52.127 E50.52245
G1 X-.518 Y-52.243 E50.54277
G1 X0.011 Y-52.281 E50.56307
G1 X0.54 Y-52.239 E50.58337
G1 X1.057 Y-52.118 E50.60369
G1 X1.549 Y-51.92 E50.62399
G1 X2.007 Y-51.651 E50.64432
G1 X2.418 Y-51.317 E50.66458
G1 X2.775 Y-50.924 E50.6849
G1 X3.046 Y-50.523 E50.70343
G1 X3.48 Y-49.774 E50.73655
G0 F2040 X3.173 Y-49.604
G1 F1020 X52.458 Y39.246 E54.62488
G1 X52.776 Y39.839 E54.65063
G1 X52.978 Y40.3 E54.66989
G1 X53.105 Y40.787 E54.68916
G1 X53.153 Y41.289 E54.70845
G1 X53.121 Y41.791 E54.7277
G1 X53.01 Y42.282 E54.74697
G1 X52.822 Y42.75 E54.76627
G1 X52.564 Y43.182 E54.78553
G1 X52.24 Y43.567 E54.80478
G1 X51.859 Y43.897 E54.82407
G1 X51.431 Y44.162 E54.84334
G1 X50.966 Y44.356 E54.86262
G1 X50.477 Y44.475 E54.88188
G1 X50.043 Y44.513 E54.89855
G1 X48.994 Y44.534 E54.9387
G1 X-49.335 Y44.534 E58.70171
G1 X-50.015 Y44.525 E58.72773
G1 X-50.516 Y44.478 E58.74699
G1 X-51.004 Y44.353 E58.76627
G1 X-51.466 Y44.152 E58.78555
G1 X-51.89 Y43.881 E58.80481
G1 X-52.266 Y43.546 E58.82408
G1 X-52.585 Y43.156 E58.84336
G1 X-52.837 Y42.72 E58.86263
G1 X-53.018 Y42.25 E58.88191
G1 X-53.122 Y41.757 E58.90119
G1 X-53.147 Y41.254 E58.92046
G1 X-53.091 Y40.754 E58.93972
G1 X-52.958 Y40.268 E58.959
G1 X-52.779 Y39.864 E58.97591
G1 X-52.281 Y38.926 E59.01655
G1 X-3.042 Y-49.84 E62.90122
G1 X-2.759 Y-50.334 E62.92301
G1 X-2.475 Y-50.75 E62.94228
G1 X-2.128 Y-51.116 E62.96158
G1 X-1.729 Y-51.422 E62.98083
G1 X-1.285 Y-51.661 E63.00012
G1 X-.81 Y-51.827 E63.01938
G1 X-.314 Y-51.916 E63.03866
G1 X0.189 Y-51.925 E63.05792
G1 X0.688 Y-51.855 E63.0772
G1 X1.169 Y-51.706 E63.09647
G1 X1.621 Y-51.484 E63.11574
G1 X2.032 Y-51.193 E63.13501
G1 X2.391 Y-50.84 E63.15428
G1 X2.743 Y-50.348 E63.17743
G1 X3.173 Y-49.604 E63.21032
G1 F3600 E59.41032
;MESH:support_tri_0_059.stl
G0 F2040 X0.977 Y-48.388
G0 X0.09 Y-47.895
G0 X-49.108 Y40.834
;TYPE:WALL-INNER
G1 F3600 E63.21032
G1 F1020 X0.00 Y-47.698 E67.08472
G1 X49.108 Y40.834 E70.95912
G1 X-49.108 Y40.834 E74.7178
G0 F2040 X-49.66 Y41.159
;TYPE:WALL-OUTER
G1 F1020 X0.00 Y-48.368 E78.63575
G1 X49.66 Y41.159 E82.55369
G1 X-49.66 Y41.159 E86.35462
G0 F2040 X-49.563 Y40.985
G0 X-49.319 Y40.959
G0 X-48.531 Y40.494
;TYPE:SKIN
G1 F1020 X0.00 Y-46.997 E90.18348
G1 X48.531 Y40.494 E94.01233
G1 X-48.531 Y40.494 E97.72684
G0 F2040 X-48.087 Y40.018
G1 F1020 X-47.767 Y40.337 E97.74414
G0 F2040 X-47.272 Y40.337
G1 F1020 X-47.91 Y39.699 E97.77866
G0 F2040 X-47.734 Y39.38
G1 F1020 X-46.777 Y40.337 E97.83046
G0 F2040 X-46.282 Y40.337
G1 F1020 X-47.557 Y39.062 E97.89946
G0 F2040 X-47.381 Y38.744
G1 F1020 X-45.787 Y40.337 E97.98571
G0 F2040 X-45.293 Y40.337
G1 F1020 X-47.204 Y38.426 E98.08913
G0 F2040 X-47.028 Y38.107
G1 F1020 X-44.798 Y40.337 E98.20982
G0 F2040 X-44.303 Y40.337
G1 F1020 X-46.851 Y37.789 E98.34772
G0 F2040 X-46.674 Y37.471
G1 F1020 X-43.808 Y40.337 E98.50283
G0 F2040 X-43.313 Y40.337
G1 F1020 X-46.497 Y37.152 E98.67518
G0 F2040 X-46.321 Y36.833
G1 F1020 X-42.818 Y40.337 E98.8648
G0 F2040 X-42.323 Y40.337
G1 F1020 X-46.145 Y36.515 E99.07165
G0 F2040 X-45.968 Y36.197
G1 F1020 X-41.828 Y40.337 E99.29571
G0 F2040 X-41.333 Y40.337
G1 F1020 X-45.791 Y35.879 E99.53698
G0 F2040 X-45.615 Y35.56
G1 F1020 X-40.838 Y40.337 E99.79552
G0 F2040 X-40.343 Y40.337
G1 F1020 X-45.438 Y35.242 E100.07127
G0 F2040 X-45.261 Y34.924
G1 F1020 X-39.848 Y40.337 E100.36423
G0 F2040 X-39.353 Y40.337
G1 F1020 X-45.085 Y34.605 E100.67445
G0 F2040 X-44.909 Y34.286
G1 F1020 X-38.858 Y40.337 E101.00194
G0 F2040 X-38.363 Y40.337
G1 F1020 X-44.732 Y33.968 E101.34664
G0 F2040 X-44.555 Y33.65
G1 F1020 X-37.868 Y40.337 E101.70855
G0 F2040 X-37.373 Y40.337
G1 F1020 X-44.378 Y33.332 E102.08767
G0 F2040 X-44.202 Y33.013
G1 F1020 X-36.878 Y40.337 E102.48405
G0 F2040 X-36.383 Y40.337
G1 F1020 X-44.025 Y32.695 E102.89764
G0 F2040 X-43.849 Y32.377
G1 F1020 X-35.888 Y40.337 E103.32848
G0 F2040 X-35.393 Y40.337
G1 F1020 X-43.672 Y32.058 E103.77655
G0 F2040 X-43.496 Y31.739
G1 F1020 X-34.898 Y40.337 E104.24188
G0 F2040 X-34.403 Y40.337
G1 F1020 X-43.319 Y31.421 E104.72443
G0 F2040 X-43.142 Y31.103
G1 F1020 X-33.908 Y40.337 E105.22418
G0 F2040 X-33.413 Y40.337
G1 F1020 X-42.965 Y30.785 E105.74115
G0 F2040 X-42.789 Y30.466
G1 F1020 X-32.918 Y40.337 E106.27538
G0 F2040 X-32.423 Y40.337
G1 F1020 X-42.613 Y30.148 E106.82685
G0 F2040 X-42.436 Y29.83
G1 F1020 X-31.928 Y40.337 E107.39553
G0 F2040 X-31.433 Y40.337
G1 F1020 X-42.259 Y29.511 E107.98144
G0 F2040 X-42.083 Y29.192
G1 F1020 X-30.938 Y40.337 E108.58463
G0 F2040 X-30.443 Y40.337
G1 F1020 X-41.906 Y28.874 E109.20502
G0 F2040 X-41.729 Y28.556
G1 F1020 X-29.948 Y40.337 E109.84262
G0 F2040 X-29.453 Y40.337
G1 F1020 X-41.553 Y28.238 E110.49746
G0 F2040 X-41.377 Y27.919
G1 F1020 X-28.958 Y40.337 E111.16957
G0 F2040 X-28.463 Y40.337
G1 F1020 X-41.2 Y27.601 E111.85888
G0 F2040 X-41.023 Y27.283
G1 F1020 X-27.968 Y40.337 E112.56541
G0 F2040 X-27.473 Y40.337
G1 F1020 X-40.846 Y26.964 E113.28917
G0 F2040 X-40.67 Y26.645
G1 F1020 X-26.978 Y40.337 E114.0302
G0 F2040 X-26.483 Y40.337
G1 F1020 X-40.493 Y26.327 E114.78844
G0 F2040 X-40.317 Y26.009
G1 F1020 X-25.989 Y40.337 E115.56389
G0 F2040 X-25.494 Y40.337
G1 F1020 X-40.14 Y25.691 E116.35655
G0 F2040 X-39.964 Y25.372
G1 F1020 X-24.999 Y40.337 E117.16647
G0 F2040 X-24.504 Y40.337
G1 F1020 X-39.787 Y25.054 E117.99361
G0 F2040 X-39.61 Y24.736
G1 F1020 X-24.009 Y40.337 E118.83796
G0 F2040 X-23.514 Y40.337
G1 F1020 X-39.433 Y24.417 E119.69954
G0 F2040 X-39.257 Y24.098
G1 F1020 X-23.019 Y40.337 E120.57839
G0 F2040 X-22.524 Y40.337
G1 F1020 X-39.081 Y23.78 E121.47447
G0 F2040 X-38.904 Y23.462
G1 F1020 X-22.029 Y40.337 E122.38777
G0 F2040 X-21.534 Y40.337
G1 F1020 X-38.727 Y23.144 E123.31828
G0 F2040 X-38.551 Y22.825
G1 F1020 X-21.039 Y40.337 E124.26605
G0 F2040 X-20.544 Y40.337
G1 F1020 X-38.374 Y22.507 E125.23103
G0 F2040 X-38.197 Y22.189
G1 F1020 X-20.049 Y40.337 E126.21322
G0 F2040 X-19.554 Y40.337
G1 F1020 X-38.021 Y21.87 E127.21268
G0 F2040 X-37.845 Y21.551
G1 F1020 X-19.059 Y40.337 E128.2294
G0 F2040 X-18.564 Y40.337
G1 F1020 X-37.668 Y21.233 E129.26334
G0 F2040 X-37.491 Y20.915
G1 F1020 X-18.069 Y40.337 E130.31448
G0 F2040 X-17.574 Y40.337
G1 F1020 X-37.314 Y20.597 E131.38283
G0 F2040 X-37.138 Y20.278
G1 F1020 X-17.079 Y40.337 E132.46845
G0 F2040 X-16.584 Y40.337
G1 F1020 X-36.961 Y19.96 E133.57128
G0 F2040 X-36.785 Y19.642
G1 F1020 X-16.089 Y40.337 E134.69135
G0 F2040 X-15.594 Y40.337
G1 F1020 X-36.608 Y19.323 E135.82865
G0 F2040 X-36.432 Y19.004
G1 F1020 X-15.099 Y40.337 E136.98322
G0 F2040 X-14.604 Y40.337
G1 F1020 X-36.255 Y18.686 E138.155
G0 F2040 X-36.078 Y18.368
G1 F1020 X-14.109 Y40.337 E139.34399
G0 F2040 X-13.614 Y40.337
G1 F1020 X-35.901 Y18.05 E140.55019
G0 F2040 X-35.725 Y17.731
G1 F1020 X-13.119 Y40.337 E141.77366
G0 F2040 X-12.624 Y40.337
G1 F1020 X-35.549 Y17.413 E143.01436
G0 F2040 X-35.372 Y17.095
G1 F1020 X-12.129 Y40.337 E144.27228
G0 F2040 X-11.634 Y40.337
G1 F1020 X-35.195 Y16.776 E145.54743
G0 F2040 X-35.019 Y16.457
G1 F1020 X-11.139 Y40.337 E146.83984
G0 F2040 X-10.644 Y40.337
G1 F1020 X-34.842 Y16.139 E148.14947
G0 F2040 X-34.665 Y15.821
G1 F1020 X-10.149 Y40.337 E149.47631
G0 F2040 X-9.654 Y40.337
G1 F1020 X-34.489 Y15.503 E150.82038
G0 F2040 X-34.313 Y15.184
G1 F1020 X-9.159 Y40.337 E152.18172
G0 F2040 X-8.664 Y40.337
G1 F1020 X-34.136 Y14.866 E153.56027
G0 F2040 X-33.959 Y14.548
G1 F1020 X-8.169 Y40.337 E154.95603
G0 F2040 X-7.674 Y40.337
G1 F1020 X-33.782 Y14.229 E156.36903
G0 F2040 X-33.606 Y13.91
G1 F1020 X-7.179 Y40.337 E157.79929
G0 F2040 X-6.684 Y40.337
G1 F1020 X-33.429 Y13.592 E159.24677
G0 F2040 X-33.253 Y13.274
G1 F1020 X-6.19 Y40.337 E160.71145
G0 F2040 X-5.695 Y40.337
G1 F1020 X-33.076 Y12.956 E162.19334
G0 F2040 X-32.9 Y12.637
G1 F1020 X-5.2 Y40.337 E163.6925
G0 F2040 X-4.705 Y40.337
G1 F1020 X-32.723 Y12.319 E165.20887
G0 F2040 X-32.546 Y12.001
G1 F1020 X-4.21 Y40.337 E166.74245
G0 F2040 X-3.715 Y40.337
G1 F1020 X-32.369 Y11.682 E168.29327
G0 F2040 X-32.193 Y11.363
G1 F1020 X-3.22 Y40.337 E169.86136
G0 F2040 X-2.725 Y40.337
G1 F1020 X-32.017 Y11.045 E171.44668
G0 F2040 X-31.84 Y10.727
G1 F1020 X-2.23 Y40.337 E173.04921
G0 F2040 X-1.735 Y40.337
G1 F1020 X-31.663 Y10.409 E174.66895
G0 F2040 X-31.487 Y10.09
G1 F1020 X-1.24 Y40.337 E176.30595
G0 F2040 X-.745 Y40.337
G1 F1020 X-31.31 Y9.772 E177.96017
G0 F2040 X-31.133 Y9.454
G1 F1020 X-.25 Y40.337 E179.6316
G0 F2040 X0.244 Y40.337
G1 F1020 X-30.957 Y9.135 E181.32026
G0 F2040 X-30.781 Y8.816
G1 F1020 X0.739 Y40.337 E183.02619
G0 F2040 X1.234 Y40.337
G1 F1020 X-30.604 Y8.498 E184.74933
G0 F2040 X-30.427 Y8.18
G1 F1020 X1.729 Y40.337 E186.48968
G0 F2040 X2.224 Y40.337
G1 F1020 X-30.25 Y7.862 E188.24725
G0 F2040 X-30.074 Y7.543
G1 F1020 X2.719 Y40.337 E190.02207
G0 F2040 X3.214 Y40.337
G1 F1020 X-29.897 Y7.225 E191.81411
G0 F2040 X-29.721 Y6.907
G1 F1020 X3.709 Y40.337 E193.62338
G0 F2040 X4.204 Y40.337
G1 F1020 X-29.544 Y6.588 E195.44989
G0 F2040 X-29.368 Y6.269
G1 F1020 X4.699 Y40.337 E197.29367
G0 F2040 X5.194 Y40.337
G1 F1020 X-29.191 Y5.951 E199.15466
G0 F2040 X-29.014 Y5.633
G1 F1020 X5.689 Y40.337 E201.03285
G0 F2040 X6.184 Y40.337
G1 F1020 X-28.837 Y5.315 E202.92826
G0 F2040 X-28.661 Y4.996
G1 F1020 X6.679 Y40.337 E204.84094
G0 F2040 X7.174 Y40.337
G1 F1020 X-28.485 Y4.678 E206.77085
G0 F2040 X-28.308 Y4.36
G1 F1020 X7.669 Y40.337 E208.71797
G0 F2040 X8.164 Y40.337
G1 F1020 X-28.131 Y4.041 E210.68233
G0 F2040 X-27.955 Y3.722
G1 F1020 X8.659 Y40.337 E212.66395
G0 F2040 X9.154 Y40.337
G1 F1020 X-27.778 Y3.404 E214.66278
G0 F2040 X-27.601 Y3.086
G1 F1020 X9.649 Y40.337 E216.67883
G0 F2040 X10.144 Y40.337
G1 F1020 X-27.425 Y2.768 E218.71211
