;FLAVOR:Marlin
;TIME:7350
;Filament used: 6.92399m
;Layer height: 0.2
;MINX:-41.616
;MINY:-25.66
;MINZ:0.26
;MAXX:68.61
;MAXY:70.391
;MAXZ:13.66
;Generated with Cura_SteamEngine 4.8.0
M82 ;absolute extrusion mode
;Gcode by Cura
G90
G28
M107
M109 R100
G30
M109 S215 U-55 X55 V-85 Y-85 W0.26 Z0.26
M82
G92 E0
G1 F200 E6
G92 E0
G1 F200 E-3.5
G0 Z0.15
G0 X10
G0 Z3
G1 F6000
G92 E0
G92 E0
G1 F3600 E-3.8
;LAYER_COUNT:68
;LAYER:0
M107
G0 F2040 X-36.024 Y-25.66 Z0.26
;TYPE:SKIRT
G1 F3600 E0
G1 F1020 X63.413 Y-25.66 E3.80541
G1 X64.103 Y-25.65 E3.83181
G1 X64.706 Y-25.601 E3.85497
G1 X65.297 Y-25.473 E3.87811
G1 X65.866 Y-25.269 E3.90124
G1 X66.403 Y-24.991 E3.92438
G1 X66.899 Y-24.644 E3.94755
G1 X67.344 Y-24.236 E3.97065
G1 X67.732 Y-23.772 E3.9938
G1 X68.056 Y-23.261 E4.01696
G1 X68.309 Y-22.712 E4.04009
G1 X68.488 Y-22.134 E4.06325
G1 X68.588 Y-21.538 E4.08637
G1 X68.61 Y-20.934 E4.1095
G1 X68.551 Y-20.332 E4.13265
G1 X68.414 Y-19.743 E4.15579
G1 X68.12 Y-19.011 E4.18598
G1 X67.77 Y-18.365 E4.2141
G1 X18.896 Y67.549 E7.99676
G1 X18.546 Y68.142 E8.02312
G1 X18.205 Y68.642 E8.04628
G1 X17.801 Y69.092 E8.06942
G1 X17.341 Y69.484 E8.09255
G1 X16.834 Y69.813 E8.11568
G1 X16.287 Y70.072 E8.13884
G1 X15.711 Y70.256 E8.16198
G1 X15.116 Y70.363 E8.18512
G1 X14.512 Y70.391 E8.20826
G1 X13.91 Y70.339 E8.23138
G1 X13.32 Y70.207 E8.25452
G1 X12.752 Y69.999 E8.27767
G1 X12.217 Y69.718 E8.30079
G1 X11.723 Y69.369 E8.32394
G1 X11.28 Y68.958 E8.34707
G1 X10.764 Y68.3 E8.37907
G1 X10.413 Y67.731 E8.40465
G1 X-40.638 Y-18.142 E12.22785
G1 X-41.005 Y-18.779 E12.25598
G1 X-41.271 Y-19.321 E12.27909
G1 X-41.464 Y-19.894 E12.30223
G1 X-41.58 Y-20.488 E12.32539
G1 X-41.616 Y-21.091 E12.3485
G1 X-41.572 Y-21.694 E12.37164
G1 X-41.449 Y-22.287 E12.39482
G1 X-41.25 Y-22.857 E12.41792
G1 X-40.976 Y-23.396 E12.44106
G1 X-40.634 Y-23.895 E12.46421
G1 X-40.229 Y-24.344 E12.48735
G1 X-39.769 Y-24.736 E12.51048
G1 X-39.26 Y-25.064 E12.53366
G1 X-38.713 Y-25.321 E12.55679
G1 X-38.137 Y-25.505 E12.57993
G1 X-37.542 Y-25.61 E12.60305
G1 X-37.14 Y-25.637 E12.61847
G1 X-36.024 Y-25.66 E12.66119
G0 F2040 X-36.024 Y-25.31
G1 F1020 X63.408 Y-25.31 E16.4664
G1 X64.098 Y-25.3 E16.49281
G1 X64.677 Y-25.251 E16.51505
G1 X65.244 Y-25.124 E16.53728
G1 X65.788 Y-24.92 E16.55952
G1 X66.299 Y-24.643 E16.58176
G1 X66.767 Y-24.299 E16.60399
G1 X67.184 Y-23.894 E16.62624
G1 X67.541 Y-23.436 E16.64846
G1 X67.832 Y-22.933 E16.6707
G1 X68.051 Y-22.395 E16.69293
G1 X68.194 Y-21.831 E16.71519
G1 X68.258 Y-21.254 E16.73741
G1 X68.243 Y-20.673 E16.75965
G1 X68.148 Y-20.1 E16.78188
G1 X67.975 Y-19.545 E16.80413
G1 X67.762 Y-19.08 E16.8237
G1 X67.464 Y-18.535 E16.84747
G1 X18.595 Y67.372 E20.62981
G1 X18.245 Y67.965 E20.65616
G1 X17.915 Y68.443 E20.67839
G1 X17.524 Y68.873 E20.70063
G1 X17.077 Y69.244 E20.72286
G1 X16.583 Y69.551 E20.74512
G1 X16.053 Y69.787 E20.76732
G1 X15.494 Y69.948 E20.78959
G1 X14.919 Y70.03 E20.81181
G1 X14.338 Y70.033 E20.83405
G1 X13.762 Y69.957 E20.85628
G1 X13.202 Y69.802 E20.87852
G1 X12.669 Y69.572 E20.90073
G1 X12.172 Y69.27 E20.92299
G1 X11.721 Y68.904 E20.94522
G1 X11.325 Y68.479 E20.96745
G1 X11.005 Y68.028 E20.98861
G1 X10.712 Y67.55 E21.01007
G1 X-40.366 Y-18.37 E24.83534
G1 X-40.702 Y-18.953 E24.86109
G1 X-40.956 Y-19.475 E24.8833
G1 X-41.137 Y-20.028 E24.90557
G1 X-41.24 Y-20.599 E24.92778
G1 X-41.264 Y-21.18 E24.95003
G1 X-41.208 Y-21.758 E24.97225
G1 X-41.074 Y-22.323 E24.99448
G1 X-40.863 Y-22.865 E25.01673
G1 X-40.579 Y-23.372 E25.03897
G1 X-40.229 Y-23.836 E25.06122
G1 X-39.818 Y-24.247 E25.08346
G1 X-39.355 Y-24.598 E25.1057
G1 X-38.848 Y-24.882 E25.12793
G1 X-38.307 Y-25.094 E25.15017
G1 X-37.742 Y-25.229 E25.1724
G1 X-37.132 Y-25.287 E25.19585
G1 X-36.024 Y-25.31 E25.23826
G0 F2040 X-36.024 Y-24.96
G1 F1020 X63.403 Y-24.96 E29.04329
G1 X64.093 Y-24.95 E29.0697
G1 X64.647 Y-24.902 E29.09098
G1 X65.189 Y-24.775 E29.11228
G1 X65.707 Y-24.572 E29.13357
G1 X66.191 Y-24.296 E29.15489
G1 X66.63 Y-23.955 E29.17617
G1 X67.016 Y-23.554 E29.19747
G1 X67.34 Y-23.101 E29.21878
G1 X67.596 Y-22.607 E29.24007
G1 X67.779 Y-22.082 E29.26135
G1 X67.885 Y-21.536 E29.28264
G1 X67.911 Y-20.98 E29.30394
G1 X67.857 Y-20.426 E29.32524
G1 X67.725 Y-19.886 E29.34651
G1 X67.495 Y-19.327 E29.36965
G1 X67.158 Y-18.704 E29.39675
G1 X18.293 Y67.194 E33.17871
G1 X17.943 Y67.787 E33.20507
G1 X17.627 Y68.244 E33.22633
G1 X17.248 Y68.652 E33.24764
G1 X16.815 Y69.001 E33.26892
G1 X16.336 Y69.284 E33.29021
G1 X15.821 Y69.496 E33.31153
G1 X15.282 Y69.633 E33.33281
G1 X14.728 Y69.69 E33.35412
G1 X14.172 Y69.668 E33.37542
G1 X13.625 Y69.566 E33.39671
G1 X13.099 Y69.387 E33.41798
G1 X12.603 Y69.134 E33.43929
G1 X12.148 Y68.813 E33.4606
G1 X11.745 Y68.43 E33.48187
G1 X11.352 Y67.92 E33.50651
G1 X11.011 Y67.368 E33.53134
G1 X-40.062 Y-18.545 E37.35628
G1 X-40.398 Y-19.128 E37.38203
G1 X-40.641 Y-19.629 E37.40334
G1 X-40.809 Y-20.159 E37.42462
G1 X-40.9 Y-20.708 E37.44592
G1 X-40.911 Y-21.265 E37.46724
G1 X-40.842 Y-21.817 E37.48853
G1 X-40.695 Y-22.353 E37.5098
G1 X-40.472 Y-22.863 E37.5311
G1 X-40.179 Y-23.336 E37.55239
G1 X-39.821 Y-23.762 E37.57369
G1 X-39.406 Y-24.133 E37.59499
G1 X-38.942 Y-24.44 E37.61628
G1 X-38.439 Y-24.677 E37.63756
G1 X-37.907 Y-24.84 E37.65886
G1 X-37.125 Y-24.937 E37.68901
G1 X-36.024 Y-24.96 E37.73116
G0 F2040 X-36.024 Y-24.61
G1 F1020 X63.398 Y-24.61 E41.53599
G1 X64.088 Y-24.6 E41.5624
G1 X64.617 Y-24.552 E41.58272
G1 X65.132 Y-24.426 E41.60301
G1 X65.623 Y-24.223 E41.62335
G1 X66.077 Y-23.95 E41.64362
G1 X66.486 Y-23.611 E41.66395
G1 X66.838 Y-23.214 E41.68426
G1 X67.128 Y-22.77 E41.70455
G1 X67.347 Y-22.286 E41.72488
G1 X67.492 Y-21.776 E41.74517
G1 X67.558 Y-21.249 E41.7655
G1 X67.544 Y-20.719 E41.78579
G1 X67.451 Y-20.196 E41.80612
G1 X67.183 Y-19.484 E41.83523
G1 X66.851 Y-18.874 E41.86181
G1 X17.992 Y67.016 E45.64339
G1 X17.642 Y67.609 E45.66974
G1 X17.338 Y68.044 E45.69005
G1 X16.973 Y68.429 E45.71035
G1 X16.554 Y68.755 E45.73067
G1 X16.091 Y69.014 E45.75097
G1 X15.594 Y69.201 E45.77129
G1 X15.075 Y69.311 E45.7916
G1 X14.545 Y69.341 E45.81191
G1 X14.017 Y69.292 E45.83221
G1 X13.502 Y69.165 E45.85251
G1 X13.012 Y68.961 E45.87282
G1 X12.558 Y68.686 E45.89313
G1 X12.151 Y68.346 E45.91343
G1 X11.799 Y67.949 E45.93373
G1 X11.31 Y67.186 E45.96841
G1 X-39.759 Y-18.72 E49.79305
G1 X-40.095 Y-19.303 E49.8188
G1 X-40.325 Y-19.781 E49.8391
G1 X-40.48 Y-20.289 E49.85942
G1 X-40.557 Y-20.814 E49.87973
G1 X-40.555 Y-21.344 E49.90001
G1 X-40.473 Y-21.869 E49.92035
G1 X-40.313 Y-22.375 E49.94066
G1 X-40.079 Y-22.851 E49.96096
G1 X-39.776 Y-23.287 E49.98127
G1 X-39.411 Y-23.672 E50.00158
G1 X-38.993 Y-23.998 E50.02186
G1 X-38.53 Y-24.258 E50.04219
G1 X-38.033 Y-24.445 E50.06251
G1 X-37.514 Y-24.556 E50.08282
G1 X-37.117 Y-24.587 E50.09806
G1 X-36.024 Y-24.61 E50.1399
G0 F2040 X-36.024 Y-24.26
G1 F1020 X63.393 Y-24.26 E53.94454
G1 X64.083 Y-24.25 E53.97094
G1 X64.584 Y-24.202 E53.99021
G1 X65.072 Y-24.077 E54.00948
G1 X65.534 Y-23.875 E54.02878
G1 X65.957 Y-23.603 E54.04803
G1 X66.333 Y-23.268 E54.0673
G1 X66.651 Y-22.877 E54.08659
G1 X66.903 Y-22.441 E54.10586
G1 X67.083 Y-21.971 E54.12512
G1 X67.186 Y-21.478 E54.14439
G1 X67.21 Y-20.975 E54.16366
G1 X67.155 Y-20.475 E54.18291
G1 X67.021 Y-19.989 E54.20221
G1 X66.768 Y-19.446 E54.22513
G1 X66.529 Y-19.014 E54.24403
G1 X17.69 Y66.838 E58.02397
G1 X17.34 Y67.431 E58.05032
G1 X17.051 Y67.843 E58.06958
G1 X16.7 Y68.204 E58.08885
G1 X16.296 Y68.505 E58.10813
G1 X15.85 Y68.738 E58.12738
G1 X15.372 Y68.898 E58.14667
G1 X14.875 Y68.981 E58.16596
G1 X14.372 Y68.983 E58.18521
G1 X13.874 Y68.906 E58.20449
G1 X13.395 Y68.752 E58.22375
G1 X12.946 Y68.523 E58.24304
G1 X12.539 Y68.227 E58.26229
G1 X12.184 Y67.87 E58.28156
G1 X11.886 Y67.458 E58.30102
G1 X11.593 Y66.977 E58.32258
G1 X-39.456 Y-18.895 E62.1457
G1 X-39.792 Y-19.478 E62.17145
G1 X-40.008 Y-19.932 E62.19069
G1 X-40.149 Y-20.416 E62.20998
G1 X-40.213 Y-20.915 E62.22924
G1 X-40.196 Y-21.419 E62.24853
G1 X-40.1 Y-21.913 E62.26779
G1 X-39.927 Y-22.386 E62.28707
G1 X-39.682 Y-22.826 E62.30634
G1 X-39.37 Y-23.221 E62.3256
G1 X-38.999 Y-23.562 E62.34489
G1 X-38.579 Y-23.84 E62.36416
G1 X-38.121 Y-24.049 E62.38343
G1 X-37.635 Y-24.182 E62.40271
G1 X-37.11 Y-24.237 E62.42291
G1 X-36.024 Y-24.26 E62.46448
G1 F3600 E58.66448
;MESH:support_tri_0_027.stl
G0 F2040 X-36.024 Y-21.75
G0 X-36.024 Y-20.715
G0 X14.597 Y64.791
;TYPE:WALL-INNER
G1 F3600 E62.46448
G1 F1020 X-36.142 Y-20.56 E66.26441
G1 X63.152 Y-20.56 E70.06434
G1 X14.597 Y64.791 E73.82224
G0 F2040 X14.603 Y65.437
;TYPE:WALL-OUTER
G1 F1020 X-36.713 Y-20.885 E77.66539
G1 X63.71 Y-20.885 E81.50853
G1 X14.603 Y65.437 E85.30917
G0 F2040 X14.501 Y65.266
G0 X14.6 Y65.039
G0 X14.59 Y64.115
;TYPE:SKIN
G1 F1020 X-35.545 Y-20.22 E89.06386
G1 X62.567 Y-20.22 E92.81856
G1 X14.59 Y64.115 E96.53172
G0 F2040 X14.663 Y63.666
G1 F1020 X14.272 Y63.275 E96.55289
G0 F2040 X14.843 Y63.351
G1 F1020 X13.547 Y62.054 E96.62305
G1 X13.485 Y61.992
G0 F2040 X12.821 Y60.834
G1 F1020 X15.023 Y63.035 E96.7422
G0 F2040 X15.202 Y62.719
G1 F1020 X12.096 Y59.614 E96.91028
G1 X12.034 Y59.552
G0 F2040 X11.37 Y58.392
G1 F1020 X15.381 Y62.404 E97.12738
G0 F2040 X15.561 Y62.088
G1 F1020 X10.644 Y57.172 E97.39347
G1 X10.582 Y57.11
G0 F2040 X9.919 Y55.951
G1 F1020 X15.74 Y61.773 E97.70854
G0 F2040 X15.92 Y61.458
G1 F1020 X9.193 Y54.731 E98.07261
G1 X9.131 Y54.669
G0 F2040 X8.468 Y53.511
G1 F1020 X16.1 Y61.142 E98.48564
G0 F2040 X16.279 Y60.826
G1 F1020 X7.742 Y52.29 E98.94764
G1 X7.68 Y52.228
G0 F2040 X7.017 Y51.07
G1 F1020 X16.458 Y60.511 E99.4586
G0 F2040 X16.638 Y60.196
G1 F1020 X6.291 Y49.849 E100.0186
G1 X6.229 Y49.787
G0 F2040 X5.566 Y48.629
G1 F1020 X16.817 Y59.88 E100.62751
G0 F2040 X16.997 Y59.565
G1 F1020 X4.84 Y47.408 E101.28547
G1 X4.778 Y47.346
G0 F2040 X4.114 Y46.187
G1 F1020 X17.177 Y59.249 E101.99243
G0 F2040 X17.355 Y58.933
G1 F1020 X3.389 Y44.967 E102.74828
G1 X3.327 Y44.905
G0 F2040 X2.663 Y43.746
G1 F1020 X17.535 Y58.618 E103.55318
G0 F2040 X17.715 Y58.303
G1 F1020 X1.938 Y42.526 E104.40705
G1 X1.876 Y42.464
G0 F2040 X1.212 Y41.305
G1 F1020 X17.894 Y57.987 E105.3099
G0 F2040 X18.074 Y57.672
G1 F1020 X0.487 Y40.085 E106.26173
G1 X0.425 Y40.023
G0 F2040 X-.238 Y38.864
G1 F1020 X18.253 Y57.356 E107.26251
G0 F2040 X18.432 Y57.04
G1 F1020 X-.963 Y37.644 E108.31222
G1 X-1.025 Y37.582
G0 F2040 X-1.689 Y36.423
G1 F1020 X18.612 Y56.725 E109.41096
G0 F2040 X18.792 Y56.41
G1 F1020 X-2.414 Y35.203 E110.55869
G1 X-2.476 Y35.141
G0 F2040 X-3.14 Y33.982
G1 F1020 X18.971 Y56.094 E111.75539
G0 F2040 X19.151 Y55.779
G1 F1020 X-3.866 Y32.761 E113.00113
G1 X-3.928 Y32.699
G0 F2040 X-4.591 Y31.541
G1 F1020 X19.33 Y55.463 E114.29579
G0 F2040 X19.509 Y55.147
G1 F1020 X-5.317 Y30.32 E115.63943
G1 X-5.379 Y30.258
G0 F2040 X-6.042 Y29.1
G1 F1020 X19.689 Y54.832 E117.03205
G0 F2040 X19.868 Y54.517
G1 F1020 X-6.768 Y27.879 E118.47368
G1 X-6.83 Y27.817
G0 F2040 X-7.493 Y26.659
G1 F1020 X20.048 Y54.201 E119.96426
G0 F2040 X20.228 Y53.886
G1 F1020 X-8.219 Y25.438 E121.50388
G1 X-8.281 Y25.376
G0 F2040 X-8.944 Y24.218
G1 F1020 X20.407 Y53.57 E123.09242
G0 F2040 X20.586 Y53.255
G1 F1020 X-9.67 Y22.997 E124.72996
G1 X-9.732 Y22.935
G0 F2040 X-10.396 Y21.776
G1 F1020 X20.766 Y52.939 E126.41652
G0 F2040 X20.945 Y52.624
G1 F1020 X-11.122 Y20.556 E128.15205
G1 X-11.184 Y20.494
G0 F2040 X-11.847 Y19.335
G1 F1020 X21.125 Y52.308 E129.93657
G0 F2040 X21.304 Y51.992
G1 F1020 X-12.573 Y18.115 E131.77003
G1 X-12.635 Y18.053
G0 F2040 X-13.298 Y16.894
G1 F1020 X21.484 Y51.677 E133.65251
G0 F2040 X21.663 Y51.362
G1 F1020 X-14.024 Y15.674 E135.58396
G1 X-14.086 Y15.612
G0 F2040 X-14.749 Y14.453
G1 F1020 X21.843 Y51.046 E137.56439
G0 F2040 X22.022 Y50.731
G1 F1020 X-15.475 Y13.233 E139.5938
G1 X-15.537 Y13.171
G0 F2040 X-16.2 Y12.013
G1 F1020 X22.202 Y50.416 E141.6722
G0 F2040 X22.381 Y50.099
G1 F1020 X-16.926 Y10.792 E143.79954
G1 X-16.988 Y10.73
G0 F2040 X-17.651 Y9.572
G1 F1020 X22.56 Y49.784 E145.97584
G0 F2040 X22.74 Y49.469
G1 F1020 X-18.377 Y8.35 E148.2012
G1 X-18.439 Y8.288
G0 F2040 X-19.103 Y7.13
G1 F1020 X22.92 Y49.153 E150.47554
G0 F2040 X23.099 Y48.838
G1 F1020 X-19.828 Y5.909 E152.79885
G1 X-19.89 Y5.847
G0 F2040 X-20.554 Y4.689
G1 F1020 X23.279 Y48.523 E155.17118
G0 F2040 X23.458 Y48.207
G1 F1020 X-21.279 Y3.469 E157.59243
G1 X-21.341 Y3.407
G0 F2040 X-22.005 Y2.248
G1 F1020 X23.637 Y47.891 E160.06266
G0 F2040 X23.817 Y47.576
G1 F1020 X-22.73 Y1.028 E162.58187
G1 X-22.792 Y0.966
G0 F2040 X-23.456 Y-.192
G1 F1020 X23.997 Y47.26 E165.15006
G0 F2040 X24.176 Y46.945
G1 F1020 X-24.181 Y-1.412 E167.7672
G1 X-24.243 Y-1.474
G0 F2040 X-24.907 Y-2.633
G1 F1020 X24.355 Y46.629 E170.43332
G0 F2040 X24.535 Y46.314
G1 F1020 X-25.633 Y-3.854 E173.14848
G1 X-25.695 Y-3.916
G0 F2040 X-26.358 Y-5.074
G1 F1020 X24.714 Y45.998 E175.91256
G0 F2040 X24.894 Y45.683
G1 F1020 X-27.084 Y-6.295 E178.72568
G1 X-27.146 Y-6.357
G0 F2040 X-27.809 Y-7.515
G1 F1020 X25.074 Y45.367 E181.58775
G0 F2040 X25.253 Y45.052
G1 F1020 X-28.535 Y-8.736 E184.49882
G1 X-28.597 Y-8.798
G0 F2040 X-29.26 Y-9.956
G1 F1020 X25.432 Y44.736 E187.45882
G0 F2040 X25.612 Y44.421
G1 F1020 X-29.986 Y-11.177 E190.46786
G1 X-30.048 Y-11.239
G0 F2040 X-30.711 Y-12.397
G1 F1020 X25.791 Y44.105 E193.52582
G0 F2040 X25.971 Y43.79
G1 F1020 X-31.437 Y-13.618 E196.63281
G1 X-31.499 Y-13.68
G0 F2040 X-32.162 Y-14.838
G1 F1020 X26.15 Y43.475 E199.78876
G0 F2040 X26.33 Y43.159
G1 F1020 X-32.888 Y-16.059 E202.99371
G1 X-32.95 Y-16.121
G0 F2040 X-33.614 Y-17.28
G1 F1020 X26.509 Y42.843 E206.24764
G0 F2040 X26.689 Y42.528
G1 F1020 X-34.339 Y-18.5 E209.55056
G1 X-34.401 Y-18.562
G0 F2040 X-35.065 Y-19.721
G1 F1020 X26.868 Y42.212 E212.90245
G0 F2040 X27.048 Y41.897
G1 F1020 X-34.911 Y-20.062 E216.25575
G0 F2040 X-34.417 Y-20.062
G1 F1020 X27.227 Y41.582 E219.592
G0 F2040 X27.406 Y41.266
G1 F1020 X-33.922 Y-20.062 E222.91115
G0 F2040 X-33.427 Y-20.062
G1 F1020 X27.586 Y40.95 E226.21323
G0 F2040 X27.765 Y40.635
G1 F1020 X-32.932 Y-20.062 E229.49822
G0 F2040 X-32.437 Y-20.062
G1 F1020 X27.945 Y40.319 E232.76615
G0 F2040 X28.125 Y40.004
G1 F1020 X-31.942 Y-20.062 E236.01702
G0 F2040 X-31.447 Y-20.062
G1 F1020 X28.304 Y39.689 E239.25082
G0 F2040 X28.483 Y39.373
G1 F1020 X-30.952 Y-20.062 E242.46752
G0 F2040 X-30.457 Y-20.062
G1 F1020 X28.663 Y39.057 E245.66714
G0 F2040 X28.842 Y38.742
G1 F1020 X-29.962 Y-20.062 E248.84969
G0 F2040 X-29.467 Y-20.062
G1 F1020 X29.022 Y38.427 E252.01519
G0 F2040 X29.202 Y38.111
G1 F1020 X-28.972 Y-20.062 E255.16361
G0 F2040 X-28.477 Y-20.062
G1 F1020 X29.381 Y37.796 E258.29496
G0 F2040 X29.56 Y37.48
G1 F1020 X-27.982 Y-20.062 E261.40921
G0 F2040 X-27.487 Y-20.062
G1 F1020 X29.74 Y37.164 E264.50638
G0 F2040 X29.919 Y36.849
G1 F1020 X-26.992 Y-20.062 E267.58648
G0 F2040 X-26.497 Y-20.062
G1 F1020 X30.099 Y36.534 E270.64952
G0 F2040 X30.279 Y36.218
G1 F1020 X-26.002 Y-20.062 E273.6955
G0 F2040 X-25.507 Y-20.062
G1 F1020 X30.457 Y35.902 E276.72434
G0 F2040 X30.637 Y35.587
G1 F1020 X-25.012 Y-20.062 E279.73613
G0 F2040 X-24.517 Y-20.062
G1 F1020 X30.817 Y35.271 E282.73085
G0 F2040 X30.996 Y34.956
G1 F1020 X-24.022 Y-20.062 E285.7085
G0 F2040 X-23.527 Y-20.062
G1 F1020 X31.176 Y34.641 E288.66909
G0 F2040 X31.355 Y34.325
G1 F1020 X-23.032 Y-20.062 E291.61259
G0 F2040 X-22.537 Y-20.062
G1 F1020 X31.534 Y34.009 E294.53898
G0 F2040 X31.714 Y33.694
G1 F1020 X-22.042 Y-20.062 E297.44832
G0 F2040 X-21.547 Y-20.062
G1 F1020 X31.894 Y33.378 E300.34059
G0 F2040 X32.073 Y33.063
G1 F1020 X-21.052 Y-20.062 E303.21578
G0 F2040 X-20.557 Y-20.062
G1 F1020 X32.253 Y32.748 E306.07393
G0 F2040 X32.432 Y32.432
G1 F1020 X-20.062 Y-20.062 E308.91497
G0 F2040 X-19.567 Y-20.062
G1 F1020 X32.611 Y32.116 E311.73891
G0 F2040 X32.791 Y31.801
G1 F1020 X-19.072 Y-20.062 E314.5458
G0 F2040 X-18.577 Y-20.062
G1 F1020 X32.97 Y31.486 E317.33562
G0 F2040 X33.15 Y31.17
G1 F1020 X-18.082 Y-20.062 E320.10836
G0 F2040 X-17.587 Y-20.062
G1 F1020 X33.33 Y30.855 E322.86405
G0 F2040 X33.509 Y30.539
G1 F1020 X-17.092 Y-20.062 E325.60264
G0 F2040 X-16.597 Y-20.062
G1 F1020 X33.688 Y30.223 E328.32413
G0 F2040 X33.868 Y29.908
