;FLAVOR:Marlin
;TIME:7350
;Filament used: 6.92372m
;Layer height: 0.2
;MINX:-41.607
;MINY:-70.388
;MINZ:0.26
;MAXX:68.609
;MAXY:25.66
;MAXZ:13.66
;Generated with Cura_SteamEngine 4.8.0
M82 ;absolute extrusion mode
;Gcode by Cura
G90
G28
M107
M109 R100
G30
M109 S215 U-55 X55 V-85 Y-85 W0.26 Z0.26
M82
G92 E0
G1 F200 E6
G92 E0
G1 F200 E-3.5
G0 Z0.15
G0 X10
G0 Z3
G1 F6000
G92 E0
G92 E0
G1 F3600 E-3.8
;LAYER_COUNT:68
;LAYER:0
M107
G0 F2040 X-40.467 Y17.853 Z0.26
;TYPE:SKIRT
G1 F3600 E0
G1 F1020 X10.355 Y-67.635 E3.80605
G1 X10.704 Y-68.205 E3.83163
G1 X11.053 Y-68.699 E3.85478
G1 X11.465 Y-69.142 E3.87793
G1 X11.931 Y-69.527 E3.90106
G1 X12.443 Y-69.848 E3.92419
G1 X12.994 Y-70.098 E3.94734
G1 X13.573 Y-70.273 E3.97049
G1 X14.169 Y-70.37 E3.9936
G1 X14.774 Y-70.388 E4.01676
G1 X15.375 Y-70.326 E4.03989
G1 X15.963 Y-70.185 E4.06303
G1 X16.528 Y-69.968 E4.08619
G1 X17.058 Y-69.678 E4.10931
G1 X17.546 Y-69.321 E4.13245
G1 X17.983 Y-68.903 E4.15559
G1 X18.482 Y-68.247 E4.18713
G1 X18.806 Y-67.706 E4.21127
G1 X67.716 Y18.273 E7.99677
G1 X68.044 Y18.869 E8.02281
G1 X68.3 Y19.417 E8.04595
G1 X68.481 Y19.994 E8.0691
G1 X68.585 Y20.589 E8.09221
G1 X68.609 Y21.194 E8.11538
G1 X68.554 Y21.796 E8.13852
G1 X68.419 Y22.385 E8.16164
G1 X68.208 Y22.952 E8.1848
G1 X67.924 Y23.486 E8.20794
G1 X67.572 Y23.977 E8.23106
G1 X67.159 Y24.418 E8.25418
G1 X66.691 Y24.801 E8.27733
G1 X66.176 Y25.119 E8.30049
G1 X65.624 Y25.366 E8.32363
G1 X65.044 Y25.537 E8.34678
G1 X64.209 Y25.647 E8.37901
G1 X63.552 Y25.66 E8.40415
G1 X-36.426 Y25.659 E12.23026
G1 X-37.102 Y25.649 E12.25614
G1 X-37.704 Y25.601 E12.27925
G1 X-38.295 Y25.473 E12.30239
G1 X-38.864 Y25.268 E12.32554
G1 X-39.401 Y24.99 E12.34868
G1 X-39.897 Y24.644 E12.37182
G1 X-40.342 Y24.235 E12.39495
G1 X-40.73 Y23.771 E12.4181
G1 X-41.053 Y23.26 E12.44123
G1 X-41.307 Y22.711 E12.46438
G1 X-41.485 Y22.133 E12.48753
G1 X-41.586 Y21.537 E12.51066
G1 X-41.607 Y20.933 E12.53379
G1 X-41.548 Y20.331 E12.55694
G1 X-41.411 Y19.742 E12.58008
G1 X-41.197 Y19.177 E12.6032
G1 X-41.016 Y18.823 E12.61842
G1 X-40.467 Y17.853 E12.66107
G0 F2040 X-40.166 Y18.032
G1 F1020 X10.654 Y-67.452 E16.46695
G1 X11.003 Y-68.022 E16.49253
G1 X11.34 Y-68.496 E16.51479
G1 X11.738 Y-68.918 E16.53699
G1 X12.191 Y-69.283 E16.55925
G1 X12.689 Y-69.581 E16.58146
G1 X13.224 Y-69.809 E16.60372
G1 X13.785 Y-69.96 E16.62595
G1 X14.361 Y-70.034 E16.64818
G1 X14.942 Y-70.028 E16.67041
G1 X15.517 Y-69.942 E16.69266
G1 X16.074 Y-69.778 E16.71488
G1 X16.604 Y-69.539 E16.73713
G1 X17.096 Y-69.229 E16.75939
G1 X17.541 Y-68.856 E16.78161
G1 X17.93 Y-68.424 E16.80385
G1 X18.254 Y-67.951 E16.8258
G1 X18.529 Y-67.484 E16.84654
G1 X67.409 Y18.442 E20.62971
G1 X67.737 Y19.038 E20.65575
G1 X67.982 Y19.565 E20.67799
G1 X68.152 Y20.121 E20.70024
G1 X68.244 Y20.694 E20.72245
G1 X68.256 Y21.275 E20.74469
G1 X68.189 Y21.852 E20.76692
G1 X68.043 Y22.415 E20.78917
G1 X67.821 Y22.952 E20.81141
G1 X67.528 Y23.453 E20.83362
G1 X67.169 Y23.91 E20.85586
G1 X66.75 Y24.313 E20.87811
G1 X66.28 Y24.655 E20.90036
G1 X65.768 Y24.929 E20.92258
G1 X65.223 Y25.13 E20.94481
G1 X64.655 Y25.254 E20.96706
G1 X64.064 Y25.302 E20.98975
G1 X63.548 Y25.31 E21.0095
G1 X-36.42 Y25.31 E24.83523
G1 X-37.096 Y25.3 E24.8611
G1 X-37.675 Y25.251 E24.88334
G1 X-38.242 Y25.124 E24.90557
G1 X-38.786 Y24.919 E24.92782
G1 X-39.297 Y24.643 E24.95005
G1 X-39.765 Y24.298 E24.9723
G1 X-40.182 Y23.893 E24.99454
G1 X-40.539 Y23.435 E25.01677
G1 X-40.829 Y22.932 E25.03899
G1 X-41.048 Y22.393 E25.06125
G1 X-41.191 Y21.83 E25.08348
G1 X-41.255 Y21.253 E25.1057
G1 X-41.24 Y20.672 E25.12794
G1 X-41.145 Y20.099 E25.15017
G1 X-40.972 Y19.544 E25.17242
G1 X-40.712 Y18.995 E25.19566
G1 X-40.166 Y18.032 E25.23803
G0 F2040 X-39.865 Y18.211
G1 F1020 X10.952 Y-67.269 E29.04372
G1 X11.301 Y-67.839 E29.0693
G1 X11.625 Y-68.292 E29.09061
G1 X12.01 Y-68.693 E29.11189
G1 X12.449 Y-69.035 E29.13318
G1 X12.933 Y-69.311 E29.1545
G1 X13.45 Y-69.515 E29.17577
G1 X13.992 Y-69.642 E29.19708
G1 X14.546 Y-69.691 E29.21836
G1 X15.102 Y-69.659 E29.23968
G1 X15.647 Y-69.548 E29.26096
G1 X16.171 Y-69.361 E29.28225
G1 X16.663 Y-69.1 E29.30357
G1 X17.112 Y-68.772 E29.32485
G1 X17.509 Y-68.382 E29.34614
G1 X17.889 Y-67.875 E29.37039
G1 X18.201 Y-67.352 E29.3937
G1 X67.103 Y18.611 E33.17852
G1 X67.431 Y19.207 E33.20455
G1 X67.663 Y19.712 E33.22582
G1 X67.821 Y20.246 E33.24713
G1 X67.901 Y20.796 E33.2684
G1 X67.901 Y21.353 E33.28972
G1 X67.821 Y21.904 E33.31103
G1 X67.664 Y22.437 E33.33229
G1 X67.431 Y22.943 E33.35361
G1 X67.129 Y23.41 E33.37489
G1 X66.762 Y23.829 E33.39621
G1 X66.34 Y24.191 E33.41749
G1 X65.87 Y24.488 E33.43876
G1 X65.362 Y24.716 E33.46007
G1 X64.827 Y24.868 E33.48136
G1 X64.183 Y24.947 E33.50619
G1 X63.543 Y24.96 E33.53069
G1 X-36.415 Y24.96 E37.35603
G1 X-37.091 Y24.95 E37.3819
G1 X-37.646 Y24.901 E37.40323
G1 X-38.187 Y24.774 E37.42449
G1 X-38.705 Y24.571 E37.44578
G1 X-39.189 Y24.296 E37.46709
G1 X-39.628 Y23.954 E37.48838
G1 X-40.013 Y23.553 E37.50966
G1 X-40.338 Y23.1 E37.53099
G1 X-40.594 Y22.606 E37.55229
G1 X-40.776 Y22.081 E37.57355
G1 X-40.882 Y21.534 E37.59487
G1 X-40.908 Y20.979 E37.61614
G1 X-40.854 Y20.425 E37.63744
G1 X-40.722 Y19.884 E37.65875
G1 X-40.407 Y19.167 E37.68872
G1 X-39.865 Y18.211 E37.73078
G0 F2040 X-39.564 Y18.39
G1 F1020 X11.251 Y-67.087 E41.53633
G1 X11.6 Y-67.657 E41.56191
G1 X11.91 Y-68.087 E41.5822
G1 X12.282 Y-68.466 E41.60252
G1 X12.706 Y-68.785 E41.62282
G1 X13.173 Y-69.037 E41.64313
G1 X13.673 Y-69.215 E41.66344
G1 X14.194 Y-69.317 E41.68376
G1 X14.724 Y-69.339 E41.70406
G1 X15.251 Y-69.281 E41.72435
G1 X15.764 Y-69.145 E41.74466
G1 X16.251 Y-68.934 E41.76497
G1 X16.7 Y-68.652 E41.78526
G1 X17.102 Y-68.305 E41.80559
G1 X17.592 Y-67.689 E41.83571
G1 X17.899 Y-67.175 E41.85862
G1 X66.796 Y18.779 E45.64305
G1 X67.124 Y19.375 E45.66908
G1 X67.344 Y19.858 E45.6894
G1 X67.49 Y20.369 E45.70973
G1 X67.556 Y20.895 E45.73002
G1 X67.544 Y21.426 E45.75035
G1 X67.451 Y21.948 E45.77064
G1 X67.281 Y22.451 E45.79096
G1 X67.038 Y22.923 E45.81128
G1 X66.727 Y23.352 E45.83155
G1 X66.354 Y23.73 E45.85188
G1 X65.929 Y24.048 E45.87219
G1 X65.462 Y24.299 E45.89248
G1 X64.962 Y24.476 E45.91278
G1 X64.44 Y24.577 E45.93312
G1 X63.539 Y24.61 E45.96763
G1 X-36.41 Y24.61 E49.79263
G1 X-37.086 Y24.6 E49.8185
G1 X-37.615 Y24.552 E49.83883
G1 X-38.13 Y24.425 E49.85913
G1 X-38.621 Y24.223 E49.87945
G1 X-39.075 Y23.949 E49.89974
G1 X-39.483 Y23.61 E49.92004
G1 X-39.836 Y23.214 E49.94034
G1 X-40.125 Y22.769 E49.96065
G1 X-40.345 Y22.285 E49.981
G1 X-40.489 Y21.775 E50.00128
G1 X-40.555 Y21.248 E50.0216
G1 X-40.541 Y20.718 E50.04189
G1 X-40.447 Y20.195 E50.06223
G1 X-40.277 Y19.693 E50.08251
G1 X-40.102 Y19.34 E50.09759
G1 X-39.564 Y18.39 E50.13937
G0 F2040 X-39.263 Y18.569
G1 F1020 X11.549 Y-66.904 E53.94473
G1 X11.898 Y-67.474 E53.97031
G1 X12.194 Y-67.881 E53.98957
G1 X12.551 Y-68.236 E54.00884
G1 X12.96 Y-68.531 E54.02814
G1 X13.41 Y-68.757 E54.04741
G1 X13.89 Y-68.909 E54.06667
G1 X14.388 Y-68.984 E54.08595
G1 X14.891 Y-68.978 E54.1052
G1 X15.388 Y-68.893 E54.1245
G1 X15.865 Y-68.731 E54.14377
G1 X16.31 Y-68.495 E54.16305
G1 X16.712 Y-68.192 E54.18232
G1 X17.061 Y-67.829 E54.20159
G1 X17.365 Y-67.393 E54.22193
G1 X17.617 Y-66.965 E54.24093
G1 X66.49 Y18.948 E58.02355
G1 X66.818 Y19.544 E58.04958
G1 X67.025 Y20.003 E58.06885
G1 X67.157 Y20.489 E58.08812
G1 X67.21 Y20.99 E58.1074
G1 X67.183 Y21.493 E58.12668
G1 X67.078 Y21.985 E58.14593
G1 X66.896 Y22.455 E58.16522
G1 X66.641 Y22.89 E58.18452
G1 X66.322 Y23.279 E58.20377
G1 X65.945 Y23.612 E58.22302
G1 X65.519 Y23.882 E58.24232
G1 X65.057 Y24.081 E58.26157
G1 X64.569 Y24.205 E58.28084
G1 X64.024 Y24.253 E58.30178
G1 X63.535 Y24.26 E58.32049
G1 X-36.405 Y24.26 E62.14515
G1 X-37.081 Y24.25 E62.17102
G1 X-37.582 Y24.202 E62.19028
G1 X-38.07 Y24.076 E62.20957
G1 X-38.531 Y23.875 E62.22882
G1 X-38.955 Y23.603 E62.2481
G1 X-39.331 Y23.267 E62.26739
G1 X-39.648 Y22.876 E62.28666
G1 X-39.9 Y22.44 E62.30593
G1 X-40.08 Y21.97 E62.32519
G1 X-40.183 Y21.477 E62.34446
G1 X-40.207 Y20.974 E62.36374
G1 X-40.152 Y20.474 E62.38299
G1 X-40.017 Y19.988 E62.40229
G1 X-39.798 Y19.512 E62.42234
G1 X-39.263 Y18.569 E62.46383
G1 F3600 E58.66383
;MESH:support_tri_0_006.stl
G0 F2040 X-37.107 Y19.854
G0 X-36.217 Y20.382
G0 X63.152 Y20.56
;TYPE:WALL-INNER
G1 F3600 E62.46383
G1 F1020 X-36.142 Y20.56 E66.26377
G1 X14.597 Y-64.791 E70.06369
G1 X63.152 Y20.56 E73.82159
G0 F2040 X63.71 Y20.885
;TYPE:WALL-OUTER
G1 F1020 X-36.713 Y20.885 E77.66473
G1 X14.603 Y-65.437 E81.50788
G1 X63.71 Y20.885 E85.30852
G0 F2040 X63.51 Y20.885
G0 X63.367 Y20.685
G0 X62.567 Y20.22
;TYPE:SKIN
G1 F1020 X-35.545 Y20.22 E89.06322
G1 X14.59 Y-64.115 E92.81791
G1 X62.567 Y20.22 E96.53107
G0 F2040 X14.517 Y-63.688
G1 F1020 X14.827 Y-63.378 E96.54785
G0 F2040 X14.333 Y-63.377
G1 F1020 X15.48 Y-62.23 E96.60993
G1 X15.542 Y-62.168
G0 F2040 X16.133 Y-61.082
G1 F1020 X14.148 Y-63.067 E96.71736
G0 F2040 X13.963 Y-62.757
G1 F1020 X16.786 Y-59.934 E96.87014
G1 X16.848 Y-59.872
G0 F2040 X17.44 Y-58.786
G1 F1020 X13.779 Y-62.446 E97.06825
G0 F2040 X13.594 Y-62.136
G1 F1020 X18.092 Y-57.638 E97.31169
G1 X18.154 Y-57.576
G0 F2040 X18.746 Y-56.49
G1 F1020 X13.41 Y-61.825 E97.60046
G0 F2040 X13.225 Y-61.515
G1 F1020 X19.399 Y-55.341 E97.9346
G1 X19.461 Y-55.279
G0 F2040 X20.052 Y-54.193
G1 F1020 X13.041 Y-61.205 E98.31407
G0 F2040 X12.856 Y-60.894
G1 F1020 X20.705 Y-53.045 E98.73887
G1 X20.767 Y-52.983
G0 F2040 X21.358 Y-51.897
G1 F1020 X12.672 Y-60.583 E99.20897
G0 F2040 X12.488 Y-60.273
G1 F1020 X22.012 Y-50.749 E99.72442
G1 X22.074 Y-50.687
G0 F2040 X22.664 Y-49.601
G1 F1020 X12.303 Y-59.962 E100.28517
G0 F2040 X12.119 Y-59.652
G1 F1020 X23.318 Y-48.453 E100.89127
G1 X23.38 Y-48.391
G0 F2040 X23.971 Y-47.304
G1 F1020 X11.934 Y-59.341 E101.54273
G0 F2040 X11.749 Y-59.031
G1 F1020 X24.624 Y-46.157 E102.23952
G1 X24.686 Y-46.095
G0 F2040 X25.277 Y-45.008
G1 F1020 X11.565 Y-58.72 E102.98163
G0 F2040 X11.38 Y-58.41
G1 F1020 X25.931 Y-43.86 E103.76912
G1 X25.993 Y-43.798
G0 F2040 X26.583 Y-42.712
G1 F1020 X11.196 Y-58.1 E104.60191
G0 F2040 X11.011 Y-57.789
G1 F1020 X27.237 Y-41.564 E105.48005
G1 X27.299 Y-41.502
G0 F2040 X27.89 Y-40.416
G1 F1020 X10.827 Y-57.479 E106.40352
G0 F2040 X10.642 Y-57.168
G1 F1020 X28.543 Y-39.267 E107.37235
G1 X28.605 Y-39.205
G0 F2040 X29.196 Y-38.12
G1 F1020 X10.458 Y-56.858 E108.38647
G0 F2040 X10.273 Y-56.548
G1 F1020 X29.849 Y-36.971 E109.44598
G1 X29.911 Y-36.909
G0 F2040 X30.503 Y-35.823
G1 F1020 X10.088 Y-56.237 E110.55084
G0 F2040 X9.904 Y-55.927
G1 F1020 X31.155 Y-34.675 E111.701
G1 X31.217 Y-34.613
G0 F2040 X31.809 Y-33.527
G1 F1020 X9.719 Y-55.616 E112.89651
G0 F2040 X9.535 Y-55.306
G1 F1020 X32.462 Y-32.379 E114.13735
G1 X32.524 Y-32.317
G0 F2040 X33.115 Y-31.231
G1 F1020 X9.35 Y-54.995 E115.42351
G0 F2040 X9.166 Y-54.685
G1 F1020 X33.768 Y-30.083 E116.755
G1 X33.83 Y-30.021
G0 F2040 X34.421 Y-28.934
G1 F1020 X8.981 Y-54.375 E118.13188
G0 F2040 X8.797 Y-54.064
G1 F1020 X35.075 Y-27.786 E119.55407
G1 X35.137 Y-27.724
G0 F2040 X35.727 Y-26.638
G1 F1020 X8.612 Y-53.754 E121.0216
G0 F2040 X8.428 Y-53.443
G1 F1020 X36.381 Y-25.49 E122.53445
G1 X36.443 Y-25.428
G0 F2040 X37.034 Y-24.342
G1 F1020 X8.243 Y-53.133 E124.09266
G0 F2040 X8.058 Y-52.822
G1 F1020 X37.687 Y-23.194 E125.69619
G1 X37.749 Y-23.132
G0 F2040 X38.34 Y-22.046
G1 F1020 X7.874 Y-52.512 E127.34505
G0 F2040 X7.689 Y-52.202
G1 F1020 X38.994 Y-20.897 E129.03931
G1 X39.056 Y-20.835
G0 F2040 X39.646 Y-19.75
G1 F1020 X7.505 Y-51.891 E130.77883
G0 F2040 X7.32 Y-51.581
G1 F1020 X40.3 Y-18.601 E132.56375
G1 X40.362 Y-18.539
G0 F2040 X40.953 Y-17.453
G1 F1020 X7.136 Y-51.27 E134.39397
G0 F2040 X6.951 Y-50.96
G1 F1020 X41.606 Y-16.305 E136.26954
G1 X41.668 Y-16.243
G0 F2040 X42.259 Y-15.157
G1 F1020 X6.767 Y-50.65 E138.19044
G0 F2040 X6.582 Y-50.339
G1 F1020 X42.912 Y-14.009 E140.15666
G1 X42.974 Y-13.947
G0 F2040 X43.566 Y-12.86
G1 F1020 X6.397 Y-50.029 E142.1683
G0 F2040 X6.213 Y-49.718
G1 F1020 X44.218 Y-11.713 E144.22518
G1 X44.28 Y-11.651
G0 F2040 X44.872 Y-10.564
G1 F1020 X6.028 Y-49.408 E146.32746
G0 F2040 X5.844 Y-49.097
G1 F1020 X45.525 Y-9.416 E148.47505
G1 X45.587 Y-9.354
G0 F2040 X46.178 Y-8.268
G1 F1020 X5.659 Y-48.787 E150.66799
G0 F2040 X5.475 Y-48.477
G1 F1020 X46.831 Y-7.12 E152.90626
G1 X46.893 Y-7.058
G0 F2040 X47.485 Y-5.972
G1 F1020 X5.29 Y-48.166 E155.18988
G0 F2040 X5.106 Y-47.856
G1 F1020 X48.137 Y-4.824 E157.5188
G1 X48.199 Y-4.762
G0 F2040 X48.791 Y-3.676
G1 F1020 X4.921 Y-47.545 E159.89307
G0 F2040 X4.736 Y-47.235
G1 F1020 X49.444 Y-2.527 E162.31272
G1 X49.506 Y-2.465
G0 F2040 X50.097 Y-1.379
G1 F1020 X4.552 Y-46.925 E164.7777
G0 F2040 X4.367 Y-46.614
G1 F1020 X50.75 Y-.231 E167.28801
G1 X50.812 Y-.169
G0 F2040 X51.403 Y0.916
G1 F1020 X4.183 Y-46.304 E169.84362
G0 F2040 X3.998 Y-45.993
G1 F1020 X52.057 Y2.064 E172.44458
G1 X52.119 Y2.126
G0 F2040 X52.709 Y3.212
G1 F1020 X3.814 Y-45.683 E175.09084
G0 F2040 X3.629 Y-45.372
G1 F1020 X53.363 Y4.36 E177.78245
G1 X53.425 Y4.422
G0 F2040 X54.016 Y5.509
G1 F1020 X3.445 Y-45.062 E180.51942
G0 F2040 X3.261 Y-44.751
G1 F1020 X54.669 Y6.656 E183.30166
G1 X54.731 Y6.718
G0 F2040 X55.322 Y7.805
G1 F1020 X3.076 Y-44.44 E186.12925
G0 F2040 X2.892 Y-44.13
G1 F1020 X55.975 Y8.953 E189.00217
G1 X56.037 Y9.015
G0 F2040 X56.628 Y10.101
G1 F1020 X2.707 Y-43.82 E191.92044
G0 F2040 X2.522 Y-43.509
G1 F1020 X57.282 Y11.249 E194.88407
G1 X57.344 Y11.311
G0 F2040 X57.935 Y12.397
G1 F1020 X2.338 Y-43.199 E197.89302
G0 F2040 X2.153 Y-42.888
G1 F1020 X58.588 Y13.546 E200.94733
G1 X58.65 Y13.608
G0 F2040 X59.241 Y14.693
G1 F1020 X1.969 Y-42.578 E204.04694
G0 F2040 X1.784 Y-42.268
G1 F1020 X59.894 Y15.842 E207.19192
G1 X59.956 Y15.904
G0 F2040 X60.548 Y16.99
G1 F1020 X1.6 Y-41.957 E210.38224
G0 F2040 X1.415 Y-41.647
G1 F1020 X61.2 Y18.137 E213.61785
G1 X61.262 Y18.199
G0 F2040 X61.854 Y19.286
G1 F1020 X1.231 Y-41.336 E216.89882
G0 F2040 X1.046 Y-41.026
G1 F1020 X62.135 Y20.062 E220.205
G0 F2040 X61.64 Y20.062
G1 F1020 X0.861 Y-40.715 E223.49439
G0 F2040 X0.677 Y-40.405
G1 F1020 X61.145 Y20.062 E226.76697
G0 F2040 X60.65 Y20.062
G1 F1020 X0.492 Y-40.095 E230.02277
G0 F2040 X0.308 Y-39.784
G1 F1020 X60.155 Y20.062 E233.26173
G0 F2040 X59.66 Y20.062
G1 F1020 X0.123 Y-39.474 E236.48393
G0 F2040 X-0.06 Y-39.163
G1 F1020 X59.165 Y20.062 E239.68926
G0 F2040 X58.67 Y20.062
G1 F1020 X-.245 Y-38.853 E242.87781
G0 F2040 X-.429 Y-38.542
G1 F1020 X58.175 Y20.062 E246.04954
G0 F2040 X57.68 Y20.062
G1 F1020 X-.614 Y-38.232 E249.20448
G0 F2040 X-.799 Y-37.922
G1 F1020 X57.185 Y20.062 E252.34265
G0 F2040 X56.69 Y20.062
G1 F1020 X-.983 Y-37.611 E255.46399
G0 F2040 X-1.168 Y-37.301
G1 F1020 X56.195 Y20.062 E258.56854
G0 F2040 X55.7 Y20.062
G1 F1020 X-1.352 Y-36.99 E261.65627
G0 F2040 X-1.537 Y-36.68
G1 F1020 X55.205 Y20.062 E264.72722
G0 F2040 X54.71 Y20.062
G1 F1020 X-1.721 Y-36.37 E267.78137
G0 F2040 X-1.906 Y-36.059
G1 F1020 X54.215 Y20.062 E270.81871
G0 F2040 X53.721 Y20.062
G1 F1020 X-2.09 Y-35.749 E273.83927
G0 F2040 X-2.275 Y-35.438
G1 F1020 X53.226 Y20.062 E276.84303
G0 F2040 X52.731 Y20.062
G1 F1020 X-2.46 Y-35.128 E279.83001
G0 F2040 X-2.644 Y-34.817
G1 F1020 X52.236 Y20.062 E282.80015
G0 F2040 X51.741 Y20.062
G1 F1020 X-2.829 Y-34.507 E285.75353
G0 F2040 X-3.013 Y-34.197
G1 F1020 X51.246 Y20.062 E288.69009
G0 F2040 X50.751 Y20.062
G1 F1020 X-3.198 Y-33.886 E291.60985
G0 F2040 X-3.382 Y-33.576
G1 F1020 X50.256 Y20.062 E294.51281
G0 F2040 X49.761 Y20.062
G1 F1020 X-3.567 Y-33.265 E297.39896
G0 F2040 X-3.751 Y-32.955
G1 F1020 X49.266 Y20.062 E300.26831
G0 F2040 X48.771 Y20.062
G1 F1020 X-3.936 Y-32.644 E303.12085
G0 F2040 X-4.121 Y-32.334
G1 F1020 X48.276 Y20.062 E305.95662
G0 F2040 X47.781 Y20.062
G1 F1020 X-4.305 Y-32.024 E308.77558
G0 F2040 X-4.49 Y-31.713
G1 F1020 X47.286 Y20.062 E311.57774
G0 F2040 X46.791 Y20.062
G1 F1020 X-4.674 Y-31.403 E314.36309
G0 F2040 X-4.859 Y-31.092
G1 F1020 X46.296 Y20.062 E317.13163
G0 F2040 X45.801 Y20.062
G1 F1020 X-5.043 Y-30.782 E319.88338
G0 F2040 X-5.228 Y-30.472
G1 F1020 X45.306 Y20.062 E322.61834
G0 F2040 X44.811 Y20.062
