;FLAVOR:Marlin
;TIME:7982
;Filament used: 7.37453m
;Layer height: 0.2
;MINX:-40.638
;MINY:-72.647
;MINZ:0.26
;MAXX:72.874
;MAXY:24.259
;MAXZ:22.66
;Generated with Cura_SteamEngine 4.8.0
M82 ;absolute extrusion mode
;Gcode by Cura
G90
G28
M107
M109 R100
G30
M109 S215 U-55 X55 V-85 Y-85 W0.26 Z0.26
M82
G92 E0
G1 F200 E6
G92 E0
G1 F200 E-3.5
G0 Z0.15
G0 X10
G0 Z3
G1 F6000
G92 E0
G92 E0
G1 F3600 E-3.8
;LAYER_COUNT:113
;LAYER:0
M107
G0 F2040 X-35.441 Y24.259 Z0.26
;TYPE:SKIRT
G1 F3600 E0
G1 F1020 X-36.131 Y24.249 E0.02641
G1 X-36.734 Y24.2 E0.04956
G1 X-37.325 Y24.072 E0.0727
G1 X-37.894 Y23.868 E0.09584
G1 X-38.431 Y23.59 E0.11898
G1 X-38.927 Y23.243 E0.14214
G1 X-39.372 Y22.835 E0.16525
G1 X-39.76 Y22.371 E0.18839
G1 X-40.084 Y21.86 E0.21155
G1 X-40.337 Y21.311 E0.23468
G1 X-40.516 Y20.733 E0.25784
G1 X-40.616 Y20.137 E0.28097
G1 X-40.638 Y19.533 E0.3041
G1 X-40.579 Y18.931 E0.32725
G1 X-40.442 Y18.342 E0.35039
G1 X-40.228 Y17.777 E0.37351
G1 X-39.99 Y17.324 E0.39309
G1 X-39.657 Y16.785 E0.41734
G1 X16.277 Y-70.101 E4.37186
G1 X16.607 Y-70.601 E4.39478
G1 X16.972 Y-71.083 E4.41792
G1 X17.398 Y-71.512 E4.44106
G1 X17.877 Y-71.881 E4.4642
G1 X18.401 Y-72.184 E4.48736
G1 X18.959 Y-72.415 E4.51048
G1 X19.544 Y-72.57 E4.53364
G1 X20.143 Y-72.647 E4.55675
G1 X20.748 Y-72.645 E4.5799
G1 X21.347 Y-72.562 E4.60304
G1 X21.93 Y-72.401 E4.62619
G1 X22.486 Y-72.165 E4.64931
G1 X23.007 Y-71.858 E4.67245
G1 X23.483 Y-71.484 E4.69561
G1 X23.905 Y-71.051 E4.71875
G1 X24.402 Y-70.343 E4.75186
G1 X24.846 Y-69.56 E4.7863
G1 X72.007 Y16.888 E8.55491
G1 X72.347 Y17.531 E8.58275
G1 X72.594 Y18.083 E8.60589
G1 X72.766 Y18.663 E8.62904
G1 X72.86 Y19.261 E8.65221
G1 X72.874 Y19.865 E8.67533
G1 X72.808 Y20.466 E8.69847
G1 X72.664 Y21.053 E8.7216
G1 X72.443 Y21.616 E8.74475
G1 X72.151 Y22.145 E8.76787
G1 X71.791 Y22.631 E8.79102
G1 X71.37 Y23.065 E8.81415
G1 X70.895 Y23.44 E8.83732
G1 X70.375 Y23.749 E8.86046
G1 X69.819 Y23.986 E8.88359
G1 X69.237 Y24.149 E8.90672
G1 X68.379 Y24.244 E8.93976
G1 X67.459 Y24.259 E8.97497
G1 X-35.441 Y24.259 E12.91291
G0 F2040 X-35.436 Y23.909
G1 F1020 X-36.126 Y23.899 E12.93931
G1 X-36.705 Y23.85 E12.96155
G1 X-37.272 Y23.723 E12.98379
G1 X-37.816 Y23.519 E13.00602
G1 X-38.327 Y23.242 E13.02827
G1 X-38.795 Y22.898 E13.05049
G1 X-39.212 Y22.493 E13.07274
G1 X-39.569 Y22.035 E13.09496
G1 X-39.86 Y21.532 E13.1172
G1 X-40.079 Y20.994 E13.13943
G1 X-40.222 Y20.43 E13.1617
G1 X-40.286 Y19.853 E13.18392
G1 X-40.271 Y19.272 E13.20616
G1 X-40.176 Y18.699 E13.22839
G1 X-40.003 Y18.144 E13.25063
G1 X-39.69 Y17.504 E13.2779
G1 X-39.361 Y16.971 E13.30187
G1 X16.569 Y-69.908 E17.25608
G1 X16.899 Y-70.408 E17.27901
G1 X17.251 Y-70.87 E17.30123
G1 X17.664 Y-71.279 E17.32348
G1 X18.129 Y-71.628 E17.34573
G1 X18.637 Y-71.909 E17.36795
G1 X19.179 Y-72.118 E17.39018
G1 X19.745 Y-72.251 E17.41243
G1 X20.324 Y-72.305 E17.43468
G1 X20.904 Y-72.279 E17.4569
G1 X21.475 Y-72.173 E17.47912
G1 X22.027 Y-71.991 E17.50137
G1 X22.548 Y-71.734 E17.5236
G1 X23.029 Y-71.408 E17.54584
G1 X23.461 Y-71.019 E17.56808
G1 X23.835 Y-70.575 E17.5903
G1 X24.097 Y-70.17 E17.60876
G1 X24.539 Y-69.392 E17.643
G1 X71.698 Y17.052 E21.41144
G1 X72.038 Y17.695 E21.43928
G1 X72.274 Y18.226 E21.46151
G1 X72.434 Y18.785 E21.48377
G1 X72.517 Y19.36 E21.506
G1 X72.519 Y19.941 E21.52823
G1 X72.442 Y20.517 E21.55047
G1 X72.287 Y21.077 E21.57271
G1 X72.056 Y21.61 E21.59494
G1 X71.755 Y22.106 E21.61714
G1 X71.388 Y22.557 E21.6394
G1 X70.963 Y22.953 E21.66163
G1 X70.487 Y23.287 E21.68388
G1 X69.97 Y23.552 E21.70611
G1 X69.422 Y23.744 E21.72834
G1 X68.852 Y23.859 E21.75059
G1 X68.373 Y23.894 E21.76897
G1 X67.459 Y23.909 E21.80395
G1 X-35.436 Y23.909 E25.74169
G0 F2040 X-35.431 Y23.559
G1 F1020 X-36.121 Y23.549 E25.7681
G1 X-36.675 Y23.501 E25.78938
G1 X-37.217 Y23.374 E25.81069
G1 X-37.735 Y23.171 E25.83198
G1 X-38.219 Y22.895 E25.8533
G1 X-38.658 Y22.554 E25.87457
G1 X-39.044 Y22.153 E25.89587
G1 X-39.368 Y21.7 E25.91719
G1 X-39.624 Y21.206 E25.93848
G1 X-39.807 Y20.681 E25.95976
G1 X-39.913 Y20.135 E25.98104
G1 X-39.939 Y19.579 E26.00235
G1 X-39.885 Y19.025 E26.02365
G1 X-39.753 Y18.485 E26.04492
G1 X-39.545 Y17.969 E26.06621
G1 X-39.256 Y17.463 E26.08851
G1 X-39.043 Y17.124 E26.10383
G1 X16.861 Y-69.716 E30.05625
G1 X17.191 Y-70.216 E30.07918
G1 X17.53 Y-70.657 E30.10047
G1 X17.929 Y-71.045 E30.12176
G1 X18.379 Y-71.372 E30.14305
G1 X18.871 Y-71.631 E30.16433
G1 X19.396 Y-71.817 E30.18565
G1 X19.941 Y-71.926 E30.20692
G1 X20.497 Y-71.955 E30.22822
G1 X21.051 Y-71.905 E30.24951
G1 X21.592 Y-71.776 E30.27079
G1 X22.11 Y-71.571 E30.29211
G1 X22.592 Y-71.293 E30.31341
G1 X23.03 Y-70.95 E30.3347
G1 X23.414 Y-70.547 E30.356
G1 X23.793 Y-69.997 E30.38156
G1 X24.232 Y-69.225 E30.41555
G1 X71.389 Y17.216 E34.18385
G1 X71.729 Y17.859 E34.21168
G1 X71.953 Y18.368 E34.23297
G1 X72.102 Y18.904 E34.25426
G1 X72.172 Y19.456 E34.27555
G1 X72.163 Y20.012 E34.29683
G1 X72.074 Y20.562 E34.31815
G1 X71.907 Y21.093 E34.33946
G1 X71.667 Y21.594 E34.36072
G1 X71.356 Y22.056 E34.38203
G1 X70.983 Y22.469 E34.40333
G1 X70.555 Y22.824 E34.42461
G1 X70.08 Y23.114 E34.4459
G1 X69.568 Y23.333 E34.46722
G1 X69.031 Y23.476 E34.48848
G1 X68.367 Y23.544 E34.51403
G1 X67.459 Y23.559 E34.54878
G1 X-35.431 Y23.559 E38.48633
G0 F2040 X-35.426 Y23.209
G1 F1020 X-36.116 Y23.199 E38.51274
G1 X-36.645 Y23.151 E38.53307
G1 X-37.16 Y23.025 E38.55336
G1 X-37.651 Y22.822 E38.57369
G1 X-38.105 Y22.549 E38.59396
G1 X-38.514 Y22.21 E38.61429
G1 X-38.866 Y21.813 E38.6346
G1 X-39.156 Y21.369 E38.65489
G1 X-39.375 Y20.885 E38.67522
G1 X-39.52 Y20.375 E38.69551
G1 X-39.586 Y19.848 E38.71584
G1 X-39.572 Y19.318 E38.73613
G1 X-39.479 Y18.795 E38.75646
G1 X-39.308 Y18.293 E38.77675
G1 X-39.001 Y17.716 E38.80177
G1 X-38.749 Y17.314 E38.81992
G1 X17.153 Y-69.523 E42.7722
G1 X17.483 Y-70.023 E42.79513
G1 X17.808 Y-70.442 E42.81542
G1 X18.192 Y-70.808 E42.83572
G1 X18.627 Y-71.113 E42.85606
G1 X19.102 Y-71.348 E42.87634
G1 X19.608 Y-71.51 E42.89667
G1 X20.132 Y-71.594 E42.91698
G1 X20.662 Y-71.598 E42.93726
G1 X21.188 Y-71.523 E42.9576
G1 X21.696 Y-71.369 E42.97791
G1 X22.175 Y-71.141 E42.99821
G1 X22.614 Y-70.844 E43.0185
G1 X23.004 Y-70.484 E43.03881
G1 X23.336 Y-70.069 E43.05915
G1 X23.489 Y-69.824 E43.0702
G1 X23.924 Y-69.057 E43.10395
G1 X71.079 Y17.379 E46.87204
G1 X71.419 Y18.022 E46.89988
G1 X71.631 Y18.509 E46.9202
G1 X71.768 Y19.021 E46.94049
G1 X71.826 Y19.549 E46.96081
G1 X71.804 Y20.079 E46.98111
G1 X71.703 Y20.6 E47.00142
G1 X71.525 Y21.1 E47.02174
G1 X71.274 Y21.567 E47.04203
G1 X70.955 Y21.992 E47.06236
G1 X70.577 Y22.364 E47.08266
G1 X70.147 Y22.675 E47.10297
G1 X69.675 Y22.917 E47.12327
G1 X69.172 Y23.086 E47.14357
G1 X68.649 Y23.178 E47.1639
G1 X68.361 Y23.195 E47.17494
G1 X67.517 Y23.209 E47.20724
G1 X-35.426 Y23.209 E51.14682
G0 F2040 X-35.421 Y22.859
G1 F1020 X-36.111 Y22.849 E51.17323
G1 X-36.612 Y22.801 E51.19249
G1 X-37.1 Y22.676 E51.21177
G1 X-37.562 Y22.474 E51.23106
G1 X-37.985 Y22.202 E51.25031
G1 X-38.361 Y21.867 E51.26958
G1 X-38.679 Y21.476 E51.28887
G1 X-38.931 Y21.04 E51.30814
G1 X-39.111 Y20.57 E51.3274
G1 X-39.214 Y20.077 E51.34668
G1 X-39.238 Y19.574 E51.36595
G1 X-39.183 Y19.074 E51.3852
G1 X-39.049 Y18.588 E51.40449
G1 X-38.789 Y18.043 E51.4276
G1 X-38.472 Y17.531 E51.45064
G1 X17.425 Y-69.3 E55.40263
G1 X17.775 Y-69.83 E55.42693
G1 X18.085 Y-70.227 E55.44621
G1 X18.454 Y-70.57 E55.46549
G1 X18.872 Y-70.85 E55.48474
G1 X19.329 Y-71.061 E55.50401
G1 X19.814 Y-71.197 E55.52328
G1 X20.315 Y-71.254 E55.54258
G1 X20.818 Y-71.232 E55.56185
G1 X21.311 Y-71.13 E55.58112
G1 X21.782 Y-70.951 E55.6004
G1 X22.219 Y-70.701 E55.61967
G1 X22.61 Y-70.384 E55.63893
G1 X22.947 Y-70.01 E55.65819
G1 X23.185 Y-69.651 E55.67468
G1 X23.617 Y-68.89 E55.70817
G1 X70.77 Y17.543 E59.47613
G1 X71.11 Y18.186 E59.50396
G1 X71.309 Y18.648 E59.52321
G1 X71.433 Y19.136 E59.54248
G1 X71.478 Y19.638 E59.56177
G1 X71.443 Y20.14 E59.58103
G1 X71.329 Y20.631 E59.60032
G1 X71.139 Y21.097 E59.61958
G1 X70.878 Y21.528 E59.63886
G1 X70.552 Y21.912 E59.65814
G1 X70.169 Y22.239 E59.67741
G1 X69.739 Y22.502 E59.6967
G1 X69.274 Y22.693 E59.71594
G1 X68.783 Y22.808 E59.73524
G1 X68.356 Y22.845 E59.75164
G1 X67.512 Y22.859 E59.78394
G1 X-35.421 Y22.859 E63.72314
G1 F3600 E59.92314
;MESH:support_tri_0_093.stl
G0 F2040 X-35.38 Y20.349
G0 X-35.38 Y19.324
G0 X67.437 Y19.159
;TYPE:WALL-INNER
G1 F3600 E63.72314
G1 F1020 X-35.12 Y19.159 E67.64795
G1 X20.392 Y-67.074 E71.57271
G1 X67.437 Y19.159 E75.33197
G0 F2040 X67.984 Y19.484
;TYPE:WALL-OUTER
G1 F1020 X-35.716 Y19.484 E79.30052
G1 X20.415 Y-67.71 E83.26903
G1 X67.984 Y19.484 E87.07018
G0 F2040 X67.784 Y19.484
G0 X67.647 Y19.283
G0 X66.864 Y18.819
;TYPE:SKIN
G1 F1020 X-34.496 Y18.819 E90.94918
G1 X20.367 Y-66.408 E94.82813
G1 X66.864 Y18.819 E98.54355
G0 F2040 X20.226 Y-65.899
G1 F1020 X20.749 Y-65.376 E98.57185
G1 X20.811 Y-65.314
G0 F2040 X20.032 Y-65.598
G1 F1020 X21.343 Y-64.287 E98.6428
G1 X21.405 Y-64.225
G0 F2040 X21.937 Y-63.198
G1 F1020 X19.838 Y-65.297 E98.7564
G0 F2040 X19.644 Y-64.996
G1 F1020 X22.531 Y-62.108 E98.91268
G1 X22.593 Y-62.046
G0 F2040 X23.125 Y-61.019
G1 F1020 X19.45 Y-64.695 E99.1116
G0 F2040 X19.256 Y-64.394
G1 F1020 X23.72 Y-59.93 E99.3532
G1 X23.782 Y-59.868
G0 F2040 X24.314 Y-58.841
G1 F1020 X19.062 Y-64.092 E99.63742
G0 F2040 X18.869 Y-63.791
G1 F1020 X24.908 Y-57.752 E99.96426
G1 X24.97 Y-57.69
G0 F2040 X25.503 Y-56.662
G1 F1020 X18.675 Y-63.49 E100.3338
G0 F2040 X18.481 Y-63.189
G1 F1020 X26.097 Y-55.573 E100.74598
G1 X26.159 Y-55.511
G0 F2040 X26.691 Y-54.483
G1 F1020 X18.287 Y-62.888 E101.20085
G0 F2040 X18.093 Y-62.587
G1 F1020 X27.285 Y-53.395 E101.69833
G1 X27.347 Y-53.333
G0 F2040 X27.879 Y-52.306
G1 F1020 X17.899 Y-62.286 E102.23846
G0 F2040 X17.705 Y-61.984
G1 F1020 X28.474 Y-51.216 E102.82126
G1 X28.536 Y-51.154
G0 F2040 X29.068 Y-50.127
G1 F1020 X17.512 Y-61.683 E103.44669
G0 F2040 X17.318 Y-61.382
G1 F1020 X29.663 Y-49.037 E104.11482
G1 X29.725 Y-48.975
G0 F2040 X30.257 Y-47.948
G1 F1020 X17.124 Y-61.081 E104.82559
G0 F2040 X16.93 Y-60.78
G1 F1020 X30.851 Y-46.859 E105.57901
G1 X30.913 Y-46.797
G0 F2040 X31.445 Y-45.77
G1 F1020 X16.736 Y-60.479 E106.37508
G0 F2040 X16.542 Y-60.178
G1 F1020 X32.039 Y-44.681 E107.2138
G1 X32.101 Y-44.619
G0 F2040 X32.634 Y-43.591
G1 F1020 X16.349 Y-59.877 E108.09519
G0 F2040 X16.155 Y-59.575
G1 F1020 X33.228 Y-42.502 E109.01921
G1 X33.29 Y-42.44
G0 F2040 X33.823 Y-41.413
G1 F1020 X15.961 Y-59.274 E109.98589
G0 F2040 X15.767 Y-58.973
G1 F1020 X34.417 Y-40.324 E110.99523
G1 X34.479 Y-40.262
G0 F2040 X35.01 Y-39.235
G1 F1020 X15.574 Y-58.672 E112.04716
G0 F2040 X15.379 Y-58.371
G1 F1020 X35.605 Y-38.145 E113.14181
G1 X35.667 Y-38.083
G0 F2040 X36.199 Y-37.056
G1 F1020 X15.185 Y-58.07 E114.27912
G0 F2040 X14.992 Y-57.769
G1 F1020 X36.794 Y-35.966 E115.4591
G1 X36.856 Y-35.904
G0 F2040 X37.388 Y-34.878
G1 F1020 X14.798 Y-57.467 E116.68167
G0 F2040 X14.604 Y-57.166
G1 F1020 X37.982 Y-33.789 E117.94689
G1 X38.044 Y-33.727
G0 F2040 X38.576 Y-32.699
G1 F1020 X14.41 Y-56.865 E119.25478
G0 F2040 X14.217 Y-56.564
G1 F1020 X39.17 Y-31.61 E120.6053
G1 X39.232 Y-31.548
G0 F2040 X39.765 Y-30.52
G1 F1020 X14.022 Y-56.263 E121.99854
G0 F2040 X13.828 Y-55.962
G1 F1020 X40.359 Y-29.431 E123.43443
G1 X40.421 Y-29.369
G0 F2040 X40.953 Y-28.342
G1 F1020 X13.635 Y-55.661 E124.91295
G0 F2040 X13.441 Y-55.36
G1 F1020 X41.548 Y-27.253 E126.43413
G1 X41.61 Y-27.191
G0 F2040 X42.142 Y-26.164
G1 F1020 X13.247 Y-55.058 E127.99794
G0 F2040 X13.053 Y-54.757
G1 F1020 X42.736 Y-25.074 E129.60442
G1 X42.798 Y-25.012
G0 F2040 X43.33 Y-23.985
G1 F1020 X12.86 Y-54.456 E131.25352
G0 F2040 X12.665 Y-54.155
G1 F1020 X43.924 Y-22.896 E132.9453
G1 X43.986 Y-22.834
G0 F2040 X44.519 Y-21.807
G1 F1020 X12.471 Y-53.854 E134.67975
G0 F2040 X12.278 Y-53.553
G1 F1020 X45.113 Y-20.718 E136.45682
G1 X45.175 Y-20.656
G0 F2040 X45.708 Y-19.628
G1 F1020 X12.084 Y-53.252 E138.2766
G0 F2040 X11.89 Y-52.95
G1 F1020 X46.302 Y-18.539 E140.13899
G1 X46.364 Y-18.477
G0 F2040 X46.896 Y-17.45
G1 F1020 X11.696 Y-52.649 E142.04403
G0 F2040 X11.503 Y-52.348
G1 F1020 X47.49 Y-16.361 E143.9917
G1 X47.552 Y-16.299
G0 F2040 X48.084 Y-15.272
G1 F1020 X11.309 Y-52.047 E145.98201
G0 F2040 X11.115 Y-51.746
G1 F1020 X48.679 Y-14.182 E148.01502
G1 X48.741 Y-14.12
G0 F2040 X49.273 Y-13.093
G1 F1020 X10.921 Y-51.445 E150.09068
G0 F2040 X10.727 Y-51.144
G1 F1020 X49.867 Y-12.004 E152.20898
G1 X49.929 Y-11.942
G0 F2040 X50.461 Y-10.914
G1 F1020 X10.533 Y-50.843 E154.36996
G0 F2040 X10.34 Y-50.541
G1 F1020 X51.055 Y-9.825 E156.57354
G1 X51.117 Y-9.763
G0 F2040 X51.65 Y-8.736
G1 F1020 X10.146 Y-50.24 E158.81979
G0 F2040 X9.952 Y-49.939
G1 F1020 X52.244 Y-7.647 E161.10869
G1 X52.306 Y-7.585
G0 F2040 X52.838 Y-6.558
G1 F1020 X9.758 Y-49.638 E163.44023
G0 F2040 X9.564 Y-49.337
G1 F1020 X53.433 Y-5.468 E165.81448
G1 X53.495 Y-5.406
G0 F2040 X54.027 Y-4.379
G1 F1020 X9.37 Y-49.036 E168.23137
G0 F2040 X9.176 Y-48.735
G1 F1020 X54.621 Y-3.29 E170.69091
G1 X54.683 Y-3.228
G0 F2040 X55.215 Y-2.201
G1 F1020 X8.983 Y-48.433 E173.19305
G0 F2040 X8.789 Y-48.132
G1 F1020 X55.81 Y-1.111 E175.73788
G1 X55.872 Y-1.049
G0 F2040 X56.404 Y-0.022
G1 F1020 X8.595 Y-47.831 E178.32537
G0 F2040 X8.401 Y-47.531
G1 F1020 X56.998 Y1.066 E180.9555
G1 X57.06 Y1.128
G0 F2040 X57.593 Y2.155
G1 F1020 X8.207 Y-47.229 E183.62828
G0 F2040 X8.013 Y-46.928
G1 F1020 X58.187 Y3.244 E186.3437
G1 X58.249 Y3.306
G0 F2040 X58.781 Y4.334
G1 F1020 X7.819 Y-46.627 E189.10181
G0 F2040 X7.626 Y-46.326
G1 F1020 X59.375 Y5.423 E191.90253
G1 X59.437 Y5.485
G0 F2040 X59.969 Y6.512
G1 F1020 X7.432 Y-46.024 E194.74587
G0 F2040 X7.238 Y-45.723
G1 F1020 X60.564 Y7.602 E197.63191
G1 X60.626 Y7.664
G0 F2040 X61.158 Y8.691
G1 F1020 X7.044 Y-45.422 E200.5606
G0 F2040 X6.85 Y-45.121
G1 F1020 X61.753 Y9.78 E203.53197
G1 X61.815 Y9.842
G0 F2040 X62.347 Y10.869
G1 F1020 X6.656 Y-44.82 E206.54598
G0 F2040 X6.462 Y-44.519
G1 F1020 X62.94 Y11.958 E209.60262
G1 X63.002 Y12.02
G0 F2040 X63.535 Y13.048
G1 F1020 X6.269 Y-44.218 E212.70193
G0 F2040 X6.075 Y-43.916
G1 F1020 X64.129 Y14.137 E215.84386
G1 X64.191 Y14.199
G0 F2040 X64.724 Y15.226
G1 F1020 X5.881 Y-43.615 E219.02846
G0 F2040 X5.687 Y-43.314
G1 F1020 X65.318 Y16.315 E222.25571
G1 X65.38 Y16.377
G0 F2040 X65.912 Y17.404
G1 F1020 X5.493 Y-43.014 E225.52564
G0 F2040 X5.299 Y-42.712
G1 F1020 X66.506 Y18.494 E228.83821
G0 F2040 X66.179 Y18.661
G1 F1020 X5.106 Y-42.411 E232.14353
G0 F2040 X4.912 Y-42.11
G1 F1020 X65.684 Y18.661 E235.43257
G0 F2040 X65.189 Y18.661
G1 F1020 X4.718 Y-41.809 E238.70531
G0 F2040 X4.524 Y-41.507
G1 F1020 X64.694 Y18.661 E241.96173
G0 F2040 X64.199 Y18.661
G1 F1020 X4.331 Y-41.206 E245.20183
G0 F2040 X4.137 Y-40.905
G1 F1020 X63.704 Y18.661 E248.42565
G0 F2040 X63.209 Y18.661
G1 F1020 X3.942 Y-40.604 E251.6332
G0 F2040 X3.749 Y-40.303
G1 F1020 X62.714 Y18.661 E254.82443
G0 F2040 X62.219 Y18.661
G1 F1020 X3.555 Y-40.002 E257.99938
G0 F2040 X3.361 Y-39.701
G1 F1020 X61.724 Y18.661 E261.15803
G0 F2040 X61.229 Y18.661
G1 F1020 X3.167 Y-39.399 E264.30037
G0 F2040 X2.974 Y-39.098
G1 F1020 X60.734 Y18.661 E267.42638
G0 F2040 X60.239 Y18.661
G1 F1020 X2.78 Y-38.797 E270.53611
G0 F2040 X2.585 Y-38.497
G1 F1020 X59.744 Y18.661 E273.6296
G0 F2040 X59.249 Y18.661
G1 F1020 X2.392 Y-38.195 E276.70675
G0 F2040 X2.198 Y-37.894
G1 F1020 X58.754 Y18.661 E279.7676
G0 F2040 X58.259 Y18.661
G1 F1020 X2.004 Y-37.593 E282.81217
G0 F2040 X1.81 Y-37.292
G1 F1020 X57.764 Y18.661 E285.84044
G0 F2040 X57.269 Y18.661
G1 F1020 X1.617 Y-36.99 E288.85237
G0 F2040 X1.423 Y-36.689
G1 F1020 X56.775 Y18.661 E291.84804
G0 F2040 X56.28 Y18.661
G1 F1020 X1.228 Y-36.389 E294.82747
G0 F2040 X1.035 Y-36.087
G1 F1020 X55.785 Y18.661 E297.79056
G0 F2040 X55.29 Y18.661
G1 F1020 X0.841 Y-35.786 E300.73735
G0 F2040 X0.647 Y-35.485
G1 F1020 X54.795 Y18.661 E303.66786
G0 F2040 X54.3 Y18.661
G1 F1020 X0.453 Y-35.184 E306.58207
G0 F2040 X0.26 Y-34.882
G1 F1020 X53.805 Y18.661 E309.47994
G0 F2040 X53.31 Y18.661
G1 F1020 X0.066 Y-34.581 E312.36152
G0 F2040 X-.127 Y-34.28
G1 F1020 X52.815 Y18.661 E315.22678
