;FLAVOR:Marlin
;TIME:6259
;Filament used: 7.94465m
;Layer height: 0.3
;MINX:-54.15
;MINY:-47.259
;MINZ:0.26
;MAXX:55.737
;MAXY:48.696
;MAXZ:23.66
;Generated with Cura_SteamEngine 4.9.1
M82 ;absolute extrusion mode
;Gcode by Cura
G90
G28
M107
M109 R100
G30
M109 S215 U-55 X55 V-85 Y-85 W0.26 Z0.26
M82
G92 E0
G1 F200 E6
G92 E0
G1 F200 E-3.5
G0 Z0.15
G0 X10
G0 Z3
G1 F6000
G92 E0
G92 E0
G1 F3600 E-3.8
;LAYER_COUNT:79
;LAYER:0
M107
G0 F2040 X-2.7 Y45.912 Z0.26
;TYPE:SKIRT
G1 F3600 E0
G1 F1020 X-53.213 Y-39.811 E3.80777
G1 X-53.548 Y-40.398 E3.83363
G1 X-53.813 Y-40.942 E3.85679
G1 X-54.003 Y-41.516 E3.87993
G1 X-54.116 Y-42.11 E3.90307
G1 X-54.15 Y-42.714 E3.92622
G1 X-54.103 Y-43.317 E3.94937
G1 X-53.978 Y-43.908 E3.97248
G1 X-53.776 Y-44.478 E3.99563
G1 X-53.5 Y-45.016 E4.01877
G1 X-53.156 Y-45.513 E4.0419
G1 X-52.749 Y-45.961 E4.06506
G1 X-52.287 Y-46.35 E4.08818
G1 X-51.777 Y-46.676 E4.11134
G1 X-51.229 Y-46.931 E4.13447
G1 X-50.652 Y-47.112 E4.15761
G1 X-50.057 Y-47.216 E4.18073
G1 X-49.661 Y-47.24 E4.19591
G1 X-48.613 Y-47.259 E4.23603
G1 X50.54 Y-47.259 E8.03056
G1 X51.23 Y-47.249 E8.05697
G1 X51.833 Y-47.2 E8.08012
G1 X52.424 Y-47.072 E8.10327
G1 X52.993 Y-46.868 E8.1264
G1 X53.53 Y-46.59 E8.14954
G1 X54.026 Y-46.243 E8.17271
G1 X54.471 Y-45.835 E8.19581
G1 X54.859 Y-45.371 E8.21896
G1 X55.183 Y-44.86 E8.24211
G1 X55.436 Y-44.311 E8.26525
G1 X55.615 Y-43.733 E8.2884
G1 X55.715 Y-43.137 E8.31153
G1 X55.737 Y-42.533 E8.33466
G1 X55.678 Y-41.931 E8.35781
G1 X55.541 Y-41.342 E8.38095
G1 X55.277 Y-40.67 E8.40858
G1 X55.145 Y-40.414 E8.4196
G1 X54.83 Y-39.848 E8.44439
G1 X5.874 Y45.825 E12.2206
G1 X5.503 Y46.452 E12.24848
G1 X5.162 Y46.951 E12.27161
G1 X4.757 Y47.4 E12.29475
G1 X4.297 Y47.792 E12.31788
G1 X3.789 Y48.12 E12.34102
G1 X3.243 Y48.379 E12.36415
G1 X2.667 Y48.563 E12.38729
G1 X2.071 Y48.669 E12.41045
G1 X1.467 Y48.696 E12.43359
G1 X0.865 Y48.643 E12.45672
G1 X0.275 Y48.511 E12.47986
G1 X-.293 Y48.302 E12.50302
G1 X-.828 Y48.021 E12.52614
G1 X-1.321 Y47.671 E12.54928
G1 X-1.764 Y47.259 E12.57243
G1 X-2.148 Y46.793 E12.59554
G1 X-2.343 Y46.498 E12.60908
G1 X-2.7 Y45.912 E12.63534
G0 F2040 X-2.398 Y45.734
G1 F1020 X-52.909 Y-39.985 E16.44293
G1 X-53.244 Y-40.572 E16.4688
G1 X-53.497 Y-41.095 E16.49103
G1 X-53.676 Y-41.648 E16.51328
G1 X-53.776 Y-42.22 E16.5355
G1 X-53.798 Y-42.801 E16.55775
G1 X-53.739 Y-43.379 E16.57998
G1 X-53.602 Y-43.944 E16.60223
G1 X-53.389 Y-44.484 E16.62445
G1 X-53.103 Y-44.99 E16.64669
G1 X-52.751 Y-45.452 E16.66892
G1 X-52.339 Y-45.862 E16.69116
G1 X-51.874 Y-46.211 E16.71341
G1 X-51.366 Y-46.492 E16.73563
G1 X-50.824 Y-46.702 E16.75787
G1 X-50.259 Y-46.835 E16.78009
G1 X-49.654 Y-46.89 E16.80334
G1 X-48.613 Y-46.909 E16.84318
G1 X50.535 Y-46.909 E20.63753
G1 X51.225 Y-46.899 E20.66394
G1 X51.804 Y-46.85 E20.68617
G1 X52.371 Y-46.723 E20.70841
G1 X52.915 Y-46.519 E20.73064
G1 X53.426 Y-46.242 E20.75289
G1 X53.894 Y-45.898 E20.77512
G1 X54.311 Y-45.493 E20.79736
G1 X54.668 Y-45.035 E20.81959
G1 X54.959 Y-44.532 E20.84182
G1 X55.178 Y-43.994 E20.86405
G1 X55.321 Y-43.43 E20.88632
G1 X55.385 Y-42.853 E20.90854
G1 X55.37 Y-42.272 E20.93078
G1 X55.275 Y-41.699 E20.95301
G1 X55.102 Y-41.144 E20.97526
G1 X54.839 Y-40.584 E20.99893
G1 X54.526 Y-40.022 E21.02355
G1 X5.573 Y45.647 E24.79957
G1 X5.202 Y46.274 E24.82745
G1 X4.873 Y46.752 E24.84965
G1 X4.48 Y47.181 E24.87192
G1 X4.033 Y47.552 E24.89415
G1 X3.539 Y47.858 E24.91639
G1 X3.008 Y48.093 E24.93861
G1 X2.45 Y48.254 E24.96084
G1 X1.874 Y48.336 E24.9831
G1 X1.293 Y48.338 E25.00534
G1 X0.718 Y48.261 E25.02754
G1 X0.158 Y48.105 E25.04978
G1 X-.375 Y47.875 E25.072
G1 X-.872 Y47.573 E25.09426
G1 X-1.322 Y47.206 E25.11648
G1 X-1.718 Y46.78 E25.13874
G1 X-2.044 Y46.317 E25.16041
G1 X-2.398 Y45.734 E25.18651
G0 F2040 X-2.096 Y45.556
G1 F1020 X-52.606 Y-40.158 E28.99392
G1 X-52.941 Y-40.745 E29.01979
G1 X-53.181 Y-41.247 E29.04108
G1 X-53.347 Y-41.778 E29.06237
G1 X-53.435 Y-42.328 E29.08369
G1 X-53.444 Y-42.884 E29.10497
G1 X-53.373 Y-43.436 E29.12627
G1 X-53.223 Y-43.972 E29.14757
G1 X-52.999 Y-44.481 E29.16885
G1 X-52.704 Y-44.952 E29.19012
G1 X-52.344 Y-45.377 E29.21143
G1 X-51.927 Y-45.746 E29.23274
G1 X-51.462 Y-46.051 E29.25403
G1 X-50.957 Y-46.286 E29.27534
G1 X-50.425 Y-46.447 E29.29661
G1 X-49.647 Y-46.54 E29.3266
G1 X-48.613 Y-46.559 E29.36618
G1 X50.53 Y-46.559 E33.16033
G1 X51.22 Y-46.549 E33.18674
G1 X51.774 Y-46.501 E33.20802
G1 X52.316 Y-46.374 E33.22932
G1 X52.834 Y-46.171 E33.25062
G1 X53.318 Y-45.895 E33.27194
G1 X53.757 Y-45.554 E33.29321
G1 X54.143 Y-45.153 E33.31451
G1 X54.467 Y-44.7 E33.33583
G1 X54.723 Y-44.206 E33.35712
G1 X54.906 Y-43.681 E33.3784
G1 X55.012 Y-43.135 E33.39968
G1 X55.038 Y-42.579 E33.42098
G1 X54.984 Y-42.025 E33.44228
G1 X54.852 Y-41.485 E33.46356
G1 X54.648 Y-40.977 E33.48451
G1 X54.533 Y-40.754 E33.49411
G1 X54.222 Y-40.195 E33.51859
G1 X5.272 Y45.468 E37.29435
G1 X4.901 Y46.095 E37.32223
G1 X4.584 Y46.553 E37.34355
G1 X4.205 Y46.96 E37.36483
G1 X3.771 Y47.308 E37.38612
G1 X3.292 Y47.591 E37.40741
G1 X2.777 Y47.803 E37.42872
G1 X2.238 Y47.938 E37.44999
G1 X1.684 Y47.995 E37.4713
G1 X1.128 Y47.972 E37.4926
G1 X0.581 Y47.87 E37.51389
G1 X0.055 Y47.69 E37.53517
G1 X-.441 Y47.437 E37.55648
G1 X-.895 Y47.115 E37.57778
G1 X-1.298 Y46.732 E37.59905
G1 X-1.745 Y46.135 E37.6276
G1 X-2.096 Y45.556 E37.65351
G0 F2040 X-1.795 Y45.379
G1 F1020 X-52.302 Y-40.332 E41.46076
G1 X-52.637 Y-40.919 E41.48663
G1 X-52.864 Y-41.398 E41.50691
G1 X-53.017 Y-41.906 E41.52722
G1 X-53.092 Y-42.432 E41.54755
G1 X-53.088 Y-42.962 E41.56783
G1 X-53.003 Y-43.486 E41.58815
G1 X-52.841 Y-43.992 E41.60848
G1 X-52.605 Y-44.467 E41.62878
G1 X-52.301 Y-44.901 E41.64906
G1 X-51.934 Y-45.285 E41.66939
G1 X-51.514 Y-45.61 E41.68971
G1 X-51.05 Y-45.867 E41.71001
G1 X-50.553 Y-46.053 E41.73032
G1 X-50.034 Y-46.161 E41.7506
G1 X-49.641 Y-46.19 E41.76568
G1 X-48.613 Y-46.209 E41.80503
G1 X50.525 Y-46.209 E45.599
G1 X51.215 Y-46.199 E45.6254
G1 X51.744 Y-46.151 E45.64573
G1 X52.259 Y-46.025 E45.66602
G1 X52.75 Y-45.822 E45.68636
G1 X53.204 Y-45.549 E45.70663
G1 X53.613 Y-45.21 E45.72696
G1 X53.965 Y-44.813 E45.74726
G1 X54.255 Y-44.369 E45.76756
G1 X54.474 Y-43.885 E45.78789
G1 X54.619 Y-43.375 E45.80818
G1 X54.685 Y-42.848 E45.82851
G1 X54.671 Y-42.318 E45.8488
G1 X54.578 Y-41.795 E45.86912
G1 X54.333 Y-41.13 E45.89625
G1 X54.227 Y-40.924 E45.90511
G1 X53.919 Y-40.369 E45.9294
G1 X4.971 Y45.29 E49.70499
G1 X4.6 Y45.917 E49.73287
G1 X4.296 Y46.352 E49.75318
G1 X3.93 Y46.737 E49.77351
G1 X3.511 Y47.062 E49.7938
G1 X3.048 Y47.321 E49.81411
G1 X2.551 Y47.507 E49.83442
G1 X2.031 Y47.616 E49.85475
G1 X1.502 Y47.646 E49.87502
G1 X0.973 Y47.597 E49.89536
G1 X0.458 Y47.468 E49.91567
G1 X-0.032 Y47.264 E49.93599
G1 X-.485 Y46.989 E49.95627
G1 X-.892 Y46.648 E49.97659
G1 X-1.244 Y46.251 E49.99689
G1 X-1.446 Y45.953 E50.01067
G1 X-1.795 Y45.379 E50.03638
G0 F2040 X-1.493 Y45.201
G1 F1020 X-51.998 Y-40.505 E53.84343
G1 X-52.333 Y-41.092 E53.86929
G1 X-52.547 Y-41.548 E53.88857
G1 X-52.686 Y-42.032 E53.90784
G1 X-52.747 Y-42.532 E53.92712
G1 X-52.728 Y-43.035 E53.94638
G1 X-52.63 Y-43.529 E53.96566
G1 X-52.456 Y-44.001 E53.98491
G1 X-52.208 Y-44.44 E54.0042
G1 X-51.895 Y-44.834 E54.02346
G1 X-51.523 Y-45.173 E54.04272
G1 X-51.102 Y-45.45 E54.06201
G1 X-50.642 Y-45.656 E54.0813
G1 X-50.156 Y-45.787 E54.10056
G1 X-49.634 Y-45.84 E54.12064
G1 X-48.613 Y-45.859 E54.15972
G1 X50.52 Y-45.859 E57.95349
G1 X51.21 Y-45.849 E57.9799
G1 X51.711 Y-45.801 E57.99916
G1 X52.199 Y-45.676 E58.01844
G1 X52.661 Y-45.474 E58.03774
G1 X53.084 Y-45.202 E58.05698
G1 X53.46 Y-44.867 E58.07625
G1 X53.778 Y-44.476 E58.09554
G1 X54.03 Y-44.04 E58.11481
G1 X54.21 Y-43.57 E58.13407
G1 X54.313 Y-43.077 E58.15335
G1 X54.337 Y-42.574 E58.17262
G1 X54.282 Y-42.074 E58.19187
G1 X54.148 Y-41.588 E58.21116
G1 X53.921 Y-41.094 E58.23197
G1 X53.615 Y-40.543 E58.25609
G1 X4.669 Y45.112 E62.03151
G1 X4.298 Y45.739 E62.05939
G1 X4.008 Y46.151 E62.07867
G1 X3.657 Y46.511 E62.09791
G1 X3.253 Y46.812 E62.11719
G1 X2.806 Y47.045 E62.13648
G1 X2.329 Y47.204 E62.15572
G1 X1.832 Y47.286 E62.175
G1 X1.328 Y47.288 E62.19429
G1 X0.831 Y47.211 E62.21353
G1 X0.352 Y47.056 E62.2328
G1 X-0.097 Y46.827 E62.25209
G1 X-.504 Y46.53 E62.27137
G1 X-.858 Y46.172 E62.29064
G1 X-1.147 Y45.771 E62.30956
G1 X-1.493 Y45.201 E62.33507
G1 F3600 E58.53507
;MESH:support_tri_0_017.stl
G0 F2040 X0.67 Y43.927
G0 X1.545 Y43.411
G0 X1.56 Y43.094
;TYPE:WALL-INNER
G1 F3600 E62.33507
G1 F1020 X-48.678 Y-42.159 E66.122
G1 X50.276 Y-42.159 E69.90893
G1 X1.56 Y43.094 E73.66662
G0 F2040 X1.564 Y43.741
;TYPE:WALL-OUTER
G1 F1020 X-49.247 Y-42.484 E77.49673
G1 X50.836 Y-42.484 E81.32686
G1 X1.564 Y43.741 E85.1274
G0 F2040 X1.463 Y43.569
G0 X1.563 Y43.342
G0 X1.556 Y42.416
;TYPE:SKIN
G1 F1020 X-48.082 Y-41.819 E88.86911
G1 X49.69 Y-41.819 E92.6108
G1 X1.556 Y42.416 E96.32362
G0 F2040 X1.72 Y41.813
G1 F1020 X0.9 Y40.993 E96.36799
G1 X0.838 Y40.931
G0 F2040 X1.899 Y41.497
G1 F1020 X0.19 Y39.788 E96.46049
G1 X0.128 Y39.726
G0 F2040 X-.519 Y38.583
G1 F1020 X2.08 Y41.183 E96.60118
G0 F2040 X2.259 Y40.867
G1 F1020 X-1.229 Y37.378 E96.78998
G1 X-1.291 Y37.316
G0 F2040 X-1.94 Y36.172
G1 F1020 X2.44 Y40.553 E97.02706
G0 F2040 X2.619 Y40.237
G1 F1020 X-2.65 Y34.967 E97.31225
G1 X-2.712 Y34.905
G0 F2040 X-3.36 Y33.762
G1 F1020 X2.8 Y39.923 E97.64566
G0 F2040 X2.979 Y39.607
G1 F1020 X-4.07 Y32.557 E98.02719
G1 X-4.132 Y32.495
G0 F2040 X-4.78 Y31.352
G1 F1020 X3.16 Y39.293 E98.45694
G0 F2040 X3.34 Y38.978
G1 F1020 X-5.49 Y30.147 E98.93486
G1 X-5.552 Y30.085
G0 F2040 X-6.201 Y28.941
G1 F1020 X3.519 Y38.663 E99.46097
G0 F2040 X3.7 Y38.348
G1 F1020 X-6.911 Y27.736 E100.03528
G1 X-6.973 Y27.674
G0 F2040 X-7.621 Y26.532
G1 F1020 X3.879 Y38.033 E100.6577
G0 F2040 X4.06 Y37.718
G1 F1020 X-8.331 Y25.326 E101.32835
G1 X-8.393 Y25.264
G0 F2040 X-9.041 Y24.121
G1 F1020 X4.239 Y37.403 E102.04713
G0 F2040 X4.42 Y37.088
G1 F1020 X-9.751 Y22.916 E102.81411
G1 X-9.813 Y22.854
G0 F2040 X-10.461 Y21.711
G1 F1020 X4.599 Y36.773 E103.62923
G0 F2040 X4.78 Y36.458
G1 F1020 X-11.172 Y20.506 E104.49257
G1 X-11.234 Y20.444
G0 F2040 X-11.882 Y19.301
G1 F1020 X4.959 Y36.143 E105.40406
G0 F2040 X5.139 Y35.828
G1 F1020 X-12.592 Y18.096 E106.36371
G1 X-12.654 Y18.034
G0 F2040 X-13.302 Y16.89
G1 F1020 X5.32 Y35.513 E107.37158
G0 F2040 X5.499 Y35.198
G1 F1020 X-14.012 Y15.685 E108.42759
G1 X-14.074 Y15.623
G0 F2040 X-14.722 Y14.48
G1 F1020 X5.68 Y34.883 E109.5318
G0 F2040 X5.859 Y34.568
G1 F1020 X-15.433 Y13.275 E110.68418
G1 X-15.495 Y13.213
G0 F2040 X-16.143 Y12.07
G1 F1020 X6.04 Y34.253 E111.88475
G0 F2040 X6.219 Y33.938
G1 F1020 X-16.853 Y10.865 E113.13347
G1 X-16.915 Y10.803
G0 F2040 X-17.563 Y9.659
G1 F1020 X6.4 Y33.623 E114.4304
G0 F2040 X6.579 Y33.308
G1 F1020 X-18.273 Y8.454 E115.77548
G1 X-18.335 Y8.392
G0 F2040 X-18.983 Y7.249
G1 F1020 X6.759 Y32.993 E117.16872
G0 F2040 X6.939 Y32.678
G1 F1020 X-19.693 Y6.045 E118.61011
G1 X-19.755 Y5.983
G0 F2040 X-20.404 Y4.839
G1 F1020 X7.119 Y32.363 E120.09971
G0 F2040 X7.299 Y32.048
G1 F1020 X-21.114 Y3.634 E121.63749
G1 X-21.176 Y3.572
G0 F2040 X-21.824 Y2.429
G1 F1020 X7.479 Y31.733 E123.22343
G0 F2040 X7.66 Y31.418
G1 F1020 X-22.534 Y1.224 E124.85757
G1 X-22.596 Y1.162
G0 F2040 X-23.244 Y0.019
G1 F1020 X7.839 Y31.103 E126.53985
G0 F2040 X8.02 Y30.788
G1 F1020 X-23.954 Y-1.185 E128.27029
G1 X-24.016 Y-1.247
G0 F2040 X-24.665 Y-2.391
G1 F1020 X8.199 Y30.473 E130.04894
G0 F2040 X8.379 Y30.158
G1 F1020 X-25.375 Y-3.596 E131.87575
G1 X-25.437 Y-3.658
G0 F2040 X-26.085 Y-4.801
G1 F1020 X8.559 Y29.843 E133.75072
G0 F2040 X8.739 Y29.528
G1 F1020 X-26.795 Y-6.006 E135.67387
G1 X-26.857 Y-6.068
G0 F2040 X-27.505 Y-7.211
G1 F1020 X8.919 Y29.213 E137.64518
G0 F2040 X9.099 Y28.898
G1 F1020 X-28.215 Y-8.416 E139.66466
G1 X-28.277 Y-8.478
G0 F2040 X-28.926 Y-9.622
G1 F1020 X9.279 Y28.583 E141.73237
G0 F2040 X9.459 Y28.268
G1 F1020 X-29.636 Y-10.827 E143.84824
G1 X-29.698 Y-10.889
G0 F2040 X-30.346 Y-12.032
G1 F1020 X9.639 Y27.954 E146.0123
G0 F2040 X9.819 Y27.638
G1 F1020 X-31.056 Y-13.237 E148.22451
G1 X-31.118 Y-13.299
G0 F2040 X-31.766 Y-14.442
G1 F1020 X9.999 Y27.324 E150.48491
G0 F2040 X10.179 Y27.008
G1 F1020 X-32.476 Y-15.647 E152.79346
G1 X-32.538 Y-15.709
G0 F2040 X-33.186 Y-16.852
G1 F1020 X10.359 Y26.693 E155.15017
G0 F2040 X10.539 Y26.378
G1 F1020 X-33.897 Y-18.058 E157.5551
G1 X-33.959 Y-18.12
G0 F2040 X-34.607 Y-19.263
G1 F1020 X10.719 Y26.063 E160.0082
G0 F2040 X10.899 Y25.748
G1 F1020 X-35.317 Y-20.467 E162.50944
G1 X-35.379 Y-20.529
G0 F2040 X-36.027 Y-21.673
G1 F1020 X11.079 Y25.433 E165.05888
G0 F2040 X11.259 Y25.118
G1 F1020 X-36.737 Y-22.878 E167.65648
G1 X-36.799 Y-22.94
G0 F2040 X-37.447 Y-24.083
G1 F1020 X11.439 Y24.803 E170.30226
G0 F2040 X11.619 Y24.488
G1 F1020 X-38.158 Y-25.288 E172.99622
G1 X-38.22 Y-25.35
G0 F2040 X-38.868 Y-26.493
G1 F1020 X11.799 Y24.173 E175.73836
G0 F2040 X11.979 Y23.859
G1 F1020 X-39.578 Y-27.698 E178.52869
G1 X-39.64 Y-27.76
G0 F2040 X-40.288 Y-28.903
G1 F1020 X12.159 Y23.543 E181.36716
G0 F2040 X12.339 Y23.229
G1 F1020 X-40.998 Y-30.109 E184.25385
G1 X-41.06 Y-30.171
G0 F2040 X-41.708 Y-31.314
G1 F1020 X12.519 Y22.913 E187.18869
G0 F2040 X12.699 Y22.599
G1 F1020 X-42.418 Y-32.519 E190.17172
G1 X-42.48 Y-32.581
G0 F2040 X-43.129 Y-33.724
G1 F1020 X12.879 Y22.283 E193.20292
G0 F2040 X13.059 Y21.969
G1 F1020 X-43.839 Y-34.929 E196.28231
G1 X-43.901 Y-34.991
G0 F2040 X-44.549 Y-36.134
G1 F1020 X13.239 Y21.653 E199.40984
G0 F2040 X13.419 Y21.339
G1 F1020 X-45.259 Y-37.34 E202.5856
G1 X-45.321 Y-37.402
G0 F2040 X-45.969 Y-38.545
G1 F1020 X13.599 Y21.023 E205.80949
G0 F2040 X13.779 Y20.709
G1 F1020 X-46.679 Y-39.75 E209.08158
G1 X-46.741 Y-39.812
G0 F2040 X-47.39 Y-40.955
G1 F1020 X13.959 Y20.394 E212.40187
G0 F2040 X14.139 Y20.079
G1 F1020 X-47.601 Y-41.661 E215.74332
G0 F2040 X-47.106 Y-41.661
G1 F1020 X14.319 Y19.764 E219.06772
G0 F2040 X14.499 Y19.448
G1 F1020 X-46.611 Y-41.661 E222.37504
G0 F2040 X-46.116 Y-41.661
G1 F1020 X14.679 Y19.134 E225.66534
G0 F2040 X14.859 Y18.818
G1 F1020 X-45.621 Y-41.661 E228.93857
G0 F2040 X-45.126 Y-41.661
G1 F1020 X15.039 Y18.504 E232.19478
G0 F2040 X15.219 Y18.188
G1 F1020 X-44.631 Y-41.661 E235.43391
G0 F2040 X-44.136 Y-41.661
G1 F1020 X15.399 Y17.874 E238.65602
G0 F2040 X15.578 Y17.558
G1 F1020 X-43.641 Y-41.661 E241.86103
G0 F2040 X-43.146 Y-41.661
G1 F1020 X15.759 Y17.244 E245.04904
G0 F2040 X15.938 Y16.928
G1 F1020 X-42.651 Y-41.661 E248.21995
G0 F2040 X-42.156 Y-41.661
G1 F1020 X16.119 Y16.614 E251.37387
G0 F2040 X16.299 Y16.299
G1 F1020 X-41.661 Y-41.661 E254.51074
G0 F2040 X-41.166 Y-41.661
G1 F1020 X16.479 Y15.984 E257.63056
G0 F2040 X16.659 Y15.669
G1 F1020 X-40.671 Y-41.661 E260.73333
G0 F2040 X-40.176 Y-41.661
G1 F1020 X16.839 Y15.354 E263.81905
G0 F2040 X17.019 Y15.039
G1 F1020 X-39.681 Y-41.661 E266.88773
G0 F2040 X-39.186 Y-41.661
G1 F1020 X17.198 Y14.724 E269.93933
G0 F2040 X17.379 Y14.409
G1 F1020 X-38.691 Y-41.661 E272.97391
G0 F2040 X-38.196 Y-41.661
G1 F1020 X17.558 Y14.094 E275.99142
G0 F2040 X17.739 Y13.779
G1 F1020 X-37.701 Y-41.661 E278.9919
G0 F2040 X-37.206 Y-41.661
G1 F1020 X17.918 Y13.464 E281.97531
G0 F2040 X18.099 Y13.149
G1 F1020 X-36.711 Y-41.661 E284.9417
G0 F2040 X-36.216 Y-41.661
G1 F1020 X18.279 Y12.834 E287.89103
G0 F2040 X18.459 Y12.519
G1 F1020 X-35.721 Y-41.661 E290.82332
G0 F2040 X-35.226 Y-41.661
G1 F1020 X18.639 Y12.204 E293.73857
G0 F2040 X18.818 Y11.889
G1 F1020 X-34.731 Y-41.661 E296.63673
G0 F2040 X-34.236 Y-41.661
G1 F1020 X18.999 Y11.574 E299.51788
G0 F2040 X19.178 Y11.259
G1 F1020 X-33.741 Y-41.661 E302.38195
G0 F2040 X-33.246 Y-41.661
G1 F1020 X19.359 Y10.944 E305.229
G0 F2040 X19.538 Y10.629
G1 F1020 X-32.751 Y-41.661 E308.05897
G0 F2040 X-32.256 Y-41.661
G1 F1020 X19.719 Y10.314 E310.87193
G0 F2040 X19.898 Y9.999
G1 F1020 X-31.761 Y-41.661 E313.66781
G0 F2040 X-31.266 Y-41.661
G1 F1020 X20.079 Y9.684 E316.44666
G0 F2040 X20.259 Y9.369
G1 F1020 X-30.771 Y-41.661 E319.20847
G0 F2040 X-30.276 Y-41.661
G1 F1020 X20.438 Y9.054 E321.9532
G0 F2040 X20.619 Y8.739
G1 F1020 X-29.781 Y-41.661 E324.68092
