;FLAVOR:Marlin
;TIME:7894
;Filament used: 7.38173m
;Layer height: 0.2
;MINX:-66.941
;MINY:-75.734
;MINZ:0.26
;MAXX:42.164
;MAXY:25.047
;MAXZ:22.66
;Generated with Cura_SteamEngine 4.8.0
M82 ;absolute extrusion mode
;Gcode by Cura
G90
G28
M107
M109 R100
G30
M109 S215 U-55 X55 V-85 Y-85 W0.26 Z0.26
M82
G92 E0
G1 F200 E6
G92 E0
G1 F200 E-3.5
G0 Z0.15
G0 X10
G0 Z3
G1 F6000
G92 E0
G92 E0
G1 F3600 E-3.8
;LAYER_COUNT:113
;LAYER:0
M107
G0 F2040 X36.749 Y25.047 Z0.26
;TYPE:SKIRT
G1 F3600 E0
G1 F1020 X-61.742 Y25.047 E3.7692
G1 X-62.428 Y25.038 E3.79546
G1 X-63.031 Y24.99 E3.81861
G1 X-63.622 Y24.863 E3.84174
G1 X-64.191 Y24.659 E3.86487
G1 X-64.729 Y24.382 E3.88803
G1 X-65.225 Y24.036 E3.91118
G1 X-65.671 Y23.628 E3.93431
G1 X-66.06 Y23.165 E3.95745
G1 X-66.384 Y22.655 E3.98057
G1 X-66.638 Y22.106 E4.00372
G1 X-66.817 Y21.529 E4.02684
G1 X-66.919 Y20.933 E4.04998
G1 X-66.941 Y20.328 E4.07315
G1 X-66.883 Y19.726 E4.0963
G1 X-66.747 Y19.137 E4.11943
G1 X-66.421 Y18.341 E4.15235
G1 X-66.005 Y17.548 E4.18662
G1 X-16.713 Y-72.806 E8.12551
G1 X-16.374 Y-73.407 E8.15191
G1 X-16.043 Y-73.913 E8.17505
G1 X-15.648 Y-74.37 E8.19817
G1 X-15.196 Y-74.772 E8.22132
G1 X-14.695 Y-75.111 E8.24447
G1 X-14.153 Y-75.38 E8.26763
G1 X-13.581 Y-75.576 E8.29077
G1 X-12.988 Y-75.695 E8.31391
G1 X-12.385 Y-75.734 E8.33704
G1 X-11.782 Y-75.694 E8.36016
G1 X-11.189 Y-75.574 E8.38332
G1 X-10.617 Y-75.377 E8.40647
G1 X-10.077 Y-75.107 E8.42957
G1 X-9.576 Y-74.767 E8.45275
G1 X-9.125 Y-74.365 E8.47587
G1 X-8.731 Y-73.906 E8.49902
G1 X-8.443 Y-73.474 E8.51889
G1 X-8.17 Y-72.997 E8.53992
G1 X41.336 Y17.748 E12.49586
G1 X41.639 Y18.322 E12.5207
G1 X41.885 Y18.874 E12.54383
G1 X42.057 Y19.454 E12.56698
G1 X42.15 Y20.052 E12.59014
G1 X42.164 Y20.656 E12.61326
G1 X42.098 Y21.257 E12.6364
G1 X41.953 Y21.844 E12.65954
G1 X41.732 Y22.407 E12.68269
G1 X41.439 Y22.936 E12.70583
G1 X41.078 Y23.422 E12.729
G1 X40.657 Y23.855 E12.75211
G1 X40.182 Y24.23 E12.77527
G1 X39.662 Y24.538 E12.7984
G1 X39.106 Y24.775 E12.82153
G1 X38.524 Y24.937 E12.84465
G1 X37.669 Y25.032 E12.87757
G1 X36.749 Y25.047 E12.91279
G0 F2040 X36.749 Y24.697
G1 F1020 X-61.737 Y24.697 E16.6818
G1 X-62.423 Y24.688 E16.70805
G1 X-63.003 Y24.64 E16.73032
G1 X-63.57 Y24.514 E16.75255
G1 X-64.114 Y24.31 E16.77479
G1 X-64.625 Y24.034 E16.79701
G1 X-65.094 Y23.691 E16.81925
G1 X-65.511 Y23.286 E16.8415
G1 X-65.869 Y22.829 E16.86371
G1 X-66.16 Y22.326 E16.88595
G1 X-66.38 Y21.788 E16.90819
G1 X-66.524 Y21.225 E16.93043
G1 X-66.589 Y20.648 E16.95266
G1 X-66.574 Y20.067 E16.9749
G1 X-66.48 Y19.494 E16.99712
G1 X-66.308 Y18.938 E17.01939
G1 X-66.111 Y18.504 E17.03763
G1 X-65.698 Y17.716 E17.07168
G1 X-16.408 Y-72.634 E21.0104
G1 X-16.069 Y-73.235 E21.0368
G1 X-15.749 Y-73.72 E21.05904
G1 X-15.366 Y-74.157 E21.08128
G1 X-14.927 Y-74.537 E21.1035
G1 X-14.439 Y-74.853 E21.12575
G1 X-13.913 Y-75.1 E21.14799
G1 X-13.358 Y-75.271 E21.17021
G1 X-12.785 Y-75.365 E21.19243
G1 X-12.204 Y-75.38 E21.21467
G1 X-11.627 Y-75.315 E21.23689
G1 X-11.064 Y-75.171 E21.25913
G1 X-10.526 Y-74.951 E21.28138
G1 X-10.023 Y-74.659 E21.30364
G1 X-9.565 Y-74.302 E21.32586
G1 X-9.161 Y-73.885 E21.34808
G1 X-8.745 Y-73.297 E21.37564
G1 X-8.474 Y-72.825 E21.39647
G1 X41.026 Y17.912 E25.35204
G1 X41.329 Y18.486 E25.37688
G1 X41.565 Y19.017 E25.39912
G1 X41.725 Y19.575 E25.42133
G1 X41.807 Y20.151 E25.4436
G1 X41.809 Y20.732 E25.46583
G1 X41.732 Y21.308 E25.48807
G1 X41.576 Y21.867 E25.51028
G1 X41.345 Y22.4 E25.53251
G1 X41.043 Y22.897 E25.55477
G1 X40.676 Y23.347 E25.57699
G1 X40.25 Y23.743 E25.59925
G1 X39.774 Y24.076 E25.62148
G1 X39.257 Y24.341 E25.64371
G1 X38.709 Y24.533 E25.66594
G1 X38.139 Y24.648 E25.68819
G1 X37.663 Y24.682 E25.70645
G1 X36.749 Y24.697 E25.74143
G0 F2040 X36.749 Y24.347
G1 F1020 X-61.733 Y24.347 E29.51029
G1 X-62.419 Y24.338 E29.53655
G1 X-62.973 Y24.29 E29.55783
G1 X-63.515 Y24.164 E29.57912
G1 X-64.033 Y23.962 E29.6004
G1 X-64.517 Y23.687 E29.62171
G1 X-64.957 Y23.346 E29.64301
G1 X-65.343 Y22.946 E29.66428
G1 X-65.668 Y22.494 E29.68559
G1 X-65.925 Y22 E29.7069
G1 X-66.109 Y21.475 E29.72819
G1 X-66.215 Y20.929 E29.74947
G1 X-66.242 Y20.373 E29.77078
G1 X-66.189 Y19.819 E29.79207
G1 X-66.058 Y19.279 E29.81334
G1 X-65.801 Y18.666 E29.83878
G1 X-65.391 Y17.883 E29.8726
G1 X-16.103 Y-72.462 E33.81111
G1 X-15.764 Y-73.063 E33.83752
G1 X-15.457 Y-73.527 E33.85881
G1 X-15.086 Y-73.941 E33.88009
G1 X-14.66 Y-74.299 E33.90138
G1 X-14.187 Y-74.592 E33.92267
G1 X-13.676 Y-74.814 E33.944
G1 X-13.14 Y-74.961 E33.96527
G1 X-12.587 Y-75.029 E33.98659
G1 X-12.031 Y-75.017 E34.00787
G1 X-11.482 Y-74.926 E34.02917
G1 X-10.952 Y-74.758 E34.05045
G1 X-10.451 Y-74.515 E34.07175
G1 X-9.991 Y-74.203 E34.09303
G1 X-9.58 Y-73.828 E34.11432
G1 X-9.226 Y-73.398 E34.13563
G1 X-8.959 Y-72.97 E34.15494
G1 X-8.753 Y-72.606 E34.17094
G1 X40.717 Y18.075 E38.12408
G1 X41.02 Y18.649 E38.14892
G1 X41.244 Y19.158 E38.1702
G1 X41.392 Y19.695 E38.19152
G1 X41.462 Y20.247 E38.21281
G1 X41.453 Y20.803 E38.23409
G1 X41.363 Y21.352 E38.25538
G1 X41.196 Y21.883 E38.27669
G1 X40.955 Y22.384 E38.29796
G1 X40.645 Y22.846 E38.31925
G1 X40.271 Y23.259 E38.34058
G1 X39.842 Y23.613 E38.36186
G1 X39.367 Y23.903 E38.38316
G1 X38.856 Y24.122 E38.40444
G1 X38.318 Y24.265 E38.42574
G1 X37.657 Y24.332 E38.45117
G1 X36.749 Y24.347 E38.48592
G0 F2040 X36.807 Y23.997
G1 F1020 X-61.728 Y23.997 E42.25681
G1 X-62.414 Y23.988 E42.28306
G1 X-62.943 Y23.941 E42.30339
G1 X-63.458 Y23.815 E42.32368
G1 X-63.949 Y23.613 E42.344
G1 X-64.404 Y23.34 E42.3643
G1 X-64.813 Y23.002 E42.38461
G1 X-65.167 Y22.606 E42.40493
G1 X-65.457 Y22.162 E42.42523
G1 X-65.677 Y21.679 E42.44554
G1 X-65.822 Y21.169 E42.46583
G1 X-65.888 Y20.642 E42.48616
G1 X-65.875 Y20.112 E42.50645
G1 X-65.783 Y19.589 E42.52677
G1 X-65.613 Y19.086 E42.54709
G1 X-65.491 Y18.828 E42.55801
G1 X-65.083 Y18.051 E42.5916
G1 X-15.798 Y-72.29 E46.52992
G1 X-15.459 Y-72.891 E46.55633
G1 X-15.164 Y-73.332 E46.57663
G1 X-14.807 Y-73.724 E46.59692
G1 X-14.394 Y-74.058 E46.61725
G1 X-13.936 Y-74.326 E46.63756
G1 X-13.444 Y-74.523 E46.65784
G1 X-12.927 Y-74.643 E46.67815
G1 X-12.398 Y-74.684 E46.69845
G1 X-11.868 Y-74.645 E46.71879
G1 X-11.351 Y-74.528 E46.73908
G1 X-10.857 Y-74.334 E46.75939
G1 X-10.398 Y-74.068 E46.77969
G1 X-9.984 Y-73.736 E46.8
G1 X-9.624 Y-73.346 E46.82031
G1 X-9.261 Y-72.793 E46.84563
G1 X-9.061 Y-72.438 E46.86122
G1 X40.407 Y18.238 E50.81415
G1 X40.71 Y18.812 E50.83899
G1 X40.922 Y19.299 E50.85932
G1 X41.058 Y19.812 E50.87963
G1 X41.116 Y20.339 E50.89992
G1 X41.094 Y20.87 E50.92026
G1 X40.992 Y21.39 E50.94054
G1 X40.814 Y21.89 E50.96085
G1 X40.562 Y22.358 E50.98119
G1 X40.244 Y22.782 E51.00147
G1 X39.865 Y23.153 E51.02177
G1 X39.434 Y23.464 E51.04211
G1 X38.962 Y23.706 E51.06241
G1 X38.459 Y23.875 E51.08271
G1 X37.936 Y23.966 E51.10303
G1 X37.651 Y23.983 E51.11396
G1 X36.807 Y23.997 E51.14626
G0 F2040 X36.802 Y23.647
G1 F1020 X-61.724 Y23.647 E54.9168
G1 X-62.41 Y23.638 E54.94306
G1 X-62.911 Y23.591 E54.96231
G1 X-63.399 Y23.466 E54.98159
G1 X-63.861 Y23.265 E55.00087
G1 X-64.285 Y22.994 E55.02013
G1 X-64.661 Y22.659 E55.0394
G1 X-64.979 Y22.269 E55.05866
G1 X-65.232 Y21.833 E55.07795
G1 X-65.413 Y21.363 E55.09723
G1 X-65.517 Y20.87 E55.11651
G1 X-65.542 Y20.367 E55.13578
G1 X-65.487 Y19.867 E55.15503
G1 X-65.353 Y19.381 E55.17433
G1 X-65.181 Y18.991 E55.19064
G1 X-64.776 Y18.218 E55.22403
G1 X-15.493 Y-72.118 E59.16215
G1 X-15.154 Y-72.719 E59.18856
G1 X-14.873 Y-73.136 E59.2078
G1 X-14.529 Y-73.504 E59.22708
G1 X-14.131 Y-73.813 E59.24636
G1 X-13.69 Y-74.055 E59.26562
G1 X-13.215 Y-74.225 E59.28492
G1 X-12.72 Y-74.317 E59.30419
G1 X-12.217 Y-74.329 E59.32345
G1 X-11.718 Y-74.262 E59.34271
G1 X-11.236 Y-74.117 E59.36198
G1 X-10.782 Y-73.898 E59.38127
G1 X-10.37 Y-73.609 E59.40053
G1 X-10.008 Y-73.259 E59.4198
G1 X-9.65 Y-72.766 E59.44311
G1 X-9.389 Y-72.309 E59.46325
G1 X40.098 Y18.402 E63.41771
G1 X40.401 Y18.976 E63.44255
G1 X40.6 Y19.438 E63.4618
G1 X40.723 Y19.927 E63.4811
G1 X40.768 Y20.428 E63.50035
G1 X40.733 Y20.931 E63.51964
G1 X40.618 Y21.421 E63.5389
G1 X40.428 Y21.887 E63.55816
G1 X40.166 Y22.318 E63.57746
G1 X39.84 Y22.701 E63.59671
G1 X39.457 Y23.028 E63.61599
G1 X39.027 Y23.291 E63.63528
G1 X38.561 Y23.482 E63.65455
G1 X38.071 Y23.597 E63.67381
G1 X37.646 Y23.633 E63.69013
G1 X36.802 Y23.647 E63.72244
G1 F3600 E59.92244
;MESH:support_tri_0_040.stl
G0 F2040 X36.802 Y21.137
G0 X36.802 Y20.102
G0 X36.727 Y19.947
;TYPE:WALL-INNER
G1 F3600 E63.72244
G1 F1020 X-61.505 Y19.947 E67.48173
G1 X-12.389 Y-70.082 E71.40647
G1 X36.727 Y19.947 E75.33122
G0 F2040 X37.274 Y20.272
;TYPE:WALL-OUTER
G1 F1020 X-62.052 Y20.272 E79.13238
G1 X-12.389 Y-70.76 E83.10084
G1 X37.274 Y20.272 E87.06931
G0 F2040 X37.074 Y20.272
G0 X36.937 Y20.071
G0 X36.154 Y19.607
;TYPE:SKIN
G1 F1020 X-60.932 Y19.607 E90.78474
G1 X-12.389 Y-69.371 E94.66368
G1 X36.154 Y19.607 E98.54261
G0 F2040 X-60.516 Y19.174
G1 F1020 X-60.241 Y19.449 E98.55749
G0 F2040 X-59.746 Y19.449
G1 F1020 X-60.341 Y18.854 E98.5897
G0 F2040 X-60.167 Y18.533
G1 F1020 X-59.251 Y19.449 E98.63927
G0 F2040 X-58.756 Y19.449
G1 F1020 X-59.992 Y18.213 E98.70616
G0 F2040 X-59.817 Y17.893
G1 F1020 X-58.261 Y19.449 E98.79038
G0 F2040 X-57.766 Y19.449
G1 F1020 X-59.643 Y17.573 E98.89194
G0 F2040 X-59.467 Y17.253
G1 F1020 X-57.271 Y19.449 E99.01079
G0 F2040 X-56.776 Y19.449
G1 F1020 X-59.293 Y16.933 E99.14698
G0 F2040 X-59.118 Y16.612
G1 F1020 X-56.281 Y19.449 E99.30052
G0 F2040 X-55.786 Y19.449
G1 F1020 X-58.943 Y16.292 E99.47139
G0 F2040 X-58.769 Y15.972
G1 F1020 X-55.291 Y19.449 E99.65959
G0 F2040 X-54.796 Y19.449
G1 F1020 X-58.594 Y15.651 E99.86514
G0 F2040 X-58.419 Y15.331
G1 F1020 X-54.301 Y19.449 E100.08802
G0 F2040 X-53.806 Y19.449
G1 F1020 X-58.245 Y15.011 E100.32823
G0 F2040 X-58.07 Y14.69
G1 F1020 X-53.311 Y19.449 E100.5858
G0 F2040 X-52.816 Y19.449
G1 F1020 X-57.895 Y14.37 E100.86068
G0 F2040 X-57.721 Y14.05
G1 F1020 X-52.321 Y19.449 E101.15291
G0 F2040 X-51.826 Y19.449
G1 F1020 X-57.546 Y13.729 E101.46248
G0 F2040 X-57.371 Y13.41
G1 F1020 X-51.331 Y19.449 E101.78935
G0 F2040 X-50.836 Y19.449
G1 F1020 X-57.196 Y13.089 E102.13356
G0 F2040 X-57.021 Y12.769
G1 F1020 X-50.341 Y19.449 E102.49509
G0 F2040 X-49.846 Y19.449
G1 F1020 X-56.847 Y12.449 E102.87396
G0 F2040 X-56.672 Y12.129
G1 F1020 X-49.351 Y19.449 E103.27016
G0 F2040 X-48.856 Y19.449
G1 F1020 X-56.497 Y11.808 E103.6837
G0 F2040 X-56.323 Y11.488
G1 F1020 X-48.361 Y19.449 E104.11458
G0 F2040 X-47.866 Y19.449
G1 F1020 X-56.148 Y11.168 E104.56279
G0 F2040 X-55.973 Y10.847
G1 F1020 X-47.371 Y19.449 E105.02834
G0 F2040 X-46.876 Y19.449
G1 F1020 X-55.799 Y10.527 E105.51124
G0 F2040 X-55.624 Y10.207
G1 F1020 X-46.381 Y19.449 E106.01145
G0 F2040 X-45.886 Y19.449
G1 F1020 X-55.449 Y9.887 E106.52899
G0 F2040 X-55.274 Y9.567
G1 F1020 X-45.392 Y19.449 E107.06382
G0 F2040 X-44.897 Y19.449
G1 F1020 X-55.099 Y9.246 E107.61599
G0 F2040 X-54.925 Y8.926
G1 F1020 X-44.402 Y19.449 E108.18551
G0 F2040 X-43.907 Y19.449
G1 F1020 X-54.75 Y8.606 E108.77234
G0 F2040 X-54.575 Y8.285
G1 F1020 X-43.412 Y19.449 E109.37653
G0 F2040 X-42.917 Y19.449
G1 F1020 X-54.401 Y7.965 E109.99805
G0 F2040 X-54.226 Y7.645
G1 F1020 X-42.422 Y19.449 E110.6369
G0 F2040 X-41.927 Y19.449
G1 F1020 X-54.051 Y7.324 E111.2931
G0 F2040 X-53.877 Y7.004
G1 F1020 X-41.432 Y19.449 E111.96663
G0 F2040 X-40.937 Y19.449
G1 F1020 X-53.702 Y6.684 E112.65749
G0 F2040 X-53.527 Y6.363
G1 F1020 X-40.442 Y19.449 E113.3657
G0 F2040 X-39.947 Y19.449
G1 F1020 X-53.352 Y6.044 E114.09119
G0 F2040 X-53.177 Y5.724
G1 F1020 X-39.452 Y19.449 E114.83401
G0 F2040 X-38.957 Y19.449
G1 F1020 X-53.003 Y5.403 E115.59419
G0 F2040 X-52.828 Y5.083
G1 F1020 X-38.462 Y19.449 E116.3717
G0 F2040 X-37.967 Y19.449
G1 F1020 X-52.653 Y4.763 E117.16653
G0 F2040 X-52.479 Y4.442
G1 F1020 X-37.472 Y19.449 E117.97872
G0 F2040 X-36.977 Y19.449
G1 F1020 X-52.304 Y4.122 E118.80824
G0 F2040 X-52.13 Y3.802
G1 F1020 X-36.482 Y19.449 E119.6551
G0 F2040 X-35.987 Y19.449
G1 F1020 X-51.955 Y3.481 E120.51931
G0 F2040 X-51.78 Y3.161
G1 F1020 X-35.492 Y19.449 E121.40084
G0 F2040 X-34.997 Y19.449
G1 F1020 X-51.606 Y2.841 E122.29971
G0 F2040 X-51.43 Y2.521
G1 F1020 X-34.502 Y19.449 E123.21588
G0 F2040 X-34.007 Y19.449
G1 F1020 X-51.256 Y2.201 E124.14939
G0 F2040 X-51.081 Y1.88
G1 F1020 X-33.512 Y19.449 E125.10024
G0 F2040 X-33.017 Y19.449
G1 F1020 X-50.906 Y1.56 E126.06842
G0 F2040 X-50.732 Y1.24
G1 F1020 X-32.522 Y19.449 E127.05394
G0 F2040 X-32.027 Y19.449
G1 F1020 X-50.557 Y0.919 E128.05681
G0 F2040 X-50.382 Y0.599
G1 F1020 X-31.532 Y19.449 E129.07699
G0 F2040 X-31.037 Y19.449
G1 F1020 X-50.208 Y0.279 E130.11453
G0 F2040 X-50.033 Y-0.041
G1 F1020 X-30.542 Y19.449 E131.16938
G0 F2040 X-30.047 Y19.449
G1 F1020 X-49.858 Y-.361 E132.24155
G0 F2040 X-49.684 Y-.681
G1 F1020 X-29.552 Y19.449 E133.33106
G0 F2040 X-29.057 Y19.449
G1 F1020 X-49.508 Y-1.001 E134.43787
G0 F2040 X-49.334 Y-1.321
G1 F1020 X-28.562 Y19.449 E135.56202
G0 F2040 X-28.067 Y19.449
G1 F1020 X-49.159 Y-1.641 E136.70349
G0 F2040 X-48.984 Y-1.962
G1 F1020 X-27.572 Y19.449 E137.86231
G0 F2040 X-27.077 Y19.449
G1 F1020 X-48.81 Y-2.282 E139.03847
G0 F2040 X-48.635 Y-2.602
G1 F1020 X-26.582 Y19.449 E140.23196
G0 F2040 X-26.087 Y19.449
G1 F1020 X-48.46 Y-2.923 E141.44279
G0 F2040 X-48.286 Y-3.243
G1 F1020 X-25.593 Y19.449 E142.67093
G0 F2040 X-25.098 Y19.449
G1 F1020 X-48.111 Y-3.563 E143.9164
G0 F2040 X-47.936 Y-3.884
G1 F1020 X-24.603 Y19.449 E145.17921
G0 F2040 X-24.108 Y19.449
G1 F1020 X-47.762 Y-4.204 E146.45937
G0 F2040 X-47.587 Y-4.524
G1 F1020 X-23.613 Y19.449 E147.75684
G0 F2040 X-23.118 Y19.449
G1 F1020 X-47.412 Y-4.844 E149.07164
G0 F2040 X-47.237 Y-5.164
G1 F1020 X-22.623 Y19.449 E150.40375
G0 F2040 X-22.128 Y19.449
G1 F1020 X-47.062 Y-5.485 E151.75321
G0 F2040 X-46.888 Y-5.805
G1 F1020 X-21.633 Y19.449 E153.12002
G0 F2040 X-21.138 Y19.449
G1 F1020 X-46.713 Y-6.125 E154.50414
G0 F2040 X-46.538 Y-6.445
G1 F1020 X-20.643 Y19.449 E155.90559
G0 F2040 X-20.148 Y19.449
G1 F1020 X-46.364 Y-6.766 E157.3244
G0 F2040 X-46.189 Y-7.086
G1 F1020 X-19.653 Y19.449 E158.76054
G0 F2040 X-19.158 Y19.449
G1 F1020 X-46.014 Y-7.406 E160.21399
G0 F2040 X-45.84 Y-7.727
G1 F1020 X-18.663 Y19.449 E161.68482
G0 F2040 X-18.168 Y19.449
G1 F1020 X-45.665 Y-8.047 E163.17296
G0 F2040 X-45.49 Y-8.367
G1 F1020 X-17.673 Y19.449 E164.67843
G0 F2040 X-17.178 Y19.449
G1 F1020 X-45.315 Y-8.687 E166.20121
G0 F2040 X-45.14 Y-9.007
G1 F1020 X-16.683 Y19.449 E167.74131
G0 F2040 X-16.188 Y19.449
G1 F1020 X-44.966 Y-9.328 E169.29879
G0 F2040 X-44.791 Y-9.648
G1 F1020 X-15.693 Y19.449 E170.87358
G0 F2040 X-15.198 Y19.449
G1 F1020 X-44.617 Y-9.968 E172.46572
G0 F2040 X-44.442 Y-10.289
G1 F1020 X-14.703 Y19.449 E174.07521
G0 F2040 X-14.208 Y19.449
G1 F1020 X-44.267 Y-10.609 E175.70201
G0 F2040 X-44.093 Y-10.929
G1 F1020 X-13.713 Y19.449 E177.34616
G0 F2040 X-13.218 Y19.449
G1 F1020 X-43.918 Y-11.25 E179.00766
G0 F2040 X-43.743 Y-11.57
G1 F1020 X-12.723 Y19.449 E180.68647
G0 F2040 X-12.228 Y19.449
G1 F1020 X-43.569 Y-11.89 E182.38263
G0 F2040 X-43.393 Y-12.21
G1 F1020 X-11.733 Y19.449 E184.09609
G0 F2040 X-11.238 Y19.449
G1 F1020 X-43.219 Y-12.53 E185.82688
G0 F2040 X-43.044 Y-12.85
G1 F1020 X-10.743 Y19.449 E187.575
G0 F2040 X-10.248 Y19.449
G1 F1020 X-42.869 Y-13.171 E189.34046
G0 F2040 X-42.695 Y-13.491
G1 F1020 X-9.753 Y19.449 E191.12327
G0 F2040 X-9.258 Y19.449
G1 F1020 X-42.52 Y-13.811 E192.9234
G0 F2040 X-42.345 Y-14.132
G1 F1020 X-8.763 Y19.449 E194.74087
G0 F2040 X-8.268 Y19.449
G1 F1020 X-42.171 Y-14.452 E196.57569
G0 F2040 X-41.996 Y-14.772
G1 F1020 X-7.773 Y19.449 E198.42783
G0 F2040 X-7.278 Y19.449
G1 F1020 X-41.821 Y-15.093 E200.29732
G0 F2040 X-41.647 Y-15.413
G1 F1020 X-6.783 Y19.449 E202.18415
G0 F2040 X-6.289 Y19.449
G1 F1020 X-41.471 Y-15.733 E204.08824
G0 F2040 X-41.297 Y-16.053
G1 F1020 X-5.794 Y19.449 E206.00968
G0 F2040 X-5.299 Y19.449
G1 F1020 X-41.122 Y-16.373 E207.94844
G0 F2040 X-40.947 Y-16.694
G1 F1020 X-4.804 Y19.449 E209.90455
G0 F2040 X-4.309 Y19.449
G1 F1020 X-40.773 Y-17.014 E211.878
G0 F2040 X-40.598 Y-17.334
