;FLAVOR:Marlin
;TIME:6276
;Filament used: 8.0237m
;Layer height: 0.3
;MINX:-65.064
;MINY:-23.951
;MINZ:0.26
;MAXX:47.112
;MAXY:72.617
;MAXZ:22.76
;Generated with Cura_SteamEngine 4.9.1
M82 ;absolute extrusion mode
;Gcode by Cura
G90
G28
M107
M109 R100
G30
M109 S215 U-55 X55 V-85 Y-85 W0.26 Z0.26
M82
G92 E0
G1 F200 E6
G92 E0
G1 F200 E-3.5
G0 Z0.15
G0 X10
G0 Z3
G1 F6000
G92 E0
G92 E0
G1 F3600 E-3.8
;LAYER_COUNT:76
;LAYER:0
M107
G0 F2040 X41.928 Y-23.951 Z0.26
;TYPE:SKIRT
G1 F3600 E0
G1 F1020 X42.606 Y-23.941 E0.02595
G1 X43.209 Y-23.892 E0.0491
G1 X43.8 Y-23.764 E0.07224
G1 X44.369 Y-23.559 E0.09539
G1 X44.906 Y-23.281 E0.11853
G1 X45.402 Y-22.935 E0.14167
G1 X45.847 Y-22.526 E0.1648
G1 X46.235 Y-22.062 E0.18795
G1 X46.558 Y-21.551 E0.21109
G1 X46.811 Y-21.002 E0.23422
G1 X46.99 Y-20.424 E0.25738
G1 X47.091 Y-19.828 E0.28051
G1 X47.112 Y-19.224 E0.30364
G1 X47.053 Y-18.622 E0.32679
G1 X46.916 Y-18.033 E0.34993
G1 X46.583 Y-17.227 E0.3833
G1 X46.082 Y-16.281 E0.42427
G1 X-1.604 Y69.686 E4.18644
G1 X-1.961 Y70.311 E4.21398
G1 X-2.295 Y70.815 E4.23712
G1 X-2.693 Y71.271 E4.26028
G1 X-3.147 Y71.67 E4.28341
G1 X-3.65 Y72.006 E4.30656
G1 X-4.192 Y72.273 E4.32968
G1 X-4.766 Y72.465 E4.35285
G1 X-5.359 Y72.581 E4.37597
G1 X-5.963 Y72.617 E4.39913
G1 X-6.566 Y72.573 E4.42227
G1 X-7.158 Y72.45 E4.4454
G1 X-7.728 Y72.25 E4.46852
G1 X-8.268 Y71.977 E4.49168
G1 X-8.766 Y71.635 E4.5148
G1 X-9.215 Y71.23 E4.53794
G1 X-9.764 Y70.544 E4.57156
G1 X-10.354 Y69.639 E4.61291
G1 X-64.085 Y-16.464 E8.49698
G1 X-64.407 Y-16.998 E8.52084
G1 X-64.684 Y-17.535 E8.54397
G1 X-64.888 Y-18.104 E8.5671
G1 X-65.015 Y-18.695 E8.59023
G1 X-65.064 Y-19.298 E8.61339
G1 X-65.032 Y-19.902 E8.63653
G1 X-64.921 Y-20.496 E8.65966
G1 X-64.732 Y-21.071 E8.68282
G1 X-64.47 Y-21.615 E8.70593
G1 X-64.137 Y-22.12 E8.72908
G1 X-63.741 Y-22.577 E8.75222
G1 X-63.289 Y-22.978 E8.77534
G1 X-62.787 Y-23.316 E8.79851
G1 X-62.245 Y-23.584 E8.82164
G1 X-61.673 Y-23.779 E8.84477
G1 X-61.08 Y-23.897 E8.86791
G1 X-60.572 Y-23.934 E8.8874
G1 X-59.606 Y-23.951 E8.92438
G1 X41.928 Y-23.951 E12.81003
G0 F2040 X41.923 Y-23.601
G1 F1020 X42.601 Y-23.591 E12.83598
G1 X43.18 Y-23.542 E12.85822
G1 X43.747 Y-23.415 E12.88046
G1 X44.291 Y-23.211 E12.90269
G1 X44.802 Y-22.934 E12.92494
G1 X45.27 Y-22.59 E12.94716
G1 X45.687 Y-22.184 E12.96944
G1 X46.044 Y-21.726 E12.99166
G1 X46.334 Y-21.223 E13.01388
G1 X46.553 Y-20.684 E13.03614
G1 X46.696 Y-20.121 E13.05837
G1 X46.76 Y-19.544 E13.08059
G1 X46.745 Y-18.963 E13.10283
G1 X46.65 Y-18.39 E13.12506
G1 X46.477 Y-17.835 E13.14731
G1 X46.274 Y-17.391 E13.16599
G1 X45.776 Y-16.451 E13.2067
G1 X-1.908 Y69.513 E16.96873
G1 X-2.265 Y70.138 E16.99627
G1 X-2.588 Y70.621 E17.01851
G1 X-2.973 Y71.056 E17.04074
G1 X-3.414 Y71.434 E17.06297
G1 X-3.904 Y71.747 E17.08522
G1 X-4.431 Y71.991 E17.10745
G1 X-4.987 Y72.16 E17.12968
G1 X-5.561 Y72.251 E17.15193
G1 X-6.142 Y72.262 E17.17416
G1 X-6.719 Y72.193 E17.1964
G1 X-7.281 Y72.047 E17.21862
G1 X-7.818 Y71.824 E17.24088
G1 X-8.319 Y71.53 E17.26311
G1 X-8.775 Y71.169 E17.28536
G1 X-9.177 Y70.75 E17.30759
G1 X-9.471 Y70.353 E17.32649
G1 X-10.057 Y69.454 E17.36756
G1 X-63.785 Y-16.644 E21.25141
G1 X-64.107 Y-17.178 E21.27527
G1 X-64.372 Y-17.695 E21.29751
G1 X-64.564 Y-18.244 E21.31976
G1 X-64.678 Y-18.813 E21.34197
G1 X-64.714 Y-19.393 E21.36421
G1 X-64.669 Y-19.973 E21.38647
G1 X-64.546 Y-20.54 E21.40868
G1 X-64.345 Y-21.086 E21.43094
G1 X-64.072 Y-21.599 E21.45318
G1 X-63.731 Y-22.069 E21.47541
G1 X-63.329 Y-22.488 E21.49763
G1 X-62.873 Y-22.848 E21.51986
G1 X-62.372 Y-23.142 E21.54209
G1 X-61.835 Y-23.365 E21.56434
G1 X-61.273 Y-23.512 E21.58657
G1 X-60.566 Y-23.584 E21.61377
G1 X-59.606 Y-23.601 E21.65052
G1 X41.923 Y-23.601 E25.53598
G0 F2040 X41.918 Y-23.251
G1 F1020 X42.596 Y-23.241 E25.56193
G1 X43.15 Y-23.192 E25.58322
G1 X43.692 Y-23.065 E25.60452
G1 X44.21 Y-22.862 E25.62581
G1 X44.694 Y-22.587 E25.64711
G1 X45.133 Y-22.245 E25.66841
G1 X45.518 Y-21.844 E25.68968
G1 X45.842 Y-21.392 E25.71097
G1 X46.098 Y-20.898 E25.73226
G1 X46.281 Y-20.372 E25.75357
G1 X46.387 Y-19.826 E25.77486
G1 X46.413 Y-19.27 E25.79616
G1 X46.359 Y-18.716 E25.81746
G1 X46.227 Y-18.176 E25.83874
G1 X45.964 Y-17.554 E25.86458
G1 X45.47 Y-16.62 E25.90502
G1 X-2.212 Y69.339 E29.66684
G1 X-2.569 Y69.964 E29.69438
G1 X-2.879 Y70.426 E29.71567
G1 X-3.252 Y70.839 E29.73697
G1 X-3.68 Y71.194 E29.75825
G1 X-4.155 Y71.485 E29.77957
G1 X-4.666 Y71.704 E29.80085
G1 X-5.204 Y71.848 E29.82216
G1 X-5.757 Y71.913 E29.84347
G1 X-6.313 Y71.898 E29.86475
G1 X-6.861 Y71.804 E29.88603
G1 X-7.39 Y71.633 E29.90731
G1 X-7.89 Y71.387 E29.92863
G1 X-8.349 Y71.073 E29.94992
G1 X-8.758 Y70.696 E29.9712
G1 X-9.178 Y70.161 E29.99723
G1 X-9.76 Y69.268 E30.03803
G1 X-63.485 Y-16.825 E33.92165
G1 X-63.807 Y-17.359 E33.94552
G1 X-64.06 Y-17.855 E33.96682
G1 X-64.239 Y-18.382 E33.98812
G1 X-64.34 Y-18.929 E34.00941
G1 X-64.362 Y-19.485 E34.03071
G1 X-64.304 Y-20.038 E34.05198
G1 X-64.168 Y-20.578 E34.0733
G1 X-63.955 Y-21.092 E34.09459
G1 X-63.672 Y-21.571 E34.11588
G1 X-63.322 Y-22.004 E34.13719
G1 X-62.914 Y-22.382 E34.15847
G1 X-62.456 Y-22.698 E34.17977
G1 X-61.958 Y-22.946 E34.20106
G1 X-61.429 Y-23.119 E34.22236
G1 X-60.881 Y-23.215 E34.24365
G1 X-60.559 Y-23.234 E34.25599
G1 X-59.606 Y-23.251 E34.29247
G1 X41.918 Y-23.251 E38.17774
G0 F2040 X41.913 Y-22.901
G1 F1020 X42.591 Y-22.891 E38.20369
G1 X43.119 Y-22.843 E38.22398
G1 X43.635 Y-22.716 E38.24432
G1 X44.125 Y-22.514 E38.2646
G1 X44.58 Y-22.24 E38.28493
G1 X44.988 Y-21.901 E38.30523
G1 X45.341 Y-21.505 E38.32553
G1 X45.63 Y-21.06 E38.34584
G1 X45.85 Y-20.577 E38.36615
G1 X45.994 Y-20.066 E38.38647
G1 X46.06 Y-19.539 E38.40679
G1 X46.046 Y-19.009 E38.42708
G1 X45.953 Y-18.487 E38.44737
G1 X45.782 Y-17.984 E38.4677
G1 X45.655 Y-17.718 E38.47898
G1 X45.164 Y-16.79 E38.51916
G1 X-2.516 Y69.165 E42.28081
G1 X-2.873 Y69.79 E42.30836
G1 X-3.17 Y70.23 E42.32868
G1 X-3.53 Y70.62 E42.34899
G1 X-3.944 Y70.952 E42.3693
G1 X-4.404 Y71.217 E42.38961
G1 X-4.898 Y71.411 E42.40992
G1 X-5.415 Y71.529 E42.43022
G1 X-5.944 Y71.567 E42.45051
G1 X-6.473 Y71.525 E42.47082
G1 X-6.99 Y71.405 E42.49113
G1 X-7.483 Y71.208 E42.51145
G1 X-7.941 Y70.94 E42.53176
G1 X-8.353 Y70.606 E42.55206
G1 X-8.711 Y70.214 E42.57237
G1 X-8.885 Y69.97 E42.58384
G1 X-9.463 Y69.083 E42.62436
G1 X-63.186 Y-17.006 E46.50781
G1 X-63.508 Y-17.54 E46.53168
G1 X-63.747 Y-18.014 E46.55199
G1 X-63.912 Y-18.518 E46.57229
G1 X-64 Y-19.041 E46.59258
G1 X-64.008 Y-19.572 E46.61291
G1 X-63.936 Y-20.098 E46.63322
G1 X-63.786 Y-20.607 E46.65353
G1 X-63.562 Y-21.087 E46.6738
G1 X-63.268 Y-21.529 E46.69412
G1 X-62.91 Y-21.922 E46.71446
G1 X-62.498 Y-22.256 E46.73476
G1 X-62.041 Y-22.525 E46.75505
G1 X-61.548 Y-22.722 E46.77537
G1 X-61.032 Y-22.843 E46.79565
G1 X-60.553 Y-22.884 E46.81405
G1 X-59.606 Y-22.901 E46.8503
G1 X41.913 Y-22.901 E50.73538
G0 F2040 X41.908 Y-22.551
G1 F1020 X42.586 Y-22.541 E50.76133
G1 X43.087 Y-22.493 E50.78059
G1 X43.575 Y-22.367 E50.79988
G1 X44.036 Y-22.166 E50.81913
G1 X44.46 Y-21.894 E50.83841
G1 X44.836 Y-21.558 E50.8577
G1 X45.153 Y-21.168 E50.87694
G1 X45.405 Y-20.732 E50.89621
G1 X45.585 Y-20.261 E50.91551
G1 X45.688 Y-19.768 E50.93478
G1 X45.712 Y-19.265 E50.95405
G1 X45.657 Y-18.765 E50.9733
G1 X45.522 Y-18.279 E50.9926
G1 X45.346 Y-17.882 E51.00922
G1 X44.857 Y-16.96 E51.04916
G1 X-2.82 Y68.992 E54.81066
G1 X-3.177 Y69.617 E54.8382
G1 X-3.461 Y70.033 E54.85748
G1 X-3.807 Y70.399 E54.87675
G1 X-4.206 Y70.706 E54.89602
G1 X-4.649 Y70.945 E54.91528
G1 X-5.124 Y71.112 E54.93455
G1 X-5.62 Y71.201 E54.95384
G1 X-6.123 Y71.211 E54.97309
G1 X-6.622 Y71.142 E54.99237
G1 X-7.103 Y70.994 E55.01163
G1 X-7.555 Y70.772 E55.0309
G1 X-7.967 Y70.481 E55.0502
G1 X-8.327 Y70.129 E55.06947
G1 X-8.592 Y69.779 E55.08627
G1 X-9.167 Y68.898 E55.12653
G1 X-62.886 Y-17.186 E59.00975
G1 X-63.208 Y-17.72 E59.03361
G1 X-63.433 Y-18.171 E59.0529
G1 X-63.584 Y-18.651 E59.07216
G1 X-63.657 Y-19.15 E59.09146
G1 X-63.65 Y-19.653 E59.11071
G1 X-63.564 Y-20.149 E59.12997
G1 X-63.401 Y-20.626 E59.14926
G1 X-63.164 Y-21.07 E59.16852
G1 X-62.86 Y-21.472 E59.18781
G1 X-62.496 Y-21.82 E59.20708
G1 X-62.082 Y-22.106 E59.22634
G1 X-61.628 Y-22.324 E59.24561
G1 X-61.145 Y-22.467 E59.26489
G1 X-60.547 Y-22.534 E59.28792
G1 X-59.606 Y-22.551 E59.32394
G1 X41.908 Y-22.551 E63.20883
G1 F3600 E59.40883
;MESH:support_tri_0_082.stl
G0 F2040 X41.908 Y-20.041
G0 X41.908 Y-19.006
G0 X-59.563 Y-18.851
;TYPE:WALL-INNER
G1 F3600 E63.20883
G1 F1020 X41.676 Y-18.851 E67.0832
G1 X-5.966 Y67.037 E70.8419
G1 X-59.563 Y-18.851 E74.71628
G0 F2040 X-60.149 Y-19.176
;TYPE:WALL-OUTER
G1 F1020 X42.228 Y-19.176 E78.6342
G1 X-5.95 Y67.677 E82.43514
G1 X-60.149 Y-19.176 E86.35305
G0 F2040 X-59.949 Y-19.176
G0 X-59.949 Y-19.076
G0 X-58.951 Y-18.511
;TYPE:SKIN
G1 F1020 X41.099 Y-18.511 E90.18192
G1 X-5.983 Y66.367 E93.89642
G1 X-58.951 Y-18.511 E97.72527
G0 F2040 X-5.891 Y65.879
G1 F1020 X-6.448 Y65.322 E97.75541
G1 X-6.51 Y65.26
G0 F2040 X-5.715 Y65.56
G1 F1020 X-7.27 Y64.005 E97.83957
G1 X-7.332 Y63.943
G0 F2040 X-8.092 Y62.689
G1 F1020 X-5.538 Y65.242 E97.97777
G0 F2040 X-5.361 Y64.924
G1 F1020 X-8.913 Y61.372 E98.17001
G1 X-8.975 Y61.31
G0 F2040 X-9.735 Y60.055
G1 F1020 X-5.185 Y64.606 E98.41629
G0 F2040 X-5.009 Y64.287
G1 F1020 X-10.557 Y58.739 E98.71655
G1 X-10.619 Y58.677
G0 F2040 X-11.378 Y57.422
G1 F1020 X-4.832 Y63.969 E99.07086
G0 F2040 X-4.655 Y63.65
G1 F1020 X-12.2 Y56.106 E99.47917
G1 X-12.262 Y56.044
G0 F2040 X-13.022 Y54.789
G1 F1020 X-4.478 Y63.332 E99.94156
G0 F2040 X-4.302 Y63.013
G1 F1020 X-13.843 Y53.472 E100.45793
G1 X-13.905 Y53.41
G0 F2040 X-14.665 Y52.156
G1 F1020 X-4.125 Y62.695 E101.02834
G0 F2040 X-3.949 Y62.377
G1 F1020 X-15.487 Y50.839 E101.65279
G1 X-15.549 Y50.777
G0 F2040 X-16.308 Y49.522
G1 F1020 X-3.772 Y62.059 E102.33128
G0 F2040 X-3.596 Y61.74
G1 F1020 X-17.13 Y48.206 E103.06376
G1 X-17.192 Y48.144
G0 F2040 X-17.952 Y46.889
G1 F1020 X-3.419 Y61.422 E103.85031
G0 F2040 X-3.242 Y61.103
G1 F1020 X-18.773 Y45.573 E104.69084
G1 X-18.835 Y45.511
G0 F2040 X-19.595 Y44.256
G1 F1020 X-3.066 Y60.785 E105.58541
G0 F2040 X-2.889 Y60.466
G1 F1020 X-20.417 Y42.939 E106.53402
G1 X-20.479 Y42.877
G0 F2040 X-21.238 Y41.623
G1 F1020 X-2.713 Y60.148 E107.53661
G0 F2040 X-2.536 Y59.83
G1 F1020 X-22.06 Y40.306 E108.59328
G1 X-22.122 Y40.244
G0 F2040 X-22.881 Y38.989
G1 F1020 X-2.359 Y59.512 E109.70398
G0 F2040 X-2.182 Y59.194
G1 F1020 X-23.703 Y37.673 E110.86873
G1 X-23.765 Y37.611
G0 F2040 X-24.525 Y36.356
G1 F1020 X-2.006 Y58.875 E112.08748
G0 F2040 X-1.829 Y58.556
G1 F1020 X-25.346 Y35.039 E113.36025
G1 X-25.408 Y34.977
G0 F2040 X-26.168 Y33.723
G1 F1020 X-1.653 Y58.238 E114.68704
G0 F2040 X-1.476 Y57.92
G1 F1020 X-26.99 Y32.406 E116.06789
G1 X-27.052 Y32.344
G0 F2040 X-27.811 Y31.09
G1 F1020 X-1.3 Y57.601 E117.50269
G0 F2040 X-1.123 Y57.283
G1 F1020 X-28.633 Y29.773 E118.99157
G1 X-28.695 Y29.711
G0 F2040 X-29.455 Y28.456
G1 F1020 X-.946 Y56.965 E120.53451
G0 F2040 X-.77 Y56.647
G1 F1020 X-30.276 Y27.14 E122.13144
G1 X-30.338 Y27.078
G0 F2040 X-31.097 Y25.824
G1 F1020 X-.593 Y56.328 E123.78236
G0 F2040 X-.417 Y56.009
G1 F1020 X-31.919 Y24.507 E125.48729
G1 X-31.981 Y24.445
G0 F2040 X-32.741 Y23.19
G1 F1020 X-.24 Y55.691 E127.24628
G0 F2040 X-0.063 Y55.373
G1 F1020 X-33.562 Y21.874 E129.05929
G1 X-33.624 Y21.812
G0 F2040 X-34.384 Y20.557
G1 F1020 X0.112 Y55.054 E130.92629
G0 F2040 X0.289 Y54.736
G1 F1020 X-35.206 Y19.241 E132.84732
G1 X-35.268 Y19.179
G0 F2040 X-36.027 Y17.924
G1 F1020 X0.465 Y54.418 E134.82237
G0 F2040 X0.642 Y54.1
G1 F1020 X-36.849 Y16.607 E136.85148
G1 X-36.911 Y16.545
G0 F2040 X-37.671 Y15.291
G1 F1020 X0.818 Y53.781 E138.93458
G0 F2040 X0.995 Y53.462
G1 F1020 X-38.492 Y13.974 E141.0717
G1 X-38.554 Y13.912
G0 F2040 X-39.314 Y12.657
G1 F1020 X1.172 Y53.144 E143.26288
G0 F2040 X1.349 Y52.826
G1 F1020 X-40.136 Y11.341 E145.5081
G1 X-40.198 Y11.279
G0 F2040 X-40.957 Y10.024
G1 F1020 X1.525 Y52.507 E147.80731
G0 F2040 X1.702 Y52.189
G1 F1020 X-41.779 Y8.708 E150.16055
G1 X-41.841 Y8.646
G0 F2040 X-42.601 Y7.391
G1 F1020 X1.878 Y51.871 E152.56784
G0 F2040 X2.055 Y51.553
G1 F1020 X-43.422 Y6.074 E155.02917
G1 X-43.484 Y6.012
G0 F2040 X-44.244 Y4.758
G1 F1020 X2.231 Y51.234 E157.54448
G0 F2040 X2.408 Y50.915
G1 F1020 X-45.066 Y3.441 E160.11384
G1 X-45.128 Y3.379
G0 F2040 X-45.887 Y2.124
G1 F1020 X2.585 Y50.597 E162.73723
G0 F2040 X2.761 Y50.279
G1 F1020 X-46.709 Y0.808 E165.41463
G1 X-46.771 Y0.746
G0 F2040 X-47.531 Y-.508
G1 F1020 X2.938 Y49.96 E168.14605
G0 F2040 X3.114 Y49.642
G1 F1020 X-48.352 Y-1.825 E170.93149
G1 X-48.414 Y-1.887
G0 F2040 X-49.174 Y-3.141
G1 F1020 X3.291 Y49.324 E173.77096
G0 F2040 X3.468 Y49.006
G1 F1020 X-49.995 Y-4.458 E176.66447
G1 X-50.057 Y-4.52
G0 F2040 X-50.817 Y-5.774
G1 F1020 X3.644 Y48.687 E179.61197
G0 F2040 X3.821 Y48.368
G1 F1020 X-51.639 Y-7.091 E182.61351
G1 X-51.701 Y-7.153
G0 F2040 X-52.46 Y-8.408
G1 F1020 X3.997 Y48.05 E185.66906
G0 F2040 X4.174 Y47.732
G1 F1020 X-53.282 Y-9.724 E188.77865
G1 X-53.344 Y-9.786
G0 F2040 X-54.104 Y-11.041
G1 F1020 X4.35 Y47.413 E191.94226
G0 F2040 X4.527 Y47.095
G1 F1020 X-54.925 Y-12.358 E195.1599
G1 X-54.987 Y-12.42
G0 F2040 X-55.747 Y-13.674
G1 F1020 X4.704 Y46.777 E198.43159
G0 F2040 X4.881 Y46.459
G1 F1020 X-56.569 Y-14.991 E201.75734
G1 X-56.631 Y-15.053
G0 F2040 X-57.39 Y-16.308
G1 F1020 X5.057 Y46.14 E205.13708
G0 F2040 X5.234 Y45.821
G1 F1020 X-58.212 Y-17.624 E208.57083
G1 X-58.274 Y-17.686
G0 F2040 X-58.446 Y-18.353
G1 F1020 X5.41 Y45.503 E212.0268
G0 F2040 X5.587 Y45.185
G1 F1020 X-57.951 Y-18.353 E215.46556
G0 F2040 X-57.456 Y-18.353
G1 F1020 X5.764 Y44.867 E218.8871
G0 F2040 X5.94 Y44.548
G1 F1020 X-56.961 Y-18.353 E222.29139
G0 F2040 X-56.466 Y-18.353
G1 F1020 X6.117 Y44.23 E225.67846
G0 F2040 X6.293 Y43.912
G1 F1020 X-55.971 Y-18.353 E229.04829
G0 F2040 X-55.476 Y-18.353
G1 F1020 X6.47 Y43.593 E232.40089
G0 F2040 X6.646 Y43.274
G1 F1020 X-54.981 Y-18.353 E235.73622
G0 F2040 X-54.486 Y-18.353
G1 F1020 X6.823 Y42.956 E239.05434
G0 F2040 X7 Y42.638
G1 F1020 X-53.991 Y-18.353 E242.35525
G0 F2040 X-53.496 Y-18.353
G1 F1020 X7.177 Y42.32 E245.63895
G0 F2040 X7.353 Y42.001
G1 F1020 X-53.001 Y-18.353 E248.90539
G0 F2040 X-52.506 Y-18.353
G1 F1020 X7.529 Y41.683 E252.15458
G0 F2040 X7.706 Y41.365
G1 F1020 X-52.011 Y-18.353 E255.38657
G0 F2040 X-51.516 Y-18.353
G1 F1020 X7.883 Y41.046 E258.60132
G0 F2040 X8.059 Y40.727
G1 F1020 X-51.021 Y-18.353 E261.79881
G0 F2040 X-50.527 Y-18.353
G1 F1020 X8.236 Y40.409 E264.97911
G0 F2040 X8.413 Y40.091
G1 F1020 X-50.032 Y-18.353 E268.1422
G0 F2040 X-49.537 Y-18.353
G1 F1020 X8.589 Y39.773 E271.28805
G0 F2040 X8.766 Y39.454
G1 F1020 X-49.042 Y-18.353 E274.41667
G0 F2040 X-48.547 Y-18.353
G1 F1020 X8.942 Y39.136 E277.52805
G0 F2040 X9.119 Y38.818
G1 F1020 X-48.052 Y-18.353 E280.62221
G0 F2040 X-47.557 Y-18.353
G1 F1020 X9.296 Y38.499 E283.69914
G0 F2040 X9.472 Y38.18
G1 F1020 X-47.062 Y-18.353 E286.75881
G0 F2040 X-46.567 Y-18.353
G1 F1020 X9.649 Y37.862 E289.80126
G0 F2040 X9.825 Y37.544
G1 F1020 X-46.072 Y-18.353 E292.82648
G0 F2040 X-45.577 Y-18.353
G1 F1020 X10.002 Y37.226 E295.83448
G0 F2040 X10.178 Y36.907
G1 F1020 X-45.082 Y-18.353 E298.82523
G0 F2040 X-44.587 Y-18.353
G1 F1020 X10.355 Y36.589 E301.79876
G0 F2040 X10.532 Y36.271
G1 F1020 X-44.092 Y-18.353 E304.75508
G0 F2040 X-43.597 Y-18.353
G1 F1020 X10.709 Y35.952 E307.69416
G0 F2040 X10.885 Y35.633
G1 F1020 X-43.102 Y-18.353 E310.61598
G0 F2040 X-42.607 Y-18.353
G1 F1020 X11.061 Y35.315 E313.52056
G0 F2040 X11.238 Y34.997
G1 F1020 X-42.112 Y-18.353 E316.40793
G0 F2040 X-41.617 Y-18.353
G1 F1020 X11.415 Y34.679 E319.27809
G0 F2040 X11.591 Y34.36
G1 F1020 X-41.122 Y-18.353 E322.13098
G0 F2040 X-40.627 Y-18.353
G1 F1020 X11.768 Y34.042 E324.96667
G0 F2040 X11.945 Y33.724
G1 F1020 X-40.132 Y-18.353 E327.78514
G0 F2040 X-39.637 Y-18.353
G1 F1020 X12.121 Y33.405 E330.58635
G0 F2040 X12.298 Y33.086
G1 F1020 X-39.142 Y-18.353 E333.37032
G0 F2040 X-38.647 Y-18.353
G1 F1020 X12.474 Y32.768 E336.13706
G0 F2040 X12.651 Y32.45
G1 F1020 X-38.152 Y-18.353 E338.88658
