;FLAVOR:Marlin
;TIME:7354
;Filament used: 7.01139m
;Layer height: 0.2
;MINX:-41.621
;MINY:-74.416
;MINZ:0.26
;MAXX:68.608
;MAXY:24.126
;MAXZ:13.26
;Generated with Cura_SteamEngine 4.8.0
M82 ;absolute extrusion mode
;Gcode by Cura
G90
G28
M107
M109 R100
G30
M109 S215 U-55 X55 V-85 Y-85 W0.26 Z0.26
M82
G92 E0
G1 F200 E6
G92 E0
G1 F200 E-3.5
G0 Z0.15
G0 X10
G0 Z3
G1 F6000
G92 E0
G92 E0
G1 F3600 E-3.8
;LAYER_COUNT:66
;LAYER:0
M107
G0 F2040 X-36.417 Y24.126 Z0.26
;TYPE:SKIRT
G1 F3600 E0
G1 F1020 X-37.108 Y24.117 E0.02645
G1 X-37.71 Y24.069 E0.04956
G1 X-38.302 Y23.942 E0.07273
G1 X-38.871 Y23.738 E0.09586
G1 X-39.408 Y23.461 E0.11899
G1 X-39.904 Y23.116 E0.14211
G1 X-40.351 Y22.708 E0.16527
G1 X-40.739 Y22.245 E0.18839
G1 X-41.064 Y21.734 E0.21156
G1 X-41.318 Y21.185 E0.23471
G1 X-41.497 Y20.608 E0.25783
G1 X-41.599 Y20.012 E0.28097
G1 X-41.621 Y19.408 E0.3041
G1 X-41.563 Y18.806 E0.32725
G1 X-41.427 Y18.217 E0.35038
G1 X-41.214 Y17.651 E0.37352
G1 X-40.917 Y17.088 E0.39788
G1 X-40.705 Y16.729 E0.41384
G1 X12.588 Y-71.683 E4.36447
G1 X12.945 Y-72.258 E4.39038
G1 X13.297 Y-72.75 E4.41353
G1 X13.711 Y-73.19 E4.43665
G1 X14.18 Y-73.573 E4.45982
G1 X14.695 Y-73.89 E4.48296
G1 X15.247 Y-74.137 E4.50611
G1 X15.826 Y-74.308 E4.52921
G1 X16.424 Y-74.402 E4.55238
G1 X17.028 Y-74.416 E4.5755
G1 X17.629 Y-74.35 E4.59864
G1 X18.216 Y-74.206 E4.62177
G1 X18.779 Y-73.985 E4.64491
G1 X19.308 Y-73.692 E4.66806
G1 X19.794 Y-73.332 E4.6912
G1 X20.228 Y-72.911 E4.71434
G1 X20.603 Y-72.436 E4.7375
G1 X21.068 Y-71.638 E4.77285
G1 X67.771 Y16.79 E8.59993
G1 X68.11 Y17.45 E8.62832
G1 X68.35 Y18.005 E8.65146
G1 X68.515 Y18.586 E8.67458
G1 X68.601 Y19.185 E8.69774
G1 X68.608 Y19.789 E8.72085
G1 X68.535 Y20.39 E8.74402
G1 X68.384 Y20.975 E8.76714
G1 X68.157 Y21.535 E8.79027
G1 X67.858 Y22.061 E8.81342
G1 X67.492 Y22.542 E8.83655
G1 X67.066 Y22.971 E8.85969
G1 X66.587 Y23.34 E8.88283
G1 X66.064 Y23.643 E8.90596
G1 X65.505 Y23.874 E8.92911
G1 X64.92 Y24.029 E8.95227
G1 X64.228 Y24.111 E8.97894
G1 X63.622 Y24.126 E9.00213
G1 X-36.417 Y24.126 E12.83058
G0 F2040 X-36.412 Y23.776
G1 F1020 X-37.103 Y23.767 E12.85703
G1 X-37.682 Y23.719 E12.87926
G1 X-38.249 Y23.593 E12.90149
G1 X-38.794 Y23.39 E12.92374
G1 X-39.305 Y23.114 E12.94597
G1 X-39.774 Y22.77 E12.96823
G1 X-40.191 Y22.366 E12.99045
G1 X-40.548 Y21.908 E13.01267
G1 X-40.84 Y21.405 E13.03493
G1 X-41.06 Y20.867 E13.05717
G1 X-41.204 Y20.304 E13.07941
G1 X-41.269 Y19.727 E13.10163
G1 X-41.254 Y19.146 E13.12388
G1 X-41.16 Y18.573 E13.1461
G1 X-40.989 Y18.018 E13.16832
G1 X-40.749 Y17.505 E13.19
G1 X-40.426 Y16.944 E13.21477
G1 X12.886 Y-71.499 E17.1668
G1 X13.243 Y-72.074 E17.1927
G1 X13.582 Y-72.545 E17.21491
G1 X13.983 Y-72.965 E17.23713
G1 X14.438 Y-73.327 E17.25938
G1 X14.939 Y-73.622 E17.28163
G1 X15.475 Y-73.846 E17.30386
G1 X16.037 Y-73.994 E17.3261
G1 X16.613 Y-74.064 E17.34831
G1 X17.194 Y-74.054 E17.37055
G1 X17.768 Y-73.965 E17.39278
G1 X18.325 Y-73.797 E17.41504
G1 X18.853 Y-73.555 E17.43727
G1 X19.343 Y-73.243 E17.4595
G1 X19.785 Y-72.866 E17.48173
G1 X20.172 Y-72.433 E17.50396
G1 X20.532 Y-71.886 E17.52902
G1 X20.798 Y-71.401 E17.55019
G1 X67.459 Y16.95 E21.37391
G1 X67.798 Y17.61 E21.40231
G1 X68.028 Y18.144 E21.42456
G1 X68.181 Y18.704 E21.44677
G1 X68.257 Y19.28 E21.46901
G1 X68.253 Y19.861 E21.49124
G1 X68.169 Y20.436 E21.51348
G1 X68.007 Y20.994 E21.53572
G1 X67.77 Y21.524 E21.55794
G1 X67.462 Y22.017 E21.58018
G1 X67.09 Y22.463 E21.60241
G1 X66.66 Y22.854 E21.62465
G1 X66.181 Y23.182 E21.64687
G1 X65.661 Y23.442 E21.66912
G1 X65.11 Y23.627 E21.69136
G1 X64.539 Y23.735 E21.7136
G1 X64.018 Y23.769 E21.73358
G1 X63.618 Y23.776 E21.74889
G1 X-36.412 Y23.776 E25.57699
G0 F2040 X-36.407 Y23.426
G1 F1020 X-37.098 Y23.417 E25.60344
G1 X-37.653 Y23.369 E25.62475
G1 X-38.195 Y23.243 E25.64605
G1 X-38.713 Y23.041 E25.66733
G1 X-39.197 Y22.766 E25.68863
G1 X-39.637 Y22.425 E25.70993
G1 X-40.023 Y22.025 E25.73121
G1 X-40.348 Y21.573 E25.75251
G1 X-40.605 Y21.08 E25.77379
G1 X-40.788 Y20.554 E25.7951
G1 X-40.895 Y20.008 E25.8164
G1 X-40.922 Y19.453 E25.83766
G1 X-40.869 Y18.899 E25.85896
G1 X-40.738 Y18.358 E25.88026
G1 X-40.443 Y17.674 E25.90877
G1 X-40.124 Y17.122 E25.93317
G1 X13.183 Y-71.314 E29.88486
G1 X13.54 Y-71.889 E29.91077
G1 X13.867 Y-72.339 E29.93205
G1 X14.254 Y-72.738 E29.95333
G1 X14.695 Y-73.078 E29.97464
G1 X15.18 Y-73.35 E29.99592
G1 X15.699 Y-73.551 E30.01722
G1 X16.242 Y-73.675 E30.03853
G1 X16.796 Y-73.72 E30.0598
G1 X17.352 Y-73.685 E30.08112
G1 X17.896 Y-73.571 E30.10239
G1 X18.419 Y-73.38 E30.1237
G1 X18.909 Y-73.116 E30.145
G1 X19.356 Y-72.785 E30.16629
G1 X19.751 Y-72.393 E30.18758
G1 X20.225 Y-71.716 E30.21921
G1 X20.488 Y-71.238 E30.24009
G1 X67.148 Y17.11 E34.0637
G1 X67.487 Y17.77 E34.09209
G1 X67.705 Y18.281 E34.11335
G1 X67.847 Y18.819 E34.13465
G1 X67.911 Y19.372 E34.15595
G1 X67.896 Y19.928 E34.17724
G1 X67.8 Y20.476 E34.19853
G1 X67.627 Y21.005 E34.21983
G1 X67.38 Y21.504 E34.24114
G1 X67.065 Y21.962 E34.26241
G1 X66.687 Y22.37 E34.28369
G1 X66.254 Y22.72 E34.305
G1 X65.776 Y23.005 E34.3263
G1 X65.262 Y23.217 E34.34758
G1 X64.722 Y23.354 E34.3689
G1 X64.199 Y23.412 E34.38903
G1 X63.615 Y23.426 E34.41139
G1 X-36.407 Y23.426 E38.23918
G0 F2040 X-36.403 Y23.076
G1 F1020 X-37.094 Y23.067 E38.26563
G1 X-37.622 Y23.02 E38.28592
G1 X-38.138 Y22.894 E38.30624
G1 X-38.629 Y22.693 E38.32655
G1 X-39.084 Y22.42 E38.34685
G1 X-39.493 Y22.081 E38.36718
G1 X-39.846 Y21.686 E38.38746
G1 X-40.136 Y21.241 E38.40778
G1 X-40.357 Y20.758 E38.42811
G1 X-40.502 Y20.248 E38.4484
G1 X-40.568 Y19.721 E38.46873
G1 X-40.555 Y19.191 E38.48902
G1 X-40.463 Y18.668 E38.50934
G1 X-40.293 Y18.166 E38.52962
G1 X-40.065 Y17.713 E38.54903
G1 X-39.806 Y17.271 E38.56864
G1 X13.48 Y-71.129 E42.51874
G1 X13.837 Y-71.704 E42.54464
G1 X14.15 Y-72.133 E42.56496
G1 X14.524 Y-72.509 E42.58526
G1 X14.95 Y-72.826 E42.60558
G1 X15.419 Y-73.074 E42.62588
G1 X15.92 Y-73.25 E42.64621
G1 X16.441 Y-73.348 E42.66649
G1 X16.972 Y-73.367 E42.68683
G1 X17.499 Y-73.306 E42.70713
G1 X18.011 Y-73.167 E42.72743
G1 X18.496 Y-72.952 E42.74774
G1 X18.944 Y-72.667 E42.76806
G1 X19.344 Y-72.318 E42.78837
G1 X19.686 Y-71.913 E42.80866
G1 X20.149 Y-71.13 E42.84347
G1 X66.837 Y17.269 E46.6693
G1 X67.176 Y17.929 E46.6977
G1 X67.382 Y18.418 E46.718
G1 X67.512 Y18.933 E46.73833
G1 X67.564 Y19.461 E46.75863
G1 X67.536 Y19.991 E46.77895
G1 X67.429 Y20.511 E46.79926
G1 X67.245 Y21.008 E46.81954
G1 X66.988 Y21.473 E46.83988
G1 X66.664 Y21.893 E46.86018
G1 X66.281 Y22.261 E46.8805
G1 X65.848 Y22.566 E46.90077
G1 X65.373 Y22.803 E46.92109
G1 X64.868 Y22.966 E46.9414
G1 X64.184 Y23.062 E46.96783
G1 X63.611 Y23.076 E46.98976
G1 X-36.403 Y23.076 E50.81725
G0 F2040 X-36.398 Y22.726
G1 F1020 X-37.089 Y22.717 E50.8437
G1 X-37.591 Y22.67 E50.86299
G1 X-38.079 Y22.545 E50.88227
G1 X-38.54 Y22.344 E50.90152
G1 X-38.965 Y22.073 E50.92081
G1 X-39.341 Y21.738 E50.94008
G1 X-39.659 Y21.348 E50.95934
G1 X-39.912 Y20.913 E50.9786
G1 X-40.093 Y20.442 E50.99791
G1 X-40.197 Y19.95 E51.01715
G1 X-40.222 Y19.447 E51.03642
G1 X-40.167 Y18.946 E51.05571
G1 X-40.033 Y18.461 E51.07497
G1 X-39.759 Y17.882 E51.09948
G1 X-39.506 Y17.452 E51.11857
G1 X13.778 Y-70.945 E55.06854
G1 X14.135 Y-71.52 E55.09444
G1 X14.433 Y-71.925 E55.11368
G1 X14.792 Y-72.278 E55.13295
G1 X15.203 Y-72.57 E55.15225
G1 X15.654 Y-72.793 E55.1715
G1 X16.135 Y-72.943 E55.19078
G1 X16.634 Y-73.014 E55.21007
G1 X17.137 Y-73.005 E55.22932
G1 X17.633 Y-72.917 E55.2486
G1 X18.109 Y-72.752 E55.26788
G1 X18.552 Y-72.514 E55.28713
G1 X18.953 Y-72.208 E55.30643
G1 X19.3 Y-71.843 E55.3257
G1 X19.612 Y-71.378 E55.34713
G1 X19.87 Y-70.911 E55.36755
G1 X66.525 Y17.429 E59.1908
G1 X66.864 Y18.089 E59.21919
G1 X67.058 Y18.554 E59.23848
G1 X67.176 Y19.044 E59.25776
G1 X67.215 Y19.546 E59.27703
G1 X67.174 Y20.048 E59.29631
G1 X67.054 Y20.537 E59.31558
G1 X66.859 Y21.001 E59.33484
G1 X66.592 Y21.428 E59.35411
G1 X66.262 Y21.808 E59.37337
G1 X65.875 Y22.131 E59.39266
G1 X65.442 Y22.388 E59.41193
G1 X64.974 Y22.574 E59.43121
G1 X64.483 Y22.684 E59.45046
G1 X63.975 Y22.72 E59.46995
G1 X63.607 Y22.726 E59.48404
G1 X-36.398 Y22.726 E63.31118
G1 F3600 E59.51118
;MESH:support_tri_0_060.stl
G0 F2040 X-36.397 Y20.216
G0 X-36.397 Y19.191
G0 X63.184 Y19.026
;TYPE:WALL-INNER
G1 F3600 E63.31118
G1 F1020 X-36.135 Y19.026 E67.11207
G1 X16.802 Y-68.798 E71.0364
G1 X63.184 Y19.026 E74.83731
G0 F2040 X63.723 Y19.351
;TYPE:WALL-OUTER
G1 F1020 X-36.71 Y19.351 E78.68083
G1 X16.821 Y-69.458 E82.64918
G1 X63.723 Y19.351 E86.49271
G0 F2040 X63.523 Y19.351
G0 X63.389 Y19.15
G0 X62.619 Y18.686
;TYPE:SKIN
G1 F1020 X-35.533 Y18.686 E90.24894
G1 X16.782 Y-68.107 E94.12719
G1 X62.619 Y18.686 E97.88347
G0 F2040 X-35.132 Y18.324
G1 F1020 X-34.928 Y18.529 E97.89453
G0 F2040 X-34.433 Y18.529
G1 F1020 X-34.945 Y18.016 E97.92227
G0 F2040 X-34.759 Y17.707
G1 F1020 X-33.938 Y18.529 E97.96673
G0 F2040 X-33.443 Y18.529
G1 F1020 X-34.573 Y17.398 E98.02792
G0 F2040 X-34.388 Y17.089
G1 F1020 X-32.948 Y18.529 E98.10585
G0 F2040 X-32.453 Y18.529
G1 F1020 X-34.201 Y16.781 E98.20045
G0 F2040 X-34.015 Y16.472
G1 F1020 X-31.958 Y18.529 E98.31178
G0 F2040 X-31.463 Y18.529
G1 F1020 X-33.829 Y16.163 E98.43983
G0 F2040 X-33.643 Y15.854
G1 F1020 X-30.968 Y18.529 E98.58461
G0 F2040 X-30.473 Y18.529
G1 F1020 X-33.456 Y15.545 E98.74608
G0 F2040 X-33.27 Y15.236
G1 F1020 X-29.978 Y18.529 E98.92427
G0 F2040 X-29.483 Y18.529
G1 F1020 X-33.084 Y14.927 E99.11919
G0 F2040 X-32.898 Y14.618
G1 F1020 X-28.988 Y18.529 E99.33083
G0 F2040 X-28.493 Y18.529
G1 F1020 X-32.712 Y14.31 E99.55917
G0 F2040 X-32.526 Y14.001
G1 F1020 X-27.998 Y18.529 E99.80423
G0 F2040 X-27.503 Y18.529
G1 F1020 X-32.34 Y13.692 E100.06602
G0 F2040 X-32.153 Y13.384
G1 F1020 X-27.008 Y18.529 E100.34447
G0 F2040 X-26.513 Y18.529
G1 F1020 X-31.967 Y13.075 E100.63965
G0 F2040 X-31.781 Y12.766
G1 F1020 X-26.018 Y18.529 E100.95155
G0 F2040 X-25.523 Y18.529
G1 F1020 X-31.595 Y12.457 E101.28017
G0 F2040 X-31.408 Y12.148
G1 F1020 X-25.028 Y18.529 E101.62549
G0 F2040 X-24.533 Y18.529
G1 F1020 X-31.223 Y11.839 E101.98756
G0 F2040 X-31.037 Y11.53
G1 F1020 X-24.038 Y18.529 E102.36636
G0 F2040 X-23.543 Y18.529
G1 F1020 X-30.851 Y11.221 E102.76188
G0 F2040 X-30.664 Y10.913
G1 F1020 X-23.048 Y18.529 E103.17406
G0 F2040 X-22.553 Y18.529
G1 F1020 X-30.478 Y10.604 E103.60298
G0 F2040 X-30.292 Y10.295
G1 F1020 X-22.058 Y18.529 E104.04861
G0 F2040 X-21.563 Y18.529
G1 F1020 X-30.106 Y9.986 E104.51097
G0 F2040 X-29.919 Y9.678
G1 F1020 X-21.068 Y18.529 E104.99
G0 F2040 X-20.573 Y18.529
G1 F1020 X-29.733 Y9.369 E105.48575
G0 F2040 X-29.547 Y9.06
G1 F1020 X-20.079 Y18.529 E105.99819
G0 F2040 X-19.584 Y18.529
G1 F1020 X-29.361 Y8.751 E106.52736
G0 F2040 X-29.175 Y8.442
G1 F1020 X-19.089 Y18.529 E107.07326
G0 F2040 X-18.594 Y18.529
G1 F1020 X-28.989 Y8.133 E107.63588
G0 F2040 X-28.803 Y7.824
G1 F1020 X-18.099 Y18.529 E108.21522
G0 F2040 X-17.604 Y18.529
G1 F1020 X-28.617 Y7.515 E108.81128
G0 F2040 X-28.43 Y7.207
G1 F1020 X-17.109 Y18.529 E109.42402
G0 F2040 X-16.614 Y18.529
G1 F1020 X-28.244 Y6.898 E110.05347
G0 F2040 X-28.058 Y6.589
G1 F1020 X-16.119 Y18.529 E110.69965
G0 F2040 X-15.624 Y18.529
G1 F1020 X-27.872 Y6.28 E111.36256
G0 F2040 X-27.686 Y5.972
G1 F1020 X-15.129 Y18.529 E112.04216
G0 F2040 X-14.634 Y18.529
G1 F1020 X-27.5 Y5.663 E112.73848
G0 F2040 X-27.314 Y5.354
G1 F1020 X-14.139 Y18.529 E113.45153
G0 F2040 X-13.644 Y18.529
G1 F1020 X-27.128 Y5.045 E114.1813
G0 F2040 X-26.941 Y4.736
G1 F1020 X-13.149 Y18.529 E114.92777
G0 F2040 X-12.654 Y18.529
G1 F1020 X-26.755 Y4.427 E115.69096
G0 F2040 X-26.569 Y4.118
G1 F1020 X-12.159 Y18.529 E116.47088
G0 F2040 X-11.664 Y18.529
G1 F1020 X-26.383 Y3.809 E117.26752
G0 F2040 X-26.196 Y3.501
G1 F1020 X-11.169 Y18.529 E118.08082
G0 F2040 X-10.674 Y18.529
G1 F1020 X-26.01 Y3.192 E118.91085
G0 F2040 X-25.824 Y2.883
G1 F1020 X-10.179 Y18.529 E119.75761
G0 F2040 X-9.684 Y18.529
G1 F1020 X-25.638 Y2.574 E120.62109
G0 F2040 X-25.452 Y2.266
G1 F1020 X-9.189 Y18.529 E121.50126
G0 F2040 X-8.694 Y18.529
G1 F1020 X-25.266 Y1.957 E122.39816
G0 F2040 X-25.08 Y1.648
G1 F1020 X-8.199 Y18.529 E123.31178
G0 F2040 X-7.704 Y18.529
G1 F1020 X-24.894 Y1.339 E124.24212
G0 F2040 X-24.707 Y1.03
G1 F1020 X-7.209 Y18.529 E125.18916
G0 F2040 X-6.714 Y18.529
G1 F1020 X-24.521 Y0.721 E126.15293
G0 F2040 X-24.335 Y0.412
G1 F1020 X-6.219 Y18.529 E127.13342
G0 F2040 X-5.724 Y18.529
G1 F1020 X-24.149 Y0.103 E128.13063
G0 F2040 X-23.963 Y-.204
G1 F1020 X-5.229 Y18.529 E129.14451
G0 F2040 X-4.734 Y18.529
G1 F1020 X-23.777 Y-.513 E130.17511
G0 F2040 X-23.591 Y-.822
G1 F1020 X-4.239 Y18.529 E131.22244
G0 F2040 X-3.744 Y18.529
G1 F1020 X-23.405 Y-1.131 E132.28649
G0 F2040 X-23.218 Y-1.439
G1 F1020 X-3.249 Y18.529 E133.36721
G0 F2040 X-2.754 Y18.529
G1 F1020 X-23.032 Y-1.748 E134.46466
G0 F2040 X-22.846 Y-2.057
G1 F1020 X-2.259 Y18.529 E135.57883
G0 F2040 X-1.764 Y18.529
G1 F1020 X-22.66 Y-2.366 E136.70972
G0 F2040 X-22.473 Y-2.674
G1 F1020 X-1.269 Y18.529 E137.85728
G0 F2040 X-.774 Y18.529
G1 F1020 X-22.288 Y-2.983 E139.02159
G0 F2040 X-22.102 Y-3.292
G1 F1020 X-.28 Y18.529 E140.2026
G0 F2040 X0.214 Y18.529
G1 F1020 X-21.916 Y-3.602 E141.40033
G0 F2040 X-21.729 Y-3.91
G1 F1020 X0.709 Y18.529 E142.61473
G0 F2040 X1.204 Y18.529
G1 F1020 X-21.543 Y-4.219 E143.84585
G0 F2040 X-21.357 Y-4.528
G1 F1020 X1.699 Y18.529 E145.0937
G0 F2040 X2.194 Y18.529
G1 F1020 X-21.171 Y-4.837 E146.35827
G0 F2040 X-20.984 Y-5.145
G1 F1020 X2.689 Y18.529 E147.63951
G0 F2040 X3.184 Y18.529
G1 F1020 X-20.798 Y-5.454 E148.93747
G0 F2040 X-20.612 Y-5.763
G1 F1020 X3.679 Y18.529 E150.25216
G0 F2040 X4.174 Y18.529
G1 F1020 X-20.426 Y-6.072 E151.58357
G0 F2040 X-20.24 Y-6.38
G1 F1020 X4.669 Y18.529 E152.93168
G0 F2040 X5.164 Y18.529
G1 F1020 X-20.054 Y-6.689 E154.29651
G0 F2040 X-19.868 Y-6.998
G1 F1020 X5.659 Y18.529 E155.67806
G0 F2040 X6.154 Y18.529
G1 F1020 X-19.682 Y-7.307 E157.07634
G0 F2040 X-19.495 Y-7.616
G1 F1020 X6.649 Y18.529 E158.49131
G0 F2040 X7.144 Y18.529
G1 F1020 X-19.309 Y-7.925 E159.92301
G0 F2040 X-19.123 Y-8.234
G1 F1020 X7.639 Y18.529 E161.37143
G0 F2040 X8.134 Y18.529
G1 F1020 X-18.937 Y-8.542 E162.83655
G0 F2040 X-18.751 Y-8.851
G1 F1020 X8.629 Y18.529 E164.31839
G0 F2040 X9.124 Y18.529
G1 F1020 X-18.565 Y-9.16 E165.81695
G0 F2040 X-18.379 Y-9.469
G1 F1020 X9.619 Y18.529 E167.33224
G0 F2040 X10.114 Y18.529
G1 F1020 X-18.192 Y-9.777 E168.86419
G0 F2040 X-18.006 Y-10.086
G1 F1020 X10.609 Y18.529 E170.41287
G0 F2040 X11.104 Y18.529
G1 F1020 X-17.82 Y-10.395 E171.97828
G0 F2040 X-17.634 Y-10.704
G1 F1020 X11.599 Y18.529 E173.56041
G0 F2040 X12.094 Y18.529
G1 F1020 X-17.447 Y-11.013 E175.15923
G0 F2040 X-17.261 Y-11.322
G1 F1020 X12.589 Y18.529 E176.77478
G0 F2040 X13.084 Y18.529
G1 F1020 X-17.075 Y-11.631 E178.40705
G0 F2040 X-16.889 Y-11.94
G1 F1020 X13.579 Y18.529 E180.05604
G0 F2040 X14.074 Y18.529
G1 F1020 X-16.703 Y-12.248 E181.72173
G0 F2040 X-16.517 Y-12.557
G1 F1020 X14.569 Y18.529 E183.40415
G0 F2040 X15.064 Y18.529
G1 F1020 X-16.331 Y-12.866 E185.10328
G0 F2040 X-16.145 Y-13.175
G1 F1020 X15.559 Y18.529 E186.81914
G0 F2040 X16.054 Y18.529
G1 F1020 X-15.958 Y-13.483 E188.55167
G0 F2040 X-15.772 Y-13.792
G1 F1020 X16.549 Y18.529 E190.30093
G0 F2040 X17.044 Y18.529
G1 F1020 X-15.586 Y-14.101 E192.0669
G0 F2040 X-15.4 Y-14.41
G1 F1020 X17.539 Y18.529 E193.84961
G0 F2040 X18.034 Y18.529
G1 F1020 X-15.214 Y-14.719 E195.64903
G0 F2040 X-15.028 Y-15.028
G1 F1020 X18.529 Y18.529 E197.46518
G0 F2040 X19.024 Y18.529
G1 F1020 X-14.842 Y-15.337 E199.29805
G0 F2040 X-14.656 Y-15.646
G1 F1020 X19.518 Y18.529 E201.14762
G0 F2040 X20.013 Y18.529
G1 F1020 X-14.469 Y-15.954 E203.01385
G0 F2040 X-14.283 Y-16.263
G1 F1020 X20.508 Y18.529 E204.89681
G0 F2040 X21.003 Y18.529
G1 F1020 X-14.097 Y-16.572 E206.7965
G0 F2040 X-13.911 Y-16.881
G1 F1020 X21.498 Y18.529 E208.7129
G0 F2040 X21.993 Y18.529
G1 F1020 X-13.724 Y-17.189 E210.64598
G0 F2040 X-13.538 Y-17.498
G1 F1020 X22.488 Y18.529 E212.59578
G0 F2040 X22.983 Y18.529
G1 F1020 X-13.353 Y-17.807 E214.56233
G0 F2040 X-13.167 Y-18.116
G1 F1020 X23.478 Y18.529 E216.5456
