;FLAVOR:Marlin
;TIME:7453
;Filament used: 7.05113m
;Layer height: 0.2
;MINX:-67.054
;MINY:-24.987
;MINZ:0.26
;MAXX:42.051
;MAXY:75.796
;MAXZ:13.06
;Generated with Cura_SteamEngine 4.8.0
M82 ;absolute extrusion mode
;Gcode by Cura
G90
G28
M107
M109 R100
G30
M109 S215 U-55 X55 V-85 Y-85 W0.26 Z0.26
M82
G92 E0
G1 F200 E6
G92 E0
G1 F200 E-3.5
G0 Z0.15
G0 X10
G0 Z3
G1 F6000
G92 E0
G92 E0
G1 F3600 E-3.8
;LAYER_COUNT:65
;LAYER:0
M107
G0 F2040 X36.86 Y-24.987 Z0.26
;TYPE:SKIRT
G1 F3600 E0
G1 F1020 X37.545 Y-24.977 E0.02622
G1 X38.147 Y-24.928 E0.04933
G1 X38.738 Y-24.8 E0.07247
G1 X39.307 Y-24.595 E0.09562
G1 X39.844 Y-24.317 E0.11876
G1 X40.34 Y-23.971 E0.1419
G1 X40.786 Y-23.563 E0.16504
G1 X41.174 Y-23.099 E0.18818
G1 X41.497 Y-22.588 E0.21132
G1 X41.75 Y-22.039 E0.23445
G1 X41.929 Y-21.461 E0.25761
G1 X42.03 Y-20.865 E0.28074
G1 X42.051 Y-20.261 E0.30387
G1 X41.992 Y-19.659 E0.32702
G1 X41.855 Y-19.07 E0.35016
G1 X41.529 Y-18.275 E0.38305
G1 X41.085 Y-17.432 E0.41951
G1 X-8.145 Y72.809 E4.35346
G1 X-8.512 Y73.462 E4.38213
G1 X-8.842 Y73.969 E4.40528
G1 X-9.236 Y74.427 E4.4284
G1 X-9.688 Y74.83 E4.45158
G1 X-10.188 Y75.169 E4.47469
G1 X-10.729 Y75.439 E4.49783
G1 X-11.301 Y75.636 E4.52099
G1 X-11.894 Y75.756 E4.54414
G1 X-12.497 Y75.796 E4.56727
G1 X-13.1 Y75.756 E4.59039
G1 X-13.693 Y75.638 E4.61353
G1 X-14.265 Y75.442 E4.63667
G1 X-14.806 Y75.172 E4.65981
G1 X-15.307 Y74.834 E4.68294
G1 X-15.759 Y74.432 E4.70609
G1 X-16.154 Y73.974 E4.72923
G1 X-16.453 Y73.525 E4.74988
G1 X-16.758 Y72.987 E4.77355
G1 X-66.208 Y-17.659 E8.72514
G1 X-66.523 Y-18.252 E8.75084
G1 X-66.771 Y-18.803 E8.77396
G1 X-66.944 Y-19.383 E8.79712
G1 X-67.039 Y-19.98 E8.82026
G1 X-67.054 Y-20.584 E8.84338
G1 X-66.99 Y-21.186 E8.86655
G1 X-66.846 Y-21.773 E8.88968
G1 X-66.627 Y-22.336 E8.9128
G1 X-66.335 Y-22.866 E8.93595
G1 X-65.976 Y-23.352 E8.95908
G1 X-65.556 Y-23.787 E8.98222
G1 X-65.082 Y-24.163 E9.00537
G1 X-64.563 Y-24.473 E9.02851
G1 X-64.007 Y-24.712 E9.05167
G1 X-63.425 Y-24.875 E9.0748
G1 X-62.559 Y-24.972 E9.10815
G1 X-61.638 Y-24.987 E9.1434
G1 X36.86 Y-24.987 E12.91287
G0 F2040 X36.855 Y-24.637
G1 F1020 X37.54 Y-24.627 E12.93909
G1 X38.119 Y-24.578 E12.96132
G1 X38.686 Y-24.451 E12.98356
G1 X39.23 Y-24.247 E13.00579
G1 X39.741 Y-23.97 E13.02804
G1 X40.209 Y-23.626 E13.05027
G1 X40.625 Y-23.221 E13.07248
G1 X40.982 Y-22.762 E13.09474
G1 X41.273 Y-22.259 E13.11698
G1 X41.492 Y-21.721 E13.13921
G1 X41.635 Y-21.158 E13.16144
G1 X41.699 Y-20.58 E13.18369
G1 X41.684 Y-20 E13.20589
G1 X41.589 Y-19.426 E13.22816
G1 X41.416 Y-18.872 E13.25037
G1 X41.219 Y-18.438 E13.26861
G1 X40.778 Y-17.6 E13.30485
G1 X-8.45 Y72.638 E17.23867
G1 X-8.817 Y73.291 E17.26734
G1 X-9.136 Y73.777 E17.28958
G1 X-9.518 Y74.214 E17.3118
G1 X-9.957 Y74.595 E17.33404
G1 X-10.444 Y74.912 E17.35628
G1 X-10.97 Y75.159 E17.37852
G1 X-11.525 Y75.332 E17.40076
G1 X-12.098 Y75.427 E17.42299
G1 X-12.679 Y75.442 E17.44523
G1 X-13.256 Y75.378 E17.46745
G1 X-13.819 Y75.235 E17.48968
G1 X-14.357 Y75.016 E17.51191
G1 X-14.86 Y74.725 E17.53415
G1 X-15.319 Y74.368 E17.5564
G1 X-15.724 Y73.952 E17.57862
G1 X-16.15 Y73.348 E17.60691
G1 X-16.453 Y72.816 E17.63034
G1 X-65.899 Y-17.823 E21.58162
G1 X-66.214 Y-18.416 E21.60732
G1 X-66.451 Y-18.947 E21.62957
G1 X-66.612 Y-19.505 E21.6518
G1 X-66.696 Y-20.08 E21.67404
G1 X-66.7 Y-20.661 E21.69627
G1 X-66.624 Y-21.237 E21.71851
G1 X-66.47 Y-21.797 E21.74073
G1 X-66.24 Y-22.331 E21.76298
G1 X-65.939 Y-22.828 E21.78522
G1 X-65.573 Y-23.279 E21.80745
G1 X-65.149 Y-23.676 E21.82968
G1 X-64.674 Y-24.011 E21.85192
G1 X-64.157 Y-24.277 E21.87417
G1 X-63.609 Y-24.47 E21.89641
G1 X-63.04 Y-24.586 E21.91863
G1 X-62.553 Y-24.622 E21.93732
G1 X-61.638 Y-24.637 E21.97234
G1 X36.855 Y-24.637 E25.74162
G0 F2040 X36.85 Y-24.287
G1 F1020 X37.535 Y-24.277 E25.76784
G1 X38.089 Y-24.229 E25.78912
G1 X38.631 Y-24.102 E25.81042
G1 X39.149 Y-23.898 E25.83173
G1 X39.632 Y-23.623 E25.853
G1 X40.071 Y-23.281 E25.87429
G1 X40.457 Y-22.88 E25.89559
G1 X40.781 Y-22.428 E25.91688
G1 X41.037 Y-21.934 E25.93817
G1 X41.22 Y-21.409 E25.95945
G1 X41.326 Y-20.862 E25.98077
G1 X41.352 Y-20.306 E26.00207
G1 X41.298 Y-19.753 E26.02333
G1 X41.166 Y-19.212 E26.04465
G1 X40.909 Y-18.601 E26.07001
G1 X40.471 Y-17.767 E26.10606
G1 X-8.755 Y72.467 E30.03971
G1 X-9.122 Y73.12 E30.06838
G1 X-9.429 Y73.584 E30.08967
G1 X-9.799 Y73.999 E30.11095
G1 X-10.225 Y74.358 E30.13227
G1 X-10.697 Y74.651 E30.15353
G1 X-11.207 Y74.874 E30.17483
G1 X-11.744 Y75.021 E30.19613
G1 X-12.296 Y75.091 E30.21743
G1 X-12.852 Y75.08 E30.23871
G1 X-13.401 Y74.99 E30.26
G1 X-13.931 Y74.822 E30.28128
G1 X-14.432 Y74.58 E30.30257
G1 X-14.894 Y74.268 E30.32391
G1 X-15.305 Y73.894 E30.34517
G1 X-15.659 Y73.465 E30.36646
G1 X-15.943 Y73.009 E30.38702
G1 X-16.167 Y72.61 E30.40453
G1 X-65.59 Y-17.987 E34.35398
G1 X-65.905 Y-18.58 E34.37968
G1 X-66.13 Y-19.089 E34.40098
G1 X-66.28 Y-19.625 E34.42228
G1 X-66.352 Y-20.177 E34.44358
G1 X-66.343 Y-20.733 E34.46486
G1 X-66.256 Y-21.282 E34.48613
G1 X-66.09 Y-21.814 E34.50746
G1 X-65.85 Y-22.316 E34.52875
G1 X-65.541 Y-22.778 E34.55002
G1 X-65.168 Y-23.192 E34.57135
G1 X-64.741 Y-23.547 E34.5926
G1 X-64.266 Y-23.838 E34.61392
G1 X-63.755 Y-24.058 E34.63521
G1 X-63.218 Y-24.203 E34.6565
G1 X-62.547 Y-24.272 E34.68231
G1 X-61.638 Y-24.287 E34.7171
G1 X36.85 Y-24.287 E38.48619
G0 F2040 X36.844 Y-23.937
G1 F1020 X37.529 Y-23.927 E38.51241
G1 X38.058 Y-23.879 E38.53274
G1 X38.573 Y-23.753 E38.55303
G1 X39.064 Y-23.55 E38.57336
G1 X39.518 Y-23.276 E38.59365
G1 X39.927 Y-22.937 E38.61398
G1 X40.28 Y-22.541 E38.63428
G1 X40.569 Y-22.096 E38.65459
G1 X40.788 Y-21.613 E38.67489
G1 X40.933 Y-21.102 E38.69521
G1 X40.999 Y-20.576 E38.7155
G1 X40.985 Y-20.045 E38.73583
G1 X40.892 Y-19.523 E38.75612
G1 X40.721 Y-19.021 E38.77642
G1 X40.599 Y-18.763 E38.78734
G1 X40.163 Y-17.935 E38.82315
G1 X-9.06 Y72.295 E42.75661
G1 X-9.427 Y72.948 E42.78527
G1 X-9.721 Y73.39 E42.80559
G1 X-10.078 Y73.782 E42.82588
G1 X-10.49 Y74.117 E42.8462
G1 X-10.948 Y74.386 E42.86653
G1 X-11.44 Y74.583 E42.88681
G1 X-11.957 Y74.704 E42.90713
G1 X-12.486 Y74.746 E42.92744
G1 X-13.015 Y74.708 E42.94774
G1 X-13.533 Y74.591 E42.96806
G1 X-14.027 Y74.398 E42.98836
G1 X-14.487 Y74.133 E43.00867
G1 X-14.901 Y73.802 E43.02896
G1 X-15.262 Y73.412 E43.04929
G1 X-15.545 Y72.996 E43.06855
G1 X-15.842 Y72.474 E43.09153
G1 X-65.281 Y-18.151 E47.04222
G1 X-65.596 Y-18.744 E47.06792
G1 X-65.809 Y-19.23 E47.08822
G1 X-65.947 Y-19.743 E47.10855
G1 X-66.006 Y-20.27 E47.12885
G1 X-65.985 Y-20.801 E47.14918
G1 X-65.885 Y-21.322 E47.16949
G1 X-65.708 Y-21.822 E47.18979
G1 X-65.457 Y-22.29 E47.21011
G1 X-65.14 Y-22.715 E47.2304
G1 X-64.762 Y-23.087 E47.2507
G1 X-64.332 Y-23.399 E47.27103
G1 X-63.861 Y-23.643 E47.29133
G1 X-63.358 Y-23.813 E47.31165
G1 X-62.836 Y-23.905 E47.33193
G1 X-62.541 Y-23.923 E47.34324
G1 X-61.696 Y-23.937 E47.37558
G1 X36.844 Y-23.937 E51.14666
G0 F2040 X36.839 Y-23.587
G1 F1020 X37.524 Y-23.577 E51.17288
G1 X38.026 Y-23.529 E51.19218
G1 X38.513 Y-23.403 E51.21143
G1 X38.975 Y-23.202 E51.23071
G1 X39.399 Y-22.93 E51.24999
G1 X39.774 Y-22.595 E51.26923
G1 X40.092 Y-22.204 E51.28852
G1 X40.344 Y-21.768 E51.30779
G1 X40.524 Y-21.298 E51.32705
G1 X40.627 Y-20.805 E51.34633
G1 X40.651 Y-20.302 E51.3656
G1 X40.596 Y-19.801 E51.38489
G1 X40.461 Y-19.316 E51.40415
G1 X40.289 Y-18.926 E51.42046
G1 X39.856 Y-18.102 E51.45609
G1 X-9.365 Y72.124 E55.38937
G1 X-9.732 Y72.777 E55.41804
G1 X-10.013 Y73.195 E55.43732
G1 X-10.356 Y73.563 E55.45657
G1 X-10.754 Y73.873 E55.47587
G1 X-11.195 Y74.115 E55.49513
G1 X-11.669 Y74.285 E55.5144
G1 X-12.164 Y74.378 E55.53367
G1 X-12.667 Y74.392 E55.55293
G1 X-13.166 Y74.325 E55.5722
G1 X-13.649 Y74.181 E55.59148
G1 X-14.102 Y73.962 E55.61074
G1 X-14.516 Y73.674 E55.63004
G1 X-14.878 Y73.325 E55.64928
G1 X-15.243 Y72.82 E55.67313
G1 X-15.536 Y72.304 E55.69584
G1 X-64.972 Y-18.316 E59.6463
G1 X-65.287 Y-18.909 E59.672
G1 X-65.487 Y-19.371 E59.69127
G1 X-65.612 Y-19.859 E59.71054
G1 X-65.658 Y-20.36 E59.7298
G1 X-65.624 Y-20.862 E59.74905
G1 X-65.511 Y-21.353 E59.76833
G1 X-65.322 Y-21.82 E59.78761
G1 X-65.061 Y-22.251 E59.8069
G1 X-64.736 Y-22.635 E59.82615
G1 X-64.354 Y-22.963 E59.84542
G1 X-63.925 Y-23.227 E59.86469
G1 X-63.459 Y-23.419 E59.88398
G1 X-62.969 Y-23.536 E59.90326
G1 X-62.536 Y-23.573 E59.91989
G1 X-61.691 Y-23.587 E59.95224
G1 X36.839 Y-23.587 E63.72293
G1 F3600 E59.92293
;MESH:support_tri_0_066.stl
G0 F2040 X36.839 Y-21.077
G0 X36.839 Y-20.042
G0 X-12.5 Y70.143
;TYPE:WALL-INNER
G1 F3600 E63.72293
G1 F1020 X-61.616 Y-19.887 E67.64771
G1 X36.616 Y-19.887 E71.407
G1 X-12.5 Y70.143 E75.33178
G0 F2040 X-12.5 Y70.821
;TYPE:WALL-OUTER
G1 F1020 X-62.163 Y-20.212 E79.30028
G1 X37.163 Y-20.212 E83.10144
G1 X-12.5 Y70.821 E87.06994
G0 F2040 X-12.595 Y70.646
G0 X-12.507 Y70.599
G0 X-12.5 Y69.432
;TYPE:SKIN
G1 F1020 X-61.043 Y-19.547 E90.9489
G1 X36.043 Y-19.547 E94.66434
G1 X-12.5 Y69.432 E98.54331
G0 F2040 X-12.348 Y68.826
G1 F1020 X-13.013 Y68.162 E98.57927
G1 X-13.075 Y68.1
G0 F2040 X-12.174 Y68.506
G1 F1020 X-13.607 Y67.073 E98.65683
G1 X-13.669 Y67.011
G0 F2040 X-14.202 Y65.983
G1 F1020 X-11.999 Y68.186 E98.77605
G0 F2040 X-11.824 Y67.865
G1 F1020 X-14.796 Y64.894 E98.93688
G1 X-14.858 Y64.832
G0 F2040 X-15.39 Y63.805
G1 F1020 X-11.649 Y67.546 E99.13934
G0 F2040 X-11.474 Y67.226
G1 F1020 X-15.984 Y62.716 E99.38343
G1 X-16.046 Y62.654
G0 F2040 X-16.578 Y61.627
G1 F1020 X-11.3 Y66.905 E99.66908
G0 F2040 X-11.125 Y66.585
G1 F1020 X-17.172 Y60.538 E99.99635
G1 X-17.234 Y60.476
G0 F2040 X-17.767 Y59.448
G1 F1020 X-10.95 Y66.265 E100.3653
G0 F2040 X-10.776 Y65.944
G1 F1020 X-18.361 Y58.359 E100.77581
G1 X-18.423 Y58.297
G0 F2040 X-18.955 Y57.27
G1 F1020 X-10.601 Y65.624 E101.22794
G0 F2040 X-10.426 Y65.304
G1 F1020 X-19.549 Y56.181 E101.72169
G1 X-19.611 Y56.119
G0 F2040 X-20.144 Y55.092
G1 F1020 X-10.252 Y64.983 E102.25703
G0 F2040 X-10.077 Y64.663
G1 F1020 X-20.738 Y54.003 E102.83399
G1 X-20.8 Y53.941
G0 F2040 X-21.331 Y52.914
G1 F1020 X-9.903 Y64.343 E103.45251
G0 F2040 X-9.728 Y64.022
G1 F1020 X-21.926 Y51.824 E104.11268
G1 X-21.988 Y51.762
G0 F2040 X-22.52 Y50.735
G1 F1020 X-9.553 Y63.703 E104.8145
G0 F2040 X-9.378 Y63.382
G1 F1020 X-23.114 Y49.646 E105.55791
G1 X-23.176 Y49.584
G0 F2040 X-23.709 Y48.557
G1 F1020 X-9.203 Y63.062 E106.34297
G0 F2040 X-9.029 Y62.742
G1 F1020 X-24.303 Y47.468 E107.16961
G1 X-24.365 Y47.406
G0 F2040 X-24.897 Y46.379
G1 F1020 X-8.854 Y62.421 E108.03786
G0 F2040 X-8.679 Y62.101
G1 F1020 X-25.491 Y45.289 E108.94774
G1 X-25.553 Y45.227
G0 F2040 X-26.085 Y44.2
G1 F1020 X-8.505 Y61.781 E109.89922
G0 F2040 X-8.33 Y61.461
G1 F1020 X-26.679 Y43.111 E110.89232
G1 X-26.741 Y43.049
G0 F2040 X-27.273 Y42.022
G1 F1020 X-8.155 Y61.14 E111.92701
G0 F2040 X-7.981 Y60.82
G1 F1020 X-27.868 Y40.932 E113.00335
G1 X-27.93 Y40.87
G0 F2040 X-28.462 Y39.844
G1 F1020 X-7.806 Y60.5 E114.12128
G0 F2040 X-7.631 Y60.18
G1 F1020 X-29.056 Y38.755 E115.28082
G1 X-29.118 Y38.693
G0 F2040 X-29.651 Y37.665
G1 F1020 X-7.456 Y59.86 E116.48205
G0 F2040 X-7.281 Y59.539
G1 F1020 X-30.245 Y36.576 E117.72486
G1 X-30.307 Y36.514
G0 F2040 X-30.839 Y35.487
G1 F1020 X-7.107 Y59.219 E119.00927
G0 F2040 X-6.932 Y58.899
G1 F1020 X-31.433 Y34.397 E120.33532
G1 X-31.495 Y34.335
G0 F2040 X-32.027 Y33.308
G1 F1020 X-6.757 Y58.578 E121.70296
G0 F2040 X-6.583 Y58.258
G1 F1020 X-32.621 Y32.22 E123.11217
G1 X-32.683 Y32.158
G0 F2040 X-33.215 Y31.131
G1 F1020 X-6.408 Y57.938 E124.563
G0 F2040 X-6.233 Y57.617
G1 F1020 X-33.81 Y30.041 E126.05548
G1 X-33.872 Y29.979
G0 F2040 X-34.404 Y28.952
G1 F1020 X-6.059 Y57.297 E127.58954
G0 F2040 X-5.884 Y56.977
G1 F1020 X-34.998 Y27.863 E129.16523
G1 X-35.06 Y27.801
G0 F2040 X-35.592 Y26.773
G1 F1020 X-5.709 Y56.656 E130.78254
G0 F2040 X-5.534 Y56.337
G1 F1020 X-36.186 Y25.684 E132.44149
G1 X-36.248 Y25.622
G0 F2040 X-36.78 Y24.596
G1 F1020 X-5.359 Y56.016 E134.14201
G0 F2040 X-5.185 Y55.696
G1 F1020 X-37.375 Y23.506 E135.88417
G1 X-37.437 Y23.444
G0 F2040 X-37.969 Y22.417
G1 F1020 X-5.01 Y55.376 E137.66795
G0 F2040 X-4.835 Y55.056
G1 F1020 X-38.563 Y21.328 E139.49336
G1 X-38.625 Y21.266
G0 F2040 X-39.157 Y20.239
G1 F1020 X-4.661 Y54.735 E141.36032
G0 F2040 X-4.486 Y54.415
G1 F1020 X-39.752 Y19.149 E143.26896
G1 X-39.814 Y19.087
G0 F2040 X-40.346 Y18.06
G1 F1020 X-4.311 Y54.095 E145.21922
G0 F2040 X-4.137 Y53.774
G1 F1020 X-40.94 Y16.971 E147.21105
G1 X-41.002 Y16.909
G0 F2040 X-41.534 Y15.882
G1 F1020 X-3.962 Y53.454 E149.24449
G0 F2040 X-3.787 Y53.134
G1 F1020 X-42.128 Y14.793 E151.31956
G1 X-42.19 Y14.731
G0 F2040 X-42.722 Y13.704
G1 F1020 X-3.612 Y52.814 E153.43624
G0 F2040 X-3.437 Y52.494
G1 F1020 X-43.317 Y12.614 E155.5946
G1 X-43.379 Y12.552
G0 F2040 X-43.911 Y11.525
G1 F1020 X-3.263 Y52.173 E157.79452
G0 F2040 X-3.088 Y51.853
G1 F1020 X-44.505 Y10.436 E160.03606
G1 X-44.567 Y10.374
G0 F2040 X-45.099 Y9.347
G1 F1020 X-2.913 Y51.533 E162.31922
G0 F2040 X-2.739 Y51.212
G1 F1020 X-45.693 Y8.258 E164.64395
G1 X-45.755 Y8.196
G0 F2040 X-46.287 Y7.169
G1 F1020 X-2.564 Y50.892 E167.01029
G0 F2040 X-2.39 Y50.572
G1 F1020 X-46.881 Y6.08 E169.41823
G1 X-46.943 Y6.018
G0 F2040 X-47.476 Y4.99
G1 F1020 X-2.215 Y50.251 E171.86781
G0 F2040 X-2.04 Y49.931
G1 F1020 X-48.07 Y3.901 E174.35901
G1 X-48.132 Y3.839
G0 F2040 X-48.664 Y2.812
G1 F1020 X-1.866 Y49.611 E176.89181
G0 F2040 X-1.69 Y49.291
G1 F1020 X-49.259 Y1.723 E179.46627
G1 X-49.321 Y1.661
G0 F2040 X-49.853 Y0.634
G1 F1020 X-1.516 Y48.971 E182.08233
G0 F2040 X-1.341 Y48.651
G1 F1020 X-50.447 Y-.454 E184.73999
G1 X-50.509 Y-.516
G0 F2040 X-51.041 Y-1.544
G1 F1020 X-1.166 Y48.33 E187.43926
G0 F2040 X-.992 Y48.01
G1 F1020 X-51.635 Y-2.633 E190.18012
G1 X-51.697 Y-2.695
G0 F2040 X-52.229 Y-3.722
G1 F1020 X-.817 Y47.69 E192.9626
G0 F2040 X-.642 Y47.369
G1 F1020 X-52.823 Y-4.811 E195.78668
G1 X-52.885 Y-4.873
G0 F2040 X-53.418 Y-5.9
G1 F1020 X-.468 Y47.049 E198.65237
G0 F2040 X-.293 Y46.729
G1 F1020 X-54.012 Y-6.989 E201.55969
G1 X-54.074 Y-7.051
G0 F2040 X-54.606 Y-8.078
G1 F1020 X-.118 Y46.408 E204.50859
G0 F2040 X0.055 Y46.088
G1 F1020 X-55.2 Y-9.168 E207.49909
G1 X-55.262 Y-9.23
G0 F2040 X-55.794 Y-10.257
G1 F1020 X0.23 Y45.768 E210.53121
G0 F2040 X0.405 Y45.448
G1 F1020 X-56.388 Y-11.346 E213.60495
G1 X-56.45 Y-11.408
G0 F2040 X-56.983 Y-12.435
G1 F1020 X0.58 Y45.128 E216.72033
G0 F2040 X0.755 Y44.807
G1 F1020 X-57.577 Y-13.524 E219.8773
G1 X-57.639 Y-13.586
G0 F2040 X-58.171 Y-14.613
G1 F1020 X0.929 Y44.487 E223.07587
G0 F2040 X1.104 Y44.167
G1 F1020 X-58.765 Y-15.702 E226.31606
G1 X-58.827 Y-15.764
G0 F2040 X-59.36 Y-16.792
G1 F1020 X1.279 Y43.846 E229.59789
G0 F2040 X1.453 Y43.526
G1 F1020 X-59.954 Y-17.881 E232.92132
G1 X-60.016 Y-17.943
G0 F2040 X-60.548 Y-18.97
G1 F1020 X1.628 Y43.206 E236.28636
G0 F2040 X1.803 Y42.886
G1 F1020 X-60.472 Y-19.389 E239.65676
G0 F2040 X-59.977 Y-19.389
G1 F1020 X1.977 Y42.565 E243.00979
G0 F2040 X2.152 Y42.245
G1 F1020 X-59.482 Y-19.389 E246.3455
G0 F2040 X-58.987 Y-19.389
G1 F1020 X2.327 Y41.925 E249.66389
G0 F2040 X2.502 Y41.605
G1 F1020 X-58.492 Y-19.389 E252.96497
G0 F2040 X-57.997 Y-19.389
G1 F1020 X2.677 Y41.285 E256.24872
G0 F2040 X2.851 Y40.964
G1 F1020 X-57.502 Y-19.389 E259.5151
G0 F2040 X-57.007 Y-19.389
G1 F1020 X3.026 Y40.644 E262.76416
G0 F2040 X3.201 Y40.324
G1 F1020 X-56.512 Y-19.389 E265.99591
G0 F2040 X-56.017 Y-19.389
G1 F1020 X3.375 Y40.003 E269.21028
G0 F2040 X3.55 Y39.683
G1 F1020 X-55.522 Y-19.389 E272.40733
G0 F2040 X-55.027 Y-19.389
G1 F1020 X3.725 Y39.363 E275.58706
G0 F2040 X3.899 Y39.042
G1 F1020 X-54.532 Y-19.389 E278.74942
G0 F2040 X-54.037 Y-19.389
G1 F1020 X4.074 Y38.722 E281.89447
G0 F2040 X4.249 Y38.402
G1 F1020 X-53.542 Y-19.389 E285.02219
G0 F2040 X-53.047 Y-19.389
G1 F1020 X4.424 Y38.082 E288.13259
G0 F2040 X4.599 Y37.762
G1 F1020 X-52.552 Y-19.389 E291.22568
G0 F2040 X-52.057 Y-19.389
G1 F1020 X4.773 Y37.442 E294.30142
G0 F2040 X4.948 Y37.121
G1 F1020 X-51.562 Y-19.389 E297.35981
G0 F2040 X-51.067 Y-19.389
G1 F1020 X5.122 Y36.801 E300.40086
G0 F2040 X5.297 Y36.481
G1 F1020 X-50.572 Y-19.389 E303.42458
G0 F2040 X-50.078 Y-19.389
