;FLAVOR:Marlin
;TIME:7315
;Filament used: 6.9281m
;Layer height: 0.2
;MINX:-54.556
;MINY:-49.792
;MINZ:0.26
;MAXX:54.558
;MAXY:47.218
;MAXZ:13.66
;Generated with Cura_SteamEngine 4.8.0
M82 ;absolute extrusion mode
;Gcode by Cura
G90
G28
M107
M109 R100
G30
M109 S215 U-55 X55 V-85 Y-85 W0.26 Z0.26
M82
G92 E0
G1 F200 E6
G92 E0
G1 F200 E-3.5
G0 Z0.15
G0 X10
G0 Z3
G1 F6000
G92 E0
G92 E0
G1 F3600 E-3.8
;LAYER_COUNT:68
;LAYER:0
M107
G0 F2040 X4.483 Y-46.622 Z0.26
;TYPE:SKIRT
G1 F3600 E0
G1 F1020 X53.66 Y39.826 E3.80616
G1 X53.989 Y40.422 E3.83221
G1 X54.246 Y40.97 E3.85538
G1 X54.428 Y41.546 E3.87849
G1 X54.533 Y42.142 E3.90165
G1 X54.558 Y42.746 E3.92479
G1 X54.503 Y43.348 E3.94792
G1 X54.369 Y43.938 E3.97108
G1 X54.159 Y44.504 E3.99418
G1 X53.875 Y45.039 E4.01736
G1 X53.524 Y45.531 E4.04049
G1 X53.111 Y45.972 E4.06361
G1 X52.643 Y46.356 E4.08678
G1 X52.129 Y46.674 E4.10991
G1 X51.578 Y46.921 E4.13302
G1 X50.998 Y47.094 E4.15618
G1 X50.155 Y47.205 E4.18872
G1 X49.498 Y47.218 E4.21387
G1 X-49.36 Y47.218 E7.99712
G1 X-50.049 Y47.208 E8.02349
G1 X-50.652 Y47.159 E8.04664
G1 X-51.243 Y47.031 E8.06978
G1 X-51.812 Y46.826 E8.09293
G1 X-52.349 Y46.549 E8.11605
G1 X-52.845 Y46.202 E8.13922
G1 X-53.291 Y45.794 E8.16235
G1 X-53.678 Y45.33 E8.18547
G1 X-54.002 Y44.819 E8.20863
G1 X-54.255 Y44.27 E8.23176
G1 X-54.434 Y43.692 E8.25492
G1 X-54.534 Y43.096 E8.27804
G1 X-54.556 Y42.492 E8.30117
G1 X-54.497 Y41.89 E8.32432
G1 X-54.36 Y41.301 E8.34747
G1 X-54.058 Y40.552 E8.37837
G1 X-53.696 Y39.888 E8.40731
G1 X-4.309 Y-46.928 E12.22969
G1 X-3.949 Y-47.539 E12.25683
G1 X-3.609 Y-48.039 E12.27997
G1 X-3.205 Y-48.489 E12.30311
G1 X-2.746 Y-48.882 E12.32624
G1 X-2.239 Y-49.212 E12.34939
G1 X-1.693 Y-49.471 E12.37251
G1 X-1.117 Y-49.656 E12.39567
G1 X-.522 Y-49.764 E12.41881
G1 X0.082 Y-49.792 E12.44195
G1 X0.684 Y-49.74 E12.46507
G1 X1.275 Y-49.61 E12.48823
G1 X1.843 Y-49.402 E12.51138
G1 X2.378 Y-49.122 E12.53449
G1 X2.872 Y-48.773 E12.55763
G1 X3.316 Y-48.363 E12.58076
G1 X3.702 Y-47.897 E12.60392
G1 X3.92 Y-47.566 E12.61909
G1 X4.483 Y-46.622 E12.66115
G0 F2040 X4.178 Y-46.449
G1 F1020 X53.354 Y39.995 E16.46716
G1 X53.683 Y40.591 E16.49321
G1 X53.928 Y41.118 E16.51545
G1 X54.099 Y41.673 E16.53768
G1 X54.191 Y42.247 E16.55992
G1 X54.205 Y42.828 E16.58216
G1 X54.138 Y43.405 E16.60439
G1 X53.993 Y43.968 E16.62664
G1 X53.772 Y44.505 E16.64887
G1 X53.479 Y45.007 E16.67111
G1 X53.12 Y45.464 E16.69335
G1 X52.702 Y45.868 E16.7156
G1 X52.233 Y46.21 E16.73781
G1 X51.721 Y46.485 E16.76005
G1 X51.176 Y46.686 E16.78228
G1 X50.608 Y46.812 E16.80455
G1 X50.008 Y46.86 E16.82758
G1 X49.494 Y46.868 E16.84726
G1 X-49.355 Y46.868 E20.63016
G1 X-50.044 Y46.858 E20.65653
G1 X-50.623 Y46.809 E20.67877
G1 X-51.19 Y46.682 E20.701
G1 X-51.734 Y46.478 E20.72324
G1 X-52.245 Y46.201 E20.74548
G1 X-52.713 Y45.857 E20.76771
G1 X-53.13 Y45.452 E20.78996
G1 X-53.487 Y44.994 E20.81218
G1 X-53.778 Y44.491 E20.83442
G1 X-53.997 Y43.952 E20.85668
G1 X-54.14 Y43.389 E20.87891
G1 X-54.204 Y42.812 E20.90113
G1 X-54.189 Y42.231 E20.92337
G1 X-54.094 Y41.658 E20.9456
G1 X-53.921 Y41.103 E20.96785
G1 X-53.698 Y40.618 E20.98828
G1 X-53.39 Y40.058 E21.01274
G1 X-3.973 Y-46.81 E24.83741
G1 X-3.648 Y-47.362 E24.86192
G1 X-3.319 Y-47.841 E24.88416
G1 X-2.928 Y-48.27 E24.90637
G1 X-2.482 Y-48.642 E24.9286
G1 X-1.988 Y-48.95 E24.95088
G1 X-1.458 Y-49.186 E24.97308
G1 X-.9 Y-49.348 E24.99532
G1 X-.325 Y-49.431 E25.01755
G1 X0.256 Y-49.435 E25.03979
G1 X0.832 Y-49.359 E25.06202
G1 X1.393 Y-49.204 E25.08429
G1 X1.926 Y-48.975 E25.10649
G1 X2.423 Y-48.674 E25.12873
G1 X2.875 Y-48.308 E25.15099
G1 X3.271 Y-47.883 E25.17322
G1 X3.619 Y-47.386 E25.19644
G1 X4.178 Y-46.449 E25.23819
G0 F2040 X3.874 Y-46.276
G1 F1020 X53.047 Y40.164 E29.04401
G1 X53.376 Y40.76 E29.07006
G1 X53.61 Y41.265 E29.09136
G1 X53.768 Y41.799 E29.11268
G1 X53.849 Y42.349 E29.13395
G1 X53.849 Y42.906 E29.15527
G1 X53.77 Y43.457 E29.17657
G1 X53.613 Y43.99 E29.19783
G1 X53.382 Y44.496 E29.21912
G1 X53.08 Y44.964 E29.24044
G1 X52.714 Y45.383 E29.26173
G1 X52.292 Y45.746 E29.28303
G1 X51.822 Y46.044 E29.30433
G1 X51.315 Y46.272 E29.3256
G1 X50.78 Y46.425 E29.3469
G1 X50.128 Y46.505 E29.37203
G1 X49.489 Y46.518 E29.39649
G1 X-49.35 Y46.518 E33.17902
G1 X-50.039 Y46.508 E33.20539
G1 X-50.594 Y46.46 E33.2267
G1 X-51.135 Y46.333 E33.24797
G1 X-51.653 Y46.13 E33.26926
G1 X-52.137 Y45.854 E33.29058
G1 X-52.576 Y45.513 E33.31186
G1 X-52.962 Y45.111 E33.33319
G1 X-53.286 Y44.659 E33.35447
G1 X-53.542 Y44.165 E33.37576
G1 X-53.725 Y43.64 E33.39704
G1 X-53.831 Y43.094 E33.41832
G1 X-53.857 Y42.538 E33.43963
G1 X-53.803 Y41.984 E33.46093
G1 X-53.671 Y41.443 E33.48224
G1 X-53.434 Y40.871 E33.50593
G1 X-53.084 Y40.227 E33.53398
G1 X-3.671 Y-46.632 E37.35828
G1 X-3.346 Y-47.184 E37.38279
G1 X-3.03 Y-47.642 E37.40409
G1 X-2.652 Y-48.05 E37.42537
G1 X-2.219 Y-48.4 E37.44668
G1 X-1.741 Y-48.684 E37.46796
G1 X-1.226 Y-48.896 E37.48927
G1 X-.687 Y-49.033 E37.51056
G1 X-.134 Y-49.091 E37.53184
G1 X0.422 Y-49.069 E37.55313
G1 X0.97 Y-48.968 E37.57445
G1 X1.497 Y-48.789 E37.59575
G1 X1.993 Y-48.537 E37.61705
G1 X2.447 Y-48.217 E37.6383
G1 X2.851 Y-47.834 E37.65961
G1 X3.319 Y-47.207 E37.68955
G1 X3.874 Y-46.276 E37.73103
G0 F2040 X3.57 Y-46.103
G1 F1020 X52.741 Y40.333 E41.53668
G1 X53.07 Y40.929 E41.56273
G1 X53.291 Y41.412 E41.58306
G1 X53.437 Y41.922 E41.60336
G1 X53.504 Y42.449 E41.62369
G1 X53.492 Y42.979 E41.64398
G1 X53.4 Y43.502 E41.6643
G1 X53.231 Y44.005 E41.6846
G1 X52.988 Y44.477 E41.70492
G1 X52.678 Y44.907 E41.72521
G1 X52.306 Y45.285 E41.7455
G1 X51.881 Y45.604 E41.76584
G1 X51.414 Y45.855 E41.78613
G1 X50.914 Y46.033 E41.80644
G1 X50.393 Y46.134 E41.82675
G1 X49.893 Y46.163 E41.84592
G1 X49.485 Y46.168 E41.86153
G1 X-49.345 Y46.168 E45.64371
G1 X-50.034 Y46.158 E45.67008
G1 X-50.563 Y46.11 E45.69041
G1 X-51.078 Y45.984 E45.7107
G1 X-51.569 Y45.781 E45.73103
G1 X-52.023 Y45.508 E45.7513
G1 X-52.432 Y45.169 E45.77163
G1 X-52.785 Y44.772 E45.79196
G1 X-53.074 Y44.328 E45.81224
G1 X-53.293 Y43.844 E45.83257
G1 X-53.438 Y43.334 E45.85286
G1 X-53.504 Y42.807 E45.87319
G1 X-53.49 Y42.277 E45.89348
G1 X-53.397 Y41.754 E45.9138
G1 X-53.122 Y41.03 E45.94344
G1 X-52.778 Y40.397 E45.97101
G1 X-3.37 Y-46.454 E49.79495
G1 X-3.045 Y-47.006 E49.81946
G1 X-2.742 Y-47.442 E49.83978
G1 X-2.377 Y-47.827 E49.86009
G1 X-1.958 Y-48.154 E49.88043
G1 X-1.495 Y-48.413 E49.90073
G1 X-.999 Y-48.601 E49.92103
G1 X-.48 Y-48.711 E49.94133
G1 X0.05 Y-48.743 E49.96165
G1 X0.578 Y-48.694 E49.98194
G1 X1.093 Y-48.567 E50.00224
G1 X1.584 Y-48.364 E50.02258
G1 X2.038 Y-48.089 E50.04289
G1 X2.446 Y-47.75 E50.06319
G1 X2.798 Y-47.353 E50.08349
G1 X3.018 Y-47.027 E50.09855
G1 X3.57 Y-46.103 E50.13974
G0 F2040 X3.266 Y-45.93
G1 F1020 X52.435 Y40.503 E53.94525
G1 X52.764 Y41.099 E53.9713
G1 X52.971 Y41.557 E53.99053
G1 X53.104 Y42.043 E54.00982
G1 X53.158 Y42.544 E54.0291
G1 X53.132 Y43.047 E54.04838
G1 X53.027 Y43.539 E54.06763
G1 X52.845 Y44.009 E54.08692
G1 X52.592 Y44.444 E54.10617
G1 X52.273 Y44.834 E54.12546
G1 X51.896 Y45.168 E54.14473
G1 X51.471 Y45.438 E54.164
G1 X51.009 Y45.638 E54.18327
G1 X50.521 Y45.762 E54.20254
G1 X49.968 Y45.811 E54.22378
G1 X49.481 Y45.818 E54.24242
G1 X-49.34 Y45.818 E58.02425
G1 X-50.029 Y45.808 E58.05062
G1 X-50.53 Y45.76 E58.06988
G1 X-51.018 Y45.635 E58.08916
G1 X-51.48 Y45.433 E58.10846
G1 X-51.904 Y45.161 E58.12774
G1 X-52.279 Y44.826 E58.14698
G1 X-52.597 Y44.435 E58.16627
G1 X-52.849 Y43.999 E58.18554
G1 X-53.029 Y43.529 E58.2048
G1 X-53.132 Y43.036 E58.22408
G1 X-53.156 Y42.533 E58.24335
G1 X-53.101 Y42.033 E58.2626
G1 X-52.967 Y41.547 E58.28189
G1 X-52.712 Y41 E58.30499
G1 X-52.455 Y40.536 E58.32529
G1 X-3.068 Y-46.277 E62.14756
G1 X-2.743 Y-46.829 E62.17207
G1 X-2.454 Y-47.241 E62.19133
G1 X-2.103 Y-47.603 E62.21063
G1 X-1.7 Y-47.904 E62.22988
G1 X-1.254 Y-48.138 E62.24916
G1 X-.776 Y-48.298 E62.26845
G1 X-.28 Y-48.381 E62.28769
G1 X0.224 Y-48.385 E62.30698
G1 X0.722 Y-48.308 E62.32626
G1 X1.201 Y-48.154 E62.34552
G1 X1.65 Y-47.926 E62.36479
G1 X2.057 Y-47.63 E62.38405
G1 X2.413 Y-47.273 E62.40334
G1 X2.718 Y-46.847 E62.4234
G1 X3.266 Y-45.93 E62.46428
G1 F3600 E58.66428
;MESH:support_tri_0_026.stl
G0 F2040 X1.083 Y-44.689
G0 X0.201 Y-44.187
G0 X49.098 Y42.118
;TYPE:WALL-INNER
G1 F3600 E62.46428
G1 F1020 X-49.098 Y42.118 E66.22219
G1 X0.00 Y-44.187 E70.0221
G1 X49.098 Y42.118 E73.82201
G0 F2040 X49.656 Y42.443
;TYPE:WALL-OUTER
G1 F1020 X-49.656 Y42.443 E77.62263
G1 X0.00 Y-44.844 E81.46576
G1 X49.656 Y42.443 E85.30889
G0 F2040 X49.456 Y42.443
G0 X49.313 Y42.243
G0 X48.513 Y41.778
;TYPE:SKIN
G1 F1020 X-48.513 Y41.778 E89.02203
G1 X0.00 Y-43.5 E92.77671
G1 X48.513 Y41.778 E96.53139
G0 F2040 X-48.144 Y41.446
G1 F1020 X-47.969 Y41.621 E96.54086
G0 F2040 X-47.964 Y41.13
G1 F1020 X-47.474 Y41.621 E96.5674
G0 F2040 X-46.979 Y41.621
G1 F1020 X-47.784 Y40.815 E96.611
G0 F2040 X-47.605 Y40.5
G1 F1020 X-46.484 Y41.621 E96.67167
G0 F2040 X-45.989 Y41.621
G1 F1020 X-47.425 Y40.184 E96.74941
G0 F2040 X-47.246 Y39.869
G1 F1020 X-45.494 Y41.621 E96.84423
G0 F2040 X-44.999 Y41.621
G1 F1020 X-47.067 Y39.553 E96.95616
G0 F2040 X-46.887 Y39.238
G1 F1020 X-44.504 Y41.621 E97.08513
G0 F2040 X-44.009 Y41.621
G1 F1020 X-46.707 Y38.922 E97.23117
G0 F2040 X-46.528 Y38.607
G1 F1020 X-43.514 Y41.621 E97.3943
G0 F2040 X-43.019 Y41.621
G1 F1020 X-46.348 Y38.291 E97.57449
G0 F2040 X-46.169 Y37.976
G1 F1020 X-42.524 Y41.621 E97.77176
G0 F2040 X-42.029 Y41.621
G1 F1020 X-45.99 Y37.66 E97.98614
G0 F2040 X-45.81 Y37.345
G1 F1020 X-41.534 Y41.621 E98.21756
G0 F2040 X-41.039 Y41.621
G1 F1020 X-45.631 Y37.029 E98.46609
G0 F2040 X-45.451 Y36.714
G1 F1020 X-40.544 Y41.621 E98.73166
G0 F2040 X-40.049 Y41.621
G1 F1020 X-45.271 Y36.399 E99.01428
G0 F2040 X-45.092 Y36.082
G1 F1020 X-39.554 Y41.621 E99.31403
G0 F2040 X-39.059 Y41.621
G1 F1020 X-44.913 Y35.767 E99.63086
G0 F2040 X-44.733 Y35.452
G1 F1020 X-38.564 Y41.621 E99.96473
G0 F2040 X-38.069 Y41.621
G1 F1020 X-44.554 Y35.136 E100.31571
G0 F2040 X-44.374 Y34.821
G1 F1020 X-37.574 Y41.621 E100.68373
G0 F2040 X-37.079 Y41.621
G1 F1020 X-44.194 Y34.506 E101.06881
G0 F2040 X-44.015 Y34.19
G1 F1020 X-36.584 Y41.621 E101.47098
G0 F2040 X-36.09 Y41.621
G1 F1020 X-43.836 Y33.874 E101.89023
G0 F2040 X-43.656 Y33.559
G1 F1020 X-35.595 Y41.621 E102.32653
G0 F2040 X-35.1 Y41.621
G1 F1020 X-43.477 Y33.243 E102.77993
G0 F2040 X-43.297 Y32.928
G1 F1020 X-34.605 Y41.621 E103.25038
G0 F2040 X-34.11 Y41.621
G1 F1020 X-43.117 Y32.613 E103.73788
G0 F2040 X-42.939 Y32.297
G1 F1020 X-33.615 Y41.621 E104.2425
G0 F2040 X-33.12 Y41.621
G1 F1020 X-42.759 Y31.981 E104.76421
G0 F2040 X-42.579 Y31.666
G1 F1020 X-32.625 Y41.621 E105.30296
G0 F2040 X-32.13 Y41.621
G1 F1020 X-42.4 Y31.35 E105.85881
G0 F2040 X-42.22 Y31.035
G1 F1020 X-31.635 Y41.621 E106.43171
G0 F2040 X-31.14 Y41.621
G1 F1020 X-42.041 Y30.719 E107.02171
G0 F2040 X-41.862 Y30.404
G1 F1020 X-30.645 Y41.621 E107.62879
G0 F2040 X-30.15 Y41.621
G1 F1020 X-41.682 Y30.088 E108.25294
G0 F2040 X-41.502 Y29.773
G1 F1020 X-29.655 Y41.621 E108.89415
G0 F2040 X-29.16 Y41.621
G1 F1020 X-41.323 Y29.458 E109.55242
G0 F2040 X-41.143 Y29.142
G1 F1020 X-28.665 Y41.621 E110.22778
G0 F2040 X-28.17 Y41.621
G1 F1020 X-40.964 Y28.826 E110.92023
G0 F2040 X-40.785 Y28.511
G1 F1020 X-27.675 Y41.621 E111.62976
G0 F2040 X-27.18 Y41.621
G1 F1020 X-40.605 Y28.195 E112.35637
G0 F2040 X-40.426 Y27.88
G1 F1020 X-26.685 Y41.621 E113.10005
G0 F2040 X-26.19 Y41.621
G1 F1020 X-40.246 Y27.565 E113.86077
G0 F2040 X-40.066 Y27.249
G1 F1020 X-25.695 Y41.621 E114.63858
G0 F2040 X-25.2 Y41.621
G1 F1020 X-39.887 Y26.933 E115.43348
G0 F2040 X-39.708 Y26.618
G1 F1020 X-24.705 Y41.621 E116.24547
G0 F2040 X-24.21 Y41.621
G1 F1020 X-39.528 Y26.302 E117.07452
G0 F2040 X-39.349 Y25.987
G1 F1020 X-23.715 Y41.621 E117.92065
G0 F2040 X-23.22 Y41.621
G1 F1020 X-39.169 Y25.672 E118.78384
G0 F2040 X-38.99 Y25.356
G1 F1020 X-22.725 Y41.621 E119.66412
G0 F2040 X-22.23 Y41.621
G1 F1020 X-38.81 Y25.04 E120.56148
G0 F2040 X-38.631 Y24.725
G1 F1020 X-21.735 Y41.621 E121.47591
G0 F2040 X-21.24 Y41.621
G1 F1020 X-38.451 Y24.41 E122.40739
G0 F2040 X-38.272 Y24.094
G1 F1020 X-20.745 Y41.621 E123.35597
G0 F2040 X-20.25 Y41.621
G1 F1020 X-38.092 Y23.779 E124.32161
G0 F2040 X-37.913 Y23.463
G1 F1020 X-19.755 Y41.621 E125.30434
G0 F2040 X-19.26 Y41.621
G1 F1020 X-37.734 Y23.147 E126.30418
G0 F2040 X-37.554 Y22.832
G1 F1020 X-18.765 Y41.621 E127.32106
G0 F2040 X-18.27 Y41.621
G1 F1020 X-37.374 Y22.517 E128.35499
G0 F2040 X-37.195 Y22.201
G1 F1020 X-17.775 Y41.621 E129.40603
G0 F2040 X-17.28 Y41.621
G1 F1020 X-37.015 Y21.886 E130.47411
G0 F2040 X-36.836 Y21.57
G1 F1020 X-16.786 Y41.621 E131.55927
G0 F2040 X-16.291 Y41.621
G1 F1020 X-36.657 Y21.254 E132.66153
G0 F2040 X-36.477 Y20.939
G1 F1020 X-15.796 Y41.621 E133.78084
G0 F2040 X-15.301 Y41.621
G1 F1020 X-36.297 Y20.624 E134.9172
G0 F2040 X-36.118 Y20.308
G1 F1020 X-14.806 Y41.621 E136.07066
G0 F2040 X-14.311 Y41.621
G1 F1020 X-35.939 Y19.992 E137.24122
G0 F2040 X-35.759 Y19.677
G1 F1020 X-13.816 Y41.621 E138.42883
G0 F2040 X-13.321 Y41.621
G1 F1020 X-35.58 Y19.361 E139.63354
G0 F2040 X-35.4 Y19.046
G1 F1020 X-12.826 Y41.621 E140.8553
G0 F2040 X-12.331 Y41.621
G1 F1020 X-35.22 Y18.731 E142.09411
G0 F2040 X-35.041 Y18.415
G1 F1020 X-11.836 Y41.621 E143.35002
G0 F2040 X-11.341 Y41.621
G1 F1020 X-34.862 Y18.099 E144.62304
G0 F2040 X-34.682 Y17.784
G1 F1020 X-10.846 Y41.621 E145.9131
G0 F2040 X-10.351 Y41.621
G1 F1020 X-34.503 Y17.469 E147.22024
G0 F2040 X-34.323 Y17.153
G1 F1020 X-9.856 Y41.621 E148.54445
G0 F2040 X-9.361 Y41.621
G1 F1020 X-34.144 Y16.838 E149.88573
G0 F2040 X-33.965 Y16.522
G1 F1020 X-8.866 Y41.621 E151.24412
G0 F2040 X-8.371 Y41.621
G1 F1020 X-33.785 Y16.206 E152.61959
G0 F2040 X-33.605 Y15.891
G1 F1020 X-7.876 Y41.621 E154.0121
G0 F2040 X-7.381 Y41.621
G1 F1020 X-33.426 Y15.576 E155.42169
G0 F2040 X-33.246 Y15.26
G1 F1020 X-6.886 Y41.621 E156.84836
G0 F2040 X-6.391 Y41.621
G1 F1020 X-33.067 Y14.945 E158.29209
G0 F2040 X-32.888 Y14.629
G1 F1020 X-5.896 Y41.621 E159.75294
G0 F2040 X-5.401 Y41.621
G1 F1020 X-32.708 Y14.313 E161.23085
G0 F2040 X-32.529 Y13.998
G1 F1020 X-4.906 Y41.621 E162.72584
G0 F2040 X-4.411 Y41.621
G1 F1020 X-32.349 Y13.683 E164.23788
G0 F2040 X-32.169 Y13.367
G1 F1020 X-3.916 Y41.621 E165.767
G0 F2040 X-3.421 Y41.621
G1 F1020 X-31.99 Y13.052 E167.31319
G0 F2040 X-31.811 Y12.736
G1 F1020 X-2.926 Y41.621 E168.87648
G0 F2040 X-2.431 Y41.621
G1 F1020 X-31.631 Y12.421 E170.45683
G0 F2040 X-31.452 Y12.105
G1 F1020 X-1.936 Y41.621 E172.05427
G0 F2040 X-1.441 Y41.621
G1 F1020 X-31.272 Y11.79 E173.66876
G0 F2040 X-31.092 Y11.474
G1 F1020 X-.946 Y41.621 E175.30033
G0 F2040 X-.451 Y41.621
G1 F1020 X-30.914 Y11.158 E176.94902
G0 F2040 X-30.734 Y10.843
G1 F1020 X0.043 Y41.621 E178.61474
G0 F2040 X0.538 Y41.621
G1 F1020 X-30.554 Y10.528 E180.29751
G0 F2040 X-30.375 Y10.212
G1 F1020 X1.033 Y41.621 E181.99738
G0 F2040 X1.528 Y41.621
G1 F1020 X-30.195 Y9.897 E183.71429
G0 F2040 X-30.015 Y9.582
G1 F1020 X2.023 Y41.621 E185.44826
G0 F2040 X2.518 Y41.621
G1 F1020 X-29.837 Y9.265 E187.19938
G0 F2040 X-29.657 Y8.95
G1 F1020 X3.012 Y41.621 E188.96752
G0 F2040 X3.507 Y41.621
G1 F1020 X-29.477 Y8.635 E190.75271
G0 F2040 X-29.298 Y8.319
G1 F1020 X4.002 Y41.621 E192.555
G0 F2040 X4.497 Y41.621
G1 F1020 X-29.118 Y8.004 E194.37434
G0 F2040 X-28.939 Y7.689
G1 F1020 X4.992 Y41.621 E196.21076
G0 F2040 X5.487 Y41.621
G1 F1020 X-28.76 Y7.373 E198.06428
G0 F2040 X-28.58 Y7.057
G1 F1020 X5.982 Y41.621 E199.93487
G0 F2040 X6.477 Y41.621
G1 F1020 X-28.4 Y6.742 E201.82251
G0 F2040 X-28.221 Y6.426
G1 F1020 X6.972 Y41.621 E203.72726
G0 F2040 X7.467 Y41.621
G1 F1020 X-28.041 Y6.111 E205.64905
G0 F2040 X-27.862 Y5.795
G1 F1020 X7.962 Y41.621 E207.58794
G0 F2040 X8.457 Y41.621
G1 F1020 X-27.683 Y5.48 E209.54391
G0 F2040 X-27.503 Y5.164
G1 F1020 X8.952 Y41.621 E211.51696
G0 F2040 X9.447 Y41.621
G1 F1020 X-27.324 Y4.849 E213.50708
G0 F2040 X-27.144 Y4.533
G1 F1020 X9.942 Y41.621 E215.51427
G0 F2040 X10.437 Y41.621
G1 F1020 X-26.964 Y4.218 E217.53852
G0 F2040 X-26.785 Y3.902
