;FLAVOR:Marlin
;TIME:6259
;Filament used: 7.9394m
;Layer height: 0.3
;MINX:-42.102
;MINY:-70.611
;MINZ:0.26
;MAXX:67.012
;MAXY:26.011
;MAXZ:23.66
;Generated with Cura_SteamEngine 4.9.1
M82 ;absolute extrusion mode
;Gcode by Cura
G90
G28
M107
M109 R100
G30
M109 S215 U-55 X55 V-85 Y-85 W0.26 Z0.26
M82
G92 E0
G1 F200 E6
G92 E0
G1 F200 E-3.5
G0 Z0.15
G0 X10
G0 Z3
G1 F6000
G92 E0
G92 E0
G1 F3600 E-3.8
;LAYER_COUNT:79
;LAYER:0
M107
G0 F2040 X-36.905 Y26.011 Z0.26
;TYPE:SKIRT
G1 F3600 E0
G1 F1020 X-37.595 Y26.001 E0.02641
G1 X-38.198 Y25.952 E0.04956
G1 X-38.789 Y25.824 E0.0727
G1 X-39.358 Y25.62 E0.09584
G1 X-39.895 Y25.342 E0.11898
G1 X-40.391 Y24.995 E0.14214
G1 X-40.836 Y24.587 E0.16525
G1 X-41.224 Y24.123 E0.18839
G1 X-41.548 Y23.612 E0.21155
G1 X-41.801 Y23.063 E0.23468
G1 X-41.98 Y22.485 E0.25784
G1 X-42.08 Y21.889 E0.28097
G1 X-42.102 Y21.285 E0.3041
G1 X-42.043 Y20.683 E0.32725
G1 X-41.906 Y20.094 E0.35039
G1 X-41.642 Y19.422 E0.37802
G1 X-41.509 Y19.165 E0.38909
G1 X-41.172 Y18.559 E0.41563
G1 X8.169 Y-67.787 E4.22151
G1 X8.513 Y-68.368 E4.24735
G1 X8.855 Y-68.867 E4.2705
G1 X9.26 Y-69.316 E4.29364
G1 X9.72 Y-69.708 E4.31677
G1 X10.228 Y-70.036 E4.33991
G1 X10.775 Y-70.294 E4.36305
G1 X11.351 Y-70.478 E4.38619
G1 X11.946 Y-70.584 E4.40932
G1 X12.55 Y-70.611 E4.43246
G1 X13.152 Y-70.558 E4.45559
G1 X13.742 Y-70.426 E4.47872
G1 X14.31 Y-70.217 E4.50189
G1 X14.845 Y-69.935 E4.52503
G1 X15.338 Y-69.585 E4.54817
G1 X15.781 Y-69.173 E4.57132
G1 X16.165 Y-68.707 E4.59443
G1 X16.38 Y-68.379 E4.60944
G1 X16.885 Y-67.53 E4.64724
G1 X66.089 Y18.577 E8.44258
G1 X66.438 Y19.206 E8.47011
G1 X66.696 Y19.753 E8.49325
G1 X66.88 Y20.329 E8.51639
G1 X66.985 Y20.925 E8.53955
G1 X67.012 Y21.529 E8.56269
G1 X66.958 Y22.131 E8.58582
G1 X66.826 Y22.721 E8.60896
G1 X66.617 Y23.288 E8.63208
G1 X66.335 Y23.823 E8.65523
G1 X65.984 Y24.316 E8.67839
G1 X65.572 Y24.759 E8.70154
G1 X65.106 Y25.143 E8.72465
G1 X64.592 Y25.462 E8.7478
G1 X64.041 Y25.711 E8.77094
G1 X63.462 Y25.885 E8.79408
G1 X62.649 Y25.996 E8.82548
G1 X62.43 Y26.004 E8.83386
G1 X61.869 Y26.011 E8.85533
G1 X-36.905 Y26.011 E12.63537
G0 F2040 X-36.9 Y25.661
G1 F1020 X-37.59 Y25.651 E12.66178
G1 X-38.169 Y25.602 E12.68401
G1 X-38.736 Y25.475 E12.70625
G1 X-39.28 Y25.271 E12.72849
G1 X-39.791 Y24.994 E12.75073
G1 X-40.259 Y24.65 E12.77296
G1 X-40.676 Y24.245 E12.7952
G1 X-41.033 Y23.787 E12.81743
G1 X-41.324 Y23.284 E12.83967
G1 X-41.543 Y22.746 E12.86189
G1 X-41.686 Y22.182 E12.88416
G1 X-41.75 Y21.605 E12.90638
G1 X-41.735 Y21.024 E12.92862
G1 X-41.64 Y20.451 E12.95085
G1 X-41.467 Y19.896 E12.9731
G1 X-41.203 Y19.335 E12.99682
G1 X-40.868 Y18.733 E13.02319
G1 X8.47 Y-67.609 E16.82888
G1 X8.814 Y-68.19 E16.85472
G1 X9.144 Y-68.668 E16.87694
G1 X9.536 Y-69.097 E16.89918
G1 X9.984 Y-69.467 E16.92142
G1 X10.478 Y-69.773 E16.94366
G1 X11.009 Y-70.009 E16.9659
G1 X11.567 Y-70.169 E16.98811
G1 X12.143 Y-70.251 E17.01038
G1 X12.724 Y-70.253 E17.03261
G1 X13.3 Y-70.176 E17.05485
G1 X13.859 Y-70.02 E17.07706
G1 X14.392 Y-69.789 E17.09929
G1 X14.889 Y-69.487 E17.12155
G1 X15.339 Y-69.12 E17.14377
G1 X15.735 Y-68.694 E17.16603
G1 X16.079 Y-68.2 E17.18907
G1 X16.581 Y-67.356 E17.22665
G1 X65.783 Y18.747 E21.02181
G1 X66.132 Y19.376 E21.04934
G1 X66.379 Y19.902 E21.07158
G1 X66.55 Y20.457 E21.0938
G1 X66.644 Y21.031 E21.11606
G1 X66.659 Y21.612 E21.1383
G1 X66.594 Y22.189 E21.16053
G1 X66.45 Y22.752 E21.18277
G1 X66.23 Y23.29 E21.20501
G1 X65.938 Y23.792 E21.22723
G1 X65.58 Y24.25 E21.24948
G1 X65.163 Y24.655 E21.27173
G1 X64.694 Y24.998 E21.29396
G1 X64.183 Y25.274 E21.31619
G1 X63.639 Y25.477 E21.33841
G1 X63.072 Y25.603 E21.36064
G1 X62.568 Y25.65 E21.38001
G1 X62.426 Y25.654 E21.38545
G1 X61.865 Y25.661 E21.40692
G1 X-36.9 Y25.661 E25.18661
G0 F2040 X-36.895 Y25.311
G1 F1020 X-37.585 Y25.301 E25.21301
G1 X-38.139 Y25.253 E25.2343
G1 X-38.681 Y25.126 E25.2556
G1 X-39.199 Y24.923 E25.27689
G1 X-39.683 Y24.647 E25.29821
G1 X-40.122 Y24.306 E25.31949
G1 X-40.508 Y23.905 E25.34079
G1 X-40.832 Y23.452 E25.3621
G1 X-41.088 Y22.958 E25.38339
G1 X-41.271 Y22.433 E25.40467
G1 X-41.377 Y21.887 E25.42596
G1 X-41.403 Y21.331 E25.44726
G1 X-41.349 Y20.777 E25.46856
G1 X-41.217 Y20.237 E25.48983
G1 X-41.013 Y19.729 E25.51078
G1 X-40.897 Y19.505 E25.52044
G1 X-40.564 Y18.906 E25.54666
G1 X8.772 Y-67.43 E29.35211
G1 X9.116 Y-68.011 E29.37795
G1 X9.433 Y-68.468 E29.39924
G1 X9.812 Y-68.875 E29.42052
G1 X10.246 Y-69.224 E29.44184
G1 X10.725 Y-69.507 E29.46313
G1 X11.24 Y-69.718 E29.48443
G1 X11.779 Y-69.854 E29.5057
G1 X12.333 Y-69.91 E29.52701
G1 X12.889 Y-69.887 E29.5483
G1 X13.436 Y-69.785 E29.5696
G1 X13.962 Y-69.605 E29.59087
G1 X14.458 Y-69.351 E29.6122
G1 X14.912 Y-69.03 E29.63348
G1 X15.315 Y-68.646 E29.65478
G1 X15.779 Y-68.021 E29.68457
G1 X16.277 Y-67.183 E29.72188
G1 X65.477 Y18.917 E33.5169
G1 X65.826 Y19.546 E33.54443
G1 X66.061 Y20.051 E33.56575
G1 X66.22 Y20.584 E33.58703
G1 X66.302 Y21.134 E33.60831
G1 X66.304 Y21.69 E33.62959
G1 X66.226 Y22.241 E33.65089
G1 X66.07 Y22.776 E33.67222
G1 X65.84 Y23.282 E33.69349
G1 X65.539 Y23.75 E33.71478
G1 X65.174 Y24.17 E33.73608
G1 X64.753 Y24.534 E33.75737
G1 X64.284 Y24.833 E33.77866
G1 X63.777 Y25.062 E33.79995
G1 X63.242 Y25.217 E33.82127
G1 X62.617 Y25.297 E33.84538
G1 X62.421 Y25.304 E33.85289
G1 X61.86 Y25.311 E33.87436
G1 X-36.895 Y25.311 E37.65366
G0 F2040 X-36.89 Y24.961
G1 F1020 X-37.58 Y24.951 E37.68007
G1 X-38.109 Y24.903 E37.7004
G1 X-38.624 Y24.777 E37.72069
G1 X-39.115 Y24.574 E37.74102
G1 X-39.569 Y24.301 E37.7613
G1 X-39.978 Y23.962 E37.78163
G1 X-40.33 Y23.565 E37.80193
G1 X-40.62 Y23.121 E37.82223
G1 X-40.839 Y22.637 E37.84256
G1 X-40.984 Y22.127 E37.86285
G1 X-41.05 Y21.6 E37.88317
G1 X-41.036 Y21.07 E37.90346
G1 X-40.943 Y20.547 E37.92379
G1 X-40.698 Y19.882 E37.95091
G1 X-40.591 Y19.675 E37.95983
G1 X-40.261 Y19.08 E37.98587
G1 X9.073 Y-67.252 E41.79115
G1 X9.417 Y-67.833 E41.81699
G1 X9.721 Y-68.268 E41.8373
G1 X10.087 Y-68.652 E41.8576
G1 X10.506 Y-68.977 E41.87789
G1 X10.969 Y-69.236 E41.89819
G1 X11.466 Y-69.422 E41.9185
G1 X11.986 Y-69.531 E41.93884
G1 X12.515 Y-69.561 E41.95911
G1 X13.044 Y-69.512 E41.97944
G1 X13.559 Y-69.383 E41.99976
G1 X14.048 Y-69.179 E42.02004
G1 X14.502 Y-68.903 E42.04037
G1 X14.909 Y-68.563 E42.06067
G1 X15.26 Y-68.165 E42.08098
G1 X15.478 Y-67.841 E42.09592
G1 X15.974 Y-67.009 E42.13299
G1 X65.171 Y19.087 E45.92783
G1 X65.52 Y19.716 E45.95535
G1 X65.742 Y20.198 E45.97566
G1 X65.889 Y20.708 E45.99597
G1 X65.958 Y21.234 E46.01628
G1 X65.947 Y21.765 E46.0366
G1 X65.856 Y22.287 E46.05688
G1 X65.688 Y22.791 E46.07721
G1 X65.446 Y23.263 E46.09751
G1 X65.137 Y23.694 E46.11781
G1 X64.765 Y24.073 E46.13813
G1 X64.342 Y24.393 E46.15843
G1 X63.875 Y24.645 E46.17874
G1 X63.375 Y24.824 E46.19906
G1 X62.601 Y24.947 E46.22905
G1 X62.417 Y24.954 E46.2361
G1 X61.856 Y24.961 E46.25757
G1 X-36.89 Y24.961 E50.03653
G0 F2040 X-36.885 Y24.611
G1 F1020 X-37.575 Y24.601 E50.06294
G1 X-38.076 Y24.553 E50.0822
G1 X-38.564 Y24.428 E50.10148
G1 X-39.026 Y24.226 E50.12078
G1 X-39.449 Y23.954 E50.14002
G1 X-39.825 Y23.619 E50.15929
G1 X-40.143 Y23.228 E50.17858
G1 X-40.395 Y22.792 E50.19785
G1 X-40.575 Y22.322 E50.21711
G1 X-40.678 Y21.829 E50.23639
G1 X-40.702 Y21.326 E50.25566
G1 X-40.647 Y20.826 E50.27491
G1 X-40.513 Y20.34 E50.2942
G1 X-40.285 Y19.845 E50.31506
G1 X-39.957 Y19.254 E50.34093
G1 X9.374 Y-67.074 E54.14602
G1 X9.718 Y-67.655 E54.17186
G1 X10.008 Y-68.066 E54.19111
G1 X10.36 Y-68.427 E54.2104
G1 X10.764 Y-68.727 E54.22966
G1 X11.21 Y-68.96 E54.24892
G1 X11.688 Y-69.119 E54.26819
G1 X12.185 Y-69.201 E54.28747
G1 X12.689 Y-69.203 E54.30676
G1 X13.186 Y-69.125 E54.32601
G1 X13.665 Y-68.97 E54.34528
G1 X14.114 Y-68.741 E54.36457
G1 X14.52 Y-68.444 E54.38382
G1 X14.875 Y-68.086 E54.40311
G1 X15.177 Y-67.662 E54.42303
G1 X15.67 Y-66.835 E54.45988
G1 X64.865 Y19.257 E58.25455
G1 X65.214 Y19.886 E58.28207
G1 X65.423 Y20.344 E58.30134
G1 X65.556 Y20.829 E58.32059
G1 X65.612 Y21.33 E58.33988
G1 X65.587 Y21.833 E58.35915
G1 X65.483 Y22.326 E58.37843
G1 X65.302 Y22.796 E58.39771
G1 X65.05 Y23.232 E58.41698
G1 X64.731 Y23.622 E58.43626
G1 X64.355 Y23.957 E58.45553
G1 X63.931 Y24.228 E58.47479
G1 X63.469 Y24.429 E58.49407
G1 X62.982 Y24.554 E58.51332
G1 X62.413 Y24.604 E58.53517
G1 X61.852 Y24.611 E58.55665
G1 X-36.885 Y24.611 E62.33526
G1 F3600 E58.53526
;MESH:support_tri_0_031.stl
G0 F2040 X-36.885 Y22.101
G0 X-36.885 Y21.066
G0 X-36.641 Y20.911
;TYPE:WALL-INNER
G1 F3600 E62.33526
G1 F1020 X12.454 Y-65.006 E66.12221
G1 X61.549 Y20.911 E69.90917
G1 X-36.641 Y20.911 E73.66685
G0 F2040 X-37.201 Y21.236
;TYPE:WALL-OUTER
G1 F1020 X12.454 Y-65.661 E77.497
G1 X62.109 Y21.236 E81.32715
G1 X-37.201 Y21.236 E85.12769
G0 F2040 X-37.102 Y21.063
G0 X-36.856 Y21.036
G0 X-36.055 Y20.571
;TYPE:SKIN
G1 F1020 X12.454 Y-64.321 E88.86946
G1 X60.963 Y20.571 E92.61123
G1 X-36.055 Y20.571 E96.32406
G0 F2040 X-35.687 Y20.244
G1 F1020 X-35.518 Y20.413 E96.33321
G0 F2040 X-35.507 Y19.929
G1 F1020 X-35.023 Y20.413 E96.3594
G0 F2040 X-34.528 Y20.413
G1 F1020 X-35.327 Y19.615 E96.40262
G0 F2040 X-35.147 Y19.299
G1 F1020 X-34.033 Y20.413 E96.46291
G0 F2040 X-33.538 Y20.413
G1 F1020 X-34.967 Y18.985 E96.54022
G0 F2040 X-34.787 Y18.669
G1 F1020 X-33.043 Y20.413 E96.63461
G0 F2040 X-32.548 Y20.413
G1 F1020 X-34.607 Y18.355 E96.74602
G0 F2040 X-34.427 Y18.039
G1 F1020 X-32.053 Y20.413 E96.8745
G0 F2040 X-31.558 Y20.413
G1 F1020 X-34.247 Y17.725 E97.02001
G0 F2040 X-34.067 Y17.409
G1 F1020 X-31.063 Y20.413 E97.18259
G0 F2040 X-30.568 Y20.413
G1 F1020 X-33.887 Y17.095 E97.36219
G0 F2040 X-33.707 Y16.779
G1 F1020 X-30.073 Y20.413 E97.55886
G0 F2040 X-29.578 Y20.413
G1 F1020 X-33.527 Y16.464 E97.77259
G0 F2040 X-33.347 Y16.15
G1 F1020 X-29.084 Y20.413 E98.00331
G0 F2040 X-28.589 Y20.413
G1 F1020 X-33.167 Y15.834 E98.2511
G0 F2040 X-32.987 Y15.52
G1 F1020 X-28.094 Y20.413 E98.51592
G0 F2040 X-27.599 Y20.413
G1 F1020 X-32.807 Y15.204 E98.79781
G0 F2040 X-32.627 Y14.89
G1 F1020 X-27.104 Y20.413 E99.09672
G0 F2040 X-26.609 Y20.413
G1 F1020 X-32.447 Y14.574 E99.41271
G0 F2040 X-32.267 Y14.26
G1 F1020 X-26.114 Y20.413 E99.74572
G0 F2040 X-25.619 Y20.413
G1 F1020 X-32.087 Y13.944 E100.0958
G0 F2040 X-31.907 Y13.63
G1 F1020 X-25.124 Y20.413 E100.4629
G0 F2040 X-24.629 Y20.413
G1 F1020 X-31.727 Y13.314 E100.84708
G0 F2040 X-31.547 Y13
G1 F1020 X-24.134 Y20.413 E101.24828
G0 F2040 X-23.639 Y20.413
G1 F1020 X-31.367 Y12.685 E101.66653
G0 F2040 X-31.187 Y12.37
G1 F1020 X-23.144 Y20.413 E102.10183
G0 F2040 X-22.649 Y20.413
G1 F1020 X-31.007 Y12.055 E102.55418
G0 F2040 X-30.827 Y11.74
G1 F1020 X-22.154 Y20.413 E103.02357
G0 F2040 X-21.659 Y20.413
G1 F1020 X-30.647 Y11.425 E103.51001
G0 F2040 X-30.467 Y11.11
G1 F1020 X-21.164 Y20.413 E104.0135
G0 F2040 X-20.669 Y20.413
G1 F1020 X-30.287 Y10.795 E104.53404
G0 F2040 X-30.107 Y10.48
G1 F1020 X-20.174 Y20.413 E105.07163
G0 F2040 X-19.679 Y20.413
G1 F1020 X-29.927 Y10.165 E105.62626
G0 F2040 X-29.747 Y9.849
G1 F1020 X-19.184 Y20.413 E106.19797
G0 F2040 X-18.689 Y20.413
G1 F1020 X-29.567 Y9.535 E106.7867
G0 F2040 X-29.387 Y9.22
G1 F1020 X-18.194 Y20.413 E107.39248
G0 F2040 X-17.699 Y20.413
G1 F1020 X-29.207 Y8.905 E108.01531
G0 F2040 X-29.027 Y8.59
G1 F1020 X-17.204 Y20.413 E108.65519
G0 F2040 X-16.709 Y20.413
G1 F1020 X-28.847 Y8.275 E109.31211
G0 F2040 X-28.667 Y7.96
G1 F1020 X-16.214 Y20.413 E109.98608
G0 F2040 X-15.719 Y20.413
G1 F1020 X-28.487 Y7.645 E110.6771
G0 F2040 X-28.307 Y7.33
G1 F1020 X-15.224 Y20.413 E111.38517
G0 F2040 X-14.729 Y20.413
G1 F1020 X-28.128 Y7.015 E112.11032
G0 F2040 X-27.947 Y6.7
G1 F1020 X-14.234 Y20.413 E112.85248
G0 F2040 X-13.739 Y20.413
G1 F1020 X-27.768 Y6.385 E113.61172
G0 F2040 X-27.587 Y6.07
G1 F1020 X-13.244 Y20.413 E114.38798
G0 F2040 X-12.749 Y20.413
G1 F1020 X-27.407 Y5.755 E115.18129
G0 F2040 X-27.227 Y5.44
G1 F1020 X-12.254 Y20.413 E115.99165
G0 F2040 X-11.759 Y20.413
G1 F1020 X-27.047 Y5.125 E116.81906
G0 F2040 X-26.867 Y4.81
G1 F1020 X-11.264 Y20.413 E117.66351
G0 F2040 X-10.769 Y20.413
G1 F1020 X-26.687 Y4.495 E118.52501
G0 F2040 X-26.508 Y4.18
G1 F1020 X-10.274 Y20.413 E119.40359
G0 F2040 X-9.779 Y20.413
G1 F1020 X-26.327 Y3.865 E120.29919
G0 F2040 X-26.148 Y3.55
G1 F1020 X-9.285 Y20.413 E121.21184
G0 F2040 X-8.79 Y20.413
G1 F1020 X-25.967 Y3.235 E122.14151
G0 F2040 X-25.788 Y2.92
G1 F1020 X-8.295 Y20.413 E123.08825
G0 F2040 X-7.8 Y20.413
G1 F1020 X-25.607 Y2.605 E124.05201
G0 F2040 X-25.427 Y2.291
G1 F1020 X-7.305 Y20.413 E125.0328
G0 F2040 X-6.81 Y20.413
G1 F1020 X-25.247 Y1.975 E126.03066
G0 F2040 X-25.067 Y1.66
G1 F1020 X-6.315 Y20.413 E127.04557
G0 F2040 X-5.82 Y20.413
G1 F1020 X-24.888 Y1.345 E128.07755
G0 F2040 X-24.707 Y1.03
G1 F1020 X-5.325 Y20.413 E129.12656
G0 F2040 X-4.83 Y20.413
G1 F1020 X-24.528 Y0.715 E130.19264
G0 F2040 X-24.347 Y0.4
G1 F1020 X-4.335 Y20.413 E131.27574
G0 F2040 X-3.84 Y20.413
G1 F1020 X-24.168 Y0.085 E132.37592
G0 F2040 X-23.987 Y-.229
G1 F1020 X-3.345 Y20.413 E133.49309
G0 F2040 X-2.85 Y20.413
G1 F1020 X-23.808 Y-.544 E134.62734
G0 F2040 X-23.627 Y-.859
G1 F1020 X-2.355 Y20.413 E135.7786
G0 F2040 X-1.86 Y20.413
G1 F1020 X-23.448 Y-1.174 E136.94695
G0 F2040 X-23.268 Y-1.489
G1 F1020 X-1.365 Y20.413 E138.13234
G0 F2040 X-.87 Y20.413
G1 F1020 X-23.087 Y-1.803 E139.33472
G0 F2040 X-22.908 Y-2.119
G1 F1020 X-.375 Y20.413 E140.55421
G0 F2040 X0.119 Y20.413
G1 F1020 X-22.727 Y-2.433 E141.79067
G0 F2040 X-22.548 Y-2.749
G1 F1020 X0.614 Y20.413 E143.04422
G0 F2040 X1.109 Y20.413
G1 F1020 X-22.367 Y-3.063 E144.31477
G0 F2040 X-22.188 Y-3.379
G1 F1020 X1.604 Y20.413 E145.60243
G0 F2040 X2.099 Y20.413
G1 F1020 X-22.007 Y-3.693 E146.90708
G0 F2040 X-21.828 Y-4.009
G1 F1020 X2.594 Y20.413 E148.22883
G0 F2040 X3.089 Y20.413
G1 F1020 X-21.648 Y-4.323 E149.5676
G0 F2040 X-21.468 Y-4.639
G1 F1020 X3.584 Y20.413 E150.92344
G0 F2040 X4.079 Y20.413
G1 F1020 X-21.288 Y-4.953 E152.29631
G0 F2040 X-21.107 Y-5.268
G1 F1020 X4.574 Y20.413 E153.6862
G0 F2040 X5.069 Y20.413
G1 F1020 X-20.928 Y-5.584 E155.09319
G0 F2040 X-20.747 Y-5.898
G1 F1020 X5.564 Y20.413 E156.51717
G0 F2040 X6.059 Y20.413
G1 F1020 X-20.568 Y-6.214 E157.95826
G0 F2040 X-20.388 Y-6.528
G1 F1020 X6.554 Y20.413 E159.41637
G0 F2040 X7.049 Y20.413
G1 F1020 X-20.208 Y-6.844 E160.89155
G0 F2040 X-20.028 Y-7.158
G1 F1020 X7.544 Y20.413 E162.38376
G0 F2040 X8.039 Y20.413
G1 F1020 X-19.848 Y-7.474 E163.89304
G0 F2040 X-19.668 Y-7.788
G1 F1020 X8.534 Y20.413 E165.41934
G0 F2040 X9.029 Y20.413
G1 F1020 X-19.488 Y-8.104 E166.96271
G0 F2040 X-19.308 Y-8.418
G1 F1020 X9.524 Y20.413 E168.52311
G0 F2040 X10.018 Y20.413
G1 F1020 X-19.127 Y-8.733 E170.1005
G0 F2040 X-18.948 Y-9.048
G1 F1020 X10.513 Y20.413 E171.69497
G0 F2040 X11.008 Y20.413
G1 F1020 X-18.768 Y-9.363 E173.30649
G0 F2040 X-18.588 Y-9.678
G1 F1020 X11.503 Y20.413 E174.93505
G0 F2040 X11.998 Y20.413
G1 F1020 X-18.408 Y-9.993 E176.58066
G0 F2040 X-18.228 Y-10.308
G1 F1020 X12.493 Y20.413 E178.24332
G0 F2040 X12.988 Y20.413
G1 F1020 X-18.048 Y-10.623 E179.92303
G0 F2040 X-17.868 Y-10.938
G1 F1020 X13.483 Y20.413 E181.61978
G0 F2040 X13.978 Y20.413
G1 F1020 X-17.688 Y-11.253 E183.33359
G0 F2040 X-17.508 Y-11.568
G1 F1020 X14.473 Y20.413 E185.06444
G0 F2040 X14.968 Y20.413
G1 F1020 X-17.328 Y-11.883 E186.81234
G0 F2040 X-17.148 Y-12.198
G1 F1020 X15.463 Y20.413 E188.57729
G0 F2040 X15.958 Y20.413
G1 F1020 X-16.968 Y-12.513 E190.35929
G0 F2040 X-16.788 Y-12.828
G1 F1020 X16.453 Y20.413 E192.15833
G0 F2040 X16.948 Y20.413
G1 F1020 X-16.608 Y-13.143 E193.97443
G0 F2040 X-16.428 Y-13.458
G1 F1020 X17.443 Y20.413 E195.80757
G0 F2040 X17.938 Y20.413
G1 F1020 X-16.248 Y-13.773 E197.65776
G0 F2040 X-16.068 Y-14.088
G1 F1020 X18.433 Y20.413 E199.525
G0 F2040 X18.928 Y20.413
G1 F1020 X-15.888 Y-14.403 E201.40928
G0 F2040 X-15.708 Y-14.718
G1 F1020 X19.423 Y20.413 E203.31062
G0 F2040 X19.918 Y20.413
G1 F1020 X-15.528 Y-15.033 E205.229
G0 F2040 X-15.348 Y-15.348
G1 F1020 X20.413 Y20.413 E207.16443
G0 F2040 X20.908 Y20.413
G1 F1020 X-15.168 Y-15.663 E209.11691
G0 F2040 X-14.988 Y-15.978
G1 F1020 X21.403 Y20.413 E211.08644
G0 F2040 X21.898 Y20.413
