;FLAVOR:Marlin
;TIME:7426
;Filament used: 7.01141m
;Layer height: 0.2
;MINX:-41.621
;MINY:-24.126
;MINZ:0.26
;MAXX:68.611
;MAXY:74.416
;MAXZ:13.26
;Generated with Cura_SteamEngine 4.8.0
M82 ;absolute extrusion mode
;Gcode by Cura
G90
G28
M107
M109 R100
G30
M109 S215 U-55 X55 V-85 Y-85 W0.26 Z0.26
M82
G92 E0
G1 F200 E6
G92 E0
G1 F200 E-3.5
G0 Z0.15
G0 X10
G0 Z3
G1 F6000
G92 E0
G92 E0
G1 F3600 E-3.8
;LAYER_COUNT:66
;LAYER:0
M107
G0 F2040 X-36.63 Y-24.126 Z0.26
;TYPE:SKIRT
G1 F3600 E0
G1 F1020 X63.414 Y-24.126 E3.82864
G1 X64.104 Y-24.116 E3.85504
G1 X64.707 Y-24.067 E3.8782
G1 X65.298 Y-23.939 E3.90134
G1 X65.867 Y-23.735 E3.92447
G1 X66.404 Y-23.457 E3.94761
G1 X66.9 Y-23.11 E3.97078
G1 X67.345 Y-22.702 E3.99388
G1 X67.733 Y-22.238 E4.01703
G1 X68.057 Y-21.727 E4.04019
G1 X68.31 Y-21.178 E4.06332
G1 X68.489 Y-20.6 E4.08648
G1 X68.589 Y-20.004 E4.1096
G1 X68.611 Y-19.4 E4.13273
G1 X68.552 Y-18.798 E4.15588
G1 X68.415 Y-18.209 E4.17902
G1 X68.162 Y-17.56 E4.20568
G1 X67.888 Y-17.013 E4.22909
G1 X21.185 Y71.418 E8.05628
G1 X20.85 Y72.032 E8.08305
G1 X20.526 Y72.543 E8.1062
G1 X20.138 Y73.006 E8.12932
G1 X19.691 Y73.414 E8.15248
G1 X19.195 Y73.76 E8.17562
G1 X18.658 Y74.037 E8.19875
G1 X18.089 Y74.241 E8.22188
G1 X17.497 Y74.368 E8.24505
G1 X16.895 Y74.416 E8.26816
G1 X16.291 Y74.384 E8.29131
G1 X15.697 Y74.272 E8.31444
G1 X15.122 Y74.084 E8.33759
G1 X14.578 Y73.821 E8.36072
G1 X14.072 Y73.488 E8.3839
G1 X13.616 Y73.092 E8.40701
G1 X13.055 Y72.419 E8.44054
G1 X12.672 Y71.823 E8.46765
G1 X-40.639 Y-16.62 E12.41966
G1 X-40.999 Y-17.238 E12.44703
G1 X-41.268 Y-17.78 E12.47019
G1 X-41.464 Y-18.352 E12.49333
G1 X-41.582 Y-18.945 E12.51647
G1 X-41.621 Y-19.548 E12.53959
G1 X-41.58 Y-20.151 E12.56272
G1 X-41.46 Y-20.744 E12.58587
G1 X-41.263 Y-21.316 E12.60903
G1 X-40.992 Y-21.856 E12.63215
G1 X-40.652 Y-22.356 E12.65529
G1 X-40.249 Y-22.807 E12.67843
G1 X-39.791 Y-23.201 E12.70155
G1 X-39.284 Y-23.531 E12.72471
G1 X-38.738 Y-23.792 E12.74787
G1 X-38.163 Y-23.978 E12.77099
G1 X-37.568 Y-24.086 E12.79414
G1 X-37.01 Y-24.12 E12.81553
G1 X-36.63 Y-24.126 E12.83007
G0 F2040 X-36.626 Y-23.776
G1 F1020 X63.409 Y-23.776 E16.65836
G1 X64.099 Y-23.766 E16.68477
G1 X64.678 Y-23.717 E16.70701
G1 X65.245 Y-23.59 E16.72925
G1 X65.789 Y-23.386 E16.75148
G1 X66.3 Y-23.109 E16.77373
G1 X66.768 Y-22.765 E16.79595
G1 X67.185 Y-22.36 E16.8182
G1 X67.542 Y-21.902 E16.84042
G1 X67.833 Y-21.399 E16.86266
G1 X68.052 Y-20.861 E16.88489
G1 X68.195 Y-20.297 E16.90716
G1 X68.259 Y-19.72 E16.92938
G1 X68.244 Y-19.139 E16.95162
G1 X68.149 Y-18.566 E16.97384
G1 X67.976 Y-18.011 E16.99609
G1 X67.76 Y-17.532 E17.0162
G1 X67.558 Y-17.137 E17.03318
G1 X20.878 Y71.251 E20.8585
G1 X20.543 Y71.865 E20.88526
G1 X20.23 Y72.354 E20.90748
G1 X19.853 Y72.796 E20.92972
G1 X19.419 Y73.183 E20.95197
G1 X18.936 Y73.506 E20.97421
G1 X18.414 Y73.76 E20.99642
G1 X17.861 Y73.939 E21.01867
G1 X17.289 Y74.041 E21.0409
G1 X16.708 Y74.064 E21.06315
G1 X16.13 Y74.007 E21.08538
G1 X15.565 Y73.871 E21.10762
G1 X15.024 Y73.659 E21.12986
G1 X14.518 Y73.374 E21.15208
G1 X14.055 Y73.023 E21.17432
G1 X13.645 Y72.612 E21.19653
G1 X13.241 Y72.071 E21.22237
G1 X12.97 Y71.64 E21.24186
G1 X-40.337 Y-16.796 E25.19356
G1 X-40.697 Y-17.414 E25.22093
G1 X-40.954 Y-17.935 E25.24316
G1 X-41.137 Y-18.487 E25.26541
G1 X-41.243 Y-19.058 E25.28764
G1 X-41.27 Y-19.638 E25.30986
G1 X-41.217 Y-20.217 E25.33211
G1 X-41.084 Y-20.783 E25.35436
G1 X-40.876 Y-21.325 E25.37658
G1 X-40.595 Y-21.834 E25.39883
G1 X-40.247 Y-22.299 E25.42105
G1 X-39.838 Y-22.712 E25.4433
G1 X-39.377 Y-23.065 E25.46552
G1 X-38.871 Y-23.351 E25.48776
G1 X-38.331 Y-23.566 E25.51001
G1 X-37.767 Y-23.704 E25.53223
G1 X-37.195 Y-23.763 E25.55423
G1 X-36.626 Y-23.776 E25.57601
G0 F2040 X-36.622 Y-23.426
G1 F1020 X63.404 Y-23.426 E29.40396
G1 X64.094 Y-23.416 E29.43037
G1 X64.648 Y-23.368 E29.45165
G1 X65.19 Y-23.241 E29.47295
G1 X65.708 Y-23.038 E29.49425
G1 X66.192 Y-22.762 E29.51557
G1 X66.631 Y-22.421 E29.53684
G1 X67.017 Y-22.02 E29.55814
G1 X67.341 Y-21.567 E29.57946
G1 X67.597 Y-21.073 E29.60075
G1 X67.78 Y-20.548 E29.62203
G1 X67.886 Y-20.002 E29.64331
G1 X67.912 Y-19.446 E29.66461
G1 X67.858 Y-18.892 E29.68591
G1 X67.726 Y-18.352 E29.70719
G1 X67.531 Y-17.863 E29.72734
G1 X67.266 Y-17.333 E29.75001
G1 X20.571 Y71.083 E33.57655
G1 X20.236 Y71.697 E33.60331
G1 X19.935 Y72.165 E33.62461
G1 X19.57 Y72.585 E33.6459
G1 X19.149 Y72.949 E33.6672
G1 X18.68 Y73.248 E33.68849
G1 X18.173 Y73.477 E33.70978
G1 X17.638 Y73.632 E33.73109
G1 X17.087 Y73.708 E33.75238
G1 X16.531 Y73.704 E33.77366
G1 X15.98 Y73.621 E33.79498
G1 X15.448 Y73.46 E33.81625
G1 X14.944 Y73.224 E33.83755
G1 X14.479 Y72.918 E33.85885
G1 X14.062 Y72.549 E33.88016
G1 X13.633 Y72.025 E33.90608
G1 X13.269 Y71.457 E33.9319
G1 X-40.005 Y-16.923 E37.88111
G1 X-40.394 Y-17.591 E37.91069
G1 X-40.639 Y-18.09 E37.93196
G1 X-40.81 Y-18.62 E37.95328
G1 X-40.903 Y-19.168 E37.97455
G1 X-40.917 Y-19.725 E37.99587
G1 X-40.85 Y-20.277 E38.01715
G1 X-40.706 Y-20.814 E38.03843
G1 X-40.486 Y-21.325 E38.05972
G1 X-40.195 Y-21.8 E38.08104
G1 X-39.839 Y-22.227 E38.10231
G1 X-39.425 Y-22.6 E38.12364
G1 X-38.963 Y-22.909 E38.14491
G1 X-38.461 Y-23.149 E38.1662
G1 X-37.929 Y-23.314 E38.18752
G1 X-37.183 Y-23.414 E38.21632
G1 X-36.622 Y-23.426 E38.2378
G0 F2040 X-36.618 Y-23.076
G1 F1020 X63.399 Y-23.076 E42.0654
G1 X64.089 Y-23.066 E42.09181
G1 X64.618 Y-23.018 E42.11214
G1 X65.133 Y-22.892 E42.13243
G1 X65.624 Y-22.689 E42.15276
G1 X66.078 Y-22.416 E42.17303
G1 X66.487 Y-22.077 E42.19336
G1 X66.839 Y-21.68 E42.21367
G1 X67.129 Y-21.236 E42.23396
G1 X67.348 Y-20.752 E42.25429
G1 X67.493 Y-20.242 E42.27458
G1 X67.559 Y-19.715 E42.29491
G1 X67.545 Y-19.185 E42.3152
G1 X67.452 Y-18.662 E42.33553
G1 X67.215 Y-18.014 E42.36193
G1 X66.955 Y-17.494 E42.38418
G1 X20.263 Y70.915 E46.21043
G1 X19.928 Y71.529 E46.23719
G1 X19.64 Y71.975 E46.25751
G1 X19.288 Y72.372 E46.27782
G1 X18.88 Y72.711 E46.29812
G1 X18.426 Y72.986 E46.31843
G1 X17.936 Y73.189 E46.33873
G1 X17.421 Y73.317 E46.35904
G1 X16.892 Y73.366 E46.37937
G1 X16.363 Y73.334 E46.39965
G1 X15.844 Y73.224 E46.41995
G1 X15.347 Y73.037 E46.44027
G1 X14.884 Y72.778 E46.46058
G1 X14.465 Y72.452 E46.48089
G1 X14.1 Y72.066 E46.50122
G1 X13.728 Y71.536 E46.526
G1 X13.551 Y71.248 E46.53894
G1 X-39.732 Y-17.149 E50.48889
G1 X-40.092 Y-17.767 E50.51626
G1 X-40.324 Y-18.244 E50.53656
G1 X-40.481 Y-18.751 E50.55687
G1 X-40.561 Y-19.275 E50.57715
G1 X-40.561 Y-19.806 E50.59747
G1 X-40.481 Y-20.331 E50.6178
G1 X-40.324 Y-20.837 E50.63807
G1 X-40.092 Y-21.315 E50.65841
G1 X-39.791 Y-21.752 E50.67871
G1 X-39.428 Y-22.139 E50.69902
G1 X-39.011 Y-22.467 E50.71932
G1 X-38.55 Y-22.729 E50.73962
G1 X-38.054 Y-22.919 E50.75994
G1 X-37.536 Y-23.032 E50.78023
G1 X-36.973 Y-23.071 E50.80183
G1 X-36.618 Y-23.076 E50.81542
G0 F2040 X-36.614 Y-22.726
G1 F1020 X63.394 Y-22.726 E54.64267
G1 X64.084 Y-22.716 E54.66908
G1 X64.585 Y-22.668 E54.68834
G1 X65.073 Y-22.543 E54.70762
G1 X65.535 Y-22.341 E54.72692
G1 X65.958 Y-22.069 E54.74616
G1 X66.334 Y-21.734 E54.76544
G1 X66.652 Y-21.343 E54.78472
G1 X66.904 Y-20.907 E54.804
G1 X67.084 Y-20.437 E54.82326
G1 X67.187 Y-19.944 E54.84253
G1 X67.211 Y-19.441 E54.8618
G1 X67.156 Y-18.941 E54.88105
G1 X67.022 Y-18.455 E54.90035
G1 X66.814 Y-17.987 E54.91995
G1 X66.63 Y-17.627 E54.93542
G1 X19.956 Y70.748 E58.76019
G1 X19.621 Y71.362 E58.78696
G1 X19.346 Y71.783 E58.8062
G1 X19.007 Y72.156 E58.82549
G1 X18.614 Y72.47 E58.84474
G1 X18.176 Y72.719 E58.86402
G1 X17.704 Y72.895 E58.8833
G1 X17.21 Y72.994 E58.90258
G1 X16.707 Y73.013 E58.92184
G1 X16.207 Y72.953 E58.94112
G1 X15.722 Y72.815 E58.96041
G1 X15.266 Y72.602 E58.97967
G1 X14.849 Y72.319 E58.99896
G1 X14.483 Y71.974 E59.01821
G1 X14.108 Y71.479 E59.04197
G1 X13.851 Y71.067 E59.06056
G1 X-39.429 Y-17.325 E63.01028
G1 X-39.789 Y-17.943 E63.03765
G1 X-40.008 Y-18.397 E63.05694
G1 X-40.151 Y-18.879 E63.07618
G1 X-40.217 Y-19.379 E63.09548
G1 X-40.203 Y-19.882 E63.11474
G1 X-40.109 Y-20.377 E63.13402
G1 X-39.938 Y-20.851 E63.15331
G1 X-39.695 Y-21.291 E63.17254
G1 X-39.385 Y-21.688 E63.19182
G1 X-39.016 Y-22.031 E63.2111
G1 X-38.597 Y-22.311 E63.23038
G1 X-38.14 Y-22.522 E63.24965
G1 X-37.655 Y-22.657 E63.26891
G1 X-37.158 Y-22.714 E63.28806
G1 X-36.614 Y-22.726 E63.30888
G1 F3600 E59.50888
;MESH:support_tri_0_087.stl
G0 F2040 X-36.41 Y-20.216
G0 X-36.41 Y-19.163
G0 X16.802 Y68.798
;TYPE:WALL-INNER
G1 F3600 E63.30888
G1 F1020 X-36.135 Y-19.026 E67.23321
G1 X63.184 Y-19.026 E71.0341
G1 X16.802 Y68.798 E74.83501
G0 F2040 X16.821 Y69.458
;TYPE:WALL-OUTER
G1 F1020 X-36.71 Y-19.351 E78.80336
G1 X63.723 Y-19.351 E82.64688
G1 X16.821 Y69.458 E86.49041
G0 F2040 X16.718 Y69.287
G0 X16.804 Y69.236
G0 X16.782 Y68.107
;TYPE:SKIN
G1 F1020 X-35.533 Y-18.686 E90.36866
G1 X62.619 Y-18.686 E94.12489
G1 X16.782 Y68.107 E97.88117
G0 F2040 X16.784 Y67.766
G1 F1020 X16.725 Y67.707 E97.88436
G0 F2040 X16.955 Y67.443
G1 F1020 X15.974 Y66.461 E97.93748
G1 X15.912 Y66.399
G0 F2040 X17.126 Y67.119
G1 F1020 X15.223 Y65.215 E98.0405
G1 X15.161 Y65.153
G0 F2040 X14.471 Y63.969
G1 F1020 X17.297 Y66.795 E98.19345
G0 F2040 X17.469 Y66.471
G1 F1020 X13.72 Y62.723 E98.39632
G1 X13.658 Y62.661
G0 F2040 X12.969 Y61.477
G1 F1020 X17.639 Y66.147 E98.64907
G0 F2040 X17.81 Y65.823
G1 F1020 X12.218 Y60.231 E98.95171
G1 X12.156 Y60.169
G0 F2040 X11.467 Y58.985
G1 F1020 X17.981 Y65.499 E99.30426
G0 F2040 X18.152 Y65.175
G1 F1020 X10.716 Y57.739 E99.70671
G1 X10.654 Y57.677
G0 F2040 X9.965 Y56.492
G1 F1020 X18.323 Y64.851 E100.15908
G0 F2040 X18.495 Y64.527
G1 F1020 X9.214 Y55.246 E100.66138
G1 X9.152 Y55.184
G0 F2040 X8.463 Y54.001
G1 F1020 X18.666 Y64.203 E101.21355
G0 F2040 X18.837 Y63.88
G1 F1020 X7.712 Y52.755 E101.81565
G1 X7.65 Y52.693
G0 F2040 X6.961 Y51.509
G1 F1020 X19.008 Y63.556 E102.46765
G0 F2040 X19.179 Y63.232
G1 F1020 X6.21 Y50.263 E103.16955
G1 X6.148 Y50.201
G0 F2040 X5.459 Y49.017
G1 F1020 X19.35 Y62.908 E103.92135
G0 F2040 X19.521 Y62.584
G1 F1020 X4.707 Y47.77 E104.7231
G1 X4.645 Y47.708
G0 F2040 X3.956 Y46.524
G1 F1020 X19.692 Y62.26 E105.57475
G0 F2040 X19.863 Y61.936
G1 F1020 X3.206 Y45.278 E106.47628
G1 X3.144 Y45.216
G0 F2040 X2.455 Y44.032
G1 F1020 X20.034 Y61.612 E107.4277
G0 F2040 X20.205 Y61.288
G1 F1020 X1.704 Y42.787 E108.429
G1 X1.642 Y42.725
G0 F2040 X0.953 Y41.541
G1 F1020 X20.376 Y60.964 E109.4802
G0 F2040 X20.547 Y60.64
G1 F1020 X0.201 Y40.294 E110.58135
G1 X0.139 Y40.232
G0 F2040 X-.549 Y39.048
G1 F1020 X20.718 Y60.316 E111.73237
G0 F2040 X20.89 Y59.993
G1 F1020 X-1.3 Y37.802 E112.93335
G1 X-1.362 Y37.74
G0 F2040 X-2.051 Y36.556
G1 F1020 X21.061 Y59.669 E114.18423
G0 F2040 X21.232 Y59.345
G1 F1020 X-2.802 Y35.31 E115.48501
G1 X-2.864 Y35.248
G0 F2040 X-3.553 Y34.064
G1 F1020 X21.403 Y59.021 E116.83568
G0 F2040 X21.574 Y58.697
G1 F1020 X-4.304 Y32.818 E118.23626
G1 X-4.366 Y32.756
G0 F2040 X-5.055 Y31.572
G1 F1020 X21.744 Y58.373 E119.68671
G0 F2040 X21.916 Y58.049
G1 F1020 X-5.806 Y30.326 E121.18709
G1 X-5.868 Y30.264
G0 F2040 X-6.557 Y29.08
G1 F1020 X22.087 Y57.725 E122.73736
G0 F2040 X22.258 Y57.401
G1 F1020 X-7.308 Y27.834 E124.33754
G1 X-7.37 Y27.772
G0 F2040 X-8.059 Y26.588
G1 F1020 X22.429 Y57.077 E125.98762
G0 F2040 X22.6 Y56.753
G1 F1020 X-8.811 Y25.341 E127.68765
G1 X-8.873 Y25.279
G0 F2040 X-9.562 Y24.096
G1 F1020 X22.771 Y56.429 E129.43755
G0 F2040 X22.942 Y56.106
G1 F1020 X-10.313 Y22.85 E131.23738
G1 X-10.375 Y22.788
G0 F2040 X-11.064 Y21.604
G1 F1020 X23.113 Y55.782 E133.08711
G0 F2040 X23.285 Y55.458
G1 F1020 X-11.815 Y20.358 E134.98677
G1 X-11.877 Y20.296
G0 F2040 X-12.565 Y19.112
G1 F1020 X23.456 Y55.134 E136.9363
G0 F2040 X23.626 Y54.809
G1 F1020 X-13.316 Y17.866 E138.93567
G1 X-13.378 Y17.804
G0 F2040 X-14.068 Y16.619
G1 F1020 X23.797 Y54.486 E140.98503
G0 F2040 X23.968 Y54.162
G1 F1020 X-14.819 Y15.373 E143.08428
G1 X-14.881 Y15.311
G0 F2040 X-15.57 Y14.127
G1 F1020 X24.139 Y53.838 E145.23344
G0 F2040 X24.311 Y53.514
G1 F1020 X-16.321 Y12.882 E147.4325
G1 X-16.383 Y12.82
G0 F2040 X-17.072 Y11.636
G1 F1020 X24.482 Y53.19 E149.68145
G0 F2040 X24.653 Y52.866
G1 F1020 X-17.823 Y10.39 E151.98031
G1 X-17.885 Y10.328
G0 F2040 X-18.574 Y9.143
G1 F1020 X24.824 Y52.542 E154.32909
G0 F2040 X24.995 Y52.219
G1 F1020 X-19.325 Y7.897 E156.7278
G1 X-19.387 Y7.835
G0 F2040 X-20.076 Y6.651
G1 F1020 X25.166 Y51.895 E159.17641
G0 F2040 X25.337 Y51.571
G1 F1020 X-20.827 Y5.405 E161.67492
G1 X-20.889 Y5.343
G0 F2040 X-21.578 Y4.159
G1 F1020 X25.508 Y51.247 E164.22332
G0 F2040 X25.679 Y50.923
G1 F1020 X-22.329 Y2.913 E166.82163
G1 X-22.391 Y2.851
G0 F2040 X-23.081 Y1.667
G1 F1020 X25.85 Y50.599 E169.46987
G0 F2040 X26.021 Y50.275
G1 F1020 X-23.832 Y0.421 E172.168
G1 X-23.894 Y0.359
G0 F2040 X-24.583 Y-.824
G1 F1020 X26.192 Y49.951 E174.91601
G0 F2040 X26.363 Y49.627
G1 F1020 X-25.334 Y-2.07 E177.71392
G1 X-25.396 Y-2.132
G0 F2040 X-26.085 Y-3.316
G1 F1020 X26.534 Y49.303 E180.56172
G0 F2040 X26.706 Y48.979
G1 F1020 X-26.836 Y-4.562 E183.45946
G1 X-26.898 Y-4.624
G0 F2040 X-27.587 Y-5.808
G1 F1020 X26.877 Y48.656 E186.40712
G0 F2040 X27.048 Y48.332
G1 F1020 X-28.338 Y-7.054 E189.40468
G1 X-28.4 Y-7.116
G0 F2040 X-29.089 Y-8.3
G1 F1020 X27.219 Y48.008 E192.45214
G0 F2040 X27.39 Y47.684
G1 F1020 X-29.84 Y-9.546 E195.5495
G1 X-29.902 Y-9.608
G0 F2040 X-30.591 Y-10.792
G1 F1020 X27.561 Y47.36 E198.69676
G0 F2040 X27.732 Y47.036
G1 F1020 X-31.342 Y-12.038 E201.89392
G1 X-31.404 Y-12.1
G0 F2040 X-32.093 Y-13.284
G1 F1020 X27.903 Y46.712 E205.14098
G0 F2040 X28.074 Y46.388
G1 F1020 X-32.845 Y-14.531 E208.438
G1 X-32.907 Y-14.593
G0 F2040 X-33.596 Y-15.776
G1 F1020 X28.245 Y46.064 E211.78488
G0 F2040 X28.416 Y45.74
G1 F1020 X-34.347 Y-17.022 E215.18167
G1 X-34.409 Y-17.084
G0 F2040 X-35.097 Y-18.268
G1 F1020 X28.587 Y45.416 E218.62833
G0 F2040 X28.758 Y45.092
G1 F1020 X-34.863 Y-18.529 E222.07158
G0 F2040 X-34.368 Y-18.529
G1 F1020 X28.929 Y44.769 E225.49732
G0 F2040 X29.1 Y44.445
G1 F1020 X-33.873 Y-18.529 E228.90553
G0 F2040 X-33.378 Y-18.529
G1 F1020 X29.272 Y44.121 E232.29622
G0 F2040 X29.443 Y43.797
G1 F1020 X-32.883 Y-18.529 E235.66939
G0 F2040 X-32.388 Y-18.529
G1 F1020 X29.614 Y43.473 E239.02501
G0 F2040 X29.784 Y43.149
G1 F1020 X-31.893 Y-18.529 E242.36308
G0 F2040 X-31.398 Y-18.529
G1 F1020 X29.955 Y42.825 E245.68361
G0 F2040 X30.126 Y42.501
G1 F1020 X-30.903 Y-18.529 E248.9866
G0 F2040 X-30.408 Y-18.529
G1 F1020 X30.298 Y42.177 E252.27209
G0 F2040 X30.469 Y41.853
G1 F1020 X-29.913 Y-18.529 E255.54004
G0 F2040 X-29.418 Y-18.529
G1 F1020 X30.64 Y41.529 E258.79045
G0 F2040 X30.811 Y41.205
G1 F1020 X-28.923 Y-18.529 E262.02333
G0 F2040 X-28.428 Y-18.529
G1 F1020 X30.982 Y40.882 E265.23871
G0 F2040 X31.153 Y40.558
G1 F1020 X-27.933 Y-18.529 E268.43654
G0 F2040 X-27.438 Y-18.529
G1 F1020 X31.324 Y40.234 E271.61684
G0 F2040 X31.495 Y39.91
G1 F1020 X-26.943 Y-18.529 E274.77961
G0 F2040 X-26.448 Y-18.529
G1 F1020 X31.666 Y39.585 E277.92481
G0 F2040 X31.837 Y39.262
G1 F1020 X-25.953 Y-18.529 E281.05251
G0 F2040 X-25.458 Y-18.529
G1 F1020 X32.008 Y38.938 E284.16267
G0 F2040 X32.179 Y38.614
G1 F1020 X-24.963 Y-18.529 E287.25529
G0 F2040 X-24.468 Y-18.529
G1 F1020 X32.35 Y38.29 E290.33038
G0 F2040 X32.521 Y37.966
G1 F1020 X-23.973 Y-18.529 E293.38794
G0 F2040 X-23.478 Y-18.529
G1 F1020 X32.693 Y37.642 E296.42798
G0 F2040 X32.864 Y37.318
G1 F1020 X-22.983 Y-18.529 E299.4505
G0 F2040 X-22.488 Y-18.529
G1 F1020 X33.035 Y36.995 E302.4555
G0 F2040 X33.206 Y36.671
G1 F1020 X-21.993 Y-18.529 E305.44297
G0 F2040 X-21.498 Y-18.529
G1 F1020 X33.377 Y36.347 E308.4129
G0 F2040 X33.548 Y36.023
G1 F1020 X-21.003 Y-18.529 E311.36529
G0 F2040 X-20.508 Y-18.529
G1 F1020 X33.719 Y35.698 E314.30013
G0 F2040 X33.89 Y35.375
G1 F1020 X-20.013 Y-18.529 E317.21745
G0 F2040 X-19.518 Y-18.529
G1 F1020 X34.061 Y35.051 E320.11725
G0 F2040 X34.232 Y34.727
G1 F1020 X-19.024 Y-18.529 E322.99953
G0 F2040 X-18.529 Y-18.529
G1 F1020 X34.403 Y34.403 E325.86428
G0 F2040 X34.574 Y34.079
G1 F1020 X-18.034 Y-18.529 E328.71149
G0 F2040 X-17.539 Y-18.529
G1 F1020 X34.745 Y33.755 E331.54116
G0 F2040 X34.916 Y33.432
