;FLAVOR:Marlin
;TIME:7901
;Filament used: 7.38193m
;Layer height: 0.2
;MINX:-40.646
;MINY:-24.264
;MINZ:0.26
;MAXX:72.865
;MAXY:72.648
;MAXZ:22.66
;Generated with Cura_SteamEngine 4.8.0
M82 ;absolute extrusion mode
;Gcode by Cura
G90
G28
M107
M109 R100
G30
M109 S215 U-55 X55 V-85 Y-85 W0.26 Z0.26
M82
G92 E0
G1 F200 E6
G92 E0
G1 F200 E-3.5
G0 Z0.15
G0 X10
G0 Z3
G1 F6000
G92 E0
G92 E0
G1 F3600 E-3.8
;LAYER_COUNT:113
;LAYER:0
M107
G0 F2040 X-39.585 Y-16.666 Z0.26
;TYPE:SKIRT
G1 F3600 E0
G1 F1020 X-39.954 Y-17.257 E0.02666
G1 X-40.239 Y-17.79 E0.04979
G1 X-40.452 Y-18.356 E0.07294
G1 X-40.589 Y-18.945 E0.09608
G1 X-40.646 Y-19.547 E0.11922
G1 X-40.624 Y-20.151 E0.14235
G1 X-40.522 Y-20.747 E0.16549
G1 X-40.342 Y-21.324 E0.18862
G1 X-40.088 Y-21.873 E0.21177
G1 X-39.764 Y-22.383 E0.2349
G1 X-39.375 Y-22.847 E0.25807
G1 X-38.929 Y-23.254 E0.28117
G1 X-38.432 Y-23.6 E0.30435
G1 X-37.895 Y-23.877 E0.32747
G1 X-37.325 Y-24.08 E0.35063
G1 X-36.734 Y-24.207 E0.37376
G1 X-36.103 Y-24.257 E0.39799
G1 X-35.626 Y-24.264 E0.41624
G1 X67.672 Y-24.264 E4.36941
G1 X68.359 Y-24.254 E4.3957
G1 X68.961 Y-24.205 E4.41882
G1 X69.552 Y-24.077 E4.44196
G1 X70.121 Y-23.872 E4.4651
G1 X70.658 Y-23.595 E4.48823
G1 X71.154 Y-23.248 E4.51139
G1 X71.6 Y-22.84 E4.53453
G1 X71.988 Y-22.376 E4.55767
G1 X72.311 Y-21.865 E4.58081
G1 X72.564 Y-21.316 E4.60394
G1 X72.743 Y-20.738 E4.6271
G1 X72.844 Y-20.142 E4.65023
G1 X72.865 Y-19.538 E4.67336
G1 X72.806 Y-18.936 E4.69651
G1 X72.669 Y-18.347 E4.71965
G1 X72.345 Y-17.556 E4.75236
G1 X71.935 Y-16.776 E4.78609
G1 X24.774 Y69.67 E8.55463
G1 X24.409 Y70.318 E8.58309
G1 X24.078 Y70.824 E8.60623
G1 X23.683 Y71.282 E8.62937
G1 X23.232 Y71.684 E8.6525
G1 X22.731 Y72.023 E8.67565
G1 X22.19 Y72.293 E8.69878
G1 X21.618 Y72.489 E8.72192
G1 X21.025 Y72.608 E8.74507
G1 X20.422 Y72.648 E8.7682
G1 X19.818 Y72.608 E8.79136
G1 X19.226 Y72.489 E8.81447
G1 X18.654 Y72.292 E8.83762
G1 X18.113 Y72.022 E8.86076
G1 X17.612 Y71.683 E8.88391
G1 X17.161 Y71.281 E8.90703
G1 X16.619 Y70.614 E8.93992
G1 X16.105 Y69.844 E8.97535
G1 X-39.585 Y-16.666 E12.91272
G0 F2040 X-39.288 Y-16.851
G1 F1020 X-39.657 Y-17.442 E12.93938
G1 X-39.93 Y-17.955 E12.96162
G1 X-40.13 Y-18.501 E12.98387
G1 X-40.254 Y-19.068 E13.00609
G1 X-40.298 Y-19.648 E13.02835
G1 X-40.262 Y-20.228 E13.05059
G1 X-40.148 Y-20.797 E13.07279
G1 X-39.956 Y-21.346 E13.09505
G1 X-39.69 Y-21.863 E13.1173
G1 X-39.357 Y-22.338 E13.1395
G1 X-38.961 Y-22.764 E13.16176
G1 X-38.511 Y-23.131 E13.18398
G1 X-38.014 Y-23.433 E13.20624
G1 X-37.481 Y-23.664 E13.22847
G1 X-36.921 Y-23.819 E13.25071
G1 X-36.227 Y-23.902 E13.27746
G1 X-35.622 Y-23.914 E13.30061
G1 X67.666 Y-23.914 E17.25339
G1 X68.353 Y-23.904 E17.27969
G1 X68.933 Y-23.855 E17.30196
G1 X69.499 Y-23.728 E17.32416
G1 X70.043 Y-23.524 E17.3464
G1 X70.554 Y-23.247 E17.36864
G1 X71.023 Y-22.903 E17.3909
G1 X71.439 Y-22.498 E17.41312
G1 X71.796 Y-22.04 E17.43534
G1 X72.087 Y-21.536 E17.45761
G1 X72.306 Y-20.998 E17.47984
G1 X72.449 Y-20.435 E17.50207
G1 X72.513 Y-19.858 E17.52429
G1 X72.498 Y-19.277 E17.54653
G1 X72.403 Y-18.704 E17.56876
G1 X72.23 Y-18.149 E17.59101
G1 X72.035 Y-17.718 E17.60911
G1 X71.628 Y-16.944 E17.64258
G1 X24.469 Y69.499 E21.41098
G1 X24.104 Y70.147 E21.43944
G1 X23.785 Y70.632 E21.46166
G1 X23.402 Y71.069 E21.4839
G1 X22.963 Y71.449 E21.50612
G1 X22.476 Y71.766 E21.52836
G1 X21.95 Y72.013 E21.55059
G1 X21.395 Y72.185 E21.57283
G1 X20.821 Y72.279 E21.59509
G1 X20.24 Y72.294 E21.61733
G1 X19.663 Y72.229 E21.63955
G1 X19.1 Y72.086 E21.66178
G1 X18.562 Y71.866 E21.68403
G1 X18.059 Y71.575 E21.70627
G1 X17.601 Y71.217 E21.72851
G1 X17.196 Y70.801 E21.75073
G1 X16.91 Y70.42 E21.76896
G1 X16.399 Y69.655 E21.80417
G1 X-39.288 Y-16.851 E25.74134
G0 F2040 X-38.991 Y-17.037
G1 F1020 X-39.36 Y-17.628 E25.76801
G1 X-39.62 Y-18.12 E25.7893
G1 X-39.807 Y-18.644 E25.8106
G1 X-39.917 Y-19.189 E25.83187
G1 X-39.947 Y-19.745 E25.85318
G1 X-39.898 Y-20.299 E25.87447
G1 X-39.77 Y-20.84 E25.89574
G1 X-39.566 Y-21.358 E25.91705
G1 X-39.289 Y-21.841 E25.93836
G1 X-38.947 Y-22.279 E25.95962
G1 X-38.545 Y-22.664 E25.98092
G1 X-38.092 Y-22.987 E26.00222
G1 X-37.598 Y-23.243 E26.02351
G1 X-37.072 Y-23.424 E26.0448
G1 X-36.525 Y-23.529 E26.06611
G1 X-35.979 Y-23.56 E26.08704
G1 X-35.618 Y-23.564 E26.10086
G1 X67.661 Y-23.564 E30.05329
G1 X68.348 Y-23.554 E30.07959
G1 X68.903 Y-23.506 E30.10091
G1 X69.444 Y-23.379 E30.12217
G1 X69.962 Y-23.175 E30.14348
G1 X70.446 Y-22.9 E30.16478
G1 X70.885 Y-22.558 E30.18608
G1 X71.271 Y-22.157 E30.20738
G1 X71.595 Y-21.705 E30.22866
G1 X71.851 Y-21.211 E30.24996
G1 X72.034 Y-20.686 E30.27123
G1 X72.14 Y-20.139 E30.29256
G1 X72.166 Y-19.584 E30.31382
G1 X72.112 Y-19.03 E30.33512
G1 X71.98 Y-18.489 E30.35643
G1 X71.725 Y-17.881 E30.38166
G1 X71.321 Y-17.111 E30.41494
G1 X24.164 Y69.327 E34.18314
G1 X23.799 Y69.975 E34.2116
G1 X23.492 Y70.439 E34.23289
G1 X23.122 Y70.854 E34.25417
G1 X22.696 Y71.212 E34.27547
G1 X22.223 Y71.505 E34.29676
G1 X21.713 Y71.727 E34.31805
G1 X21.176 Y71.874 E34.33935
G1 X20.624 Y71.943 E34.36064
G1 X20.067 Y71.932 E34.38196
G1 X19.518 Y71.841 E34.40326
G1 X18.988 Y71.673 E34.42454
G1 X18.487 Y71.43 E34.44585
G1 X18.027 Y71.118 E34.46712
G1 X17.615 Y70.743 E34.48844
G1 X17.201 Y70.226 E34.51378
G1 X16.694 Y69.465 E34.54878
G1 X-38.991 Y-17.037 E38.48578
G0 F2040 X-38.694 Y-17.222
G1 F1020 X-39.063 Y-17.813 E38.51245
G1 X-39.309 Y-18.283 E38.53275
G1 X-39.482 Y-18.785 E38.55307
G1 X-39.578 Y-19.307 E38.57338
G1 X-39.594 Y-19.837 E38.59367
G1 X-39.531 Y-20.364 E38.61398
G1 X-39.389 Y-20.875 E38.63428
G1 X-39.172 Y-21.36 E38.65461
G1 X-38.885 Y-21.806 E38.67491
G1 X-38.534 Y-22.204 E38.69522
G1 X-38.127 Y-22.545 E38.71554
G1 X-37.674 Y-22.821 E38.73584
G1 X-37.184 Y-23.025 E38.75615
G1 X-36.67 Y-23.154 E38.77643
G1 X-36.065 Y-23.208 E38.79968
G1 X-35.614 Y-23.214 E38.81694
G1 X67.656 Y-23.214 E42.76903
G1 X68.343 Y-23.204 E42.79533
G1 X68.872 Y-23.156 E42.81565
G1 X69.387 Y-23.03 E42.83594
G1 X69.878 Y-22.827 E42.85628
G1 X70.332 Y-22.553 E42.87657
G1 X70.741 Y-22.215 E42.89688
G1 X71.094 Y-21.818 E42.91721
G1 X71.383 Y-21.373 E42.93751
G1 X71.602 Y-20.89 E42.95781
G1 X71.747 Y-20.38 E42.9781
G1 X71.813 Y-19.853 E42.99842
G1 X71.799 Y-19.323 E43.01871
G1 X71.706 Y-18.8 E43.03904
G1 X71.535 Y-18.298 E43.05934
G1 X71.414 Y-18.043 E43.07014
G1 X71.013 Y-17.279 E43.10316
G1 X23.859 Y69.155 E46.87117
G1 X23.494 Y69.803 E46.89963
G1 X23.2 Y70.244 E46.91992
G1 X22.842 Y70.637 E46.94026
G1 X22.43 Y70.971 E46.96056
G1 X21.972 Y71.239 E46.98087
G1 X21.48 Y71.436 E47.00115
G1 X20.963 Y71.556 E47.02146
G1 X20.434 Y71.598 E47.04177
G1 X19.904 Y71.56 E47.0621
G1 X19.387 Y71.442 E47.0824
G1 X18.893 Y71.249 E47.10269
G1 X18.433 Y70.983 E47.12303
G1 X18.019 Y70.651 E47.14334
G1 X17.659 Y70.261 E47.16365
G1 X17.492 Y70.031 E47.17453
G1 X16.988 Y69.276 E47.20927
G1 X-38.694 Y-17.222 E51.14608
G0 F2040 X-38.397 Y-17.407
G1 F1020 X-38.766 Y-17.998 E51.17274
G1 X-38.998 Y-18.445 E51.19202
G1 X-39.157 Y-18.923 E51.2113
G1 X-39.237 Y-19.421 E51.2306
G1 X-39.239 Y-19.924 E51.24985
G1 X-39.16 Y-20.422 E51.26914
G1 X-39.004 Y-20.9 E51.28839
G1 X-38.774 Y-21.348 E51.30766
G1 X-38.477 Y-21.755 E51.32694
G1 X-38.118 Y-22.108 E51.34621
G1 X-37.709 Y-22.401 E51.36546
G1 X-37.258 Y-22.626 E51.38475
G1 X-36.777 Y-22.776 E51.40403
G1 X-36.189 Y-22.853 E51.42673
G1 X-35.61 Y-22.864 E51.44889
G1 X67.651 Y-22.864 E55.40064
G1 X68.338 Y-22.854 E55.42693
G1 X68.84 Y-22.806 E55.44623
G1 X69.327 Y-22.681 E55.46547
G1 X69.789 Y-22.479 E55.48477
G1 X70.213 Y-22.207 E55.50405
G1 X70.588 Y-21.872 E55.52329
G1 X70.906 Y-21.481 E55.54258
G1 X71.158 Y-21.045 E55.56185
G1 X71.338 Y-20.575 E55.58111
G1 X71.441 Y-20.082 E55.60039
G1 X71.465 Y-19.579 E55.61966
G1 X71.41 Y-19.078 E55.63895
G1 X71.276 Y-18.593 E55.6582
G1 X71.104 Y-18.206 E55.67441
G1 X70.706 Y-17.446 E55.70724
G1 X23.554 Y68.983 E59.47505
G1 X23.189 Y69.631 E59.50351
G1 X22.908 Y70.049 E59.52278
G1 X22.564 Y70.417 E59.54206
G1 X22.167 Y70.726 E59.56131
G1 X21.726 Y70.969 E59.58058
G1 X21.251 Y71.138 E59.59988
G1 X20.756 Y71.23 E59.61915
G1 X20.253 Y71.243 E59.6384
G1 X19.754 Y71.177 E59.65766
G1 X19.271 Y71.032 E59.67696
G1 X18.818 Y70.812 E59.69624
G1 X18.405 Y70.524 E59.7155
G1 X18.043 Y70.174 E59.73477
G1 X17.783 Y69.837 E59.75106
G1 X17.282 Y69.087 E59.78558
G1 X-38.397 Y-17.407 E63.7222
G1 F3600 E59.9222
;MESH:support_tri_0_091.stl
G0 F2040 X-36.268 Y-18.74
G0 X-35.408 Y-19.294
G0 X20.383 Y67.069
;TYPE:WALL-INNER
G1 F3600 E63.7222
G1 F1020 X-35.128 Y-19.164 E67.64695
G1 X67.429 Y-19.164 E71.57175
G1 X20.383 Y67.069 E75.33103
G0 F2040 X20.406 Y67.705
;TYPE:WALL-OUTER
G1 F1020 X-35.724 Y-19.489 E79.29952
G1 X67.976 Y-19.489 E83.26807
G1 X20.406 Y67.705 E87.06924
G0 F2040 X20.298 Y67.537
G0 X20.392 Y67.312
G0 X20.358 Y66.403
;TYPE:SKIN
G1 F1020 X-34.504 Y-18.824 E90.94817
G1 X66.856 Y-18.824 E94.82717
G1 X20.358 Y66.403 E98.5426
G0 F2040 X20.421 Y65.958
G1 F1020 X19.965 Y65.502 E98.56728
G0 F2040 X20.595 Y65.638
G1 F1020 X19.07 Y64.113 E98.64982
G1 X19.008 Y64.051
G0 F2040 X18.176 Y62.724
G1 F1020 X20.77 Y65.318 E98.79021
G0 F2040 X20.945 Y64.997
G1 F1020 X17.282 Y61.335 E98.98843
G1 X17.22 Y61.273
G0 F2040 X16.387 Y59.945
G1 F1020 X21.119 Y64.677 E99.24453
G0 F2040 X21.294 Y64.357
G1 F1020 X15.494 Y58.556 E99.55846
G1 X15.432 Y58.494
G0 F2040 X14.599 Y57.167
G1 F1020 X21.469 Y64.037 E99.93027
G0 F2040 X21.643 Y63.716
G1 F1020 X13.705 Y55.777 E100.35991
G1 X13.643 Y55.715
G0 F2040 X12.811 Y54.389
G1 F1020 X21.818 Y63.396 E100.84739
G0 F2040 X21.993 Y63.076
G1 F1020 X11.916 Y52.999 E101.39277
G1 X11.854 Y52.937
G0 F2040 X11.022 Y51.61
G1 F1020 X22.168 Y62.756 E101.996
G0 F2040 X22.343 Y62.436
G1 F1020 X10.128 Y50.221 E102.65709
G1 X10.066 Y50.159
G0 F2040 X9.234 Y48.832
G1 F1020 X22.517 Y62.115 E103.37599
G0 F2040 X22.692 Y61.795
G1 F1020 X8.339 Y47.442 E104.15279
G1 X8.277 Y47.38
G0 F2040 X7.445 Y46.053
G1 F1020 X22.867 Y61.475 E104.98745
G0 F2040 X23.041 Y61.154
G1 F1020 X6.551 Y44.664 E105.87991
G1 X6.489 Y44.602
G0 F2040 X5.656 Y43.274
G1 F1020 X23.216 Y60.834 E106.83028
G0 F2040 X23.391 Y60.514
G1 F1020 X4.763 Y41.886 E107.83845
G1 X4.701 Y41.824
G0 F2040 X3.868 Y40.496
G1 F1020 X23.565 Y60.193 E108.90447
G0 F2040 X23.74 Y59.873
G1 F1020 X2.974 Y39.107 E110.02836
G1 X2.912 Y39.045
G0 F2040 X2.08 Y37.718
G1 F1020 X23.915 Y59.553 E111.21009
G0 F2040 X24.09 Y59.233
G1 F1020 X1.185 Y36.329 E112.44971
G1 X1.123 Y36.267
G0 F2040 X0.291 Y34.939
G1 F1020 X24.265 Y58.913 E113.74722
G0 F2040 X24.439 Y58.592
G1 F1020 X-.602 Y33.55 E115.1025
G1 X-.664 Y33.488
G0 F2040 X-1.496 Y32.161
G1 F1020 X24.614 Y58.272 E116.51563
G0 F2040 X24.789 Y57.952
G1 F1020 X-2.391 Y30.771 E117.98667
G1 X-2.453 Y30.709
G0 F2040 X-3.285 Y29.383
G1 F1020 X24.963 Y57.632 E119.51552
G0 F2040 X25.138 Y57.311
G1 F1020 X-4.179 Y27.993 E121.10222
G1 X-4.241 Y27.931
G0 F2040 X-5.074 Y26.604
G1 F1020 X25.313 Y56.991 E122.7468
G0 F2040 X25.487 Y56.671
G1 F1020 X-5.967 Y25.215 E124.44919
G1 X-6.029 Y25.153
G0 F2040 X-6.862 Y23.825
G1 F1020 X25.663 Y56.351 E126.20951
G0 F2040 X25.837 Y56.031
G1 F1020 X-7.756 Y22.436 E128.02766
G1 X-7.818 Y22.374
G0 F2040 X-8.65 Y21.047
G1 F1020 X26.012 Y55.71 E129.90364
G0 F2040 X26.186 Y55.39
G1 F1020 X-9.545 Y19.658 E131.83747
G1 X-9.607 Y19.596
G0 F2040 X-10.439 Y18.268
G1 F1020 X26.361 Y55.07 E133.82919
G0 F2040 X26.536 Y54.749
G1 F1020 X-11.333 Y16.88 E135.87871
G1 X-11.395 Y16.818
G0 F2040 X-12.227 Y15.49
G1 F1020 X26.71 Y54.429 E137.98608
G0 F2040 X26.885 Y54.109
G1 F1020 X-13.122 Y14.101 E140.15134
G1 X-13.184 Y14.039
G0 F2040 X-14.016 Y12.712
G1 F1020 X27.06 Y53.788 E142.37442
G0 F2040 X27.234 Y53.468
G1 F1020 X-14.91 Y11.322 E144.65536
G1 X-14.972 Y11.26
G0 F2040 X-15.805 Y9.933
G1 F1020 X27.409 Y53.148 E146.99419
G0 F2040 X27.584 Y52.828
G1 F1020 X-16.699 Y8.544 E149.39087
G1 X-16.761 Y8.482
G0 F2040 X-17.593 Y7.155
G1 F1020 X27.759 Y52.508 E151.8454
G0 F2040 X27.934 Y52.188
G1 F1020 X-18.488 Y5.765 E154.35785
G1 X-18.55 Y5.703
G0 F2040 X-19.381 Y4.376
G1 F1020 X28.108 Y51.867 E156.92807
G0 F2040 X28.283 Y51.547
G1 F1020 X-20.276 Y2.987 E159.55617
G1 X-20.338 Y2.925
G0 F2040 X-21.17 Y1.598
G1 F1020 X28.458 Y51.227 E162.24213
G0 F2040 X28.632 Y50.906
G1 F1020 X-22.064 Y0.209 E164.98588
G1 X-22.126 Y0.147
G0 F2040 X-22.959 Y-1.18
G1 F1020 X28.807 Y50.586 E167.78753
G0 F2040 X28.982 Y50.266
G1 F1020 X-23.853 Y-2.569 E170.64702
G1 X-23.915 Y-2.631
G0 F2040 X-24.747 Y-3.958
G1 F1020 X29.156 Y49.945 E173.56432
G0 F2040 X29.332 Y49.626
G1 F1020 X-25.641 Y-5.347 E176.53953
G1 X-25.703 Y-5.409
G0 F2040 X-26.536 Y-6.737
G1 F1020 X29.506 Y49.305 E179.5726
G0 F2040 X29.681 Y48.985
G1 F1020 X-27.43 Y-8.126 E182.66352
G1 X-27.492 Y-8.188
G0 F2040 X-28.324 Y-9.515
G1 F1020 X29.856 Y48.665 E185.81229
G0 F2040 X30.03 Y48.344
G1 F1020 X-29.219 Y-10.905 E189.01892
G1 X-29.281 Y-10.967
G0 F2040 X-30.113 Y-12.294
G1 F1020 X30.205 Y48.024 E192.28341
G0 F2040 X30.38 Y47.704
G1 F1020 X-31.007 Y-13.683 E195.60575
G1 X-31.069 Y-13.745
G0 F2040 X-31.901 Y-15.072
G1 F1020 X30.554 Y47.383 E198.9859
G0 F2040 X30.729 Y47.063
G1 F1020 X-32.796 Y-16.462 E202.42395
G1 X-32.858 Y-16.524
G0 F2040 X-33.69 Y-17.85
G1 F1020 X30.904 Y46.743 E205.91983
G0 F2040 X31.078 Y46.422
G1 F1020 X-34.011 Y-18.666 E209.44251
G0 F2040 X-33.516 Y-18.666
G1 F1020 X31.254 Y46.103 E212.94791
G0 F2040 X31.428 Y45.783
G1 F1020 X-33.021 Y-18.666 E216.43598
G0 F2040 X-32.526 Y-18.666
G1 F1020 X31.603 Y45.462 E219.90669
G0 F2040 X31.778 Y45.142
G1 F1020 X-32.031 Y-18.666 E223.36009
G0 F2040 X-31.536 Y-18.666
G1 F1020 X31.952 Y44.822 E226.79614
G0 F2040 X32.127 Y44.501
G1 F1020 X-31.041 Y-18.666 E230.21485
G0 F2040 X-30.546 Y-18.666
G1 F1020 X32.302 Y44.181 E233.61623
G0 F2040 X32.476 Y43.861
G1 F1020 X-30.051 Y-18.666 E237.00027
G0 F2040 X-29.556 Y-18.666
G1 F1020 X32.651 Y43.54 E240.36697
G0 F2040 X32.826 Y43.22
G1 F1020 X-29.061 Y-18.666 E243.71635
G0 F2040 X-28.566 Y-18.666
G1 F1020 X33.001 Y42.9 E247.0484
G0 F2040 X33.176 Y42.58
G1 F1020 X-28.071 Y-18.666 E250.36314
G0 F2040 X-27.576 Y-18.666
G1 F1020 X33.35 Y42.26 E253.66053
G0 F2040 X33.525 Y41.939
G1 F1020 X-27.081 Y-18.666 E256.94058
G0 F2040 X-26.586 Y-18.666
G1 F1020 X33.7 Y41.619 E260.20331
G0 F2040 X33.874 Y41.299
G1 F1020 X-26.091 Y-18.666 E263.44869
G0 F2040 X-25.596 Y-18.666
G1 F1020 X34.049 Y40.978 E266.67673
G0 F2040 X34.223 Y40.658
G1 F1020 X-25.101 Y-18.666 E269.88742
G0 F2040 X-24.606 Y-18.666
G1 F1020 X34.398 Y40.338 E273.08079
G0 F2040 X34.573 Y40.018
G1 F1020 X-24.111 Y-18.666 E276.25684
G0 F2040 X-23.616 Y-18.666
G1 F1020 X34.747 Y39.697 E279.41552
G0 F2040 X34.923 Y39.378
G1 F1020 X-23.121 Y-18.666 E282.55694
G0 F2040 X-22.626 Y-18.666
G1 F1020 X35.097 Y39.057 E285.68098
G0 F2040 X35.272 Y38.737
G1 F1020 X-22.131 Y-18.666 E288.7877
G0 F2040 X-21.636 Y-18.666
G1 F1020 X35.447 Y38.417 E291.87711
G0 F2040 X35.621 Y38.096
G1 F1020 X-21.141 Y-18.666 E294.94914
G0 F2040 X-20.646 Y-18.666
G1 F1020 X35.796 Y37.776 E298.00385
G0 F2040 X35.971 Y37.456
G1 F1020 X-20.151 Y-18.666 E301.04125
G0 F2040 X-19.656 Y-18.666
G1 F1020 X36.145 Y37.135 E304.06127
G0 F2040 X36.32 Y36.815
G1 F1020 X-19.161 Y-18.666 E307.06397
G0 F2040 X-18.666 Y-18.666
G1 F1020 X36.495 Y36.495 E310.04935
G0 F2040 X36.67 Y36.175
G1 F1020 X-18.171 Y-18.666 E313.01742
G0 F2040 X-17.676 Y-18.666
G1 F1020 X36.845 Y35.855 E315.96817
G0 F2040 X37.019 Y35.534
G1 F1020 X-17.181 Y-18.666 E318.90154
G0 F2040 X-16.687 Y-18.666
G1 F1020 X37.194 Y35.214 E321.81762
G0 F2040 X37.369 Y34.894
G1 F1020 X-16.192 Y-18.666 E324.71638
G0 F2040 X-15.697 Y-18.666
G1 F1020 X37.543 Y34.573 E327.59777
G0 F2040 X37.718 Y34.253
G1 F1020 X-15.202 Y-18.666 E330.46184
G0 F2040 X-14.707 Y-18.666
G1 F1020 X37.893 Y33.933 E333.30859
G0 F2040 X38.067 Y33.613
G1 F1020 X-14.212 Y-18.666 E336.138
G0 F2040 X-13.717 Y-18.666
G1 F1020 X38.242 Y33.292 E338.95006
G0 F2040 X38.417 Y32.972
G1 F1020 X-13.222 Y-18.666 E341.7448
G0 F2040 X-12.727 Y-18.666
G1 F1020 X38.592 Y32.652 E344.52223
G0 F2040 X38.767 Y32.332
G1 F1020 X-12.232 Y-18.666 E347.28233
G0 F2040 X-11.737 Y-18.666
