;FLAVOR:Marlin
;TIME:7910
;Filament used: 7.25288m
;Layer height: 0.2
;MINX:-54.558
;MINY:-47.091
;MINZ:0.26
;MAXX:54.556
;MAXY:49.919
;MAXZ:23.46
;Generated with Cura_SteamEngine 4.8.0
M82 ;absolute extrusion mode
;Gcode by Cura
G90
G28
M107
M109 R100
G30
M109 S215 U-55 X55 V-85 Y-85 W0.26 Z0.26
M82
G92 E0
G1 F200 E6
G92 E0
G1 F200 E-3.5
G0 Z0.15
G0 X10
G0 Z3
G1 F6000
G92 E0
G92 E0
G1 F3600 E-3.8
;LAYER_COUNT:117
;LAYER:0
M107
G0 F2040 X-4.49 Y46.737 Z0.26
;TYPE:SKIRT
G1 F3600 E0
G1 F1020 X-53.666 Y-39.709 E3.80607
G1 X-53.991 Y-40.299 E3.83185
G1 X-54.247 Y-40.846 E3.85497
G1 X-54.429 Y-41.423 E3.87812
G1 X-54.533 Y-42.019 E3.90127
G1 X-54.558 Y-42.623 E3.92441
G1 X-54.502 Y-43.225 E3.94754
G1 X-54.368 Y-43.815 E3.9707
G1 X-54.157 Y-44.381 E3.99382
G1 X-53.873 Y-44.915 E4.01696
G1 X-53.522 Y-45.407 E4.04009
G1 X-53.108 Y-45.848 E4.06324
G1 X-52.64 Y-46.231 E4.08638
G1 X-52.126 Y-46.549 E4.10951
G1 X-51.574 Y-46.796 E4.13266
G1 X-50.994 Y-46.968 E4.15581
G1 X-50.155 Y-47.078 E4.18819
G1 X-49.498 Y-47.091 E4.21334
G1 X49.359 Y-47.091 E7.99655
G1 X50.049 Y-47.081 E8.02296
G1 X50.652 Y-47.032 E8.04611
G1 X51.243 Y-46.904 E8.06925
G1 X51.812 Y-46.7 E8.09238
G1 X52.349 Y-46.422 E8.11553
G1 X52.845 Y-46.075 E8.13869
G1 X53.29 Y-45.667 E8.1618
G1 X53.678 Y-45.203 E8.18494
G1 X54.002 Y-44.692 E8.2081
G1 X54.255 Y-44.143 E8.23123
G1 X54.434 Y-43.565 E8.25439
G1 X54.534 Y-42.969 E8.27752
G1 X54.556 Y-42.365 E8.30065
G1 X54.497 Y-41.763 E8.32379
G1 X54.36 Y-41.174 E8.34694
G1 X54.066 Y-40.442 E8.37713
G1 X53.74 Y-39.839 E8.40336
G1 X4.29 Y47.089 E12.23065
G1 X3.948 Y47.669 E12.25642
G1 X3.607 Y48.168 E12.27955
G1 X3.203 Y48.618 E12.30269
G1 X2.744 Y49.011 E12.32582
G1 X2.236 Y49.34 E12.34898
G1 X1.69 Y49.599 E12.3721
G1 X1.114 Y49.784 E12.39526
G1 X0.519 Y49.891 E12.41839
G1 X-0.085 Y49.919 E12.44153
G1 X-.687 Y49.867 E12.46466
G1 X-1.277 Y49.736 E12.48779
G1 X-1.845 Y49.528 E12.51093
G1 X-2.381 Y49.247 E12.53409
G1 X-2.875 Y48.898 E12.55724
G1 X-3.318 Y48.487 E12.58037
G1 X-3.703 Y48.022 E12.60347
G1 X-3.92 Y47.692 E12.61859
G1 X-4.49 Y46.737 E12.66115
G0 F2040 X-4.14 Y46.643
G1 F1020 X-53.36 Y-39.877 E16.47052
G1 X-53.685 Y-40.467 E16.49629
G1 X-53.929 Y-40.994 E16.51852
G1 X-54.099 Y-41.55 E16.54077
G1 X-54.192 Y-42.124 E16.56302
G1 X-54.204 Y-42.705 E16.58526
G1 X-54.137 Y-43.282 E16.60749
G1 X-53.991 Y-43.844 E16.62971
G1 X-53.77 Y-44.381 E16.65194
G1 X-53.477 Y-44.883 E16.67418
G1 X-53.118 Y-45.34 E16.69642
G1 X-52.699 Y-45.743 E16.71867
G1 X-52.229 Y-46.085 E16.74091
G1 X-51.717 Y-46.359 E16.76314
G1 X-51.172 Y-46.56 E16.78537
G1 X-50.605 Y-46.685 E16.80759
G1 X-50.008 Y-46.733 E16.83051
G1 X-49.494 Y-46.741 E16.85018
G1 X49.354 Y-46.741 E20.63305
G1 X50.044 Y-46.731 E20.65945
G1 X50.623 Y-46.682 E20.68169
G1 X51.19 Y-46.555 E20.70393
G1 X51.734 Y-46.351 E20.72616
G1 X52.245 Y-46.074 E20.74841
G1 X52.713 Y-45.73 E20.77063
G1 X53.13 Y-45.325 E20.79288
G1 X53.487 Y-44.867 E20.8151
G1 X53.778 Y-44.364 E20.83734
G1 X53.997 Y-43.826 E20.85957
G1 X54.14 Y-43.262 E20.88184
G1 X54.204 Y-42.685 E20.90406
G1 X54.189 Y-42.104 E20.9263
G1 X54.094 Y-41.531 E20.94853
G1 X53.921 Y-40.976 E20.97077
G1 X53.708 Y-40.511 E20.99035
G1 X53.434 Y-40.009 E21.01223
G1 X3.988 Y46.911 E24.83918
G1 X3.646 Y47.491 E24.86495
G1 X3.318 Y47.97 E24.88717
G1 X2.926 Y48.399 E24.90941
G1 X2.479 Y48.771 E24.93166
G1 X1.986 Y49.078 E24.95389
G1 X1.455 Y49.314 E24.97613
G1 X0.897 Y49.475 E24.99835
G1 X0.322 Y49.558 E25.02059
G1 X-.259 Y49.562 E25.04282
G1 X-.835 Y49.485 E25.06506
G1 X-1.395 Y49.331 E25.08729
G1 X-1.929 Y49.1 E25.10955
G1 X-2.426 Y48.799 E25.13179
G1 X-2.877 Y48.433 E25.15402
G1 X-3.273 Y48.008 E25.17625
G1 X-3.62 Y47.513 E25.19938
G1 X-4.14 Y46.643 E25.23817
G0 F2040 X-3.881 Y46.391
G1 F1020 X-53.053 Y-40.046 E29.04387
G1 X-53.378 Y-40.636 E29.06965
G1 X-53.611 Y-41.142 E29.09097
G1 X-53.769 Y-41.675 E29.11224
G1 X-53.849 Y-42.226 E29.13355
G1 X-53.849 Y-42.782 E29.15483
G1 X-53.77 Y-43.333 E29.17613
G1 X-53.612 Y-43.867 E29.19744
G1 X-53.38 Y-44.372 E29.21871
G1 X-53.078 Y-44.839 E29.23999
G1 X-52.712 Y-45.258 E29.26128
G1 X-52.289 Y-45.621 E29.28261
G1 X-51.819 Y-45.919 E29.30391
G1 X-51.312 Y-46.146 E29.32517
G1 X-50.777 Y-46.299 E29.34647
G1 X-50.128 Y-46.378 E29.37149
G1 X-49.489 Y-46.391 E29.39594
G1 X49.349 Y-46.391 E33.17843
G1 X50.039 Y-46.381 E33.20484
G1 X50.593 Y-46.333 E33.22612
G1 X51.135 Y-46.206 E33.24742
G1 X51.653 Y-46.003 E33.26871
G1 X52.137 Y-45.727 E33.29003
G1 X52.576 Y-45.386 E33.31131
G1 X52.962 Y-44.985 E33.33261
G1 X53.286 Y-44.532 E33.35392
G1 X53.542 Y-44.038 E33.37522
G1 X53.725 Y-43.513 E33.39649
G1 X53.831 Y-42.967 E33.41778
G1 X53.857 Y-42.411 E33.43908
G1 X53.803 Y-41.857 E33.46038
G1 X53.671 Y-41.317 E33.48165
G1 X53.441 Y-40.758 E33.50479
G1 X53.128 Y-40.178 E33.53001
G1 X3.687 Y46.733 E37.35657
G1 X3.345 Y47.313 E37.38233
G1 X3.029 Y47.771 E37.40363
G1 X2.65 Y48.179 E37.42494
G1 X2.217 Y48.528 E37.44622
G1 X1.738 Y48.812 E37.46753
G1 X1.224 Y49.024 E37.48881
G1 X0.684 Y49.16 E37.51012
G1 X0.131 Y49.218 E37.5314
G1 X-.425 Y49.196 E37.5527
G1 X-.972 Y49.094 E37.57399
G1 X-1.499 Y48.915 E37.59529
G1 X-1.995 Y48.663 E37.61658
G1 X-2.449 Y48.342 E37.63786
G1 X-2.853 Y47.959 E37.65916
G1 X-3.319 Y47.333 E37.68903
G1 X-3.881 Y46.391 E37.73101
G0 F2040 X-3.577 Y46.218
G1 F1020 X-52.747 Y-40.215 E41.53654
G1 X-53.072 Y-40.805 E41.56231
G1 X-53.292 Y-41.288 E41.58263
G1 X-53.437 Y-41.798 E41.60292
G1 X-53.504 Y-42.325 E41.62325
G1 X-53.492 Y-42.855 E41.64354
G1 X-53.399 Y-43.378 E41.66386
G1 X-53.23 Y-43.881 E41.68417
G1 X-52.987 Y-44.352 E41.70445
G1 X-52.676 Y-44.782 E41.72476
G1 X-52.303 Y-45.16 E41.74509
G1 X-51.879 Y-45.479 E41.76539
G1 X-51.411 Y-45.729 E41.7857
G1 X-50.911 Y-45.907 E41.80601
G1 X-50.39 Y-46.008 E41.82632
G1 X-49.485 Y-46.041 E41.86097
G1 X49.344 Y-46.041 E45.64311
G1 X50.034 Y-46.031 E45.66952
G1 X50.563 Y-45.983 E45.68985
G1 X51.078 Y-45.857 E45.71014
G1 X51.569 Y-45.654 E45.73047
G1 X52.023 Y-45.381 E45.75075
G1 X52.432 Y-45.042 E45.77108
G1 X52.784 Y-44.645 E45.79138
G1 X53.074 Y-44.201 E45.81168
G1 X53.293 Y-43.717 E45.83201
G1 X53.438 Y-43.207 E45.8523
G1 X53.504 Y-42.68 E45.87262
G1 X53.49 Y-42.15 E45.89291
G1 X53.397 Y-41.627 E45.91324
G1 X53.129 Y-40.915 E45.94236
G1 X52.821 Y-40.348 E45.96705
G1 X3.413 Y46.508 E49.79115
G1 X3.043 Y47.135 E49.81901
G1 X2.74 Y47.571 E49.83933
G1 X2.375 Y47.956 E49.85964
G1 X1.956 Y48.282 E49.87995
G1 X1.493 Y48.541 E49.90025
G1 X0.997 Y48.728 E49.92054
G1 X0.478 Y48.838 E49.94084
G1 X-0.052 Y48.87 E49.96116
G1 X-.581 Y48.821 E49.98149
G1 X-1.096 Y48.693 E50.0018
G1 X-1.586 Y48.49 E50.0221
G1 X-2.04 Y48.215 E50.04241
G1 X-2.447 Y47.875 E50.06271
G1 X-2.799 Y47.478 E50.08301
G1 X-3.019 Y47.153 E50.09803
G1 X-3.577 Y46.218 E50.1397
G0 F2040 X-3.273 Y46.045
G1 F1020 X-52.44 Y-40.384 E53.94504
G1 X-52.765 Y-40.974 E53.97082
G1 X-52.972 Y-41.433 E53.99009
G1 X-53.104 Y-41.919 E54.00936
G1 X-53.158 Y-42.42 E54.02865
G1 X-53.132 Y-42.923 E54.04792
G1 X-53.026 Y-43.415 E54.06718
G1 X-52.844 Y-43.885 E54.08647
G1 X-52.59 Y-44.32 E54.10575
G1 X-52.271 Y-44.709 E54.125
G1 X-51.894 Y-45.043 E54.14428
G1 X-51.468 Y-45.313 E54.16358
G1 X-51.006 Y-45.512 E54.18283
G1 X-50.518 Y-45.636 E54.2021
G1 X-49.968 Y-45.684 E54.22322
G1 X-49.481 Y-45.691 E54.24186
G1 X49.339 Y-45.691 E58.02366
G1 X50.029 Y-45.681 E58.05007
G1 X50.53 Y-45.633 E58.06933
G1 X51.018 Y-45.508 E58.08861
G1 X51.48 Y-45.306 E58.1079
G1 X51.903 Y-45.034 E58.12715
G1 X52.279 Y-44.699 E58.14642
G1 X52.597 Y-44.308 E58.16571
G1 X52.849 Y-43.872 E58.18498
G1 X53.029 Y-43.402 E58.20424
G1 X53.132 Y-42.909 E58.22352
G1 X53.156 Y-42.406 E58.24279
G1 X53.101 Y-41.906 E58.26204
G1 X52.967 Y-41.42 E58.28133
G1 X52.715 Y-40.878 E58.3042
G1 X52.498 Y-40.486 E58.32135
G1 X3.084 Y46.378 E62.14583
G1 X2.742 Y46.958 E62.1716
G1 X2.453 Y47.37 E62.19086
G1 X2.102 Y47.731 E62.21013
G1 X1.698 Y48.032 E62.22941
G1 X1.252 Y48.266 E62.24868
G1 X0.774 Y48.426 E62.26798
G1 X0.278 Y48.508 E62.28721
G1 X-.226 Y48.511 E62.3065
G1 X-.724 Y48.435 E62.32578
G1 X-1.203 Y48.28 E62.34505
G1 X-1.652 Y48.052 E62.36432
G1 X-2.059 Y47.756 E62.38358
G1 X-2.414 Y47.399 E62.40285
G1 X-2.718 Y46.974 E62.42284
G1 X-3.273 Y46.045 E62.46426
G1 F3600 E58.66426
;MESH:support_tri_0_011.stl
G0 F2040 X-.947 Y45.055
G0 X-.187 Y44.622
G0 X0.00 Y44.314
;TYPE:WALL-INNER
G1 F3600 E62.46426
G1 F1020 X-49.098 Y-41.991 E66.26417
G1 X49.098 Y-41.991 E70.02208
G1 X0.00 Y44.314 E73.82199
G0 F2040 X0.00 Y44.971
;TYPE:WALL-OUTER
G1 F1020 X-49.656 Y-42.316 E77.66512
G1 X49.656 Y-42.316 E81.46574
G1 X0.00 Y44.971 E85.30887
G0 F2040 X-0.098 Y44.798
G0 X-0.011 Y44.75
G0 X0.00 Y43.627
;TYPE:SKIN
G1 F1020 X-48.513 Y-41.651 E89.06355
G1 X48.513 Y-41.651 E92.77669
G1 X0.00 Y43.627 E96.53137
G0 F2040 X0.089 Y43.151
G1 F1020 X-.323 Y42.738 E96.55369
G0 F2040 X0.268 Y42.836
G1 F1020 X-.977 Y41.59 E96.6211
G1 X-1.039 Y41.528
G0 F2040 X-1.629 Y40.442
G1 F1020 X0.448 Y42.521 E96.73356
G0 F2040 X0.627 Y42.205
G1 F1020 X-2.283 Y39.294 E96.89108
G1 X-2.345 Y39.232
G0 F2040 X-2.936 Y38.146
G1 F1020 X0.806 Y41.889 E97.09363
G0 F2040 X0.986 Y41.574
G1 F1020 X-3.589 Y36.998 E97.34126
G1 X-3.651 Y36.936
G0 F2040 X-4.242 Y35.85
G1 F1020 X1.166 Y41.258 E97.63395
G0 F2040 X1.345 Y40.943
G1 F1020 X-4.896 Y34.701 E97.97175
G1 X-4.958 Y34.639
G0 F2040 X-5.548 Y33.554
G1 F1020 X1.525 Y40.628 E98.35458
G0 F2040 X1.704 Y40.312
G1 F1020 X-6.202 Y32.405 E98.78249
G1 X-6.264 Y32.343
G0 F2040 X-6.855 Y31.257
G1 F1020 X1.883 Y39.996 E99.25543
G0 F2040 X2.063 Y39.681
G1 F1020 X-7.508 Y30.109 E99.77345
G1 X-7.57 Y30.047
G0 F2040 X-8.161 Y28.961
G1 F1020 X2.242 Y39.366 E100.33652
G0 F2040 X2.422 Y39.05
G1 F1020 X-8.814 Y27.813 E100.94466
G1 X-8.876 Y27.751
G0 F2040 X-9.468 Y26.664
G1 F1020 X2.602 Y38.735 E101.59793
G0 F2040 X2.781 Y38.419
G1 F1020 X-10.12 Y25.517 E102.29617
G1 X-10.182 Y25.455
G0 F2040 X-10.774 Y24.369
G1 F1020 X2.96 Y38.103 E103.03948
G0 F2040 X3.14 Y37.788
G1 F1020 X-11.427 Y23.22 E103.82789
G1 X-11.489 Y23.158
G0 F2040 X-12.08 Y22.073
G1 F1020 X3.319 Y37.473 E104.66133
G0 F2040 X3.499 Y37.157
G1 F1020 X-12.733 Y20.924 E105.53985
G1 X-12.795 Y20.862
G0 F2040 X-13.386 Y19.776
G1 F1020 X3.679 Y36.842 E106.46346
G0 F2040 X3.857 Y36.526
G1 F1020 X-14.039 Y18.628 E107.43207
G1 X-14.101 Y18.566
G0 F2040 X-14.692 Y17.48
G1 F1020 X4.037 Y36.21 E108.44573
G0 F2040 X4.217 Y35.895
G1 F1020 X-15.346 Y16.332 E109.50451
G1 X-15.408 Y16.27
G0 F2040 X-15.999 Y15.183
G1 F1020 X4.396 Y35.58 E110.60836
G0 F2040 X4.576 Y35.264
G1 F1020 X-16.652 Y14.036 E111.75725
G1 X-16.714 Y13.974
G0 F2040 X-17.305 Y12.887
G1 F1020 X4.756 Y34.949 E112.95125
G0 F2040 X4.934 Y34.633
G1 F1020 X-17.959 Y11.739 E114.19027
G1 X-18.021 Y11.677
G0 F2040 X-18.611 Y10.591
G1 F1020 X5.114 Y34.318 E115.47435
G0 F2040 X5.294 Y34.002
G1 F1020 X-19.265 Y9.443 E116.80352
G1 X-19.327 Y9.381
G0 F2040 X-19.918 Y8.295
G1 F1020 X5.473 Y33.687 E118.17774
G0 F2040 X5.653 Y33.371
G1 F1020 X-20.571 Y7.147 E119.59701
G1 X-20.633 Y7.085
G0 F2040 X-21.224 Y5.999
G1 F1020 X5.832 Y33.056 E121.06135
G0 F2040 X6.011 Y32.74
G1 F1020 X-21.877 Y4.85 E122.57073
G1 X-21.939 Y4.788
G0 F2040 X-22.531 Y3.702
G1 F1020 X6.191 Y32.425 E124.12523
G0 F2040 X6.371 Y32.109
G1 F1020 X-23.183 Y2.554 E125.72476
G1 X-23.245 Y2.492
G0 F2040 X-23.837 Y1.406
G1 F1020 X6.55 Y31.794 E127.36937
G0 F2040 X6.73 Y31.478
G1 F1020 X-24.49 Y0.258 E129.05904
G1 X-24.552 Y0.196
G0 F2040 X-25.143 Y-.889
G1 F1020 X6.909 Y31.162 E130.7937
G0 F2040 X7.088 Y30.847
G1 F1020 X-25.796 Y-2.037 E132.57343
G1 X-25.858 Y-2.099
G0 F2040 X-26.45 Y-3.186
G1 F1020 X7.268 Y30.532 E134.39829
G0 F2040 X7.447 Y30.216
G1 F1020 X-27.102 Y-4.333 E136.26813
G1 X-27.164 Y-4.395
G0 F2040 X-27.756 Y-5.482
G1 F1020 X7.627 Y29.901 E138.1831
G0 F2040 X7.807 Y29.586
G1 F1020 X-28.409 Y-6.63 E140.14315
G1 X-28.471 Y-6.692
G0 F2040 X-29.062 Y-7.778
G1 F1020 X7.986 Y29.269 E142.14821
G0 F2040 X8.165 Y28.954
G1 F1020 X-29.715 Y-8.926 E144.19833
G1 X-29.777 Y-8.988
G0 F2040 X-30.368 Y-10.074
G1 F1020 X8.345 Y28.639 E146.29352
G0 F2040 X8.524 Y28.323
G1 F1020 X-31.022 Y-11.223 E148.4338
G1 X-31.084 Y-11.285
G0 F2040 X-31.674 Y-12.37
G1 F1020 X8.704 Y28.008 E150.61911
G0 F2040 X8.884 Y27.693
G1 F1020 X-32.328 Y-13.519 E152.84956
G1 X-32.39 Y-13.581
G0 F2040 X-32.981 Y-14.667
G1 F1020 X9.062 Y27.377 E155.12501
G0 F2040 X9.242 Y27.061
G1 F1020 X-33.634 Y-15.815 E157.44551
G1 X-33.696 Y-15.877
G0 F2040 X-34.287 Y-16.963
G1 F1020 X9.422 Y26.746 E159.8111
G0 F2040 X9.601 Y26.43
G1 F1020 X-34.94 Y-18.111 E162.22171
G1 X-35.002 Y-18.173
G0 F2040 X-35.593 Y-19.259
G1 F1020 X9.781 Y26.115 E164.67741
G0 F2040 X9.96 Y25.799
G1 F1020 X-36.247 Y-20.407 E167.17817
G1 X-36.309 Y-20.469
G0 F2040 X-36.9 Y-21.556
G1 F1020 X10.139 Y25.484 E169.724
G0 F2040 X10.319 Y25.168
G1 F1020 X-37.553 Y-22.704 E172.3149
G1 X-37.615 Y-22.766
G0 F2040 X-38.206 Y-23.852
G1 F1020 X10.499 Y24.853 E174.95087
G0 F2040 X10.678 Y24.538
G1 F1020 X-38.859 Y-25 E177.63191
G1 X-38.921 Y-25.062
G0 F2040 X-39.513 Y-26.148
G1 F1020 X10.858 Y24.222 E180.35802
G0 F2040 X11.037 Y23.906
G1 F1020 X-40.165 Y-27.296 E183.12914
G1 X-40.227 Y-27.358
G0 F2040 X-40.819 Y-28.444
G1 F1020 X11.216 Y23.591 E185.94534
G0 F2040 X11.396 Y23.275
G1 F1020 X-41.472 Y-29.593 E188.80662
G1 X-41.534 Y-29.655
G0 F2040 X-42.125 Y-30.74
G1 F1020 X11.576 Y22.96 E191.71296
G0 F2040 X11.755 Y22.645
G1 F1020 X-42.778 Y-31.889 E194.66439
G1 X-42.84 Y-31.951
G0 F2040 X-43.431 Y-33.037
G1 F1020 X11.935 Y22.329 E197.66086
G0 F2040 X12.114 Y22.013
G1 F1020 X-44.085 Y-34.185 E200.7024
G1 X-44.147 Y-34.247
G0 F2040 X-44.737 Y-35.333
G1 F1020 X12.293 Y21.698 E203.78896
G0 F2040 X12.473 Y21.382
G1 F1020 X-45.391 Y-36.481 E206.92061
G1 X-45.453 Y-36.543
G0 F2040 X-46.044 Y-37.63
G1 F1020 X12.652 Y21.067 E210.09734
G0 F2040 X12.832 Y20.752
G1 F1020 X-46.697 Y-38.777 E213.31912
G1 X-46.759 Y-38.839
G0 F2040 X-47.35 Y-39.926
G1 F1020 X13.011 Y20.436 E216.58596
G0 F2040 X13.191 Y20.12
G1 F1020 X-48.004 Y-41.074 E219.89789
G0 F2040 X-47.928 Y-41.493
G1 F1020 X13.37 Y19.805 E223.21541
G0 F2040 X13.55 Y19.489
G1 F1020 X-47.433 Y-41.493 E226.51586
G0 F2040 X-46.938 Y-41.493
G1 F1020 X13.729 Y19.174 E229.79924
G0 F2040 X13.909 Y18.859
G1 F1020 X-46.443 Y-41.493 E233.06557
G0 F2040 X-45.948 Y-41.493
G1 F1020 X14.088 Y18.543 E236.31479
G0 F2040 X14.268 Y18.227
G1 F1020 X-45.453 Y-41.493 E239.54694
G0 F2040 X-44.958 Y-41.493
G1 F1020 X14.447 Y17.912 E242.76202
G0 F2040 X14.627 Y17.597
G1 F1020 X-44.463 Y-41.493 E245.96004
G0 F2040 X-43.968 Y-41.493
G1 F1020 X14.806 Y17.281 E249.14097
G0 F2040 X14.986 Y16.966
G1 F1020 X-43.473 Y-41.493 E252.30484
G0 F2040 X-42.978 Y-41.493
G1 F1020 X15.165 Y16.65 E255.45161
G0 F2040 X15.344 Y16.334
G1 F1020 X-42.483 Y-41.493 E258.58129
G0 F2040 X-41.988 Y-41.493
G1 F1020 X15.524 Y16.019 E261.69391
G0 F2040 X15.704 Y15.704
G1 F1020 X-41.493 Y-41.493 E264.78948
G0 F2040 X-40.998 Y-41.493
G1 F1020 X15.883 Y15.388 E267.86795
G0 F2040 X16.062 Y15.072
G1 F1020 X-40.503 Y-41.493 E270.92932
G0 F2040 X-40.008 Y-41.493
G1 F1020 X16.242 Y14.757 E273.97365
G0 F2040 X16.421 Y14.441
G1 F1020 X-39.513 Y-41.493 E277.00087
G0 F2040 X-39.018 Y-41.493
G1 F1020 X16.601 Y14.126 E280.01104
G0 F2040 X16.781 Y13.811
G1 F1020 X-38.523 Y-41.493 E283.00416
G0 F2040 X-38.028 Y-41.493
G1 F1020 X16.96 Y13.495 E285.98018
G0 F2040 X17.139 Y13.179
G1 F1020 X-37.533 Y-41.493 E288.9391
G0 F2040 X-37.038 Y-41.493
G1 F1020 X17.319 Y12.864 E291.88097
G0 F2040 X17.498 Y12.549
G1 F1020 X-36.543 Y-41.493 E294.80576
G0 F2040 X-36.049 Y-41.493
G1 F1020 X17.678 Y12.233 E297.71351
G0 F2040 X17.857 Y11.918
G1 F1020 X-35.554 Y-41.493 E300.60418
G0 F2040 X-35.059 Y-41.493
G1 F1020 X18.037 Y11.602 E303.47778
G0 F2040 X18.216 Y11.286
G1 F1020 X-34.564 Y-41.493 E306.33427
G0 F2040 X-34.069 Y-41.493
G1 F1020 X18.396 Y10.971 E309.17372
G0 F2040 X18.575 Y10.656
G1 F1020 X-33.574 Y-41.493 E311.99609
G0 F2040 X-33.079 Y-41.493
G1 F1020 X18.755 Y10.34 E314.80138
G0 F2040 X18.934 Y10.025
G1 F1020 X-32.584 Y-41.493 E317.5896
G0 F2040 X-32.089 Y-41.493
G1 F1020 X19.113 Y9.709 E320.36072
G0 F2040 X19.293 Y9.393
