;FLAVOR:Marlin
;TIME:7310
;Filament used: 7.01121m
;Layer height: 0.2
;MINX:-66.345
;MINY:-75.339
;MINZ:0.26
;MAXX:43.884
;MAXY:23.203
;MAXZ:13.26
;Generated with Cura_SteamEngine 4.8.0
M82 ;absolute extrusion mode
;Gcode by Cura
G90
G28
M107
M109 R100
G30
M109 S215 U-55 X55 V-85 Y-85 W0.26 Z0.26
M82
G92 E0
G1 F200 E6
G92 E0
G1 F200 E-3.5
G0 Z0.15
G0 X10
G0 Z3
G1 F6000
G92 E0
G92 E0
G1 F3600 E-3.8
;LAYER_COUNT:66
;LAYER:0
M107
G0 F2040 X38.898 Y23.203 Z0.26
;TYPE:SKIRT
G1 F3600 E0
G1 F1020 X-61.141 Y23.203 E3.82844
G1 X-61.832 Y23.194 E3.85489
G1 X-62.434 Y23.146 E3.878
G1 X-63.026 Y23.019 E3.90117
G1 X-63.595 Y22.815 E3.92431
G1 X-64.132 Y22.538 E3.94743
G1 X-64.628 Y22.193 E3.97055
G1 X-65.075 Y21.785 E3.99371
G1 X-65.463 Y21.322 E4.01683
G1 X-65.788 Y20.811 E4.04001
G1 X-66.042 Y20.262 E4.06316
G1 X-66.221 Y19.685 E4.08628
G1 X-66.323 Y19.089 E4.10942
G1 X-66.345 Y18.485 E4.13255
G1 X-66.287 Y17.883 E4.15569
G1 X-66.151 Y17.294 E4.17882
G1 X-65.938 Y16.728 E4.20197
G1 X-65.641 Y16.165 E4.22633
G1 X-65.429 Y15.806 E4.24228
G1 X-12.136 Y-72.606 E8.19292
G1 X-11.779 Y-73.181 E8.21882
G1 X-11.427 Y-73.673 E8.24197
G1 X-11.013 Y-74.113 E8.26509
G1 X-10.544 Y-74.496 E8.28826
G1 X-10.029 Y-74.813 E8.31141
G1 X-9.477 Y-75.06 E8.33455
G1 X-8.898 Y-75.231 E8.35766
G1 X-8.3 Y-75.325 E8.38082
G1 X-7.696 Y-75.339 E8.40394
G1 X-7.095 Y-75.273 E8.42708
G1 X-6.508 Y-75.129 E8.45021
G1 X-5.945 Y-74.908 E8.47336
G1 X-5.416 Y-74.615 E8.4965
G1 X-4.93 Y-74.255 E8.51965
G1 X-4.496 Y-73.834 E8.54279
G1 X-4.121 Y-73.359 E8.56595
G1 X-3.656 Y-72.561 E8.60129
G1 X43.047 Y15.867 E12.42837
G1 X43.386 Y16.527 E12.45677
G1 X43.626 Y17.082 E12.47991
G1 X43.791 Y17.663 E12.50302
G1 X43.877 Y18.262 E12.52618
G1 X43.884 Y18.866 E12.5493
G1 X43.811 Y19.467 E12.57247
G1 X43.66 Y20.052 E12.59559
G1 X43.433 Y20.612 E12.61871
G1 X43.134 Y21.138 E12.64187
G1 X42.768 Y21.619 E12.665
G1 X42.342 Y22.048 E12.68813
G1 X41.863 Y22.417 E12.71127
G1 X41.34 Y22.72 E12.73441
G1 X40.781 Y22.951 E12.75755
G1 X40.196 Y23.106 E12.78071
G1 X39.504 Y23.188 E12.80738
G1 X38.898 Y23.203 E12.83058
G0 F2040 X38.894 Y22.853
G1 F1020 X-61.136 Y22.853 E16.65868
G1 X-61.827 Y22.844 E16.68513
G1 X-62.406 Y22.796 E16.70736
G1 X-62.973 Y22.67 E16.72959
G1 X-63.518 Y22.467 E16.75184
G1 X-64.029 Y22.191 E16.77407
G1 X-64.498 Y21.847 E16.79633
G1 X-64.915 Y21.443 E16.81855
G1 X-65.272 Y20.985 E16.84077
G1 X-65.564 Y20.482 E16.86303
G1 X-65.784 Y19.944 E16.88527
G1 X-65.928 Y19.381 E16.90751
G1 X-65.993 Y18.804 E16.92973
G1 X-65.978 Y18.223 E16.95198
G1 X-65.884 Y17.65 E16.9742
G1 X-65.713 Y17.095 E16.99642
G1 X-65.473 Y16.582 E17.0181
G1 X-65.15 Y16.021 E17.04287
G1 X-11.838 Y-72.422 E20.9949
G1 X-11.481 Y-72.997 E21.0208
G1 X-11.142 Y-73.468 E21.04301
G1 X-10.741 Y-73.888 E21.06523
G1 X-10.286 Y-74.25 E21.08748
G1 X-9.785 Y-74.545 E21.10973
G1 X-9.249 Y-74.769 E21.13196
G1 X-8.687 Y-74.917 E21.1542
G1 X-8.111 Y-74.987 E21.17641
G1 X-7.53 Y-74.977 E21.19865
G1 X-6.956 Y-74.888 E21.22088
G1 X-6.399 Y-74.72 E21.24314
G1 X-5.871 Y-74.478 E21.26537
G1 X-5.381 Y-74.166 E21.2876
G1 X-4.939 Y-73.789 E21.30983
G1 X-4.552 Y-73.356 E21.33206
G1 X-4.192 Y-72.809 E21.35712
G1 X-3.926 Y-72.324 E21.37829
G1 X42.735 Y16.027 E25.20201
G1 X43.074 Y16.687 E25.23041
G1 X43.304 Y17.221 E25.25266
G1 X43.457 Y17.781 E25.27487
G1 X43.533 Y18.357 E25.29711
G1 X43.529 Y18.938 E25.31934
G1 X43.445 Y19.513 E25.34158
G1 X43.283 Y20.071 E25.36382
G1 X43.046 Y20.601 E25.38604
G1 X42.738 Y21.094 E25.40828
G1 X42.366 Y21.54 E25.43051
G1 X41.936 Y21.931 E25.45275
G1 X41.457 Y22.259 E25.47497
G1 X40.937 Y22.519 E25.49722
G1 X40.386 Y22.704 E25.51946
G1 X39.815 Y22.812 E25.5417
G1 X39.294 Y22.846 E25.56168
G1 X38.894 Y22.853 E25.57699
G0 F2040 X38.891 Y22.503
G1 F1020 X-61.131 Y22.503 E29.40478
G1 X-61.822 Y22.494 E29.43123
G1 X-62.377 Y22.446 E29.45255
G1 X-62.919 Y22.32 E29.47384
G1 X-63.437 Y22.118 E29.49512
G1 X-63.921 Y21.843 E29.51643
G1 X-64.361 Y21.502 E29.53773
G1 X-64.747 Y21.102 E29.559
G1 X-65.072 Y20.65 E29.58031
G1 X-65.329 Y20.157 E29.60158
G1 X-65.512 Y19.631 E29.6229
G1 X-65.619 Y19.085 E29.64419
G1 X-65.646 Y18.53 E29.66545
G1 X-65.593 Y17.976 E29.68675
G1 X-65.462 Y17.435 E29.70805
G1 X-65.167 Y16.751 E29.73656
G1 X-64.848 Y16.199 E29.76096
G1 X-11.541 Y-72.237 E33.71266
G1 X-11.184 Y-72.812 E33.73856
G1 X-10.857 Y-73.262 E33.75985
G1 X-10.47 Y-73.661 E33.78112
G1 X-10.029 Y-74.001 E33.80243
G1 X-9.544 Y-74.273 E33.82371
G1 X-9.025 Y-74.474 E33.84501
G1 X-8.482 Y-74.598 E33.86633
G1 X-7.928 Y-74.643 E33.8876
G1 X-7.372 Y-74.608 E33.90892
G1 X-6.828 Y-74.494 E33.93019
G1 X-6.305 Y-74.303 E33.95149
G1 X-5.815 Y-74.039 E33.9728
G1 X-5.368 Y-73.708 E33.99408
G1 X-4.973 Y-73.316 E34.01538
G1 X-4.499 Y-72.639 E34.04701
G1 X-4.236 Y-72.161 E34.06788
G1 X42.424 Y16.187 E37.89149
G1 X42.763 Y16.847 E37.91989
G1 X42.981 Y17.358 E37.94115
G1 X43.123 Y17.896 E37.96244
G1 X43.187 Y18.449 E37.98375
G1 X43.172 Y19.005 E38.00503
G1 X43.076 Y19.553 E38.02632
G1 X42.903 Y20.082 E38.04762
G1 X42.656 Y20.581 E38.06893
G1 X42.341 Y21.039 E38.0902
G1 X41.963 Y21.447 E38.11149
G1 X41.53 Y21.797 E38.13279
G1 X41.052 Y22.082 E38.15409
G1 X40.538 Y22.294 E38.17537
G1 X39.998 Y22.431 E38.19669
G1 X39.475 Y22.489 E38.21683
G1 X38.891 Y22.503 E38.23918
G0 F2040 X38.887 Y22.153
G1 F1020 X-61.127 Y22.153 E42.06667
G1 X-61.818 Y22.144 E42.09312
G1 X-62.346 Y22.097 E42.1134
G1 X-62.862 Y21.971 E42.13373
G1 X-63.353 Y21.77 E42.15404
G1 X-63.808 Y21.497 E42.17434
G1 X-64.217 Y21.158 E42.19467
G1 X-64.57 Y20.763 E42.21495
G1 X-64.86 Y20.318 E42.23527
G1 X-65.081 Y19.835 E42.2556
G1 X-65.226 Y19.325 E42.27589
G1 X-65.292 Y18.798 E42.29622
G1 X-65.279 Y18.268 E42.3165
G1 X-65.187 Y17.745 E42.33683
G1 X-65.017 Y17.243 E42.35711
G1 X-64.789 Y16.79 E42.37652
G1 X-64.53 Y16.348 E42.39612
G1 X-11.244 Y-72.052 E46.34623
G1 X-10.887 Y-72.627 E46.37213
G1 X-10.574 Y-73.056 E46.39245
G1 X-10.2 Y-73.432 E46.41275
G1 X-9.774 Y-73.749 E46.43307
G1 X-9.305 Y-73.997 E46.45337
G1 X-8.804 Y-74.173 E46.47369
G1 X-8.283 Y-74.271 E46.49398
G1 X-7.752 Y-74.29 E46.51432
G1 X-7.225 Y-74.229 E46.53462
G1 X-6.713 Y-74.09 E46.55492
G1 X-6.228 Y-73.875 E46.57522
G1 X-5.78 Y-73.59 E46.59554
G1 X-5.38 Y-73.241 E46.61586
G1 X-5.038 Y-72.836 E46.63615
G1 X-4.575 Y-72.053 E46.67096
G1 X42.113 Y16.346 E50.49679
G1 X42.452 Y17.006 E50.52518
G1 X42.658 Y17.495 E50.54549
G1 X42.788 Y18.01 E50.56582
G1 X42.84 Y18.538 E50.58612
G1 X42.812 Y19.068 E50.60643
G1 X42.705 Y19.588 E50.62675
G1 X42.521 Y20.085 E50.64703
G1 X42.264 Y20.55 E50.66736
G1 X41.94 Y20.97 E50.68766
G1 X41.557 Y21.338 E50.70799
G1 X41.124 Y21.643 E50.72826
G1 X40.649 Y21.88 E50.74858
G1 X40.144 Y22.043 E50.76888
G1 X39.46 Y22.139 E50.79532
G1 X38.887 Y22.153 E50.81725
G0 F2040 X38.883 Y21.803
G1 F1020 X-61.122 Y21.803 E54.64439
G1 X-61.813 Y21.794 E54.67084
G1 X-62.315 Y21.747 E54.69014
G1 X-62.803 Y21.622 E54.70941
G1 X-63.264 Y21.421 E54.72866
G1 X-63.689 Y21.15 E54.74795
G1 X-64.065 Y20.815 E54.76722
G1 X-64.383 Y20.425 E54.78648
G1 X-64.636 Y19.99 E54.80574
G1 X-64.817 Y19.519 E54.82505
G1 X-64.921 Y19.027 E54.84429
G1 X-64.946 Y18.524 E54.86357
G1 X-64.891 Y18.023 E54.88285
G1 X-64.757 Y17.538 E54.90211
G1 X-64.483 Y16.959 E54.92662
G1 X-64.23 Y16.529 E54.94572
G1 X-10.946 Y-71.868 E58.89568
G1 X-10.589 Y-72.443 E58.92159
G1 X-10.291 Y-72.848 E58.94083
G1 X-9.932 Y-73.201 E58.9601
G1 X-9.521 Y-73.493 E58.97939
G1 X-9.07 Y-73.716 E58.99864
G1 X-8.589 Y-73.866 E59.01793
G1 X-8.09 Y-73.937 E59.03721
G1 X-7.587 Y-73.928 E59.05647
G1 X-7.091 Y-73.84 E59.07575
G1 X-6.615 Y-73.675 E59.09503
G1 X-6.172 Y-73.437 E59.11427
G1 X-5.771 Y-73.131 E59.13357
G1 X-5.424 Y-72.766 E59.15285
G1 X-5.112 Y-72.301 E59.17428
G1 X-4.854 Y-71.834 E59.1947
G1 X41.801 Y16.506 E63.01794
G1 X42.14 Y17.166 E63.04634
G1 X42.334 Y17.631 E63.06562
G1 X42.452 Y18.121 E63.08491
G1 X42.491 Y18.623 E63.10418
G1 X42.45 Y19.125 E63.12345
G1 X42.33 Y19.614 E63.14272
G1 X42.135 Y20.078 E63.16198
G1 X41.868 Y20.505 E63.18125
G1 X41.538 Y20.885 E63.20052
G1 X41.151 Y21.208 E63.21981
G1 X40.718 Y21.465 E63.23908
G1 X40.25 Y21.651 E63.25835
G1 X39.759 Y21.761 E63.2776
G1 X39.251 Y21.797 E63.29709
G1 X38.883 Y21.803 E63.31118
G1 F3600 E59.51118
;MESH:support_tri_0_077.stl
G0 F2040 X38.733 Y19.293
G0 X38.733 Y18.268
G0 X38.46 Y18.103
;TYPE:WALL-INNER
G1 F3600 E63.31118
G1 F1020 X-60.859 Y18.103 E67.11207
G1 X-7.922 Y-69.721 E71.0364
G1 X38.46 Y18.103 E74.83731
G0 F2040 X38.999 Y18.428
;TYPE:WALL-OUTER
G1 F1020 X-61.434 Y18.428 E78.68083
G1 X-7.903 Y-70.381 E82.64918
G1 X38.999 Y18.428 E86.49271
G0 F2040 X38.799 Y18.428
G0 X38.665 Y18.227
G0 X37.895 Y17.763
;TYPE:SKIN
G1 F1020 X-60.257 Y17.763 E90.24894
G1 X-7.942 Y-69.03 E94.12719
G1 X37.895 Y17.763 E97.88347
G0 F2040 X-59.84 Y17.375
G1 F1020 X-59.609 Y17.606 E97.89597
G0 F2040 X-59.114 Y17.606
G1 F1020 X-59.654 Y17.066 E97.92519
G0 F2040 X-59.467 Y16.758
G1 F1020 X-58.619 Y17.606 E97.97109
G0 F2040 X-58.124 Y17.606
G1 F1020 X-59.281 Y16.449 E98.03371
G0 F2040 X-59.095 Y16.14
G1 F1020 X-57.629 Y17.606 E98.11305
G0 F2040 X-57.134 Y17.606
G1 F1020 X-58.909 Y15.831 E98.20911
G0 F2040 X-58.723 Y15.523
G1 F1020 X-56.639 Y17.606 E98.32188
G0 F2040 X-56.144 Y17.606
G1 F1020 X-58.537 Y15.214 E98.45136
G0 F2040 X-58.351 Y14.905
G1 F1020 X-55.65 Y17.606 E98.59754
G0 F2040 X-55.155 Y17.606
G1 F1020 X-58.165 Y14.596 E98.76045
G0 F2040 X-57.978 Y14.287
G1 F1020 X-54.66 Y17.606 E98.94005
G0 F2040 X-54.165 Y17.606
G1 F1020 X-57.792 Y13.978 E99.13637
G0 F2040 X-57.606 Y13.669
G1 F1020 X-53.67 Y17.606 E99.34942
G0 F2040 X-53.175 Y17.606
G1 F1020 X-57.42 Y13.36 E99.57919
G0 F2040 X-57.233 Y13.052
G1 F1020 X-52.68 Y17.606 E99.82564
G0 F2040 X-52.185 Y17.606
G1 F1020 X-57.047 Y12.743 E100.0888
G0 F2040 X-56.861 Y12.434
G1 F1020 X-51.69 Y17.606 E100.36869
G0 F2040 X-51.195 Y17.606
G1 F1020 X-56.676 Y12.125 E100.66533
G0 F2040 X-56.489 Y11.817
G1 F1020 X-50.7 Y17.606 E100.97864
G0 F2040 X-50.205 Y17.606
G1 F1020 X-56.303 Y11.508 E101.30867
G0 F2040 X-56.117 Y11.199
G1 F1020 X-49.71 Y17.606 E101.65542
G0 F2040 X-49.215 Y17.606
G1 F1020 X-55.931 Y10.89 E102.0189
G0 F2040 X-55.744 Y10.581
G1 F1020 X-48.72 Y17.606 E102.39908
G0 F2040 X-48.225 Y17.606
G1 F1020 X-55.558 Y10.272 E102.79597
G0 F2040 X-55.372 Y9.963
G1 F1020 X-47.73 Y17.606 E103.2096
G0 F2040 X-47.235 Y17.606
G1 F1020 X-55.186 Y9.654 E103.63994
G0 F2040 X-55 Y9.346
G1 F1020 X-46.74 Y17.606 E104.08698
G0 F2040 X-46.245 Y17.606
G1 F1020 X-54.814 Y9.037 E104.55075
G0 F2040 X-54.628 Y8.728
G1 F1020 X-45.75 Y17.606 E105.03124
G0 F2040 X-45.255 Y17.606
G1 F1020 X-54.442 Y8.419 E105.52845
G0 F2040 X-54.255 Y8.111
G1 F1020 X-44.76 Y17.606 E106.04233
G0 F2040 X-44.265 Y17.606
G1 F1020 X-54.069 Y7.802 E106.57293
G0 F2040 X-53.883 Y7.493
G1 F1020 X-43.77 Y17.606 E107.12026
G0 F2040 X-43.275 Y17.606
G1 F1020 X-53.697 Y7.184 E107.68432
G0 F2040 X-53.511 Y6.875
G1 F1020 X-42.78 Y17.606 E108.26509
G0 F2040 X-42.285 Y17.606
G1 F1020 X-53.325 Y6.566 E108.86259
G0 F2040 X-53.139 Y6.257
G1 F1020 X-41.79 Y17.606 E109.47681
G0 F2040 X-41.295 Y17.606
G1 F1020 X-52.953 Y5.948 E110.10776
G0 F2040 X-52.766 Y5.64
G1 F1020 X-40.8 Y17.606 E110.75537
G0 F2040 X-40.305 Y17.606
G1 F1020 X-52.58 Y5.331 E111.41971
G0 F2040 X-52.394 Y5.022
G1 F1020 X-39.81 Y17.606 E112.10077
G0 F2040 X-39.315 Y17.606
G1 F1020 X-52.208 Y4.713 E112.79856
G0 F2040 X-52.021 Y4.405
G1 F1020 X-38.82 Y17.606 E113.51301
G0 F2040 X-38.325 Y17.606
G1 F1020 X-51.835 Y4.096 E114.24419
G0 F2040 X-51.649 Y3.787
G1 F1020 X-37.83 Y17.606 E114.99209
G0 F2040 X-37.335 Y17.606
G1 F1020 X-51.463 Y3.478 E115.75672
G0 F2040 X-51.277 Y3.169
G1 F1020 X-36.84 Y17.606 E116.53807
G0 F2040 X-36.345 Y17.606
G1 F1020 X-51.091 Y2.86 E117.33614
G0 F2040 X-50.905 Y2.551
G1 F1020 X-35.851 Y17.606 E118.15091
G0 F2040 X-35.356 Y17.606
G1 F1020 X-50.719 Y2.242 E118.9824
G0 F2040 X-50.532 Y1.934
G1 F1020 X-34.861 Y17.606 E119.83056
G0 F2040 X-34.366 Y17.606
G1 F1020 X-50.346 Y1.625 E120.69545
G0 F2040 X-50.16 Y1.316
G1 F1020 X-33.871 Y17.606 E121.57706
G0 F2040 X-33.376 Y17.606
G1 F1020 X-49.974 Y1.007 E122.47539
G0 F2040 X-49.788 Y0.699
G1 F1020 X-32.881 Y17.606 E123.39042
G0 F2040 X-32.386 Y17.606
G1 F1020 X-49.602 Y0.39 E124.32217
G0 F2040 X-49.416 Y0.081
G1 F1020 X-31.891 Y17.606 E125.27064
G0 F2040 X-31.396 Y17.606
G1 F1020 X-49.23 Y-.227 E126.23582
G0 F2040 X-49.043 Y-.535
G1 F1020 X-30.901 Y17.606 E127.21766
G0 F2040 X-30.406 Y17.606
G1 F1020 X-48.857 Y-.844 E128.21622
G0 F2040 X-48.671 Y-1.153
G1 F1020 X-29.911 Y17.606 E129.23151
G0 F2040 X-29.416 Y17.606
G1 F1020 X-48.485 Y-1.463 E130.26355
G0 F2040 X-48.298 Y-1.771
G1 F1020 X-28.921 Y17.606 E131.31226
G0 F2040 X-28.426 Y17.606
G1 F1020 X-48.112 Y-2.08 E132.37769
G0 F2040 X-47.926 Y-2.389
G1 F1020 X-27.931 Y17.606 E133.45984
G0 F2040 X-27.436 Y17.606
G1 F1020 X-47.741 Y-2.698 E134.55875
G0 F2040 X-47.554 Y-3.006
G1 F1020 X-26.941 Y17.606 E135.67432
G0 F2040 X-26.446 Y17.606
G1 F1020 X-47.368 Y-3.315 E136.80662
G0 F2040 X-47.182 Y-3.624
G1 F1020 X-25.951 Y17.606 E137.95564
G0 F2040 X-25.456 Y17.606
G1 F1020 X-46.995 Y-3.932 E139.12133
G0 F2040 X-46.809 Y-4.241
G1 F1020 X-24.961 Y17.606 E140.30375
G0 F2040 X-24.466 Y17.606
G1 F1020 X-46.623 Y-4.55 E141.50289
G0 F2040 X-46.437 Y-4.859
G1 F1020 X-23.971 Y17.606 E142.71875
G0 F2040 X-23.476 Y17.606
G1 F1020 X-46.251 Y-5.168 E143.95133
G0 F2040 X-46.065 Y-5.477
G1 F1020 X-22.981 Y17.606 E145.20064
G0 F2040 X-22.486 Y17.606
G1 F1020 X-45.879 Y-5.786 E146.46667
G0 F2040 X-45.693 Y-6.095
G1 F1020 X-21.991 Y17.606 E147.74943
G0 F2040 X-21.496 Y17.606
G1 F1020 X-45.506 Y-6.403 E149.04885
G0 F2040 X-45.32 Y-6.712
G1 F1020 X-21.001 Y17.606 E150.365
G0 F2040 X-20.506 Y17.606
G1 F1020 X-45.134 Y-7.021 E151.69787
G0 F2040 X-44.948 Y-7.33
G1 F1020 X-20.011 Y17.606 E153.04747
G0 F2040 X-19.516 Y17.606
G1 F1020 X-44.761 Y-7.638 E154.41373
G0 F2040 X-44.576 Y-7.947
G1 F1020 X-19.021 Y17.606 E155.79675
G0 F2040 X-18.526 Y17.606
G1 F1020 X-44.39 Y-8.256 E157.19649
G0 F2040 X-44.204 Y-8.565
G1 F1020 X-18.031 Y17.606 E158.61295
G0 F2040 X-17.536 Y17.606
G1 F1020 X-44.017 Y-8.874 E160.04611
G0 F2040 X-43.831 Y-9.183
G1 F1020 X-17.041 Y17.606 E161.49599
G0 F2040 X-16.547 Y17.606
G1 F1020 X-43.645 Y-9.492 E162.96257
G0 F2040 X-43.459 Y-9.801
G1 F1020 X-16.052 Y17.606 E164.44587
G0 F2040 X-15.557 Y17.606
G1 F1020 X-43.272 Y-10.109 E165.94584
G0 F2040 X-43.086 Y-10.418
G1 F1020 X-15.062 Y17.606 E167.46253
G0 F2040 X-14.567 Y17.606
G1 F1020 X-42.9 Y-10.727 E168.99595
G0 F2040 X-42.714 Y-11.036
G1 F1020 X-14.072 Y17.606 E170.54609
G0 F2040 X-13.577 Y17.606
G1 F1020 X-42.528 Y-11.344 E172.11293
G0 F2040 X-42.342 Y-11.653
G1 F1020 X-13.082 Y17.606 E173.69649
G0 F2040 X-12.587 Y17.606
G1 F1020 X-42.156 Y-11.962 E175.29678
G0 F2040 X-41.97 Y-12.271
G1 F1020 X-12.092 Y17.606 E176.91379
G0 F2040 X-11.597 Y17.606
G1 F1020 X-41.783 Y-12.58 E178.54749
G0 F2040 X-41.597 Y-12.889
G1 F1020 X-11.102 Y17.606 E180.19792
G0 F2040 X-10.607 Y17.606
G1 F1020 X-41.411 Y-13.198 E181.86507
G0 F2040 X-41.225 Y-13.507
G1 F1020 X-10.112 Y17.606 E183.54895
G0 F2040 X-9.617 Y17.606
G1 F1020 X-41.039 Y-13.815 E185.24952
G0 F2040 X-40.853 Y-14.124
G1 F1020 X-9.122 Y17.606 E186.96681
G0 F2040 X-8.627 Y17.606
G1 F1020 X-40.667 Y-14.433 E188.70083
G0 F2040 X-40.481 Y-14.742
G1 F1020 X-8.132 Y17.606 E190.45157
G0 F2040 X-7.637 Y17.606
G1 F1020 X-40.294 Y-15.05 E192.21899
G0 F2040 X-40.108 Y-15.359
G1 F1020 X-7.142 Y17.606 E194.00312
G0 F2040 X-6.647 Y17.606
G1 F1020 X-39.922 Y-15.668 E195.80398
G0 F2040 X-39.736 Y-15.977
G1 F1020 X-6.152 Y17.606 E197.62156
G0 F2040 X-5.657 Y17.606
G1 F1020 X-39.549 Y-16.286 E199.45584
G0 F2040 X-39.363 Y-16.595
G1 F1020 X-5.162 Y17.606 E201.30684
G0 F2040 X-4.667 Y17.606
G1 F1020 X-39.177 Y-16.904 E203.17457
G0 F2040 X-38.991 Y-17.213
G1 F1020 X-4.172 Y17.606 E205.05901
G0 F2040 X-3.677 Y17.606
G1 F1020 X-38.805 Y-17.521 E206.96016
G0 F2040 X-38.619 Y-17.83
G1 F1020 X-3.182 Y17.606 E208.87803
G0 F2040 X-2.687 Y17.606
G1 F1020 X-38.433 Y-18.139 E210.81262
G0 F2040 X-38.247 Y-18.448
G1 F1020 X-2.192 Y17.606 E212.76393
G0 F2040 X-1.697 Y17.606
