;FLAVOR:Marlin
;TIME:7462
;Filament used: 7.05112m
;Layer height: 0.2
;MINX:-54.554
;MINY:-45.445
;MINZ:0.26
;MAXX:54.551
;MAXY:55.338
;MAXZ:13.06
;Generated with Cura_SteamEngine 4.8.0
M82 ;absolute extrusion mode
;Gcode by Cura
G90
G28
M107
M109 R100
G30
M109 S215 U-55 X55 V-85 Y-85 W0.26 Z0.26
M82
G92 E0
G1 F200 E6
G92 E0
G1 F200 E-3.5
G0 Z0.15
G0 X10
G0 Z3
G1 F6000
G92 E0
G92 E0
G1 F3600 E-3.8
;LAYER_COUNT:65
;LAYER:0
M107
G0 F2040 X4.355 Y52.351 Z0.26
;TYPE:SKIRT
G1 F3600 E0
G1 F1020 X3.988 Y53.004 E0.02867
G1 X3.658 Y53.511 E0.05182
G1 X3.264 Y53.969 E0.07494
G1 X2.812 Y54.372 E0.09811
G1 X2.312 Y54.711 E0.12123
G1 X1.771 Y54.981 E0.14437
G1 X1.199 Y55.178 E0.16752
G1 X0.606 Y55.298 E0.19068
G1 X0.003 Y55.338 E0.2138
G1 X-.6 Y55.298 E0.23693
G1 X-1.193 Y55.18 E0.26007
G1 X-1.765 Y54.984 E0.28321
G1 X-2.306 Y54.714 E0.30635
G1 X-2.807 Y54.376 E0.32948
G1 X-3.259 Y53.974 E0.35263
G1 X-3.654 Y53.516 E0.37577
G1 X-3.953 Y53.067 E0.39641
G1 X-4.258 Y52.529 E0.42008
G1 X-53.708 Y-38.117 E4.37168
G1 X-54.023 Y-38.71 E4.39737
G1 X-54.271 Y-39.261 E4.4205
G1 X-54.444 Y-39.841 E4.44366
G1 X-54.539 Y-40.438 E4.46679
G1 X-54.554 Y-41.042 E4.48992
G1 X-54.49 Y-41.644 E4.51308
G1 X-54.346 Y-42.231 E4.53621
G1 X-54.127 Y-42.794 E4.55933
G1 X-53.835 Y-43.324 E4.58249
G1 X-53.476 Y-43.81 E4.60561
G1 X-53.056 Y-44.245 E4.62875
G1 X-52.582 Y-44.621 E4.65191
G1 X-52.063 Y-44.931 E4.67504
G1 X-51.507 Y-45.17 E4.6982
G1 X-50.925 Y-45.333 E4.72133
G1 X-50.059 Y-45.43 E4.75468
G1 X-49.138 Y-45.445 E4.78993
G1 X49.36 Y-45.445 E8.5594
G1 X50.045 Y-45.435 E8.58562
G1 X50.647 Y-45.386 E8.60874
G1 X51.238 Y-45.258 E8.63188
G1 X51.807 Y-45.053 E8.65502
G1 X52.344 Y-44.775 E8.67816
G1 X52.84 Y-44.429 E8.70131
G1 X53.286 Y-44.021 E8.72444
G1 X53.674 Y-43.557 E8.74759
G1 X53.997 Y-43.046 E8.77072
G1 X54.25 Y-42.497 E8.79386
G1 X54.429 Y-41.919 E8.81701
G1 X54.53 Y-41.323 E8.84015
G1 X54.551 Y-40.719 E8.86328
G1 X54.492 Y-40.117 E8.88642
G1 X54.355 Y-39.528 E8.90957
G1 X54.029 Y-38.733 E8.94245
G1 X53.585 Y-37.89 E8.97891
G1 X4.355 Y52.351 E12.91287
G0 F2040 X4.05 Y52.18
G1 F1020 X3.683 Y52.833 E12.94153
G1 X3.364 Y53.319 E12.96378
G1 X2.982 Y53.756 E12.98599
G1 X2.543 Y54.137 E13.00824
G1 X2.056 Y54.454 E13.03048
G1 X1.53 Y54.701 E13.05272
G1 X0.975 Y54.874 E13.07496
G1 X0.402 Y54.969 E13.09719
G1 X-.179 Y54.984 E13.11943
G1 X-.756 Y54.92 E13.14165
G1 X-1.319 Y54.777 E13.16388
G1 X-1.857 Y54.558 E13.18611
G1 X-2.36 Y54.267 E13.20835
G1 X-2.819 Y53.91 E13.2306
G1 X-3.224 Y53.494 E13.25282
G1 X-3.65 Y52.89 E13.28111
G1 X-3.953 Y52.358 E13.30454
G1 X-53.399 Y-38.281 E17.25582
G1 X-53.714 Y-38.874 E17.28152
G1 X-53.951 Y-39.405 E17.30377
G1 X-54.112 Y-39.963 E17.326
G1 X-54.196 Y-40.538 E17.34824
G1 X-54.2 Y-41.119 E17.37047
G1 X-54.124 Y-41.695 E17.39271
G1 X-53.97 Y-42.255 E17.41493
G1 X-53.74 Y-42.789 E17.43718
G1 X-53.439 Y-43.286 E17.45942
G1 X-53.073 Y-43.737 E17.48165
G1 X-52.649 Y-44.134 E17.50388
G1 X-52.174 Y-44.469 E17.52612
G1 X-51.657 Y-44.735 E17.54837
G1 X-51.109 Y-44.928 E17.5706
G1 X-50.54 Y-45.044 E17.59283
G1 X-50.053 Y-45.08 E17.61152
G1 X-49.138 Y-45.095 E17.64654
G1 X49.355 Y-45.095 E21.41582
G1 X50.04 Y-45.085 E21.44203
G1 X50.619 Y-45.036 E21.46427
G1 X51.186 Y-44.909 E21.48651
G1 X51.73 Y-44.705 E21.50874
G1 X52.241 Y-44.428 E21.53099
G1 X52.709 Y-44.084 E21.55321
G1 X53.125 Y-43.679 E21.57543
G1 X53.482 Y-43.22 E21.59769
G1 X53.773 Y-42.717 E21.61993
G1 X53.992 Y-42.179 E21.64216
G1 X54.135 Y-41.616 E21.66439
G1 X54.199 Y-41.038 E21.68664
G1 X54.184 Y-40.458 E21.70884
G1 X54.089 Y-39.884 E21.73111
G1 X53.916 Y-39.33 E21.75332
G1 X53.719 Y-38.896 E21.77156
G1 X53.278 Y-38.058 E21.8078
G1 X4.05 Y52.18 E25.74162
G0 F2040 X3.745 Y52.009
G1 F1020 X3.378 Y52.662 E25.77028
G1 X3.071 Y53.126 E25.79158
G1 X2.701 Y53.541 E25.81285
G1 X2.275 Y53.9 E25.83417
G1 X1.803 Y54.193 E25.85543
G1 X1.293 Y54.416 E25.87674
G1 X0.756 Y54.563 E25.89804
G1 X0.204 Y54.633 E25.91934
G1 X-.352 Y54.622 E25.94062
G1 X-.901 Y54.532 E25.96191
G1 X-1.431 Y54.364 E25.98319
G1 X-1.932 Y54.122 E26.00448
G1 X-2.394 Y53.81 E26.02581
G1 X-2.805 Y53.436 E26.04708
G1 X-3.159 Y53.007 E26.06837
G1 X-3.443 Y52.551 E26.08892
G1 X-3.667 Y52.152 E26.10644
G1 X-53.09 Y-38.445 E30.05589
G1 X-53.405 Y-39.038 E30.08159
G1 X-53.63 Y-39.547 E30.10288
G1 X-53.78 Y-40.083 E30.12418
G1 X-53.852 Y-40.635 E30.14549
G1 X-53.843 Y-41.191 E30.16677
G1 X-53.756 Y-41.74 E30.18804
G1 X-53.59 Y-42.272 E30.20937
G1 X-53.35 Y-42.774 E30.23066
G1 X-53.041 Y-43.236 E30.25193
G1 X-52.668 Y-43.65 E30.27326
G1 X-52.241 Y-44.005 E30.29451
G1 X-51.766 Y-44.296 E30.31583
G1 X-51.255 Y-44.516 E30.33712
G1 X-50.718 Y-44.661 E30.3584
G1 X-50.047 Y-44.73 E30.38422
G1 X-49.138 Y-44.745 E30.41901
G1 X49.35 Y-44.745 E34.1881
G1 X50.035 Y-44.735 E34.21432
G1 X50.589 Y-44.687 E34.2356
G1 X51.131 Y-44.56 E34.2569
G1 X51.649 Y-44.356 E34.27821
G1 X52.132 Y-44.081 E34.29948
G1 X52.571 Y-43.739 E34.32077
G1 X52.957 Y-43.338 E34.34207
G1 X53.281 Y-42.886 E34.36336
G1 X53.537 Y-42.392 E34.38465
G1 X53.72 Y-41.867 E34.40593
G1 X53.826 Y-41.32 E34.42725
G1 X53.852 Y-40.764 E34.44855
G1 X53.798 Y-40.211 E34.46981
G1 X53.666 Y-39.67 E34.49113
G1 X53.409 Y-39.059 E34.51649
G1 X52.971 Y-38.225 E34.55254
G1 X3.745 Y52.009 E38.48619
G0 F2040 X3.44 Y51.837
G1 F1020 X3.073 Y52.49 E38.51486
G1 X2.779 Y52.932 E38.53517
G1 X2.422 Y53.324 E38.55546
G1 X2.01 Y53.659 E38.57578
G1 X1.552 Y53.928 E38.59611
G1 X1.06 Y54.125 E38.61639
G1 X0.543 Y54.246 E38.63671
G1 X0.014 Y54.288 E38.65702
G1 X-.515 Y54.25 E38.67732
G1 X-1.033 Y54.133 E38.69764
G1 X-1.527 Y53.94 E38.71794
G1 X-1.987 Y53.675 E38.73825
G1 X-2.401 Y53.344 E38.75854
G1 X-2.762 Y52.954 E38.77888
G1 X-3.045 Y52.538 E38.79813
G1 X-3.342 Y52.016 E38.82112
G1 X-52.781 Y-38.609 E42.7718
G1 X-53.096 Y-39.202 E42.7975
G1 X-53.309 Y-39.688 E42.81781
G1 X-53.447 Y-40.201 E42.83814
G1 X-53.506 Y-40.728 E42.85843
G1 X-53.485 Y-41.259 E42.87877
G1 X-53.385 Y-41.78 E42.89907
G1 X-53.208 Y-42.28 E42.91937
G1 X-52.957 Y-42.748 E42.93969
G1 X-52.64 Y-43.173 E42.95998
G1 X-52.262 Y-43.545 E42.98028
G1 X-51.832 Y-43.857 E43.00061
G1 X-51.361 Y-44.101 E43.02091
G1 X-50.858 Y-44.271 E43.04123
G1 X-50.336 Y-44.363 E43.06151
G1 X-50.041 Y-44.381 E43.07282
G1 X-49.196 Y-44.395 E43.10517
G1 X49.344 Y-44.395 E46.87625
G1 X50.029 Y-44.385 E46.90246
G1 X50.558 Y-44.337 E46.92279
G1 X51.073 Y-44.211 E46.94308
G1 X51.564 Y-44.008 E46.96341
G1 X52.018 Y-43.734 E46.98371
G1 X52.427 Y-43.395 E47.00404
G1 X52.78 Y-42.999 E47.02434
G1 X53.069 Y-42.554 E47.04464
G1 X53.288 Y-42.071 E47.06494
G1 X53.433 Y-41.56 E47.08527
G1 X53.499 Y-41.034 E47.10556
G1 X53.485 Y-40.503 E47.12588
G1 X53.392 Y-39.981 E47.14617
G1 X53.221 Y-39.479 E47.16647
G1 X53.099 Y-39.221 E47.17739
G1 X52.663 Y-38.393 E47.2132
G1 X3.44 Y51.837 E51.14666
G0 F2040 X3.135 Y51.666
G1 F1020 X2.768 Y52.319 E51.17533
G1 X2.487 Y52.737 E51.1946
G1 X2.144 Y53.105 E51.21386
G1 X1.746 Y53.415 E51.23316
G1 X1.305 Y53.657 E51.25241
G1 X0.831 Y53.827 E51.27168
G1 X0.336 Y53.92 E51.29096
G1 X-.167 Y53.934 E51.31022
G1 X-.666 Y53.867 E51.32948
G1 X-1.149 Y53.723 E51.34877
G1 X-1.602 Y53.504 E51.36803
G1 X-2.016 Y53.216 E51.38733
G1 X-2.378 Y52.867 E51.40657
G1 X-2.743 Y52.362 E51.43042
G1 X-3.036 Y51.846 E51.45313
G1 X-52.472 Y-38.774 E55.40359
G1 X-52.787 Y-39.367 E55.42929
G1 X-52.987 Y-39.829 E55.44855
G1 X-53.112 Y-40.317 E55.46783
G1 X-53.158 Y-40.818 E55.48708
G1 X-53.124 Y-41.32 E55.50634
G1 X-53.011 Y-41.811 E55.52562
G1 X-52.822 Y-42.278 E55.5449
G1 X-52.561 Y-42.709 E55.56418
G1 X-52.236 Y-43.093 E55.58344
G1 X-51.854 Y-43.421 E55.6027
G1 X-51.425 Y-43.685 E55.62198
G1 X-50.959 Y-43.877 E55.64127
G1 X-50.469 Y-43.994 E55.66055
G1 X-50.036 Y-44.031 E55.67718
G1 X-49.191 Y-44.045 E55.70952
G1 X49.339 Y-44.045 E59.48022
G1 X50.024 Y-44.035 E59.50644
G1 X50.526 Y-43.987 E59.52573
G1 X51.013 Y-43.861 E59.54499
G1 X51.475 Y-43.66 E59.56427
G1 X51.899 Y-43.388 E59.58355
G1 X52.274 Y-43.053 E59.60279
G1 X52.592 Y-42.662 E59.62208
G1 X52.844 Y-42.226 E59.64135
G1 X53.024 Y-41.756 E59.66061
G1 X53.127 Y-41.263 E59.67988
G1 X53.151 Y-40.76 E59.69915
G1 X53.096 Y-40.259 E59.71844
G1 X52.961 Y-39.774 E59.73771
G1 X52.789 Y-39.384 E59.75402
G1 X52.356 Y-38.56 E59.78964
G1 X3.135 Y51.666 E63.72293
G1 F3600 E59.92293
;MESH:support_tri_0_092.stl
G0 F2040 X0.933 Y50.461
G0 X0.155 Y50.038
G0 X0.00 Y49.685
;TYPE:WALL-INNER
G1 F3600 E63.72293
G1 F1020 X-49.116 Y-40.345 E67.64771
G1 X49.116 Y-40.345 E71.407
G1 X0.00 Y49.685 E75.33178
G0 F2040 X0.00 Y50.363
;TYPE:WALL-OUTER
G1 F1020 X-49.663 Y-40.67 E79.30028
G1 X49.663 Y-40.67 E83.10144
G1 X0.00 Y50.363 E87.06994
G0 F2040 X-0.095 Y50.188
G0 X-0.007 Y50.141
G0 X0.00 Y48.974
;TYPE:SKIN
G1 F1020 X-48.543 Y-40.005 E90.9489
G1 X48.543 Y-40.005 E94.66434
G1 X0.00 Y48.974 E98.54331
G0 F2040 X0.048 Y48.556
G1 F1020 X-.166 Y48.341 E98.55491
G0 F2040 X0.224 Y48.236
G1 F1020 X-.76 Y47.252 E98.60817
G1 X-.822 Y47.19
G0 F2040 X-1.354 Y46.162
G1 F1020 X0.398 Y47.916 E98.70304
G0 F2040 X0.573 Y47.596
G1 F1020 X-1.948 Y45.073 E98.83954
G1 X-2.01 Y45.011
G0 F2040 X-2.542 Y43.984
G1 F1020 X0.748 Y47.275 E99.01762
G0 F2040 X0.922 Y46.955
G1 F1020 X-3.136 Y42.895 E99.2373
G1 X-3.198 Y42.833
G0 F2040 X-3.731 Y41.806
G1 F1020 X1.097 Y46.635 E99.49863
G0 F2040 X1.272 Y46.314
G1 F1020 X-4.325 Y40.717 E99.80154
G1 X-4.387 Y40.655
G0 F2040 X-4.919 Y39.628
G1 F1020 X1.446 Y45.994 E100.14605
G0 F2040 X1.621 Y45.674
G1 F1020 X-5.514 Y38.538 E100.53224
G1 X-5.576 Y38.476
G0 F2040 X-6.107 Y37.449
G1 F1020 X1.796 Y45.353 E100.95998
G0 F2040 X1.97 Y45.033
G1 F1020 X-6.701 Y36.36 E101.42932
G1 X-6.763 Y36.298
G0 F2040 X-7.295 Y35.271
G1 F1020 X2.145 Y44.713 E101.94028
G0 F2040 X2.32 Y44.393
G1 F1020 X-7.89 Y34.182 E102.49289
G1 X-7.952 Y34.12
G0 F2040 X-8.484 Y33.093
G1 F1020 X2.495 Y44.073 E103.08711
G0 F2040 X2.67 Y43.752
G1 F1020 X-9.078 Y32.004 E103.72293
G1 X-9.14 Y31.942
G0 F2040 X-9.673 Y30.914
G1 F1020 X2.844 Y43.432 E104.40039
G0 F2040 X3.019 Y43.112
G1 F1020 X-10.267 Y29.825 E105.11947
G1 X-10.329 Y29.763
G0 F2040 X-10.861 Y28.736
G1 F1020 X3.194 Y42.791 E105.88015
G0 F2040 X3.368 Y42.471
G1 F1020 X-11.455 Y27.647 E106.68241
G1 X-11.517 Y27.585
G0 F2040 X-12.049 Y26.558
G1 F1020 X3.543 Y42.151 E107.5263
G0 F2040 X3.717 Y41.831
G1 F1020 X-12.643 Y25.469 E108.41178
G1 X-12.705 Y25.407
G0 F2040 X-13.237 Y24.38
G1 F1020 X3.892 Y41.51 E109.33885
G0 F2040 X4.067 Y41.19
G1 F1020 X-13.832 Y23.29 E110.30759
G1 X-13.894 Y23.228
G0 F2040 X-14.426 Y22.201
G1 F1020 X4.241 Y40.87 E111.31793
G0 F2040 X4.417 Y40.55
G1 F1020 X-15.02 Y21.112 E112.36991
G1 X-15.082 Y21.05
G0 F2040 X-15.615 Y20.023
G1 F1020 X4.591 Y40.23 E113.46351
G0 F2040 X4.766 Y39.909
G1 F1020 X-16.209 Y18.934 E114.59871
G1 X-16.271 Y18.872
G0 F2040 X-16.802 Y17.845
G1 F1020 X4.941 Y39.589 E115.77549
G0 F2040 X5.115 Y39.269
G1 F1020 X-17.396 Y16.756 E116.99387
G1 X-17.458 Y16.694
G0 F2040 X-17.991 Y15.666
G1 F1020 X5.29 Y38.948 E118.2539
G0 F2040 X5.465 Y38.628
G1 F1020 X-18.585 Y14.577 E119.55554
G1 X-18.647 Y14.515
G0 F2040 X-19.179 Y13.488
G1 F1020 X5.639 Y38.308 E120.89877
G0 F2040 X5.814 Y37.987
G1 F1020 X-19.774 Y12.399 E122.28363
G1 X-19.836 Y12.337
G0 F2040 X-20.368 Y11.31
G1 F1020 X5.989 Y37.667 E123.7101
G0 F2040 X6.163 Y37.347
G1 F1020 X-20.962 Y10.221 E125.17817
G1 X-21.024 Y10.159
G0 F2040 X-21.556 Y9.132
G1 F1020 X6.338 Y37.026 E126.68783
G0 F2040 X6.513 Y36.707
G1 F1020 X-22.15 Y8.042 E128.23916
G1 X-22.212 Y7.98
G0 F2040 X-22.744 Y6.953
G1 F1020 X6.688 Y36.387 E129.83211
G0 F2040 X6.863 Y36.066
G1 F1020 X-23.338 Y5.864 E131.46666
G1 X-23.4 Y5.802
G0 F2040 X-23.933 Y4.775
G1 F1020 X7.037 Y35.746 E133.14282
G0 F2040 X7.212 Y35.426
G1 F1020 X-24.527 Y3.686 E134.8606
G1 X-24.589 Y3.624
G0 F2040 X-25.121 Y2.597
G1 F1020 X7.387 Y35.105 E136.61998
G0 F2040 X7.561 Y34.785
G1 F1020 X-25.715 Y1.508 E138.42094
G1 X-25.777 Y1.446
G0 F2040 X-26.31 Y0.418
G1 F1020 X7.736 Y34.465 E140.26358
G0 F2040 X7.911 Y34.144
G1 F1020 X-26.903 Y-.67 E142.14776
G1 X-26.965 Y-.732
G0 F2040 X-27.497 Y-1.759
G1 F1020 X8.085 Y33.824 E144.07353
G0 F2040 X8.26 Y33.504
G1 F1020 X-28.092 Y-2.848 E146.04095
G1 X-28.154 Y-2.91
G0 F2040 X-28.686 Y-3.937
G1 F1020 X8.435 Y33.183 E148.04996
G0 F2040 X8.61 Y32.864
G1 F1020 X-29.28 Y-5.026 E150.10061
G1 X-29.342 Y-5.088
G0 F2040 X-29.875 Y-6.116
G1 F1020 X8.785 Y32.543 E152.19291
G0 F2040 X8.959 Y32.223
G1 F1020 X-30.469 Y-7.205 E154.32681
G1 X-30.531 Y-7.267
G0 F2040 X-31.063 Y-8.294
G1 F1020 X9.134 Y31.903 E156.50232
G0 F2040 X9.309 Y31.582
G1 F1020 X-31.657 Y-9.383 E158.71942
G1 X-31.719 Y-9.445
G0 F2040 X-32.251 Y-10.472
G1 F1020 X9.483 Y31.262 E160.97812
G0 F2040 X9.658 Y30.942
G1 F1020 X-32.845 Y-11.561 E163.27844
G1 X-32.907 Y-11.623
G0 F2040 X-33.439 Y-12.65
G1 F1020 X9.833 Y30.621 E165.62035
G0 F2040 X10.007 Y30.301
G1 F1020 X-34.034 Y-13.74 E168.0039
G1 X-34.096 Y-13.802
G0 F2040 X-34.628 Y-14.829
G1 F1020 X10.182 Y29.981 E170.42908
G0 F2040 X10.356 Y29.661
G1 F1020 X-35.222 Y-15.918 E172.89584
G1 X-35.284 Y-15.98
G0 F2040 X-35.816 Y-17.007
G1 F1020 X10.531 Y29.34 E175.4042
G0 F2040 X10.707 Y29.021
G1 F1020 X-36.411 Y-18.096 E177.95426
G1 X-36.473 Y-18.158
G0 F2040 X-37.005 Y-19.185
G1 F1020 X10.881 Y28.7 E180.54589
G0 F2040 X11.056 Y28.38
G1 F1020 X-37.598 Y-20.274 E183.1791
G1 X-37.66 Y-20.336
G0 F2040 X-38.193 Y-21.364
G1 F1020 X11.23 Y28.06 E185.85396
G0 F2040 X11.405 Y27.739
G1 F1020 X-38.787 Y-22.453 E188.57042
G1 X-38.849 Y-22.515
G0 F2040 X-39.381 Y-23.542
G1 F1020 X11.58 Y27.419 E191.32849
G0 F2040 X11.754 Y27.099
G1 F1020 X-39.975 Y-24.631 E194.12816
G1 X-40.037 Y-24.693
G0 F2040 X-40.57 Y-25.721
G1 F1020 X11.929 Y26.778 E196.96947
G0 F2040 X12.104 Y26.458
G1 F1020 X-41.164 Y-26.809 E199.85238
G1 X-41.226 Y-26.871
G0 F2040 X-41.758 Y-27.898
G1 F1020 X12.278 Y26.138 E202.77688
G0 F2040 X12.453 Y25.817
G1 F1020 X-42.352 Y-28.988 E205.74299
G1 X-42.414 Y-29.05
G0 F2040 X-42.946 Y-30.077
G1 F1020 X12.628 Y25.497 E208.75073
G0 F2040 X12.803 Y25.177
G1 F1020 X-43.54 Y-31.166 E211.80008
G1 X-43.602 Y-31.228
G0 F2040 X-44.134 Y-32.255
G1 F1020 X12.978 Y24.857 E214.89106
G0 F2040 X13.152 Y24.537
G1 F1020 X-44.729 Y-33.345 E218.02368
G1 X-44.791 Y-33.407
G0 F2040 X-45.323 Y-34.433
G1 F1020 X13.327 Y24.216 E221.19786
G0 F2040 X13.502 Y23.896
G1 F1020 X-45.917 Y-35.522 E224.41367
G1 X-45.979 Y-35.584
G0 F2040 X-46.512 Y-36.612
G1 F1020 X13.676 Y23.576 E227.67112
G0 F2040 X13.851 Y23.256
G1 F1020 X-47.106 Y-37.701 E230.97019
G1 X-47.168 Y-37.763
G0 F2040 X-47.7 Y-38.79
G1 F1020 X14.026 Y22.935 E234.31085
G0 F2040 X14.2 Y22.615
G1 F1020 X-48.262 Y-39.848 E237.6914
G0 F2040 X-47.767 Y-39.848
G1 F1020 X14.375 Y22.295 E241.05463
G0 F2040 X14.55 Y21.974
G1 F1020 X-47.272 Y-39.848 E244.40052
G0 F2040 X-46.777 Y-39.848
G1 F1020 X14.724 Y21.654 E247.72906
G0 F2040 X14.9 Y21.334
G1 F1020 X-46.282 Y-39.848 E251.04031
G0 F2040 X-45.787 Y-39.848
G1 F1020 X15.074 Y21.014 E254.33421
G0 F2040 X15.249 Y20.694
G1 F1020 X-45.293 Y-39.848 E257.61082
G0 F2040 X-44.798 Y-39.848
G1 F1020 X15.424 Y20.373 E260.87008
G0 F2040 X15.598 Y20.053
G1 F1020 X-44.303 Y-39.848 E264.112
G0 F2040 X-43.808 Y-39.848
G1 F1020 X15.773 Y19.733 E267.3366
G0 F2040 X15.948 Y19.412
G1 F1020 X-43.313 Y-39.848 E270.54385
G0 F2040 X-42.818 Y-39.848
G1 F1020 X16.122 Y19.092 E273.73376
G0 F2040 X16.297 Y18.772
G1 F1020 X-42.323 Y-39.848 E276.90635
G0 F2040 X-41.828 Y-39.848
G1 F1020 X16.472 Y18.451 E280.06159
G0 F2040 X16.646 Y18.131
G1 F1020 X-41.333 Y-39.848 E283.19949
G0 F2040 X-40.838 Y-39.848
G1 F1020 X16.822 Y17.812 E286.32012
G0 F2040 X16.996 Y17.491
G1 F1020 X-40.343 Y-39.848 E289.42338
G0 F2040 X-39.848 Y-39.848
G1 F1020 X17.171 Y17.171 E292.50933
G0 F2040 X17.346 Y16.851
G1 F1020 X-39.353 Y-39.848 E295.57795
G0 F2040 X-38.858 Y-39.848
G1 F1020 X17.52 Y16.53 E298.6292
G0 F2040 X17.695 Y16.21
G1 F1020 X-38.363 Y-39.848 E301.66313
G0 F2040 X-37.868 Y-39.848
G1 F1020 X17.87 Y15.89 E304.67974
G0 F2040 X18.044 Y15.569
G1 F1020 X-37.373 Y-39.848 E307.67898
G0 F2040 X-36.878 Y-39.848
G1 F1020 X18.219 Y15.249 E310.6609
G0 F2040 X18.393 Y14.929
