;FLAVOR:Marlin
;TIME:7230
;Filament used: 6.92806m
;Layer height: 0.2
;MINX:-67.056
;MINY:-71.125
;MINZ:0.26
;MAXX:42.058
;MAXY:25.885
;MAXZ:13.66
;Generated with Cura_SteamEngine 4.8.0
M82 ;absolute extrusion mode
;Gcode by Cura
G90
G28
M107
M109 R100
G30
M109 S215 U-55 X55 V-85 Y-85 W0.26 Z0.26
M82
G92 E0
G1 F200 E6
G92 E0
G1 F200 E-3.5
G0 Z0.15
G0 X10
G0 Z3
G1 F6000
G92 E0
G92 E0
G1 F3600 E-3.8
;LAYER_COUNT:68
;LAYER:0
M107
G0 F2040 X41.16 Y18.493 Z0.26
;TYPE:SKIRT
G1 F3600 E0
G1 F1020 X41.489 Y19.089 E0.02605
G1 X41.746 Y19.637 E0.04922
G1 X41.928 Y20.213 E0.07233
G1 X42.033 Y20.809 E0.09549
G1 X42.058 Y21.413 E0.11863
G1 X42.003 Y22.015 E0.14176
G1 X41.869 Y22.605 E0.16492
G1 X41.659 Y23.171 E0.18802
G1 X41.375 Y23.706 E0.2112
G1 X41.024 Y24.198 E0.23433
G1 X40.611 Y24.639 E0.25745
G1 X40.143 Y25.023 E0.28062
G1 X39.629 Y25.341 E0.30375
G1 X39.078 Y25.588 E0.32686
G1 X38.498 Y25.761 E0.35002
G1 X37.655 Y25.872 E0.38256
G1 X36.998 Y25.885 E0.40771
G1 X-61.86 Y25.885 E4.19096
G1 X-62.549 Y25.875 E4.21733
G1 X-63.152 Y25.826 E4.24048
G1 X-63.743 Y25.698 E4.26362
G1 X-64.312 Y25.493 E4.28677
G1 X-64.849 Y25.216 E4.30989
G1 X-65.345 Y24.869 E4.33306
G1 X-65.791 Y24.461 E4.35619
G1 X-66.178 Y23.997 E4.37931
G1 X-66.502 Y23.486 E4.40247
G1 X-66.755 Y22.937 E4.4256
G1 X-66.934 Y22.359 E4.44876
G1 X-67.034 Y21.763 E4.47188
G1 X-67.056 Y21.159 E4.49501
G1 X-66.997 Y20.557 E4.51816
G1 X-66.86 Y19.968 E4.54131
G1 X-66.558 Y19.219 E4.57221
G1 X-66.196 Y18.555 E4.60115
G1 X-16.809 Y-68.261 E8.42353
G1 X-16.449 Y-68.872 E8.45067
G1 X-16.109 Y-69.372 E8.47381
G1 X-15.705 Y-69.822 E8.49695
G1 X-15.246 Y-70.215 E8.52008
G1 X-14.739 Y-70.545 E8.54323
G1 X-14.193 Y-70.804 E8.56635
G1 X-13.617 Y-70.989 E8.58951
G1 X-13.022 Y-71.097 E8.61265
G1 X-12.418 Y-71.125 E8.63579
G1 X-11.816 Y-71.073 E8.65891
G1 X-11.225 Y-70.943 E8.68207
G1 X-10.657 Y-70.735 E8.70522
G1 X-10.122 Y-70.455 E8.72833
G1 X-9.628 Y-70.106 E8.75147
G1 X-9.184 Y-69.696 E8.7746
G1 X-8.798 Y-69.23 E8.79776
G1 X-8.58 Y-68.899 E8.81293
G1 X-8.017 Y-67.955 E8.85499
G1 X41.16 Y18.493 E12.66115
G0 F2040 X40.854 Y18.662
G1 F1020 X41.183 Y19.258 E12.6872
G1 X41.428 Y19.785 E12.70944
G1 X41.599 Y20.34 E12.73167
G1 X41.691 Y20.914 E12.75392
G1 X41.705 Y21.495 E12.77616
G1 X41.638 Y22.072 E12.79839
G1 X41.493 Y22.635 E12.82064
G1 X41.272 Y23.172 E12.84286
G1 X40.979 Y23.674 E12.8651
G1 X40.62 Y24.131 E12.88734
G1 X40.202 Y24.535 E12.90959
G1 X39.733 Y24.877 E12.9318
G1 X39.221 Y25.152 E12.95405
G1 X38.676 Y25.353 E12.97628
G1 X38.108 Y25.479 E12.99854
G1 X37.508 Y25.527 E13.02158
G1 X36.994 Y25.535 E13.04125
G1 X-61.855 Y25.535 E16.82415
G1 X-62.544 Y25.525 E16.85052
G1 X-63.123 Y25.476 E16.87276
G1 X-63.69 Y25.349 E16.895
G1 X-64.234 Y25.145 E16.91723
G1 X-64.745 Y24.868 E16.93948
G1 X-65.213 Y24.524 E16.9617
G1 X-65.63 Y24.119 E16.98395
G1 X-65.987 Y23.661 E17.00617
G1 X-66.278 Y23.158 E17.02841
G1 X-66.497 Y22.619 E17.05068
G1 X-66.64 Y22.056 E17.07291
G1 X-66.704 Y21.479 E17.09512
G1 X-66.689 Y20.898 E17.11737
G1 X-66.594 Y20.325 E17.13959
G1 X-66.421 Y19.77 E17.16184
G1 X-66.198 Y19.285 E17.18227
G1 X-65.89 Y18.725 E17.20673
G1 X-16.473 Y-68.143 E21.0314
G1 X-16.148 Y-68.695 E21.05591
G1 X-15.819 Y-69.174 E21.07815
G1 X-15.428 Y-69.603 E21.10037
G1 X-14.982 Y-69.975 E21.12259
G1 X-14.488 Y-70.283 E21.14487
G1 X-13.958 Y-70.519 E21.16707
G1 X-13.4 Y-70.681 E21.18931
G1 X-12.825 Y-70.764 E21.21154
G1 X-12.244 Y-70.768 E21.23378
G1 X-11.668 Y-70.692 E21.25601
G1 X-11.107 Y-70.537 E21.27829
G1 X-10.574 Y-70.308 E21.30049
G1 X-10.077 Y-70.007 E21.32272
G1 X-9.625 Y-69.641 E21.34498
G1 X-9.229 Y-69.216 E21.36721
G1 X-8.881 Y-68.719 E21.39043
G1 X-8.322 Y-67.782 E21.43218
G1 X40.854 Y18.662 E25.23819
G0 F2040 X40.547 Y18.831
G1 F1020 X40.876 Y19.427 E25.26425
G1 X41.11 Y19.932 E25.28555
G1 X41.268 Y20.466 E25.30686
G1 X41.349 Y21.016 E25.32813
G1 X41.349 Y21.573 E25.34945
G1 X41.27 Y22.124 E25.37075
G1 X41.113 Y22.657 E25.39202
G1 X40.882 Y23.163 E25.4133
G1 X40.58 Y23.631 E25.43462
G1 X40.214 Y24.05 E25.45591
G1 X39.792 Y24.413 E25.47721
G1 X39.322 Y24.711 E25.49851
G1 X38.815 Y24.939 E25.51978
G1 X38.28 Y25.092 E25.54108
G1 X37.628 Y25.172 E25.56622
G1 X36.989 Y25.185 E25.59068
G1 X-61.85 Y25.185 E29.3732
G1 X-62.539 Y25.175 E29.39957
G1 X-63.094 Y25.127 E29.42089
G1 X-63.635 Y25 E29.44215
G1 X-64.153 Y24.797 E29.46344
G1 X-64.637 Y24.521 E29.48477
G1 X-65.076 Y24.18 E29.50604
G1 X-65.462 Y23.778 E29.52737
G1 X-65.786 Y23.326 E29.54865
G1 X-66.042 Y22.832 E29.56994
G1 X-66.225 Y22.307 E29.59122
G1 X-66.331 Y21.761 E29.61251
G1 X-66.357 Y21.205 E29.63381
G1 X-66.303 Y20.651 E29.65511
G1 X-66.171 Y20.11 E29.67642
G1 X-65.934 Y19.538 E29.70012
G1 X-65.584 Y18.894 E29.72817
G1 X-16.171 Y-67.965 E33.55246
G1 X-15.846 Y-68.517 E33.57698
G1 X-15.53 Y-68.975 E33.59827
G1 X-15.152 Y-69.383 E33.61956
G1 X-14.719 Y-69.733 E33.64086
G1 X-14.241 Y-70.017 E33.66214
G1 X-13.726 Y-70.229 E33.68345
G1 X-13.187 Y-70.366 E33.70474
G1 X-12.634 Y-70.424 E33.72602
G1 X-12.078 Y-70.402 E33.74731
G1 X-11.53 Y-70.301 E33.76864
G1 X-11.003 Y-70.122 E33.78994
G1 X-10.507 Y-69.87 E33.81123
G1 X-10.053 Y-69.55 E33.83248
G1 X-9.649 Y-69.167 E33.85379
G1 X-9.181 Y-68.54 E33.88373
G1 X-8.626 Y-67.609 E33.92521
G1 X40.547 Y18.831 E37.73103
G0 F2040 X40.241 Y19
G1 F1020 X40.57 Y19.596 E37.75708
G1 X40.791 Y20.079 E37.77741
G1 X40.937 Y20.589 E37.79771
G1 X41.004 Y21.116 E37.81804
G1 X40.992 Y21.646 E37.83833
G1 X40.9 Y22.169 E37.85865
G1 X40.731 Y22.672 E37.87896
G1 X40.488 Y23.144 E37.89927
G1 X40.178 Y23.574 E37.91956
G1 X39.806 Y23.952 E37.93986
G1 X39.381 Y24.271 E37.96019
G1 X38.914 Y24.522 E37.98048
G1 X38.414 Y24.7 E38.00079
G1 X37.893 Y24.801 E38.0211
G1 X37.393 Y24.83 E38.04027
G1 X36.985 Y24.835 E38.05589
G1 X-61.845 Y24.835 E41.83806
G1 X-62.534 Y24.825 E41.86443
G1 X-63.063 Y24.777 E41.88476
G1 X-63.578 Y24.651 E41.90505
G1 X-64.069 Y24.448 E41.92538
G1 X-64.523 Y24.175 E41.94566
G1 X-64.932 Y23.836 E41.96599
G1 X-65.285 Y23.439 E41.98632
G1 X-65.574 Y22.995 E42.00659
G1 X-65.793 Y22.511 E42.02692
G1 X-65.938 Y22.001 E42.04721
G1 X-66.004 Y21.474 E42.06754
G1 X-65.99 Y20.944 E42.08783
G1 X-65.897 Y20.421 E42.10816
G1 X-65.622 Y19.697 E42.1378
G1 X-65.278 Y19.064 E42.16537
G1 X-15.87 Y-67.787 E45.9893
G1 X-15.545 Y-68.339 E46.01382
G1 X-15.242 Y-68.775 E46.03414
G1 X-14.877 Y-69.16 E46.05444
G1 X-14.458 Y-69.487 E46.07478
G1 X-13.995 Y-69.746 E46.09508
G1 X-13.499 Y-69.934 E46.11538
G1 X-12.98 Y-70.044 E46.13568
G1 X-12.45 Y-70.076 E46.156
G1 X-11.922 Y-70.027 E46.1763
G1 X-11.407 Y-69.9 E46.1966
G1 X-10.916 Y-69.697 E46.21693
G1 X-10.462 Y-69.422 E46.23724
G1 X-10.054 Y-69.083 E46.25754
G1 X-9.702 Y-68.686 E46.27785
G1 X-9.482 Y-68.36 E46.2929
G1 X-8.93 Y-67.436 E46.33409
G1 X40.241 Y19 E50.13974
G0 F2040 X39.935 Y19.17
G1 F1020 X40.264 Y19.766 E50.16579
G1 X40.471 Y20.224 E50.18502
G1 X40.604 Y20.71 E50.20431
G1 X40.658 Y21.211 E50.22359
G1 X40.632 Y21.714 E50.24287
G1 X40.527 Y22.206 E50.26212
G1 X40.345 Y22.676 E50.28141
G1 X40.092 Y23.111 E50.30066
G1 X39.773 Y23.501 E50.31995
G1 X39.396 Y23.835 E50.33922
G1 X38.971 Y24.105 E50.35849
G1 X38.509 Y24.305 E50.37776
G1 X38.021 Y24.429 E50.39703
G1 X37.468 Y24.478 E50.41827
G1 X36.981 Y24.485 E50.43691
G1 X-61.84 Y24.485 E54.21874
G1 X-62.529 Y24.475 E54.24511
G1 X-63.03 Y24.427 E54.26438
G1 X-63.518 Y24.302 E54.28365
G1 X-63.98 Y24.1 E54.30295
G1 X-64.404 Y23.828 E54.32223
G1 X-64.779 Y23.493 E54.34147
G1 X-65.097 Y23.102 E54.36076
G1 X-65.349 Y22.666 E54.38003
G1 X-65.529 Y22.196 E54.39929
G1 X-65.632 Y21.703 E54.41857
G1 X-65.656 Y21.2 E54.43784
G1 X-65.601 Y20.7 E54.45709
G1 X-65.467 Y20.214 E54.47638
G1 X-65.212 Y19.667 E54.49948
G1 X-64.955 Y19.203 E54.51978
G1 X-15.568 Y-67.61 E58.34205
G1 X-15.243 Y-68.162 E58.36657
G1 X-14.954 Y-68.574 E58.38582
G1 X-14.603 Y-68.936 E58.40512
G1 X-14.2 Y-69.237 E58.42437
G1 X-13.754 Y-69.471 E58.44365
G1 X-13.276 Y-69.631 E58.46294
G1 X-12.78 Y-69.714 E58.48218
G1 X-12.276 Y-69.718 E58.50147
G1 X-11.778 Y-69.641 E58.52075
G1 X-11.299 Y-69.487 E58.54001
G1 X-10.85 Y-69.259 E58.55928
G1 X-10.443 Y-68.963 E58.57854
G1 X-10.087 Y-68.606 E58.59783
G1 X-9.782 Y-68.18 E58.61789
G1 X-9.234 Y-67.263 E58.65877
G1 X39.935 Y19.17 E62.46428
G1 F3600 E58.66428
;MESH:support_tri_0_004.stl
G0 F2040 X37.752 Y20.41
G0 X36.871 Y20.912
G0 X36.598 Y20.785
;TYPE:WALL-INNER
G1 F3600 E62.46428
G1 F1020 X-61.598 Y20.785 E66.22219
G1 X-12.5 Y-65.52 E70.0221
G1 X36.598 Y20.785 E73.82201
G0 F2040 X37.156 Y21.11
;TYPE:WALL-OUTER
G1 F1020 X-62.156 Y21.11 E77.62263
G1 X-12.5 Y-66.177 E81.46576
G1 X37.156 Y21.11 E85.30889
G0 F2040 X36.956 Y21.11
G0 X36.813 Y20.91
G0 X36.013 Y20.445
;TYPE:SKIN
G1 F1020 X-61.013 Y20.445 E89.02203
G1 X-12.5 Y-64.833 E92.77671
G1 X36.013 Y20.445 E96.53139
G0 F2040 X-60.616 Y20.064
G1 F1020 X-60.393 Y20.287 E96.54346
G0 F2040 X-59.898 Y20.287
G1 F1020 X-60.437 Y19.748 E96.57263
G0 F2040 X-60.257 Y19.433
G1 F1020 X-59.403 Y20.287 E96.61885
G0 F2040 X-58.908 Y20.287
G1 F1020 X-60.077 Y19.118 E96.68211
G0 F2040 X-59.898 Y18.802
G1 F1020 X-58.413 Y20.287 E96.76248
G0 F2040 X-57.918 Y20.287
G1 F1020 X-59.718 Y18.487 E96.8599
G0 F2040 X-59.539 Y18.171
G1 F1020 X-57.423 Y20.287 E96.97442
G0 F2040 X-56.928 Y20.287
G1 F1020 X-59.36 Y17.855 E97.10605
G0 F2040 X-59.18 Y17.54
G1 F1020 X-56.433 Y20.287 E97.25472
G0 F2040 X-55.938 Y20.287
G1 F1020 X-59 Y17.225 E97.42044
G0 F2040 X-58.821 Y16.909
G1 F1020 X-55.443 Y20.287 E97.60326
G0 F2040 X-54.948 Y20.287
G1 F1020 X-58.641 Y16.594 E97.80313
G0 F2040 X-58.462 Y16.279
G1 F1020 X-54.453 Y20.287 E98.02007
G0 F2040 X-53.958 Y20.287
G1 F1020 X-58.283 Y15.962 E98.25415
G0 F2040 X-58.103 Y15.647
G1 F1020 X-53.463 Y20.287 E98.50527
G0 F2040 X-52.968 Y20.287
G1 F1020 X-57.924 Y15.332 E98.77347
G0 F2040 X-57.744 Y15.016
G1 F1020 X-52.473 Y20.287 E99.05874
G0 F2040 X-51.978 Y20.287
G1 F1020 X-57.564 Y14.701 E99.36106
G0 F2040 X-57.385 Y14.385
G1 F1020 X-51.483 Y20.287 E99.68049
G0 F2040 X-50.988 Y20.287
G1 F1020 X-57.206 Y14.07 E100.01699
G0 F2040 X-57.026 Y13.754
G1 F1020 X-50.493 Y20.287 E100.37056
G0 F2040 X-49.998 Y20.287
G1 F1020 X-56.847 Y13.439 E100.74121
G0 F2040 X-56.667 Y13.123
G1 F1020 X-49.503 Y20.287 E101.12893
G0 F2040 X-49.008 Y20.287
G1 F1020 X-56.487 Y12.808 E101.53371
G0 F2040 X-56.309 Y12.492
G1 F1020 X-48.513 Y20.287 E101.95561
G0 F2040 X-48.018 Y20.287
G1 F1020 X-56.129 Y12.177 E102.39456
G0 F2040 X-55.949 Y11.861
G1 F1020 X-47.523 Y20.287 E102.85059
G0 F2040 X-47.028 Y20.287
G1 F1020 X-55.77 Y11.546 E103.32369
G0 F2040 X-55.59 Y11.23
G1 F1020 X-46.533 Y20.287 E103.81386
G0 F2040 X-46.039 Y20.287
G1 F1020 X-55.411 Y10.914 E104.32112
G0 F2040 X-55.232 Y10.599
G1 F1020 X-45.544 Y20.287 E104.84544
G0 F2040 X-45.049 Y20.287
G1 F1020 X-55.052 Y10.284 E105.38682
G0 F2040 X-54.872 Y9.968
G1 F1020 X-44.554 Y20.287 E105.94527
G0 F2040 X-44.059 Y20.287
G1 F1020 X-54.693 Y9.653 E106.52079
G0 F2040 X-54.513 Y9.338
G1 F1020 X-43.564 Y20.287 E107.11337
G0 F2040 X-43.069 Y20.287
G1 F1020 X-54.334 Y9.021 E107.72307
G0 F2040 X-54.155 Y8.706
G1 F1020 X-42.574 Y20.287 E108.34985
G0 F2040 X-42.079 Y20.287
G1 F1020 X-53.975 Y8.391 E108.99368
G0 F2040 X-53.795 Y8.075
G1 F1020 X-41.584 Y20.287 E109.65458
G0 F2040 X-41.089 Y20.287
G1 F1020 X-53.616 Y7.76 E110.33255
G0 F2040 X-53.436 Y7.445
G1 F1020 X-40.594 Y20.287 E111.02758
G0 F2040 X-40.099 Y20.287
G1 F1020 X-53.257 Y7.129 E111.73971
G0 F2040 X-53.078 Y6.813
G1 F1020 X-39.604 Y20.287 E112.46894
G0 F2040 X-39.109 Y20.287
G1 F1020 X-52.898 Y6.498 E113.21522
G0 F2040 X-52.719 Y6.182
G1 F1020 X-38.614 Y20.287 E113.9786
G0 F2040 X-38.119 Y20.287
G1 F1020 X-52.539 Y5.867 E114.75903
G0 F2040 X-52.36 Y5.551
G1 F1020 X-37.624 Y20.287 E115.55656
G0 F2040 X-37.129 Y20.287
G1 F1020 X-52.18 Y5.236 E116.37114
G0 F2040 X-52.001 Y4.92
G1 F1020 X-36.634 Y20.287 E117.20282
G0 F2040 X-36.139 Y20.287
G1 F1020 X-51.821 Y4.605 E118.05155
G0 F2040 X-51.642 Y4.29
G1 F1020 X-35.644 Y20.287 E118.91735
G0 F2040 X-35.149 Y20.287
G1 F1020 X-51.462 Y3.974 E119.80023
G0 F2040 X-51.283 Y3.658
G1 F1020 X-34.654 Y20.287 E120.70022
G0 F2040 X-34.159 Y20.287
G1 F1020 X-51.104 Y3.343 E121.61727
G0 F2040 X-50.924 Y3.027
G1 F1020 X-33.664 Y20.287 E122.55141
G0 F2040 X-33.169 Y20.287
G1 F1020 X-50.744 Y2.712 E123.50259
G0 F2040 X-50.565 Y2.397
G1 F1020 X-32.674 Y20.287 E124.47084
G0 F2040 X-32.179 Y20.287
G1 F1020 X-50.385 Y2.081 E125.45618
G0 F2040 X-50.206 Y1.765
G1 F1020 X-31.684 Y20.287 E126.45861
G0 F2040 X-31.189 Y20.287
G1 F1020 X-50.027 Y1.45 E127.47812
G0 F2040 X-49.847 Y1.134
G1 F1020 X-30.694 Y20.287 E128.5147
G0 F2040 X-30.199 Y20.287
G1 F1020 X-49.667 Y0.819 E129.56834
G0 F2040 X-49.488 Y0.504
G1 F1020 X-29.704 Y20.287 E130.63905
G0 F2040 X-29.209 Y20.287
G1 F1020 X-49.309 Y0.188 E131.72686
G0 F2040 X-49.129 Y-.127
G1 F1020 X-28.714 Y20.287 E132.83172
G0 F2040 X-28.219 Y20.287
G1 F1020 X-48.95 Y-.442 E133.95365
G0 F2040 X-48.77 Y-.758
G1 F1020 X-27.724 Y20.287 E135.09266
G0 F2040 X-27.229 Y20.287
G1 F1020 X-48.59 Y-1.073 E136.24872
G0 F2040 X-48.411 Y-1.388
G1 F1020 X-26.735 Y20.287 E137.42182
G0 F2040 X-26.24 Y20.287
G1 F1020 X-48.232 Y-1.704 E138.61203
G0 F2040 X-48.052 Y-2.02
G1 F1020 X-25.745 Y20.287 E139.81931
G0 F2040 X-25.25 Y20.287
G1 F1020 X-47.873 Y-2.335 E141.04367
G0 F2040 X-47.693 Y-2.65
G1 F1020 X-24.755 Y20.287 E142.28508
G0 F2040 X-24.26 Y20.287
G1 F1020 X-47.514 Y-2.966 E143.54359
G0 F2040 X-47.334 Y-3.281
G1 F1020 X-23.765 Y20.287 E144.81914
G0 F2040 X-23.27 Y20.287
G1 F1020 X-47.155 Y-3.597 E146.1118
G0 F2040 X-46.975 Y-3.913
G1 F1020 X-22.775 Y20.287 E147.42154
G0 F2040 X-22.28 Y20.287
G1 F1020 X-46.796 Y-4.228 E148.74835
G0 F2040 X-46.616 Y-4.543
G1 F1020 X-21.785 Y20.287 E150.09221
G0 F2040 X-21.29 Y20.287
G1 F1020 X-46.437 Y-4.859 E151.45317
G0 F2040 X-46.258 Y-5.175
G1 F1020 X-20.795 Y20.287 E152.83123
G0 F2040 X-20.3 Y20.287
G1 F1020 X-46.078 Y-5.49 E154.22634
G0 F2040 X-45.899 Y-5.806
G1 F1020 X-19.805 Y20.287 E155.63856
G0 F2040 X-19.31 Y20.287
G1 F1020 X-45.719 Y-6.121 E157.06782
G0 F2040 X-45.539 Y-6.436
G1 F1020 X-18.815 Y20.287 E158.51413
G0 F2040 X-18.32 Y20.287
G1 F1020 X-45.36 Y-6.752 E159.97754
G0 F2040 X-45.181 Y-7.068
G1 F1020 X-17.825 Y20.287 E161.45805
G0 F2040 X-17.33 Y20.287
G1 F1020 X-45.001 Y-7.383 E162.95562
G0 F2040 X-44.822 Y-7.698
G1 F1020 X-16.835 Y20.287 E164.47025
G0 F2040 X-16.34 Y20.287
G1 F1020 X-44.642 Y-8.014 E166.00197
G0 F2040 X-44.462 Y-8.329
G1 F1020 X-15.845 Y20.287 E167.55073
G0 F2040 X-15.35 Y20.287
G1 F1020 X-44.283 Y-8.645 E169.11659
G0 F2040 X-44.104 Y-8.961
G1 F1020 X-14.855 Y20.287 E170.69956
G0 F2040 X-14.36 Y20.287
G1 F1020 X-43.924 Y-9.276 E172.29957
G0 F2040 X-43.745 Y-9.591
G1 F1020 X-13.865 Y20.287 E173.91666
G0 F2040 X-13.37 Y20.287
G1 F1020 X-43.565 Y-9.907 E175.55083
G0 F2040 X-43.385 Y-10.222
G1 F1020 X-12.875 Y20.287 E177.20204
G0 F2040 X-12.38 Y20.287
G1 F1020 X-43.207 Y-10.538 E178.87038
G0 F2040 X-43.027 Y-10.854
G1 F1020 X-11.885 Y20.287 E180.5558
G0 F2040 X-11.39 Y20.287
G1 F1020 X-42.847 Y-11.169 E182.25827
G0 F2040 X-42.668 Y-11.484
G1 F1020 X-10.895 Y20.287 E183.97781
G0 F2040 X-10.4 Y20.287
G1 F1020 X-42.488 Y-11.8 E185.71442
G0 F2040 X-42.309 Y-12.115
G1 F1020 X-9.905 Y20.287 E187.46812
G0 F2040 X-9.41 Y20.287
G1 F1020 X-42.13 Y-12.431 E189.23891
G0 F2040 X-41.95 Y-12.747
G1 F1020 X-8.915 Y20.287 E191.02678
G0 F2040 X-8.42 Y20.287
G1 F1020 X-41.77 Y-13.062 E192.8317
G0 F2040 X-41.591 Y-13.377
G1 F1020 X-7.925 Y20.287 E194.65369
G0 F2040 X-7.43 Y20.287
G1 F1020 X-41.411 Y-13.693 E196.49276
G0 F2040 X-41.232 Y-14.008
G1 F1020 X-6.936 Y20.287 E198.34887
G0 F2040 X-6.441 Y20.287
G1 F1020 X-41.053 Y-14.324 E200.22209
G0 F2040 X-40.873 Y-14.639
G1 F1020 X-5.946 Y20.287 E202.11236
G0 F2040 X-5.451 Y20.287
G1 F1020 X-40.693 Y-14.955 E204.0197
G0 F2040 X-40.514 Y-15.27
G1 F1020 X-4.956 Y20.287 E205.94412
G0 F2040 X-4.461 Y20.287
G1 F1020 X-40.334 Y-15.586 E207.88561
G0 F2040 X-40.155 Y-15.902
G1 F1020 X-3.966 Y20.287 E209.8442
G0 F2040 X-3.471 Y20.287
G1 F1020 X-39.976 Y-16.217 E211.81987
G0 F2040 X-39.796 Y-16.532
G1 F1020 X-2.976 Y20.287 E213.81259
