;FLAVOR:Marlin
;TIME:7901
;Filament used: 7.34733m
;Layer height: 0.2
;MINX:-53.983
;MINY:-54.096
;MINZ:0.26
;MAXX:56.246
;MAXY:44.446
;MAXZ:22.86
;Generated with Cura_SteamEngine 4.8.0
M82 ;absolute extrusion mode
;Gcode by Cura
G90
G28
M107
M109 R100
G30
M109 S215 U-55 X55 V-85 Y-85 W0.26 Z0.26
M82
G92 E0
G1 F200 E6
G92 E0
G1 F200 E-3.5
G0 Z0.15
G0 X10
G0 Z3
G1 F6000
G92 E0
G92 E0
G1 F3600 E-3.8
;LAYER_COUNT:114
;LAYER:0
M107
G0 F2040 X0.226 Y-51.363 Z0.26
;TYPE:SKIRT
G1 F3600 E0
G1 F1020 X0.583 Y-51.938 E0.0259
G1 X0.935 Y-52.43 E0.04905
G1 X1.349 Y-52.87 E0.07217
G1 X1.818 Y-53.253 E0.09535
G1 X2.333 Y-53.57 E0.11849
G1 X2.885 Y-53.817 E0.14163
G1 X3.464 Y-53.988 E0.16474
G1 X4.062 Y-54.082 E0.1879
G1 X4.666 Y-54.096 E0.21102
G1 X5.267 Y-54.03 E0.23416
G1 X5.854 Y-53.886 E0.25729
G1 X6.417 Y-53.665 E0.28044
G1 X6.946 Y-53.372 E0.30358
G1 X7.432 Y-53.012 E0.32673
G1 X7.866 Y-52.591 E0.34987
G1 X8.241 Y-52.116 E0.37303
G1 X8.706 Y-51.318 E0.40837
G1 X55.409 Y37.11 E4.23545
G1 X55.748 Y37.77 E4.26385
G1 X55.988 Y38.325 E4.28699
G1 X56.153 Y38.906 E4.3101
G1 X56.239 Y39.505 E4.33326
G1 X56.246 Y40.109 E4.35638
G1 X56.173 Y40.71 E4.37955
G1 X56.022 Y41.295 E4.40267
G1 X55.795 Y41.855 E4.42579
G1 X55.496 Y42.381 E4.44895
G1 X55.13 Y42.862 E4.47208
G1 X54.704 Y43.291 E4.49522
G1 X54.225 Y43.66 E4.51836
G1 X53.702 Y43.963 E4.54149
G1 X53.143 Y44.194 E4.56463
G1 X52.558 Y44.349 E4.58779
G1 X51.866 Y44.431 E4.61446
G1 X51.26 Y44.446 E4.63766
G1 X-48.779 Y44.446 E8.4661
G1 X-49.47 Y44.437 E8.49255
G1 X-50.072 Y44.389 E8.51566
G1 X-50.664 Y44.262 E8.53883
G1 X-51.233 Y44.058 E8.56197
G1 X-51.77 Y43.781 E8.58509
G1 X-52.266 Y43.436 E8.60821
G1 X-52.713 Y43.028 E8.63137
G1 X-53.101 Y42.565 E8.65449
G1 X-53.426 Y42.054 E8.67767
G1 X-53.68 Y41.505 E8.70082
G1 X-53.859 Y40.928 E8.72394
G1 X-53.961 Y40.332 E8.74708
G1 X-53.983 Y39.728 E8.77021
G1 X-53.925 Y39.126 E8.79335
G1 X-53.789 Y38.537 E8.81649
G1 X-53.576 Y37.971 E8.83963
G1 X-53.279 Y37.408 E8.86399
G1 X-53.067 Y37.049 E8.87994
G1 X0.226 Y-51.363 E12.83058
G0 F2040 X0.524 Y-51.179
G1 F1020 X0.881 Y-51.754 E12.85648
G1 X1.22 Y-52.225 E12.87869
G1 X1.621 Y-52.645 E12.90091
G1 X2.076 Y-53.007 E12.92316
G1 X2.577 Y-53.302 E12.94541
G1 X3.113 Y-53.526 E12.96764
G1 X3.675 Y-53.674 E12.98989
G1 X4.251 Y-53.744 E13.01209
G1 X4.832 Y-53.734 E13.03433
G1 X5.406 Y-53.645 E13.05656
G1 X5.963 Y-53.477 E13.07882
G1 X6.491 Y-53.235 E13.10105
G1 X6.981 Y-52.923 E13.12328
G1 X7.423 Y-52.546 E13.14551
G1 X7.81 Y-52.113 E13.16774
G1 X8.17 Y-51.566 E13.1928
G1 X8.436 Y-51.081 E13.21397
G1 X55.097 Y37.27 E17.03769
G1 X55.436 Y37.93 E17.06609
G1 X55.666 Y38.464 E17.08834
G1 X55.819 Y39.024 E17.11056
G1 X55.895 Y39.6 E17.13279
G1 X55.891 Y40.181 E17.15502
G1 X55.807 Y40.756 E17.17726
G1 X55.645 Y41.314 E17.1995
G1 X55.408 Y41.844 E17.22172
G1 X55.1 Y42.337 E17.24396
G1 X54.728 Y42.783 E17.26619
G1 X54.298 Y43.174 E17.28843
G1 X53.819 Y43.502 E17.31065
G1 X53.299 Y43.762 E17.3329
G1 X52.748 Y43.947 E17.35514
G1 X52.177 Y44.055 E17.37738
G1 X51.656 Y44.089 E17.39736
G1 X51.256 Y44.096 E17.41267
G1 X-48.774 Y44.096 E21.24077
G1 X-49.465 Y44.087 E21.26722
G1 X-50.044 Y44.039 E21.28945
G1 X-50.611 Y43.913 E21.31168
G1 X-51.156 Y43.71 E21.33394
G1 X-51.667 Y43.434 E21.35616
G1 X-52.136 Y43.09 E21.37842
G1 X-52.553 Y42.686 E21.40064
G1 X-52.91 Y42.228 E21.42286
G1 X-53.202 Y41.725 E21.44512
G1 X-53.422 Y41.187 E21.46737
G1 X-53.566 Y40.624 E21.48961
G1 X-53.631 Y40.047 E21.51183
G1 X-53.616 Y39.466 E21.53407
G1 X-53.522 Y38.893 E21.55629
G1 X-53.351 Y38.338 E21.57851
G1 X-53.111 Y37.825 E21.60019
G1 X-52.788 Y37.264 E21.62496
G1 X0.524 Y-51.179 E25.57699
G0 F2040 X0.821 Y-50.994
G1 F1020 X1.178 Y-51.569 E25.60289
G1 X1.505 Y-52.019 E25.62418
G1 X1.892 Y-52.418 E25.64545
G1 X2.333 Y-52.758 E25.66676
G1 X2.818 Y-53.03 E25.68804
G1 X3.337 Y-53.231 E25.70934
G1 X3.88 Y-53.355 E25.73066
G1 X4.434 Y-53.4 E25.75193
G1 X4.99 Y-53.365 E25.77325
G1 X5.534 Y-53.251 E25.79452
G1 X6.057 Y-53.06 E25.81583
G1 X6.547 Y-52.796 E25.83713
G1 X6.994 Y-52.465 E25.85841
G1 X7.389 Y-52.073 E25.87971
G1 X7.863 Y-51.396 E25.91134
G1 X8.126 Y-50.918 E25.93222
G1 X54.786 Y37.43 E29.75582
G1 X55.125 Y38.09 E29.78422
G1 X55.343 Y38.601 E29.80548
G1 X55.485 Y39.139 E29.82677
G1 X55.549 Y39.692 E29.84808
G1 X55.534 Y40.248 E29.86936
G1 X55.438 Y40.796 E29.89065
G1 X55.265 Y41.325 E29.91195
G1 X55.018 Y41.824 E29.93326
G1 X54.703 Y42.282 E29.95453
G1 X54.325 Y42.69 E29.97582
G1 X53.892 Y43.04 E29.99713
G1 X53.414 Y43.325 E30.01842
G1 X52.9 Y43.537 E30.0397
G1 X52.36 Y43.674 E30.06102
G1 X51.837 Y43.732 E30.08116
G1 X51.253 Y43.746 E30.10352
G1 X-48.769 Y43.746 E33.93131
G1 X-49.46 Y43.737 E33.95776
G1 X-50.015 Y43.689 E33.97907
G1 X-50.557 Y43.563 E34.00037
G1 X-51.075 Y43.361 E34.02165
G1 X-51.559 Y43.086 E34.04295
G1 X-51.999 Y42.745 E34.06425
G1 X-52.385 Y42.345 E34.08553
G1 X-52.71 Y41.893 E34.10683
G1 X-52.967 Y41.4 E34.12811
G1 X-53.15 Y40.874 E34.14942
G1 X-53.257 Y40.328 E34.17072
G1 X-53.284 Y39.773 E34.19198
G1 X-53.231 Y39.219 E34.21328
G1 X-53.1 Y38.678 E34.23458
G1 X-52.805 Y37.994 E34.26309
G1 X-52.486 Y37.442 E34.28749
G1 X0.821 Y-50.994 E38.23918
G0 F2040 X1.118 Y-50.809
G1 F1020 X1.475 Y-51.384 E38.26509
G1 X1.788 Y-51.813 E38.28541
G1 X2.162 Y-52.189 E38.3057
G1 X2.588 Y-52.506 E38.32603
G1 X3.057 Y-52.754 E38.34633
G1 X3.558 Y-52.93 E38.36665
G1 X4.079 Y-53.028 E38.38694
G1 X4.61 Y-53.047 E38.40727
G1 X5.137 Y-52.986 E38.42757
G1 X5.649 Y-52.847 E38.44788
G1 X6.134 Y-52.632 E38.46818
G1 X6.582 Y-52.347 E38.4885
G1 X6.982 Y-51.998 E38.50882
G1 X7.324 Y-51.593 E38.5291
G1 X7.787 Y-50.81 E38.56391
G1 X54.475 Y37.589 E42.38975
G1 X54.814 Y38.249 E42.41814
G1 X55.02 Y38.738 E42.43845
G1 X55.15 Y39.253 E42.45878
G1 X55.202 Y39.781 E42.47908
G1 X55.174 Y40.311 E42.49939
G1 X55.067 Y40.831 E42.51971
G1 X54.883 Y41.328 E42.53999
G1 X54.626 Y41.793 E42.56032
G1 X54.302 Y42.213 E42.58062
G1 X53.919 Y42.581 E42.60095
G1 X53.486 Y42.886 E42.62122
G1 X53.011 Y43.123 E42.64153
G1 X52.506 Y43.286 E42.66184
G1 X51.822 Y43.382 E42.68827
G1 X51.249 Y43.396 E42.71021
G1 X-48.765 Y43.396 E46.5377
G1 X-49.456 Y43.387 E46.56414
G1 X-49.984 Y43.34 E46.58443
G1 X-50.5 Y43.214 E46.60476
G1 X-50.991 Y43.013 E46.62506
G1 X-51.446 Y42.74 E46.64537
G1 X-51.855 Y42.401 E46.6657
G1 X-52.208 Y42.006 E46.68597
G1 X-52.498 Y41.561 E46.7063
G1 X-52.719 Y41.078 E46.72662
G1 X-52.864 Y40.568 E46.74691
G1 X-52.93 Y40.041 E46.76724
G1 X-52.917 Y39.511 E46.78753
G1 X-52.825 Y38.988 E46.80785
G1 X-52.655 Y38.486 E46.82813
G1 X-52.427 Y38.033 E46.84754
G1 X-52.168 Y37.591 E46.86715
G1 X1.118 Y-50.809 E50.81725
G0 F2040 X1.416 Y-50.625
G1 F1020 X1.773 Y-51.2 E50.84315
G1 X2.071 Y-51.605 E50.8624
G1 X2.43 Y-51.958 E50.88166
G1 X2.841 Y-52.25 E50.90096
G1 X3.292 Y-52.473 E50.92021
G1 X3.773 Y-52.623 E50.93949
G1 X4.272 Y-52.694 E50.95878
G1 X4.775 Y-52.685 E50.97803
G1 X5.271 Y-52.597 E50.99731
G1 X5.747 Y-52.432 E51.01659
G1 X6.19 Y-52.194 E51.03584
G1 X6.591 Y-51.888 E51.05514
G1 X6.938 Y-51.523 E51.07441
G1 X7.25 Y-51.058 E51.09584
G1 X7.508 Y-50.591 E51.11626
G1 X54.163 Y37.749 E54.93951
G1 X54.502 Y38.409 E54.9679
G1 X54.696 Y38.874 E54.98719
G1 X54.814 Y39.364 E55.00647
G1 X54.853 Y39.866 E55.02574
G1 X54.812 Y40.368 E55.04502
G1 X54.692 Y40.857 E55.06429
G1 X54.497 Y41.321 E55.08355
G1 X54.23 Y41.748 E55.10282
G1 X53.9 Y42.128 E55.12208
G1 X53.513 Y42.451 E55.14137
G1 X53.08 Y42.708 E55.16064
G1 X52.612 Y42.894 E55.17992
G1 X52.121 Y43.004 E55.19917
G1 X51.613 Y43.04 E55.21866
G1 X51.245 Y43.046 E55.23275
G1 X-48.76 Y43.046 E59.05989
G1 X-49.451 Y43.037 E59.08634
G1 X-49.953 Y42.99 E59.10563
G1 X-50.441 Y42.865 E59.12491
G1 X-50.902 Y42.664 E59.14416
G1 X-51.327 Y42.393 E59.16345
G1 X-51.703 Y42.058 E59.18272
G1 X-52.021 Y41.668 E59.20198
G1 X-52.274 Y41.233 E59.22123
G1 X-52.455 Y40.762 E59.24054
G1 X-52.559 Y40.27 E59.25979
G1 X-52.584 Y39.767 E59.27906
G1 X-52.529 Y39.266 E59.29835
G1 X-52.395 Y38.781 E59.31761
G1 X-52.121 Y38.202 E59.34212
G1 X-51.868 Y37.772 E59.36121
G1 X1.416 Y-50.625 E63.31118
G1 F3600 E59.51118
;MESH:support_tri_0_043.stl
G0 F2040 X3.564 Y-49.327
G0 X4.465 Y-48.785
G0 X50.822 Y39.346
;TYPE:WALL-INNER
G1 F3600 E63.31118
G1 F1020 X-48.497 Y39.346 E67.11207
G1 X4.44 Y-48.478 E71.0364
G1 X50.822 Y39.346 E74.83731
G0 F2040 X51.361 Y39.671
;TYPE:WALL-OUTER
G1 F1020 X-49.072 Y39.671 E78.68083
G1 X4.459 Y-49.138 E82.64918
G1 X51.361 Y39.671 E86.49271
G0 F2040 X51.161 Y39.671
G0 X51.027 Y39.47
G0 X50.257 Y39.006
;TYPE:SKIN
G1 F1020 X-47.895 Y39.006 E90.24894
G1 X4.42 Y-47.787 E94.12719
G1 X50.257 Y39.006 E97.88347
G0 F2040 X-47.488 Y38.637
G1 F1020 X-47.277 Y38.848 E97.89489
G0 F2040 X-46.782 Y38.848
G1 F1020 X-47.302 Y38.328 E97.92303
G0 F2040 X-47.116 Y38.019
G1 F1020 X-46.287 Y38.848 E97.9679
G0 F2040 X-45.792 Y38.848
G1 F1020 X-46.929 Y37.71 E98.02946
G0 F2040 X-46.744 Y37.401
G1 F1020 X-45.297 Y38.848 E98.10777
G0 F2040 X-44.802 Y38.848
G1 F1020 X-46.558 Y37.092 E98.20281
G0 F2040 X-46.372 Y36.783
G1 F1020 X-44.307 Y38.848 E98.31457
G0 F2040 X-43.812 Y38.848
G1 F1020 X-46.185 Y36.475 E98.443
G0 F2040 X-45.999 Y36.166
G1 F1020 X-43.317 Y38.848 E98.58815
G0 F2040 X-42.822 Y38.848
G1 F1020 X-45.813 Y35.857 E98.75003
G0 F2040 X-45.627 Y35.548
G1 F1020 X-42.327 Y38.848 E98.92863
G0 F2040 X-41.832 Y38.848
G1 F1020 X-45.44 Y35.24 E99.1239
G0 F2040 X-45.254 Y34.931
G1 F1020 X-41.337 Y38.848 E99.33589
G0 F2040 X-40.842 Y38.848
G1 F1020 X-45.068 Y34.622 E99.56461
G0 F2040 X-44.882 Y34.313
G1 F1020 X-40.347 Y38.848 E99.81005
G0 F2040 X-39.852 Y38.848
G1 F1020 X-44.696 Y34.004 E100.07221
G0 F2040 X-44.51 Y33.695
G1 F1020 X-39.357 Y38.848 E100.3511
G0 F2040 X-38.862 Y38.848
G1 F1020 X-44.324 Y33.386 E100.64671
G0 F2040 X-44.138 Y33.077
G1 F1020 X-38.367 Y38.848 E100.95904
G0 F2040 X-37.872 Y38.848
G1 F1020 X-43.951 Y32.769 E101.28805
G0 F2040 X-43.765 Y32.46
G1 F1020 X-37.377 Y38.848 E101.63377
G0 F2040 X-36.882 Y38.848
G1 F1020 X-43.579 Y32.151 E101.99622
G0 F2040 X-43.393 Y31.842
G1 F1020 X-36.387 Y38.848 E102.3754
G0 F2040 X-35.892 Y38.848
G1 F1020 X-43.207 Y31.534 E102.77127
G0 F2040 X-43.021 Y31.225
G1 F1020 X-35.397 Y38.848 E103.18386
G0 F2040 X-34.902 Y38.848
G1 F1020 X-42.835 Y30.916 E103.61318
G0 F2040 X-42.649 Y30.607
G1 F1020 X-34.407 Y38.848 E104.05922
G0 F2040 X-33.912 Y38.848
G1 F1020 X-42.462 Y30.298 E104.52195
G0 F2040 X-42.276 Y29.989
G1 F1020 X-33.417 Y38.848 E105.00142
G0 F2040 X-32.922 Y38.848
G1 F1020 X-42.09 Y29.68 E105.4976
G0 F2040 X-41.904 Y29.371
G1 F1020 X-32.427 Y38.848 E106.01051
G0 F2040 X-31.932 Y38.848
G1 F1020 X-41.717 Y29.063 E106.54008
G0 F2040 X-41.531 Y28.754
G1 F1020 X-31.437 Y38.848 E107.08638
G0 F2040 X-30.942 Y38.848
G1 F1020 X-41.345 Y28.445 E107.64941
G0 F2040 X-41.159 Y28.136
G1 F1020 X-30.448 Y38.848 E108.22913
G0 F2040 X-29.953 Y38.848
G1 F1020 X-40.973 Y27.828 E108.82554
G0 F2040 X-40.787 Y27.519
G1 F1020 X-29.458 Y38.848 E109.43868
G0 F2040 X-28.963 Y38.848
G1 F1020 X-40.601 Y27.21 E110.06855
G0 F2040 X-40.415 Y26.901
G1 F1020 X-28.468 Y38.848 E110.71513
G0 F2040 X-27.973 Y38.848
G1 F1020 X-40.228 Y26.592 E111.37842
G0 F2040 X-40.042 Y26.283
G1 F1020 X-27.478 Y38.848 E112.05842
G0 F2040 X-26.983 Y38.848
G1 F1020 X-39.856 Y25.974 E112.75515
G0 F2040 X-39.67 Y25.665
G1 F1020 X-26.488 Y38.848 E113.46861
G0 F2040 X-25.993 Y38.848
G1 F1020 X-39.484 Y25.357 E114.19876
G0 F2040 X-39.298 Y25.048
G1 F1020 X-25.498 Y38.848 E114.94563
G0 F2040 X-25.003 Y38.848
G1 F1020 X-39.112 Y24.739 E115.70923
G0 F2040 X-38.926 Y24.43
G1 F1020 X-24.508 Y38.848 E116.48955
G0 F2040 X-24.013 Y38.848
G1 F1020 X-38.739 Y24.122 E117.28654
G0 F2040 X-38.553 Y23.813
G1 F1020 X-23.518 Y38.848 E118.10025
G0 F2040 X-23.023 Y38.848
G1 F1020 X-38.367 Y23.504 E118.93069
G0 F2040 X-38.181 Y23.195
G1 F1020 X-22.528 Y38.848 E119.77785
G0 F2040 X-22.033 Y38.848
G1 F1020 X-37.994 Y22.886 E120.64171
G0 F2040 X-37.808 Y22.577
G1 F1020 X-21.538 Y38.848 E121.52229
G0 F2040 X-21.043 Y38.848
G1 F1020 X-37.623 Y22.268 E122.41962
G0 F2040 X-37.437 Y21.959
G1 F1020 X-20.548 Y38.848 E123.33367
G0 F2040 X-20.053 Y38.848
G1 F1020 X-37.25 Y21.651 E124.26439
G0 F2040 X-37.064 Y21.342
G1 F1020 X-19.558 Y38.848 E125.21184
G0 F2040 X-19.063 Y38.848
G1 F1020 X-36.878 Y21.033 E126.17601
G0 F2040 X-36.692 Y20.724
G1 F1020 X-18.568 Y38.848 E127.15691
G0 F2040 X-18.073 Y38.848
G1 F1020 X-36.505 Y20.416 E128.15447
G0 F2040 X-36.319 Y20.107
G1 F1020 X-17.578 Y38.848 E129.16876
G0 F2040 X-17.083 Y38.848
G1 F1020 X-36.133 Y19.798 E130.19977
G0 F2040 X-35.947 Y19.489
G1 F1020 X-16.588 Y38.848 E131.2475
G0 F2040 X-16.093 Y38.848
G1 F1020 X-35.761 Y19.18 E132.31196
G0 F2040 X-35.575 Y18.871
G1 F1020 X-15.598 Y38.848 E133.39314
G0 F2040 X-15.103 Y38.848
G1 F1020 X-35.389 Y18.562 E134.49104
G0 F2040 X-35.203 Y18.253
G1 F1020 X-14.608 Y38.848 E135.60567
G0 F2040 X-14.113 Y38.848
G1 F1020 X-35.016 Y17.945 E136.73697
G0 F2040 X-34.83 Y17.636
G1 F1020 X-13.618 Y38.848 E137.88499
G0 F2040 X-13.123 Y38.848
G1 F1020 X-34.644 Y17.327 E139.04973
G0 F2040 X-34.458 Y17.018
G1 F1020 X-12.628 Y38.848 E140.2312
G0 F2040 X-12.133 Y38.848
G1 F1020 X-34.272 Y16.71 E141.42936
G0 F2040 X-34.086 Y16.401
G1 F1020 X-11.638 Y38.848 E142.64425
G0 F2040 X-11.144 Y38.848
G1 F1020 X-33.9 Y16.092 E143.87583
G0 F2040 X-33.714 Y15.783
G1 F1020 X-10.649 Y38.848 E145.12414
G0 F2040 X-10.154 Y38.848
G1 F1020 X-33.527 Y15.475 E146.38912
G0 F2040 X-33.341 Y15.166
G1 F1020 X-9.659 Y38.848 E147.67082
G0 F2040 X-9.164 Y38.848
G1 F1020 X-33.155 Y14.857 E148.96924
G0 F2040 X-32.969 Y14.548
G1 F1020 X-8.669 Y38.848 E150.28439
G0 F2040 X-8.174 Y38.848
G1 F1020 X-32.782 Y14.239 E151.61623
G0 F2040 X-32.596 Y13.93
G1 F1020 X-7.679 Y38.848 E152.9648
G0 F2040 X-7.184 Y38.848
G1 F1020 X-32.41 Y13.621 E154.33009
G0 F2040 X-32.224 Y13.312
G1 F1020 X-6.689 Y38.848 E155.7121
G0 F2040 X-6.194 Y38.848
G1 F1020 X-32.038 Y13.004 E157.11081
G0 F2040 X-31.852 Y12.695
G1 F1020 X-5.699 Y38.848 E158.52625
G0 F2040 X-5.204 Y38.848
G1 F1020 X-31.666 Y12.386 E159.9584
G0 F2040 X-31.48 Y12.077
G1 F1020 X-4.709 Y38.848 E161.40728
G0 F2040 X-4.214 Y38.848
G1 F1020 X-31.293 Y11.769 E162.87283
G0 F2040 X-31.107 Y11.46
G1 F1020 X-3.719 Y38.848 E164.35511
G0 F2040 X-3.224 Y38.848
G1 F1020 X-30.921 Y11.151 E165.8541
G0 F2040 X-30.735 Y10.842
G1 F1020 X-2.729 Y38.848 E167.36982
G0 F2040 X-2.234 Y38.848
G1 F1020 X-30.549 Y10.533 E168.90227
G0 F2040 X-30.363 Y10.224
G1 F1020 X-1.739 Y38.848 E170.45144
G0 F2040 X-1.244 Y38.848
G1 F1020 X-30.177 Y9.915 E172.01733
G0 F2040 X-29.991 Y9.606
G1 F1020 X-.749 Y38.848 E173.59994
G0 F2040 X-.254 Y38.848
G1 F1020 X-29.804 Y9.298 E175.19922
G0 F2040 X-29.618 Y8.989
G1 F1020 X0.24 Y38.848 E176.8152
G0 F2040 X0.735 Y38.848
G1 F1020 X-29.432 Y8.68 E178.44791
G0 F2040 X-29.246 Y8.371
G1 F1020 X1.23 Y38.848 E180.09734
G0 F2040 X1.725 Y38.848
G1 F1020 X-29.059 Y8.063 E181.76343
G0 F2040 X-28.873 Y7.754
G1 F1020 X2.22 Y38.848 E183.44625
G0 F2040 X2.715 Y38.848
G1 F1020 X-28.688 Y7.445 E185.14582
G0 F2040 X-28.502 Y7.136
G1 F1020 X3.21 Y38.848 E186.86212
G0 F2040 X3.705 Y38.848
G1 F1020 X-28.315 Y6.827 E188.59511
G0 F2040 X-28.129 Y6.518
G1 F1020 X4.2 Y38.848 E190.34482
G0 F2040 X4.695 Y38.848
G1 F1020 X-27.943 Y6.209 E192.11126
G0 F2040 X-27.757 Y5.9
G1 F1020 X5.19 Y38.848 E193.89442
G0 F2040 X5.685 Y38.848
G1 F1020 X-27.57 Y5.592 E195.69425
G0 F2040 X-27.384 Y5.283
G1 F1020 X6.18 Y38.848 E197.5108
G0 F2040 X6.675 Y38.848
G1 F1020 X-27.198 Y4.974 E199.34408
G0 F2040 X-27.012 Y4.665
G1 F1020 X7.17 Y38.848 E201.19408
G0 F2040 X7.665 Y38.848
G1 F1020 X-26.826 Y4.357 E203.06078
G0 F2040 X-26.64 Y4.048
G1 F1020 X8.16 Y38.848 E204.9442
G0 F2040 X8.654 Y38.848
G1 F1020 X-26.454 Y3.739 E206.84431
G0 F2040 X-26.268 Y3.43
G1 F1020 X9.149 Y38.848 E208.76115
G0 F2040 X9.644 Y38.848
G1 F1020 X-26.081 Y3.121 E210.69469
G0 F2040 X-25.895 Y2.812
G1 F1020 X10.139 Y38.848 E212.64495
G0 F2040 X10.634 Y38.848
G1 F1020 X-25.709 Y2.503 E214.61193
G0 F2040 X-25.523 Y2.194
G1 F1020 X11.129 Y38.848 E216.59564
G0 F2040 X11.624 Y38.848
G1 F1020 X-25.337 Y1.886 E218.59604
G0 F2040 X-25.151 Y1.577
