;FLAVOR:Marlin
;TIME:6306
;Filament used: 8.00299m
;Layer height: 0.3
;MINX:-54.154
;MINY:-52.284
;MINZ:0.26
;MAXX:55.734
;MAXY:45.42
;MAXZ:23.06
;Generated with Cura_SteamEngine 4.9.1
M82 ;absolute extrusion mode
;Gcode by Cura
G90
G28
M107
M109 R100
G30
M109 S215 U-55 X55 V-85 Y-85 W0.26 Z0.26
M82
G92 E0
G1 F200 E6
G92 E0
G1 F200 E-3.5
G0 Z0.15
G0 X10
G0 Z3
G1 F6000
G92 E0
G92 E0
G1 F3600 E-3.8
;LAYER_COUNT:77
;LAYER:0
M107
G0 F2040 X-1.132 Y-49.537 Z0.26
;TYPE:SKIRT
G1 F3600 E0
G1 F1020 X-.778 Y-50.112 E0.02584
G1 X-.428 Y-50.604 E0.04895
G1 X-0.015 Y-51.047 E0.07213
G1 X0.452 Y-51.431 E0.09526
G1 X0.965 Y-51.75 E0.11838
G1 X1.516 Y-51.999 E0.14152
G1 X2.096 Y-52.172 E0.16468
G1 X2.693 Y-52.268 E0.18782
G1 X3.297 Y-52.284 E0.21095
G1 X3.898 Y-52.221 E0.23407
G1 X4.486 Y-52.079 E0.25722
G1 X5.05 Y-51.86 E0.28038
G1 X5.58 Y-51.569 E0.30352
G1 X6.067 Y-51.211 E0.32665
G1 X6.502 Y-50.791 E0.34979
G1 X6.879 Y-50.318 E0.37294
G1 X7.257 Y-49.694 E0.40086
G1 X7.317 Y-49.587 E0.40555
G1 X54.898 Y38.103 E4.22359
G1 X55.215 Y38.707 E4.2497
G1 X55.46 Y39.26 E4.27284
G1 X55.63 Y39.84 E4.29597
G1 X55.722 Y40.438 E4.31913
G1 X55.734 Y41.042 E4.34225
G1 X55.667 Y41.643 E4.36539
G1 X55.521 Y42.23 E4.38854
G1 X55.298 Y42.792 E4.41168
G1 X55.004 Y43.32 E4.43481
G1 X54.642 Y43.805 E4.45797
G1 X54.22 Y44.238 E4.4811
G1 X53.744 Y44.611 E4.50425
G1 X53.224 Y44.918 E4.52736
G1 X52.667 Y45.154 E4.55051
G1 X52.084 Y45.315 E4.57365
G1 X51.235 Y45.407 E4.60633
G1 X50.394 Y45.42 E4.63852
G1 X-48.956 Y45.42 E8.4406
G1 X-49.647 Y45.41 E8.46705
G1 X-50.25 Y45.361 E8.4902
G1 X-50.841 Y45.233 E8.51334
G1 X-51.41 Y45.029 E8.53647
G1 X-51.947 Y44.751 E8.55962
G1 X-52.443 Y44.405 E8.58276
G1 X-52.888 Y43.996 E8.60589
G1 X-53.276 Y43.532 E8.62904
G1 X-53.6 Y43.021 E8.65219
G1 X-53.853 Y42.472 E8.67533
G1 X-54.032 Y41.895 E8.69845
G1 X-54.132 Y41.298 E8.72161
G1 X-54.154 Y40.694 E8.74474
G1 X-54.095 Y40.092 E8.76789
G1 X-53.958 Y39.503 E8.79103
G1 X-53.744 Y38.938 E8.81415
G1 X-53.431 Y38.346 E8.83978
G1 X-53.366 Y38.233 E8.84477
G1 X-1.132 Y-49.537 E12.7535
G0 F2040 X-.834 Y-49.353
G1 F1020 X-.48 Y-49.928 E12.77934
G1 X-.142 Y-50.401 E12.80159
G1 X0.258 Y-50.823 E12.82384
G1 X0.711 Y-51.186 E12.84606
G1 X1.211 Y-51.483 E12.86831
G1 X1.746 Y-51.709 E12.89054
G1 X2.307 Y-51.859 E12.91276
G1 X2.884 Y-51.931 E12.93502
G1 X3.464 Y-51.924 E12.95721
G1 X4.039 Y-51.836 E12.97948
G1 X4.596 Y-51.671 E13.00171
G1 X5.125 Y-51.431 E13.02394
G1 X5.616 Y-51.12 E13.04618
G1 X6.06 Y-50.745 E13.06842
G1 X6.448 Y-50.313 E13.09064
G1 X6.776 Y-49.827 E13.11308
G1 X7.01 Y-49.42 E13.13105
G1 X54.588 Y38.266 E16.9489
G1 X54.905 Y38.87 E16.97501
G1 X55.139 Y39.401 E16.99721
G1 X55.298 Y39.96 E17.01945
G1 X55.379 Y40.536 E17.04171
G1 X55.379 Y41.117 E17.06395
G1 X55.301 Y41.692 E17.08615
G1 X55.144 Y42.252 E17.10841
G1 X54.911 Y42.784 E17.13064
G1 X54.608 Y43.28 E17.15288
G1 X54.24 Y43.729 E17.1751
G1 X53.813 Y44.124 E17.19736
G1 X53.337 Y44.456 E17.21957
G1 X52.819 Y44.72 E17.24182
G1 X52.27 Y44.911 E17.26406
G1 X51.7 Y45.024 E17.2863
G1 X51.23 Y45.057 E17.30433
G1 X50.394 Y45.07 E17.33633
G1 X-48.951 Y45.07 E21.13822
G1 X-49.642 Y45.06 E21.16466
G1 X-50.221 Y45.011 E21.1869
G1 X-50.788 Y44.884 E21.20914
G1 X-51.332 Y44.68 E21.23137
G1 X-51.843 Y44.403 E21.25361
G1 X-52.311 Y44.059 E21.27584
G1 X-52.728 Y43.654 E21.29809
G1 X-53.085 Y43.196 E21.32031
G1 X-53.376 Y42.693 E21.34255
G1 X-53.595 Y42.155 E21.36478
G1 X-53.738 Y41.591 E21.38705
G1 X-53.802 Y41.014 E21.40926
G1 X-53.787 Y40.433 E21.43151
G1 X-53.692 Y39.86 E21.45373
G1 X-53.519 Y39.305 E21.47598
G1 X-53.272 Y38.778 E21.49825
G1 X-53.066 Y38.412 E21.51433
G1 X-.834 Y-49.353 E25.42286
G0 F2040 X-.536 Y-49.17
G1 F1020 X-.182 Y-49.745 E25.4487
G1 X0.143 Y-50.196 E25.46997
G1 X0.53 Y-50.597 E25.4913
G1 X0.969 Y-50.938 E25.51257
G1 X1.453 Y-51.212 E25.53386
G1 X1.971 Y-51.415 E25.55515
G1 X2.513 Y-51.541 E25.57644
G1 X3.068 Y-51.588 E25.59776
G1 X3.623 Y-51.555 E25.61904
G1 X4.168 Y-51.443 E25.64033
G1 X4.692 Y-51.254 E25.66165
G1 X5.183 Y-50.992 E25.68295
G1 X5.631 Y-50.663 E25.70422
G1 X6.028 Y-50.272 E25.72554
G1 X6.473 Y-49.652 E25.75475
G1 X6.702 Y-49.253 E25.77235
G1 X54.278 Y38.428 E29.59
G1 X54.595 Y39.032 E29.61611
G1 X54.818 Y39.542 E29.63741
G1 X54.965 Y40.079 E29.65871
G1 X55.034 Y40.631 E29.68
G1 X55.023 Y41.187 E29.70129
G1 X54.932 Y41.736 E29.72258
G1 X54.764 Y42.267 E29.7439
G1 X54.522 Y42.767 E29.76515
G1 X54.21 Y43.228 E29.78646
G1 X53.835 Y43.64 E29.80778
G1 X53.406 Y43.994 E29.82906
G1 X52.93 Y44.282 E29.85035
G1 X52.418 Y44.5 E29.87165
G1 X51.88 Y44.641 E29.89293
G1 X51.224 Y44.708 E29.91817
G1 X50.454 Y44.72 E29.94764
G1 X-48.946 Y44.72 E33.75163
G1 X-49.637 Y44.71 E33.77808
G1 X-50.191 Y44.662 E33.79936
G1 X-50.733 Y44.535 E33.82066
G1 X-51.251 Y44.332 E33.84195
G1 X-51.735 Y44.056 E33.86328
G1 X-52.174 Y43.715 E33.88455
G1 X-52.56 Y43.314 E33.90585
G1 X-52.884 Y42.861 E33.92716
G1 X-53.14 Y42.368 E33.94842
G1 X-53.323 Y41.842 E33.96974
G1 X-53.429 Y41.296 E33.99102
G1 X-53.455 Y40.74 E34.01232
G1 X-53.401 Y40.186 E34.03362
G1 X-53.269 Y39.646 E34.0549
G1 X-52.966 Y38.949 E34.08398
G1 X-52.765 Y38.591 E34.0997
G1 X-.536 Y-49.17 E38.00804
G0 F2040 X-.238 Y-48.986
G1 F1020 X0.116 Y-49.561 E38.03388
G1 X0.428 Y-49.991 E38.05421
G1 X0.8 Y-50.369 E38.0745
G1 X1.225 Y-50.687 E38.09482
G1 X1.693 Y-50.937 E38.11512
G1 X2.193 Y-51.114 E38.13542
G1 X2.714 Y-51.215 E38.15573
G1 X3.244 Y-51.236 E38.17603
G1 X3.772 Y-51.177 E38.19636
G1 X4.284 Y-51.039 E38.21665
G1 X4.77 Y-50.827 E38.23695
G1 X5.219 Y-50.543 E38.25728
G1 X5.62 Y-50.196 E38.27757
G1 X5.965 Y-49.792 E38.2979
G1 X6.348 Y-49.169 E38.32589
G1 X53.968 Y38.591 E42.147
G1 X54.285 Y39.195 E42.1731
G1 X54.496 Y39.682 E42.19341
G1 X54.631 Y40.195 E42.21372
G1 X54.687 Y40.723 E42.23403
G1 X54.664 Y41.253 E42.25434
G1 X54.561 Y41.774 E42.27466
G1 X54.382 Y42.273 E42.29495
G1 X54.129 Y42.74 E42.31527
G1 X53.809 Y43.163 E42.33557
G1 X53.429 Y43.534 E42.3559
G1 X52.998 Y43.843 E42.37619
G1 X52.526 Y44.084 E42.39647
G1 X52.022 Y44.252 E42.41681
G1 X51.499 Y44.342 E42.43711
G1 X51.219 Y44.358 E42.44785
G1 X50.449 Y44.37 E42.47732
G1 X-48.941 Y44.37 E46.28093
G1 X-49.632 Y44.36 E46.30737
G1 X-50.161 Y44.312 E46.3277
G1 X-50.676 Y44.186 E46.34799
G1 X-51.166 Y43.983 E46.36829
G1 X-51.621 Y43.71 E46.38859
G1 X-52.03 Y43.371 E46.40892
G1 X-52.382 Y42.975 E46.4292
G1 X-52.672 Y42.53 E46.44953
G1 X-52.891 Y42.047 E46.46982
G1 X-53.036 Y41.536 E46.49015
G1 X-53.102 Y41.009 E46.51048
G1 X-53.088 Y40.479 E46.53077
G1 X-52.995 Y39.956 E46.5511
G1 X-52.824 Y39.454 E46.57139
G1 X-52.514 Y38.857 E46.59713
G1 X-52.464 Y38.77 E46.60097
G1 X-.238 Y-48.986 E50.50909
G0 F2040 X0.06 Y-48.803
G1 F1020 X0.414 Y-49.378 E50.53493
G1 X0.711 Y-49.784 E50.55418
G1 X1.069 Y-50.139 E50.57348
G1 X1.478 Y-50.432 E50.59273
G1 X1.929 Y-50.657 E50.61202
G1 X2.409 Y-50.808 E50.63128
G1 X2.908 Y-50.881 E50.65058
G1 X3.411 Y-50.874 E50.66983
G1 X3.907 Y-50.788 E50.68909
G1 X4.384 Y-50.625 E50.70838
G1 X4.828 Y-50.388 E50.72764
G1 X5.23 Y-50.084 E50.74693
G1 X5.578 Y-49.72 E50.7662
G1 X5.867 Y-49.302 E50.78565
G1 X6.087 Y-48.919 E50.80256
G1 X53.658 Y38.754 E54.61984
G1 X53.975 Y39.358 E54.64595
G1 X54.173 Y39.821 E54.66522
G1 X54.295 Y40.309 E54.68447
G1 X54.339 Y40.811 E54.70375
G1 X54.302 Y41.313 E54.72302
G1 X54.187 Y41.803 E54.74228
G1 X53.996 Y42.269 E54.76155
G1 X53.733 Y42.699 E54.78084
G1 X53.406 Y43.081 E54.80009
G1 X53.022 Y43.408 E54.81939
G1 X52.592 Y43.669 E54.83864
G1 X52.125 Y43.859 E54.85793
G1 X51.635 Y43.973 E54.87718
G1 X51.213 Y44.008 E54.89339
G1 X50.443 Y44.02 E54.92286
G1 X-48.936 Y44.02 E58.72605
G1 X-49.627 Y44.01 E58.75249
G1 X-50.128 Y43.962 E58.77176
G1 X-50.616 Y43.837 E58.79103
G1 X-51.077 Y43.635 E58.8103
G1 X-51.501 Y43.363 E58.82957
G1 X-51.877 Y43.028 E58.84885
G1 X-52.195 Y42.637 E58.86813
G1 X-52.447 Y42.201 E58.88741
G1 X-52.627 Y41.731 E58.90667
G1 X-52.73 Y41.238 E58.92594
G1 X-52.754 Y40.735 E58.94521
G1 X-52.699 Y40.235 E58.96446
G1 X-52.565 Y39.749 E58.98375
G1 X-52.354 Y39.289 E59.00312
G1 X-52.163 Y38.949 E59.01805
G1 X0.06 Y-48.803 E62.92597
G1 F3600 E59.12597
;MESH:support_tri_0_088.stl
G0 F2040 X2.208 Y-47.504
G0 X3.089 Y-46.981
G0 X-48.674 Y40.32
;TYPE:WALL-INNER
G1 F3600 E62.92597
G1 F1020 X3.097 Y-46.671 E66.80003
G1 X50.299 Y40.32 E70.58764
G1 X-48.674 Y40.32 E74.37529
G0 F2040 X-49.245 Y40.645
;TYPE:WALL-OUTER
G1 F1020 X3.11 Y-47.328 E78.29306
G1 X50.845 Y40.645 E82.12344
G1 X-49.245 Y40.645 E85.95383
G0 F2040 X-49.143 Y40.474
G0 X-49.059 Y40.525
G0 X-48.077 Y39.98
;TYPE:SKIN
G1 F1020 X3.083 Y-45.984 E89.78215
G1 X49.728 Y39.98 E93.52505
G1 X-48.077 Y39.98 E97.268
G0 F2040 X-47.611 Y39.503
G1 F1020 X-47.292 Y39.822 E97.28527
G0 F2040 X-46.797 Y39.822
G1 F1020 X-47.426 Y39.194 E97.31928
G0 F2040 X-47.241 Y38.883
G1 F1020 X-46.302 Y39.822 E97.3701
G0 F2040 X-45.807 Y39.822
G1 F1020 X-47.057 Y38.573 E97.43773
G0 F2040 X-46.872 Y38.262
G1 F1020 X-45.312 Y39.822 E97.52216
G0 F2040 X-44.817 Y39.822
G1 F1020 X-46.688 Y37.952 E97.62339
G0 F2040 X-46.503 Y37.642
G1 F1020 X-44.322 Y39.822 E97.7414
G0 F2040 X-43.827 Y39.822
G1 F1020 X-46.318 Y37.332 E97.87619
G0 F2040 X-46.133 Y37.021
G1 F1020 X-43.332 Y39.822 E98.02779
G0 F2040 X-42.837 Y39.822
G1 F1020 X-45.949 Y36.711 E98.19618
G0 F2040 X-45.764 Y36.401
G1 F1020 X-42.342 Y39.822 E98.38136
G0 F2040 X-41.847 Y39.822
G1 F1020 X-45.58 Y36.09 E98.58337
G0 F2040 X-45.395 Y35.78
G1 F1020 X-41.353 Y39.822 E98.80213
G0 F2040 X-40.858 Y39.822
G1 F1020 X-45.21 Y35.47 E99.03766
G0 F2040 X-45.025 Y35.16
G1 F1020 X-40.363 Y39.822 E99.28998
G0 F2040 X-39.868 Y39.822
G1 F1020 X-44.841 Y34.849 E99.55912
G0 F2040 X-44.656 Y34.539
G1 F1020 X-39.373 Y39.822 E99.84504
G0 F2040 X-38.878 Y39.822
G1 F1020 X-44.472 Y34.228 E100.1478
G0 F2040 X-44.287 Y33.918
G1 F1020 X-38.383 Y39.822 E100.46733
G0 F2040 X-37.888 Y39.822
G1 F1020 X-44.102 Y33.608 E100.80364
G0 F2040 X-43.917 Y33.298
G1 F1020 X-37.393 Y39.822 E101.15673
G0 F2040 X-36.898 Y39.822
G1 F1020 X-43.733 Y32.987 E101.52665
G0 F2040 X-43.548 Y32.677
G1 F1020 X-36.403 Y39.822 E101.91334
G0 F2040 X-35.908 Y39.822
G1 F1020 X-43.364 Y32.367 E102.31684
G0 F2040 X-43.179 Y32.056
G1 F1020 X-35.413 Y39.822 E102.73715
G0 F2040 X-34.918 Y39.822
G1 F1020 X-42.994 Y31.746 E103.17423
G0 F2040 X-42.809 Y31.436
G1 F1020 X-34.423 Y39.822 E103.62809
G0 F2040 X-33.928 Y39.822
G1 F1020 X-42.625 Y31.126 E104.09876
G0 F2040 X-42.44 Y30.815
G1 F1020 X-33.433 Y39.822 E104.58623
G0 F2040 X-32.938 Y39.822
G1 F1020 X-42.255 Y30.505 E105.09048
G0 F2040 X-42.071 Y30.194
G1 F1020 X-32.443 Y39.822 E105.61156
G0 F2040 X-31.948 Y39.822
G1 F1020 X-41.886 Y29.885 E106.14939
G0 F2040 X-41.701 Y29.574
G1 F1020 X-31.453 Y39.822 E106.70402
G0 F2040 X-30.958 Y39.822
G1 F1020 X-41.517 Y29.264 E107.27546
G0 F2040 X-41.332 Y28.953
G1 F1020 X-30.463 Y39.822 E107.86371
G0 F2040 X-29.968 Y39.822
G1 F1020 X-41.147 Y28.643 E108.46873
G0 F2040 X-40.963 Y28.333
G1 F1020 X-29.473 Y39.822 E109.09055
G0 F2040 X-28.978 Y39.822
G1 F1020 X-40.778 Y28.023 E109.72916
G0 F2040 X-40.593 Y27.712
G1 F1020 X-28.483 Y39.822 E110.38457
G0 F2040 X-27.988 Y39.822
G1 F1020 X-40.409 Y27.402 E111.05678
G0 F2040 X-40.224 Y27.092
G1 F1020 X-27.493 Y39.822 E111.74577
G0 F2040 X-26.998 Y39.822
G1 F1020 X-40.039 Y26.781 E112.45157
G0 F2040 X-39.855 Y26.471
G1 F1020 X-26.503 Y39.822 E113.17417
G0 F2040 X-26.008 Y39.822
G1 F1020 X-39.67 Y26.161 E113.91354
G0 F2040 X-39.485 Y25.851
G1 F1020 X-25.513 Y39.822 E114.6697
G0 F2040 X-25.018 Y39.822
G1 F1020 X-39.3 Y25.54 E115.44266
G0 F2040 X-39.116 Y25.23
G1 F1020 X-24.523 Y39.822 E116.23242
G0 F2040 X-24.028 Y39.822
G1 F1020 X-38.931 Y24.919 E117.03899
G0 F2040 X-38.747 Y24.609
G1 F1020 X-23.533 Y39.822 E117.86237
G0 F2040 X-23.038 Y39.822
G1 F1020 X-38.562 Y24.299 E118.70252
G0 F2040 X-38.377 Y23.989
G1 F1020 X-22.543 Y39.822 E119.55945
G0 F2040 X-22.049 Y39.822
G1 F1020 X-38.192 Y23.678 E120.43315
G0 F2040 X-38.008 Y23.368
G1 F1020 X-21.554 Y39.822 E121.32367
G0 F2040 X-21.059 Y39.822
G1 F1020 X-37.823 Y23.058 E122.23096
G0 F2040 X-37.639 Y22.747
G1 F1020 X-20.564 Y39.822 E123.15508
G0 F2040 X-20.069 Y39.822
G1 F1020 X-37.454 Y22.437 E124.09597
G0 F2040 X-37.269 Y22.127
G1 F1020 X-19.574 Y39.822 E125.05365
G0 F2040 X-19.079 Y39.822
G1 F1020 X-37.084 Y21.817 E126.0281
G0 F2040 X-36.9 Y21.506
G1 F1020 X-18.584 Y39.822 E127.01939
G0 F2040 X-18.089 Y39.822
G1 F1020 X-36.715 Y21.196 E128.02745
G0 F2040 X-36.531 Y20.885
G1 F1020 X-17.594 Y39.822 E129.05235
G0 F2040 X-17.099 Y39.822
G1 F1020 X-36.346 Y20.575 E130.09402
G0 F2040 X-36.161 Y20.265
G1 F1020 X-16.604 Y39.822 E131.15247
G0 F2040 X-16.109 Y39.822
G1 F1020 X-35.976 Y19.955 E132.2277
G0 F2040 X-35.792 Y19.644
G1 F1020 X-15.614 Y39.822 E133.31975
G0 F2040 X-15.119 Y39.822
G1 F1020 X-35.607 Y19.334 E134.42859
G0 F2040 X-35.423 Y19.024
G1 F1020 X-14.624 Y39.822 E135.55423
G0 F2040 X-14.129 Y39.822
G1 F1020 X-35.238 Y18.713 E136.69668
G0 F2040 X-35.053 Y18.403
G1 F1020 X-13.634 Y39.822 E137.8559
G0 F2040 X-13.139 Y39.822
G1 F1020 X-34.868 Y18.093 E139.0319
G0 F2040 X-34.684 Y17.783
G1 F1020 X-12.644 Y39.822 E140.22471
G0 F2040 X-12.149 Y39.822
G1 F1020 X-34.499 Y17.472 E141.43432
G0 F2040 X-34.315 Y17.162
G1 F1020 X-11.654 Y39.822 E142.66074
G0 F2040 X-11.159 Y39.822
G1 F1020 X-34.13 Y16.851 E143.90395
G0 F2040 X-33.945 Y16.542
G1 F1020 X-10.664 Y39.822 E145.16393
G0 F2040 X-10.169 Y39.822
G1 F1020 X-33.76 Y16.231 E146.4407
G0 F2040 X-33.576 Y15.921
G1 F1020 X-9.674 Y39.822 E147.73428
G0 F2040 X-9.179 Y39.822
G1 F1020 X-33.391 Y15.61 E149.04466
G0 F2040 X-33.207 Y15.3
G1 F1020 X-8.684 Y39.822 E150.37185
G0 F2040 X-8.189 Y39.822
G1 F1020 X-33.022 Y14.989 E151.71585
G0 F2040 X-32.837 Y14.68
G1 F1020 X-7.694 Y39.822 E153.07659
G0 F2040 X-7.199 Y39.822
G1 F1020 X-32.652 Y14.369 E154.45414
G0 F2040 X-32.468 Y14.059
G1 F1020 X-6.704 Y39.822 E155.84849
G0 F2040 X-6.209 Y39.822
G1 F1020 X-32.283 Y13.748 E157.25965
G0 F2040 X-32.099 Y13.438
G1 F1020 X-5.714 Y39.822 E158.68761
G0 F2040 X-5.219 Y39.822
G1 F1020 X-31.914 Y13.128 E160.13235
G0 F2040 X-31.729 Y12.818
G1 F1020 X-4.724 Y39.822 E161.59387
G0 F2040 X-4.229 Y39.822
G1 F1020 X-31.544 Y12.508 E163.07217
G0 F2040 X-31.36 Y12.197
G1 F1020 X-3.734 Y39.822 E164.5673
G0 F2040 X-3.239 Y39.822
G1 F1020 X-31.175 Y11.887 E166.0792
G0 F2040 X-30.991 Y11.576
G1 F1020 X-2.744 Y39.822 E167.60794
G0 F2040 X-2.25 Y39.822
G1 F1020 X-30.806 Y11.266 E169.15342
G0 F2040 X-30.621 Y10.956
G1 F1020 X-1.755 Y39.822 E170.71569
G0 F2040 X-1.26 Y39.822
G1 F1020 X-30.436 Y10.646 E172.29473
G0 F2040 X-30.252 Y10.335
G1 F1020 X-.765 Y39.822 E173.8906
G0 F2040 X-.27 Y39.822
G1 F1020 X-30.067 Y10.025 E175.50326
G0 F2040 X-29.883 Y9.714
G1 F1020 X0.224 Y39.822 E177.13271
G0 F2040 X0.719 Y39.822
G1 F1020 X-29.698 Y9.404 E178.77895
G0 F2040 X-29.513 Y9.094
G1 F1020 X1.214 Y39.822 E180.44196
G0 F2040 X1.709 Y39.822
G1 F1020 X-29.328 Y8.784 E182.12175
G0 F2040 X-29.144 Y8.473
G1 F1020 X2.204 Y39.822 E183.81837
G0 F2040 X2.699 Y39.822
G1 F1020 X-28.959 Y8.163 E185.53177
G0 F2040 X-28.775 Y7.853
G1 F1020 X3.194 Y39.822 E187.26197
G0 F2040 X3.689 Y39.822
G1 F1020 X-28.59 Y7.542 E189.00898
G0 F2040 X-28.405 Y7.232
G1 F1020 X4.184 Y39.822 E190.77276
G0 F2040 X4.679 Y39.822
G1 F1020 X-28.22 Y6.922 E192.55332
G0 F2040 X-28.036 Y6.612
G1 F1020 X5.174 Y39.822 E194.35069
G0 F2040 X5.669 Y39.822
G1 F1020 X-27.851 Y6.301 E196.16486
G0 F2040 X-27.666 Y5.991
G1 F1020 X6.164 Y39.822 E197.99581
G0 F2040 X6.659 Y39.822
G1 F1020 X-27.482 Y5.68 E199.8436
G0 F2040 X-27.297 Y5.371
G1 F1020 X7.154 Y39.822 E201.70813
G0 F2040 X7.649 Y39.822
G1 F1020 X-27.112 Y5.06 E203.58946
G0 F2040 X-26.928 Y4.75
G1 F1020 X8.144 Y39.822 E205.48761
G0 F2040 X8.639 Y39.822
G1 F1020 X-26.743 Y4.439 E207.40255
G0 F2040 X-26.558 Y4.129
G1 F1020 X9.134 Y39.822 E209.33428
G0 F2040 X9.629 Y39.822
G1 F1020 X-26.374 Y3.819 E211.2828
G0 F2040 X-26.189 Y3.509
G1 F1020 X10.124 Y39.822 E213.24811
G0 F2040 X10.619 Y39.822
G1 F1020 X-26.004 Y3.198 E215.23022
G0 F2040 X-25.82 Y2.888
G1 F1020 X11.114 Y39.822 E217.22913
G0 F2040 X11.609 Y39.822
