;FLAVOR:Marlin
;TIME:7411
;Filament used: 7.05112m
;Layer height: 0.2
;MINX:-54.551
;MINY:-55.337
;MINZ:0.26
;MAXX:54.554
;MAXY:45.445
;MAXZ:13.06
;Generated with Cura_SteamEngine 4.8.0
M82 ;absolute extrusion mode
;Gcode by Cura
G90
G28
M107
M109 R100
G30
M109 S215 U-55 X55 V-85 Y-85 W0.26 Z0.26
M82
G92 E0
G1 F200 E6
G92 E0
G1 F200 E-3.5
G0 Z0.15
G0 X10
G0 Z3
G1 F6000
G92 E0
G92 E0
G1 F3600 E-3.8
;LAYER_COUNT:65
;LAYER:0
M107
G0 F2040 X-4.33 Y-52.397 Z0.26
;TYPE:SKIRT
G1 F3600 E0
G1 F1020 X-3.985 Y-53.009 E0.02689
G1 X-3.654 Y-53.515 E0.05003
G1 X-3.259 Y-53.972 E0.07314
G1 X-2.808 Y-54.374 E0.09626
G1 X-2.307 Y-54.713 E0.11941
G1 X-1.765 Y-54.983 E0.14259
G1 X-1.193 Y-55.179 E0.16573
G1 X-.601 Y-55.297 E0.18883
G1 X0.003 Y-55.337 E0.21199
G1 X0.606 Y-55.297 E0.23512
G1 X1.199 Y-55.177 E0.25827
G1 X1.771 Y-54.981 E0.28141
G1 X2.311 Y-54.71 E0.30453
G1 X2.812 Y-54.371 E0.32768
G1 X3.263 Y-53.969 E0.35081
G1 X3.658 Y-53.51 E0.37398
G1 X3.939 Y-53.089 E0.39335
G1 X4.243 Y-52.556 E0.41683
G1 X53.684 Y38.07 E4.36759
G1 X54.025 Y38.713 E4.39544
G1 X54.272 Y39.264 E4.41855
G1 X54.445 Y39.844 E4.44171
G1 X54.539 Y40.441 E4.46484
G1 X54.554 Y41.045 E4.48797
G1 X54.489 Y41.647 E4.51114
G1 X54.346 Y42.234 E4.53426
G1 X54.126 Y42.797 E4.55739
G1 X53.834 Y43.327 E4.58055
G1 X53.474 Y43.813 E4.60369
G1 X53.054 Y44.247 E4.62681
G1 X52.58 Y44.623 E4.64996
G1 X52.06 Y44.932 E4.67311
G1 X51.505 Y45.171 E4.69623
G1 X50.922 Y45.334 E4.7194
G1 X50.059 Y45.43 E4.75263
G1 X49.138 Y45.445 E4.78788
G1 X-49.353 Y45.445 E8.55709
G1 X-50.038 Y45.436 E8.5833
G1 X-50.641 Y45.388 E8.60645
G1 X-51.232 Y45.261 E8.62959
G1 X-51.801 Y45.057 E8.65272
G1 X-52.339 Y44.78 E8.67588
G1 X-52.835 Y44.434 E8.69902
G1 X-53.281 Y44.026 E8.72215
G1 X-53.67 Y43.563 E8.74529
G1 X-53.994 Y43.053 E8.76842
G1 X-54.248 Y42.504 E8.79157
G1 X-54.427 Y41.927 E8.81469
G1 X-54.529 Y41.33 E8.83787
G1 X-54.551 Y40.726 E8.861
G1 X-54.493 Y40.124 E8.88414
G1 X-54.357 Y39.535 E8.90727
G1 X-54.03 Y38.737 E8.94028
G1 X-53.569 Y37.859 E8.97823
G1 X-4.33 Y-52.397 E12.91285
G0 F2040 X-4.025 Y-52.225
G1 F1020 X-3.68 Y-52.837 E12.93974
G1 X-3.361 Y-53.322 E12.96196
G1 X-2.978 Y-53.759 E12.98419
G1 X-2.539 Y-54.139 E13.00641
G1 X-2.051 Y-54.456 E13.02868
G1 X-1.525 Y-54.702 E13.05091
G1 X-.97 Y-54.874 E13.07314
G1 X-.397 Y-54.968 E13.09536
G1 X0.184 Y-54.983 E13.1176
G1 X0.761 Y-54.918 E13.13983
G1 X1.324 Y-54.774 E13.16207
G1 X1.862 Y-54.554 E13.18431
G1 X2.365 Y-54.263 E13.20655
G1 X2.823 Y-53.905 E13.22879
G1 X3.228 Y-53.488 E13.25104
G1 X3.637 Y-52.911 E13.27811
G1 X3.938 Y-52.385 E13.3013
G1 X53.375 Y38.234 E17.25175
G1 X53.716 Y38.877 E17.2796
G1 X53.952 Y39.407 E17.30181
G1 X54.113 Y39.966 E17.32407
G1 X54.196 Y40.541 E17.3463
G1 X54.2 Y41.122 E17.36854
G1 X54.123 Y41.698 E17.39078
G1 X53.969 Y42.258 E17.413
G1 X53.739 Y42.791 E17.43522
G1 X53.438 Y43.288 E17.45745
G1 X53.071 Y43.739 E17.47971
G1 X52.647 Y44.136 E17.50193
G1 X52.171 Y44.47 E17.52419
G1 X51.655 Y44.736 E17.5464
G1 X51.107 Y44.929 E17.56864
G1 X50.537 Y45.044 E17.59089
G1 X50.053 Y45.08 E17.60947
G1 X49.138 Y45.095 E17.64449
G1 X-49.349 Y45.095 E21.41354
G1 X-50.034 Y45.086 E21.43975
G1 X-50.613 Y45.038 E21.46199
G1 X-51.18 Y44.912 E21.48422
G1 X-51.724 Y44.708 E21.50645
G1 X-52.235 Y44.432 E21.52868
G1 X-52.704 Y44.089 E21.55091
G1 X-53.121 Y43.684 E21.57316
G1 X-53.479 Y43.226 E21.59541
G1 X-53.77 Y42.724 E21.61761
G1 X-53.99 Y42.186 E21.63985
G1 X-54.134 Y41.623 E21.66209
G1 X-54.199 Y41.046 E21.68432
G1 X-54.184 Y40.465 E21.70656
G1 X-54.09 Y39.891 E21.72882
G1 X-53.918 Y39.336 E21.75105
G1 X-53.72 Y38.9 E21.76938
G1 X-53.262 Y38.027 E21.80711
G1 X-4.025 Y-52.225 E25.74156
G0 F2040 X-3.721 Y-52.053
G1 F1020 X-3.376 Y-52.665 E25.76845
G1 X-3.068 Y-53.129 E25.78976
G1 X-2.698 Y-53.544 E25.81104
G1 X-2.271 Y-53.901 E25.83234
G1 X-1.798 Y-54.194 E25.85363
G1 X-1.288 Y-54.417 E25.87493
G1 X-.752 Y-54.563 E25.89619
G1 X-.199 Y-54.632 E25.91752
G1 X0.357 Y-54.621 E25.9388
G1 X0.906 Y-54.53 E25.9601
G1 X1.436 Y-54.361 E25.98139
G1 X1.937 Y-54.118 E26.0027
G1 X2.398 Y-53.806 E26.024
G1 X2.809 Y-53.432 E26.04526
G1 X3.162 Y-53.002 E26.06656
G1 X3.456 Y-52.528 E26.0879
G1 X3.657 Y-52.171 E26.10358
G1 X53.065 Y38.397 E30.05178
G1 X53.406 Y39.04 E30.07964
G1 X53.631 Y39.55 E30.10097
G1 X53.781 Y40.085 E30.12223
G1 X53.852 Y40.637 E30.14353
G1 X53.843 Y41.194 E30.16485
G1 X53.755 Y41.743 E30.18613
G1 X53.589 Y42.274 E30.20742
G1 X53.349 Y42.776 E30.22871
G1 X53.039 Y43.238 E30.25001
G1 X52.667 Y43.651 E30.27128
G1 X52.238 Y44.007 E30.29261
G1 X51.764 Y44.297 E30.31388
G1 X51.253 Y44.517 E30.33517
G1 X50.715 Y44.661 E30.35648
G1 X50.047 Y44.73 E30.38218
G1 X49.138 Y44.745 E30.41697
G1 X-49.344 Y44.745 E34.18583
G1 X-50.029 Y44.736 E34.21205
G1 X-50.583 Y44.688 E34.23333
G1 X-51.125 Y44.562 E34.25463
G1 X-51.644 Y44.36 E34.27594
G1 X-52.127 Y44.085 E34.29721
G1 X-52.567 Y43.744 E34.31851
G1 X-52.953 Y43.344 E34.33979
G1 X-53.278 Y42.892 E34.36109
G1 X-53.535 Y42.398 E34.3824
G1 X-53.719 Y41.873 E34.40369
G1 X-53.825 Y41.327 E34.42498
G1 X-53.852 Y40.771 E34.44628
G1 X-53.799 Y40.217 E34.46758
G1 X-53.668 Y39.677 E34.48884
G1 X-53.41 Y39.062 E34.51437
G1 X-52.955 Y38.194 E34.55187
G1 X-3.721 Y-52.053 E38.4861
G0 F2040 X-3.416 Y-51.881
G1 F1020 X-3.071 Y-52.493 E38.51299
G1 X-2.776 Y-52.934 E38.53329
G1 X-2.418 Y-53.326 E38.55361
G1 X-2.006 Y-53.66 E38.57391
G1 X-1.548 Y-53.929 E38.59423
G1 X-1.055 Y-54.125 E38.61454
G1 X-.539 Y-54.246 E38.63482
G1 X-0.009 Y-54.287 E38.65516
G1 X0.52 Y-54.248 E38.67546
G1 X1.037 Y-54.131 E38.69575
G1 X1.531 Y-53.937 E38.71606
G1 X1.991 Y-53.671 E38.73639
G1 X2.405 Y-53.339 E38.7567
G1 X2.764 Y-52.949 E38.77699
G1 X3.113 Y-52.423 E38.80115
G1 X3.349 Y-52.003 E38.81958
G1 X52.756 Y38.561 E42.76763
G1 X53.097 Y39.204 E42.79549
G1 X53.31 Y39.691 E42.81583
G1 X53.447 Y40.203 E42.83611
G1 X53.506 Y40.731 E42.85644
G1 X53.485 Y41.261 E42.87674
G1 X53.384 Y41.782 E42.89705
G1 X53.207 Y42.282 E42.91735
G1 X52.956 Y42.75 E42.93767
G1 X52.638 Y43.175 E42.95799
G1 X52.26 Y43.547 E42.97828
G1 X51.83 Y43.858 E42.99859
G1 X51.359 Y44.102 E43.01889
G1 X50.856 Y44.271 E43.0392
G1 X50.333 Y44.364 E43.05953
G1 X50.041 Y44.381 E43.07072
G1 X49.196 Y44.395 E43.10306
G1 X-49.339 Y44.395 E46.87395
G1 X-50.024 Y44.386 E46.90017
G1 X-50.553 Y44.339 E46.92049
G1 X-51.068 Y44.213 E46.94078
G1 X-51.559 Y44.011 E46.9611
G1 X-52.014 Y43.738 E46.98141
G1 X-52.423 Y43.4 E47.00171
G1 X-52.777 Y43.004 E47.02204
G1 X-53.067 Y42.56 E47.04234
G1 X-53.287 Y42.077 E47.06265
G1 X-53.432 Y41.566 E47.08297
G1 X-53.498 Y41.04 E47.10326
G1 X-53.485 Y40.51 E47.12355
G1 X-53.393 Y39.987 E47.14387
G1 X-53.223 Y39.484 E47.16419
G1 X-53.1 Y39.225 E47.17517
G1 X-52.647 Y38.362 E47.21247
G1 X-3.416 Y-51.881 E51.14651
G0 F2040 X-3.111 Y-51.709
G1 F1020 X-2.766 Y-52.321 E51.17339
G1 X-2.484 Y-52.739 E51.19269
G1 X-2.141 Y-53.107 E51.21194
G1 X-1.743 Y-53.416 E51.23123
G1 X-1.302 Y-53.658 E51.25048
G1 X-.827 Y-53.827 E51.26977
G1 X-.332 Y-53.92 E51.28905
G1 X0.171 Y-53.932 E51.3083
G1 X0.67 Y-53.865 E51.32757
G1 X1.153 Y-53.72 E51.34687
G1 X1.606 Y-53.501 E51.36612
G1 X2.019 Y-53.213 E51.38539
G1 X2.381 Y-52.863 E51.40466
G1 X2.733 Y-52.377 E51.42763
G1 X3.023 Y-51.87 E51.44998
G1 X52.447 Y38.725 E55.39938
G1 X52.788 Y39.368 E55.42724
G1 X52.988 Y39.831 E55.44654
G1 X53.112 Y40.319 E55.46581
G1 X53.158 Y40.82 E55.48506
G1 X53.124 Y41.323 E55.50435
G1 X53.01 Y41.813 E55.52361
G1 X52.821 Y42.28 E55.54289
G1 X52.56 Y42.711 E55.56217
G1 X52.234 Y43.095 E55.58145
G1 X51.852 Y43.423 E55.60072
G1 X51.423 Y43.686 E55.61997
G1 X50.957 Y43.878 E55.63926
G1 X50.467 Y43.994 E55.65853
G1 X50.036 Y44.031 E55.67509
G1 X49.191 Y44.045 E55.70743
G1 X-49.335 Y44.045 E59.47797
G1 X-50.02 Y44.036 E59.50419
G1 X-50.521 Y43.989 E59.52344
G1 X-51.009 Y43.864 E59.54272
G1 X-51.471 Y43.663 E59.562
G1 X-51.895 Y43.392 E59.58126
G1 X-52.271 Y43.057 E59.60053
G1 X-52.589 Y42.667 E59.61979
G1 X-52.842 Y42.231 E59.63908
G1 X-53.023 Y41.761 E59.65836
G1 X-53.127 Y41.268 E59.67764
G1 X-53.152 Y40.765 E59.69691
G1 X-53.097 Y40.265 E59.71616
G1 X-52.963 Y39.779 E59.73546
G1 X-52.79 Y39.387 E59.75185
G1 X-52.34 Y38.529 E59.78893
G1 X-3.111 Y-51.709 E63.72277
G1 F3600 E59.92277
;MESH:support_tri_0_059.stl
G0 F2040 X-.912 Y-50.499
G0 X0.021 Y-49.991
G0 X49.116 Y40.345
;TYPE:WALL-INNER
G1 F3600 E63.72277
G1 F1020 X-49.116 Y40.345 E67.48206
G1 X0.00 Y-49.685 E71.40684
G1 X49.116 Y40.345 E75.33162
G0 F2040 X49.663 Y40.67
;TYPE:WALL-OUTER
G1 F1020 X-49.663 Y40.67 E79.13277
G1 X0.00 Y-50.363 E83.10127
G1 X49.663 Y40.67 E87.06977
G0 F2040 X49.463 Y40.67
G0 X49.326 Y40.469
G0 X48.543 Y40.005
;TYPE:SKIN
G1 F1020 X-48.543 Y40.005 E90.78521
G1 X0.00 Y-48.974 E94.66418
G1 X48.543 Y40.005 E98.54314
G0 F2040 X-48.095 Y39.514
G1 F1020 X-47.762 Y39.848 E98.56119
G0 F2040 X-47.267 Y39.848
G1 F1020 X-47.92 Y39.194 E98.59656
G0 F2040 X-47.745 Y38.874
G1 F1020 X-46.772 Y39.848 E98.64925
G0 F2040 X-46.277 Y39.848
G1 F1020 X-47.571 Y38.554 E98.71928
G0 F2040 X-47.396 Y38.233
G1 F1020 X-45.782 Y39.848 E98.80666
G0 F2040 X-45.287 Y39.848
G1 F1020 X-47.222 Y37.913 E98.91138
G0 F2040 X-47.047 Y37.593
G1 F1020 X-44.792 Y39.848 E99.03343
G0 F2040 X-44.297 Y39.848
G1 F1020 X-46.872 Y37.273 E99.17279
G0 F2040 X-46.698 Y36.952
G1 F1020 X-43.802 Y39.848 E99.32952
G0 F2040 X-43.307 Y39.848
G1 F1020 X-46.523 Y36.632 E99.50358
G0 F2040 X-46.348 Y36.312
G1 F1020 X-42.812 Y39.848 E99.69495
G0 F2040 X-42.317 Y39.848
G1 F1020 X-46.174 Y35.991 E99.9037
G0 F2040 X-45.999 Y35.671
G1 F1020 X-41.822 Y39.848 E100.12976
G0 F2040 X-41.327 Y39.848
G1 F1020 X-45.824 Y35.351 E100.37315
G0 F2040 X-45.649 Y35.031
G1 F1020 X-40.832 Y39.848 E100.63385
G0 F2040 X-40.337 Y39.848
G1 F1020 X-45.474 Y34.711 E100.91187
G0 F2040 X-45.3 Y34.39
G1 F1020 X-39.842 Y39.848 E101.20726
G0 F2040 X-39.347 Y39.848
G1 F1020 X-45.125 Y34.07 E101.51998
G0 F2040 X-44.95 Y33.75
G1 F1020 X-38.852 Y39.848 E101.85001
G0 F2040 X-38.357 Y39.848
G1 F1020 X-44.776 Y33.429 E102.19741
G0 F2040 X-44.601 Y33.109
G1 F1020 X-37.862 Y39.848 E102.56213
G0 F2040 X-37.367 Y39.848
G1 F1020 X-44.426 Y32.789 E102.94418
G0 F2040 X-44.252 Y32.468
G1 F1020 X-36.872 Y39.848 E103.34359
G0 F2040 X-36.377 Y39.848
G1 F1020 X-44.077 Y32.148 E103.76033
G0 F2040 X-43.902 Y31.828
G1 F1020 X-35.882 Y39.848 E104.19438
G0 F2040 X-35.387 Y39.848
G1 F1020 X-43.727 Y31.508 E104.64575
G0 F2040 X-43.552 Y31.188
G1 F1020 X-34.892 Y39.848 E105.11444
G0 F2040 X-34.397 Y39.848
G1 F1020 X-43.378 Y30.868 E105.60048
G0 F2040 X-43.203 Y30.547
G1 F1020 X-33.902 Y39.848 E106.10386
G0 F2040 X-33.407 Y39.848
G1 F1020 X-43.028 Y30.227 E106.62456
G0 F2040 X-42.854 Y29.907
G1 F1020 X-32.912 Y39.848 E107.16261
G0 F2040 X-32.418 Y39.848
G1 F1020 X-42.679 Y29.586 E107.71797
G0 F2040 X-42.504 Y29.266
G1 F1020 X-31.923 Y39.848 E108.29065
G0 F2040 X-31.428 Y39.848
G1 F1020 X-42.33 Y28.946 E108.88068
G0 F2040 X-42.155 Y28.625
G1 F1020 X-30.933 Y39.848 E109.48806
G0 F2040 X-30.438 Y39.848
G1 F1020 X-41.98 Y28.305 E110.11276
G0 F2040 X-41.806 Y27.985
G1 F1020 X-29.943 Y39.848 E110.7548
G0 F2040 X-29.448 Y39.848
G1 F1020 X-41.63 Y27.665 E111.41413
G0 F2040 X-41.456 Y27.345
G1 F1020 X-28.953 Y39.848 E112.09081
G0 F2040 X-28.458 Y39.848
G1 F1020 X-41.281 Y27.024 E112.78483
G0 F2040 X-41.106 Y26.704
G1 F1020 X-27.963 Y39.848 E113.49617
G0 F2040 X-27.468 Y39.848
G1 F1020 X-40.932 Y26.384 E114.22486
G0 F2040 X-40.757 Y26.063
G1 F1020 X-26.973 Y39.848 E114.9709
G0 F2040 X-26.478 Y39.848
G1 F1020 X-40.582 Y25.743 E115.73425
G0 F2040 X-40.408 Y25.423
G1 F1020 X-25.983 Y39.848 E116.51495
G0 F2040 X-25.488 Y39.848
G1 F1020 X-40.233 Y25.102 E117.313
G0 F2040 X-40.059 Y24.782
G1 F1020 X-24.993 Y39.848 E118.12839
G0 F2040 X-24.498 Y39.848
G1 F1020 X-39.884 Y24.462 E118.9611
G0 F2040 X-39.709 Y24.142
G1 F1020 X-24.003 Y39.848 E119.81113
G0 F2040 X-23.508 Y39.848
G1 F1020 X-39.534 Y23.822 E120.67847
G0 F2040 X-39.359 Y23.502
G1 F1020 X-23.013 Y39.848 E121.56314
G0 F2040 X-22.518 Y39.848
G1 F1020 X-39.185 Y23.181 E122.46518
G0 F2040 X-39.01 Y22.861
G1 F1020 X-22.023 Y39.848 E123.38454
G0 F2040 X-21.528 Y39.848
G1 F1020 X-38.835 Y22.541 E124.32121
G0 F2040 X-38.661 Y22.22
G1 F1020 X-21.033 Y39.848 E125.27526
G0 F2040 X-20.538 Y39.848
G1 F1020 X-38.486 Y21.9 E126.24663
G0 F2040 X-38.311 Y21.58
G1 F1020 X-20.043 Y39.848 E127.23532
G0 F2040 X-19.548 Y39.848
G1 F1020 X-38.137 Y21.259 E128.24138
G0 F2040 X-37.962 Y20.939
G1 F1020 X-19.053 Y39.848 E129.26476
G0 F2040 X-18.558 Y39.848
G1 F1020 X-37.787 Y20.619 E130.30546
G0 F2040 X-37.612 Y20.299
G1 F1020 X-18.063 Y39.848 E131.36347
G0 F2040 X-17.568 Y39.848
G1 F1020 X-37.437 Y19.979 E132.43881
G0 F2040 X-37.263 Y19.658
G1 F1020 X-17.073 Y39.848 E133.53152
G0 F2040 X-16.578 Y39.848
G1 F1020 X-37.088 Y19.338 E134.64155
G0 F2040 X-36.913 Y19.018
G1 F1020 X-16.083 Y39.848 E135.76889
G0 F2040 X-15.588 Y39.848
G1 F1020 X-36.739 Y18.698 E136.91358
G0 F2040 X-36.564 Y18.377
G1 F1020 X-15.093 Y39.848 E138.07562
G0 F2040 X-14.598 Y39.848
G1 F1020 X-36.389 Y18.057 E139.25498
G0 F2040 X-36.215 Y17.737
G1 F1020 X-14.103 Y39.848 E140.45168
G0 F2040 X-13.608 Y39.848
G1 F1020 X-36.04 Y17.416 E141.66573
G0 F2040 X-35.865 Y17.096
G1 F1020 X-13.114 Y39.848 E142.89707
G0 F2040 X-12.619 Y39.848
G1 F1020 X-35.691 Y16.776 E144.14576
G0 F2040 X-35.515 Y16.456
G1 F1020 X-12.124 Y39.848 E145.41173
G0 F2040 X-11.629 Y39.848
G1 F1020 X-35.341 Y16.136 E146.69506
G0 F2040 X-35.166 Y15.815
G1 F1020 X-11.134 Y39.848 E147.99573
G0 F2040 X-10.639 Y39.848
G1 F1020 X-34.991 Y15.495 E149.31371
G0 F2040 X-34.817 Y15.175
G1 F1020 X-10.144 Y39.848 E150.64905
G0 F2040 X-9.649 Y39.848
G1 F1020 X-34.642 Y14.854 E152.00173
G0 F2040 X-34.467 Y14.534
G1 F1020 X-9.154 Y39.848 E153.37173
G0 F2040 X-8.659 Y39.848
G1 F1020 X-34.293 Y14.214 E154.75907
G0 F2040 X-34.118 Y13.893
G1 F1020 X-8.164 Y39.848 E156.16376
G0 F2040 X-7.669 Y39.848
G1 F1020 X-33.943 Y13.573 E157.58577
G0 F2040 X-33.769 Y13.253
G1 F1020 X-7.174 Y39.848 E159.02513
G0 F2040 X-6.679 Y39.848
G1 F1020 X-33.594 Y12.932 E160.48183
G0 F2040 X-33.419 Y12.613
G1 F1020 X-6.184 Y39.848 E161.95582
G0 F2040 X-5.689 Y39.848
G1 F1020 X-33.244 Y12.293 E163.44713
G0 F2040 X-33.069 Y11.972
G1 F1020 X-5.194 Y39.848 E164.95579
G0 F2040 X-4.699 Y39.848
G1 F1020 X-32.895 Y11.652 E166.48179
G0 F2040 X-32.72 Y11.332
G1 F1020 X-4.204 Y39.848 E168.02512
G0 F2040 X-3.709 Y39.848
G1 F1020 X-32.546 Y11.011 E169.58581
G0 F2040 X-32.371 Y10.691
G1 F1020 X-3.214 Y39.848 E171.16383
G0 F2040 X-2.719 Y39.848
G1 F1020 X-32.196 Y10.371 E172.75916
G0 F2040 X-32.022 Y10.05
G1 F1020 X-2.224 Y39.848 E174.37186
G0 F2040 X-1.729 Y39.848
G1 F1020 X-31.847 Y9.73 E176.00189
G0 F2040 X-31.672 Y9.41
G1 F1020 X-1.234 Y39.848 E177.64923
G0 F2040 X-.739 Y39.848
G1 F1020 X-31.498 Y9.089 E179.31395
G0 F2040 X-31.322 Y8.77
G1 F1020 X-.244 Y39.848 E180.99593
G0 F2040 X0.25 Y39.848
G1 F1020 X-31.148 Y8.449 E182.69526
G0 F2040 X-30.973 Y8.129
G1 F1020 X0.745 Y39.848 E184.4119
G0 F2040 X1.24 Y39.848
G1 F1020 X-30.798 Y7.809 E186.14587
G0 F2040 X-30.624 Y7.488
G1 F1020 X1.735 Y39.848 E187.8972
G0 F2040 X2.23 Y39.848
G1 F1020 X-30.449 Y7.168 E189.66586
G0 F2040 X-30.274 Y6.848
G1 F1020 X2.725 Y39.848 E191.45184
G0 F2040 X3.22 Y39.848
G1 F1020 X-30.1 Y6.528 E193.25516
G0 F2040 X-29.925 Y6.207
G1 F1020 X3.715 Y39.848 E195.07582
G0 F2040 X4.21 Y39.848
G1 F1020 X-29.75 Y5.887 E196.91381
G0 F2040 X-29.576 Y5.567
G1 F1020 X4.705 Y39.848 E198.76914
G0 F2040 X5.2 Y39.848
G1 F1020 X-29.401 Y5.246 E200.64182
G0 F2040 X-29.226 Y4.927
G1 F1020 X5.695 Y39.848 E202.53179
G0 F2040 X6.19 Y39.848
G1 F1020 X-29.051 Y4.606 E204.4391
G0 F2040 X-28.876 Y4.286
G1 F1020 X6.684 Y39.848 E206.36371
G0 F2040 X7.179 Y39.848
G1 F1020 X-28.702 Y3.966 E208.30566
G0 F2040 X-28.527 Y3.645
G1 F1020 X7.674 Y39.848 E210.26496
G0 F2040 X8.169 Y39.848
G1 F1020 X-28.352 Y3.325 E212.24158
G0 F2040 X-28.178 Y3.005
G1 F1020 X8.664 Y39.848 E214.23554
G0 F2040 X9.159 Y39.848
G1 F1020 X-28.003 Y2.684 E216.24685
G0 F2040 X-27.828 Y2.364
G1 F1020 X9.654 Y39.848 E218.27548
G0 F2040 X10.149 Y39.848
G1 F1020 X-27.654 Y2.044 E220.32145
