;FLAVOR:Marlin
;TIME:7895
;Filament used: 7.25091m
;Layer height: 0.2
;MINX:-53.969
;MINY:-49.038
;MINZ:0.26
;MAXX:56.247
;MAXY:47.01
;MAXZ:23.46
;Generated with Cura_SteamEngine 4.8.0
M82 ;absolute extrusion mode
;Gcode by Cura
G90
G28
M107
M109 R100
G30
M109 S215 U-55 X55 V-85 Y-85 W0.26 Z0.26
M82
G92 E0
G1 F200 E6
G92 E0
G1 F200 E-3.5
G0 Z0.15
G0 X10
G0 Z3
G1 F6000
G92 E0
G92 E0
G1 F3600 E-3.8
;LAYER_COUNT:117
;LAYER:0
M107
G0 F2040 X-2.007 Y-46.285 Z0.26
;TYPE:SKIRT
G1 F3600 E0
G1 F1020 X-1.658 Y-46.855 E0.02558
G1 X-1.309 Y-47.349 E0.04872
G1 X-.897 Y-47.792 E0.07188
G1 X-.431 Y-48.177 E0.09501
G1 X0.081 Y-48.498 E0.11814
G1 X0.632 Y-48.748 E0.14129
G1 X1.211 Y-48.923 E0.16444
G1 X1.807 Y-49.02 E0.18755
G1 X2.412 Y-49.038 E0.21071
G1 X3.013 Y-48.976 E0.23383
G1 X3.601 Y-48.835 E0.25697
G1 X4.166 Y-48.618 E0.28014
G1 X4.696 Y-48.328 E0.30326
G1 X5.184 Y-47.971 E0.3264
G1 X5.621 Y-47.553 E0.34954
G1 X6.12 Y-46.897 E0.38108
G1 X6.444 Y-46.356 E0.40521
G1 X55.354 Y39.623 E4.19072
G1 X55.682 Y40.219 E4.21676
G1 X55.938 Y40.767 E4.2399
G1 X56.119 Y41.344 E4.26305
G1 X56.223 Y41.939 E4.28616
G1 X56.247 Y42.544 E4.30933
G1 X56.192 Y43.146 E4.33247
G1 X56.057 Y43.735 E4.35559
G1 X55.846 Y44.302 E4.37874
G1 X55.562 Y44.836 E4.40189
G1 X55.21 Y45.327 E4.42501
G1 X54.797 Y45.768 E4.44813
G1 X54.329 Y46.151 E4.47128
G1 X53.814 Y46.469 E4.49444
G1 X53.262 Y46.716 E4.51758
G1 X52.682 Y46.887 E4.54072
G1 X51.847 Y46.997 E4.57295
G1 X51.19 Y47.01 E4.5981
G1 X-48.788 Y47.009 E8.42421
G1 X-49.464 Y46.999 E8.45009
G1 X-50.066 Y46.951 E8.4732
G1 X-50.657 Y46.823 E8.49634
G1 X-51.226 Y46.618 E8.51948
G1 X-51.763 Y46.34 E8.54263
G1 X-52.259 Y45.994 E8.56577
G1 X-52.704 Y45.585 E8.5889
G1 X-53.092 Y45.121 E8.61205
G1 X-53.415 Y44.61 E8.63518
G1 X-53.669 Y44.061 E8.65833
G1 X-53.847 Y43.483 E8.68148
G1 X-53.948 Y42.887 E8.70461
G1 X-53.969 Y42.283 E8.72774
G1 X-53.91 Y41.681 E8.75089
G1 X-53.773 Y41.092 E8.77403
G1 X-53.559 Y40.527 E8.79715
G1 X-53.378 Y40.173 E8.81237
G1 X-52.829 Y39.203 E8.85502
G1 X-2.007 Y-46.285 E12.66107
G0 F2040 X-1.708 Y-46.102
G1 F1020 X-1.359 Y-46.672 E12.68665
G1 X-1.022 Y-47.146 E12.70891
G1 X-.624 Y-47.568 E12.73111
G1 X-.171 Y-47.933 E12.75337
G1 X0.327 Y-48.231 E12.77558
G1 X0.862 Y-48.459 E12.79784
G1 X1.423 Y-48.61 E12.82007
G1 X1.999 Y-48.684 E12.84229
G1 X2.58 Y-48.678 E12.86453
G1 X3.155 Y-48.592 E12.88678
G1 X3.712 Y-48.428 E12.909
G1 X4.242 Y-48.189 E12.93125
G1 X4.734 Y-47.879 E12.9535
G1 X5.179 Y-47.506 E12.97573
G1 X5.568 Y-47.074 E12.99797
G1 X5.892 Y-46.601 E13.01991
G1 X6.167 Y-46.134 E13.04065
G1 X55.047 Y39.792 E16.82383
G1 X55.375 Y40.388 E16.84987
G1 X55.62 Y40.915 E16.87211
G1 X55.79 Y41.471 E16.89436
G1 X55.882 Y42.044 E16.91657
G1 X55.894 Y42.625 E16.9388
G1 X55.827 Y43.202 E16.96103
G1 X55.681 Y43.765 E16.98329
G1 X55.459 Y44.302 E17.00553
G1 X55.166 Y44.803 E17.02774
G1 X54.807 Y45.26 E17.04998
G1 X54.388 Y45.663 E17.07223
G1 X53.918 Y46.005 E17.09447
G1 X53.406 Y46.279 E17.1167
G1 X52.861 Y46.48 E17.13893
G1 X52.293 Y46.604 E17.16118
G1 X51.702 Y46.652 E17.18387
G1 X51.186 Y46.66 E17.20362
G1 X-48.782 Y46.66 E21.02935
G1 X-49.458 Y46.65 E21.05522
G1 X-50.037 Y46.601 E21.07746
G1 X-50.604 Y46.474 E21.09969
G1 X-51.148 Y46.269 E21.12194
G1 X-51.659 Y45.993 E21.14417
G1 X-52.127 Y45.648 E21.16642
G1 X-52.544 Y45.243 E21.18866
G1 X-52.901 Y44.785 E21.21089
G1 X-53.191 Y44.282 E21.23311
G1 X-53.41 Y43.743 E21.25537
G1 X-53.553 Y43.18 E21.2776
G1 X-53.617 Y42.603 E21.29982
G1 X-53.602 Y42.022 E21.32206
G1 X-53.507 Y41.449 E21.34429
G1 X-53.334 Y40.894 E21.36653
G1 X-53.074 Y40.345 E21.38978
G1 X-52.528 Y39.382 E21.43215
G1 X-1.708 Y-46.102 E25.23803
G0 F2040 X-1.41 Y-45.919
G1 F1020 X-1.061 Y-46.489 E25.26361
G1 X-.737 Y-46.942 E25.28492
G1 X-.352 Y-47.343 E25.30619
G1 X0.087 Y-47.685 E25.32749
G1 X0.571 Y-47.961 E25.34881
G1 X1.088 Y-48.165 E25.37008
G1 X1.63 Y-48.292 E25.39139
G1 X2.184 Y-48.341 E25.41267
G1 X2.74 Y-48.309 E25.43398
G1 X3.285 Y-48.198 E25.45527
G1 X3.809 Y-48.011 E25.47656
G1 X4.301 Y-47.75 E25.49788
G1 X4.75 Y-47.422 E25.51915
G1 X5.147 Y-47.032 E25.54045
G1 X5.527 Y-46.525 E25.5647
G1 X5.839 Y-46.002 E25.58801
G1 X54.741 Y39.961 E29.37283
G1 X55.069 Y40.557 E29.39886
G1 X55.301 Y41.062 E29.42013
G1 X55.459 Y41.596 E29.44144
G1 X55.539 Y42.146 E29.46271
G1 X55.539 Y42.703 E29.48403
G1 X55.459 Y43.254 E29.50534
G1 X55.302 Y43.787 E29.5266
G1 X55.069 Y44.293 E29.54792
G1 X54.767 Y44.76 E29.5692
G1 X54.4 Y45.179 E29.59052
G1 X53.978 Y45.541 E29.6118
G1 X53.508 Y45.838 E29.63307
G1 X53 Y46.066 E29.65438
G1 X52.465 Y46.218 E29.67567
G1 X51.821 Y46.297 E29.7005
G1 X51.181 Y46.31 E29.72499
G1 X-48.777 Y46.31 E33.55034
G1 X-49.453 Y46.3 E33.57621
G1 X-50.008 Y46.251 E33.59753
G1 X-50.549 Y46.124 E33.6188
G1 X-51.067 Y45.921 E33.64009
G1 X-51.551 Y45.646 E33.6614
G1 X-51.99 Y45.304 E33.68269
G1 X-52.375 Y44.903 E33.70397
G1 X-52.7 Y44.45 E33.7253
G1 X-52.956 Y43.956 E33.7466
G1 X-53.138 Y43.431 E33.76786
G1 X-53.244 Y42.884 E33.78918
G1 X-53.27 Y42.329 E33.81045
G1 X-53.216 Y41.775 E33.83175
G1 X-53.084 Y41.234 E33.85306
G1 X-52.769 Y40.517 E33.88303
G1 X-52.227 Y39.561 E33.92509
G1 X-1.41 Y-45.919 E37.73078
G0 F2040 X-1.111 Y-45.737
G1 F1020 X-.762 Y-46.307 E37.75636
G1 X-.452 Y-46.737 E37.77664
G1 X-0.08 Y-47.116 E37.79697
G1 X0.344 Y-47.435 E37.81727
G1 X0.811 Y-47.687 E37.83758
G1 X1.311 Y-47.865 E37.85789
G1 X1.832 Y-47.967 E37.87821
G1 X2.362 Y-47.989 E37.89851
G1 X2.889 Y-47.931 E37.9188
G1 X3.402 Y-47.795 E37.93911
G1 X3.889 Y-47.584 E37.95942
G1 X4.338 Y-47.302 E37.97971
G1 X4.74 Y-46.955 E38.00003
G1 X5.23 Y-46.339 E38.03016
G1 X5.537 Y-45.825 E38.05307
G1 X54.434 Y40.129 E41.8375
G1 X54.762 Y40.725 E41.86353
G1 X54.982 Y41.208 E41.88384
G1 X55.128 Y41.719 E41.90418
G1 X55.194 Y42.245 E41.92447
G1 X55.182 Y42.776 E41.94479
G1 X55.089 Y43.298 E41.96509
G1 X54.919 Y43.801 E41.98541
G1 X54.676 Y44.273 E42.00572
G1 X54.365 Y44.702 E42.026
G1 X53.992 Y45.08 E42.04632
G1 X53.567 Y45.398 E42.06664
G1 X53.1 Y45.649 E42.08693
G1 X52.6 Y45.826 E42.10722
G1 X52.078 Y45.927 E42.12757
G1 X51.177 Y45.96 E42.16208
G1 X-48.772 Y45.96 E45.98708
G1 X-49.448 Y45.95 E46.01295
G1 X-49.977 Y45.902 E46.03328
G1 X-50.492 Y45.775 E46.05358
G1 X-50.983 Y45.573 E46.07389
G1 X-51.437 Y45.299 E46.09419
G1 X-51.845 Y44.96 E46.11449
G1 X-52.198 Y44.564 E46.13479
G1 X-52.487 Y44.119 E46.1551
G1 X-52.707 Y43.635 E46.17544
G1 X-52.851 Y43.125 E46.19572
G1 X-52.917 Y42.598 E46.21605
G1 X-52.903 Y42.068 E46.23634
G1 X-52.809 Y41.545 E46.25667
G1 X-52.639 Y41.043 E46.27696
G1 X-52.464 Y40.69 E46.29203
G1 X-51.926 Y39.74 E46.33382
G1 X-1.111 Y-45.737 E50.13937
G0 F2040 X-.813 Y-45.554
G1 F1020 X-.464 Y-46.124 E50.16495
G1 X-.168 Y-46.531 E50.18421
G1 X0.189 Y-46.886 E50.20347
G1 X0.598 Y-47.181 E50.22277
G1 X1.048 Y-47.407 E50.24204
G1 X1.528 Y-47.559 E50.26131
G1 X2.026 Y-47.634 E50.28058
G1 X2.529 Y-47.628 E50.29984
G1 X3.026 Y-47.543 E50.31913
G1 X3.503 Y-47.381 E50.33841
G1 X3.948 Y-47.145 E50.35769
G1 X4.35 Y-46.842 E50.37695
G1 X4.699 Y-46.479 E50.39622
G1 X5.003 Y-46.043 E50.41656
G1 X5.255 Y-45.615 E50.43557
G1 X54.128 Y40.298 E54.21818
G1 X54.456 Y40.894 E54.24422
G1 X54.663 Y41.353 E54.26349
G1 X54.795 Y41.839 E54.28276
G1 X54.848 Y42.34 E54.30204
G1 X54.821 Y42.843 E54.32132
G1 X54.716 Y43.335 E54.34057
G1 X54.534 Y43.805 E54.35986
G1 X54.279 Y44.24 E54.37915
G1 X53.96 Y44.629 E54.39841
G1 X53.583 Y44.962 E54.41766
G1 X53.157 Y45.232 E54.43696
G1 X52.695 Y45.431 E54.45621
G1 X52.207 Y45.555 E54.47548
G1 X51.662 Y45.603 E54.49642
G1 X51.173 Y45.61 E54.51513
G1 X-48.767 Y45.61 E58.33979
G1 X-49.443 Y45.6 E58.36566
G1 X-49.944 Y45.552 E58.38492
G1 X-50.432 Y45.426 E58.40421
G1 X-50.893 Y45.225 E58.42346
G1 X-51.317 Y44.953 E58.44273
G1 X-51.693 Y44.617 E58.46203
G1 X-52.01 Y44.226 E58.48129
G1 X-52.262 Y43.79 E58.50057
G1 X-52.442 Y43.32 E58.51983
G1 X-52.545 Y42.827 E58.5391
G1 X-52.569 Y42.324 E58.55837
G1 X-52.514 Y41.824 E58.57762
G1 X-52.379 Y41.338 E58.59693
G1 X-52.16 Y40.862 E58.61698
G1 X-51.625 Y39.919 E58.65847
G1 X-.813 Y-45.554 E62.46383
G1 F3600 E58.66383
;MESH:support_tri_0_020.stl
G0 F2040 X1.343 Y-44.269
G0 X2.233 Y-43.741
G0 X50.79 Y41.91
;TYPE:WALL-INNER
G1 F3600 E62.46383
G1 F1020 X-48.504 Y41.91 E66.26377
G1 X2.235 Y-43.441 E70.06369
G1 X50.79 Y41.91 E73.82159
G0 F2040 X51.348 Y42.235
;TYPE:WALL-OUTER
G1 F1020 X-49.075 Y42.235 E77.66473
G1 X2.241 Y-44.087 E81.50788
G1 X51.348 Y42.235 E85.30852
G0 F2040 X51.148 Y42.235
G0 X51.005 Y42.035
G0 X50.205 Y41.57
;TYPE:SKIN
G1 F1020 X-47.907 Y41.57 E89.06322
G1 X2.228 Y-42.765 E92.81791
G1 X50.205 Y41.57 E96.53107
G0 F2040 X2.175 Y-42.371
G1 F1020 X2.394 Y-42.153 E96.5429
G0 F2040 X1.991 Y-42.061
G1 F1020 X3.046 Y-41.005 E96.60002
G1 X3.108 Y-40.943
G0 F2040 X3.7 Y-39.857
G1 F1020 X1.806 Y-41.751 E96.70253
G0 F2040 X1.622 Y-41.44
G1 F1020 X4.353 Y-38.709 E96.85034
G1 X4.415 Y-38.647
G0 F2040 X5.006 Y-37.561
G1 F1020 X1.437 Y-41.13 E97.04349
G0 F2040 X1.252 Y-40.819
G1 F1020 X5.659 Y-36.413 E97.28198
G1 X5.721 Y-36.351
G0 F2040 X6.313 Y-35.264
G1 F1020 X1.068 Y-40.509 E97.56585
G0 F2040 X0.883 Y-40.199
G1 F1020 X6.966 Y-34.116 E97.89507
G1 X7.028 Y-34.054
G0 F2040 X7.619 Y-32.968
G1 F1020 X0.699 Y-39.888 E98.26958
G0 F2040 X0.514 Y-39.578
G1 F1020 X8.272 Y-31.82 E98.68946
G1 X8.334 Y-31.758
G0 F2040 X8.925 Y-30.672
G1 F1020 X0.33 Y-39.267 E99.15463
G0 F2040 X0.145 Y-38.957
G1 F1020 X9.578 Y-29.524 E99.66516
G1 X9.64 Y-29.462
G0 F2040 X10.231 Y-28.376
G1 F1020 X-0.038 Y-38.646 E100.22095
G0 F2040 X-.223 Y-38.336
G1 F1020 X10.885 Y-27.227 E100.82216
G1 X10.947 Y-27.165
G0 F2040 X11.537 Y-26.08
G1 F1020 X-.408 Y-38.026 E101.46867
G0 F2040 X-.592 Y-37.715
G1 F1020 X12.191 Y-24.931 E102.16053
G1 X12.253 Y-24.869
G0 F2040 X12.844 Y-23.783
G1 F1020 X-.777 Y-37.405 E102.89774
G0 F2040 X-.961 Y-37.094
G1 F1020 X13.497 Y-22.635 E103.68025
G1 X13.559 Y-22.573
G0 F2040 X14.15 Y-21.487
G1 F1020 X-1.146 Y-36.784 E104.50812
G0 F2040 X-1.33 Y-36.473
G1 F1020 X14.803 Y-20.339 E105.38128
G1 X14.865 Y-20.277
G0 F2040 X15.457 Y-19.19
G1 F1020 X-1.515 Y-36.163 E106.29986
G0 F2040 X-1.699 Y-35.853
G1 F1020 X16.11 Y-18.043 E107.26373
G1 X16.172 Y-17.981
G0 F2040 X16.763 Y-16.894
G1 F1020 X-1.884 Y-35.542 E108.27295
G0 F2040 X-2.068 Y-35.232
G1 F1020 X17.416 Y-15.746 E109.32751
G1 X17.478 Y-15.684
G0 F2040 X18.069 Y-14.598
G1 F1020 X-2.253 Y-34.921 E110.42739
G0 F2040 X-2.438 Y-34.611
G1 F1020 X18.722 Y-13.45 E111.57262
G1 X18.784 Y-13.388
G0 F2040 X19.376 Y-12.302
G1 F1020 X-2.622 Y-34.301 E112.76321
G0 F2040 X-2.807 Y-33.99
G1 F1020 X20.028 Y-11.154 E113.99909
G1 X20.09 Y-11.092
G0 F2040 X20.682 Y-10.006
G1 F1020 X-2.991 Y-33.68 E115.28033
G0 F2040 X-3.176 Y-33.369
G1 F1020 X21.335 Y-8.857 E116.60693
G1 X21.397 Y-8.795
G0 F2040 X21.988 Y-7.709
G1 F1020 X-3.36 Y-33.059 E117.97885
G0 F2040 X-3.545 Y-32.748
G1 F1020 X22.641 Y-6.561 E119.39609
G1 X22.703 Y-6.499
G0 F2040 X23.294 Y-5.413
G1 F1020 X-3.729 Y-32.438 E120.85867
G0 F2040 X-3.914 Y-32.128
G1 F1020 X23.948 Y-4.265 E122.36662
G1 X24.01 Y-4.203
G0 F2040 X24.6 Y-3.117
G1 F1020 X-4.099 Y-31.817 E123.91988
G0 F2040 X-4.283 Y-31.507
G1 F1020 X25.254 Y-1.969 E125.51848
G1 X25.316 Y-1.907
G0 F2040 X25.907 Y-.82
G1 F1020 X-4.468 Y-31.196 E127.16244
G0 F2040 X-4.652 Y-30.886
G1 F1020 X26.56 Y0.326 E128.85168
G1 X26.622 Y0.388
G0 F2040 X27.213 Y1.475
G1 F1020 X-4.837 Y-30.576 E130.58629
G0 F2040 X-5.021 Y-30.265
G1 F1020 X27.867 Y2.623 E132.36623
G1 X27.929 Y2.685
G0 F2040 X28.519 Y3.771
G1 F1020 X-5.206 Y-29.955 E134.1915
G0 F2040 X-5.39 Y-29.644
G1 F1020 X29.173 Y4.919 E136.06209
G1 X29.235 Y4.981
G0 F2040 X29.826 Y6.067
G1 F1020 X-5.575 Y-29.334 E137.97804
G0 F2040 X-5.76 Y-29.023
G1 F1020 X30.479 Y7.216 E139.93934
G1 X30.541 Y7.278
G0 F2040 X31.132 Y8.363
G1 F1020 X-5.943 Y-28.712 E141.94589
G0 F2040 X-6.128 Y-28.402
G1 F1020 X31.785 Y9.512 E143.99781
G1 X31.847 Y9.574
G0 F2040 X32.439 Y10.66
G1 F1020 X-6.313 Y-28.091 E146.09509
G0 F2040 X-6.497 Y-27.781
G1 F1020 X33.091 Y11.807 E148.23765
G1 X33.153 Y11.869
G0 F2040 X33.745 Y12.956
G1 F1020 X-6.682 Y-27.471 E150.42561
G0 F2040 X-6.866 Y-27.16
G1 F1020 X34.398 Y14.104 E152.65887
G1 X34.46 Y14.166
G0 F2040 X35.051 Y15.252
G1 F1020 X-7.051 Y-26.85 E154.93748
G0 F2040 X-7.235 Y-26.539
G1 F1020 X35.704 Y16.4 E157.26139
G1 X35.766 Y16.462
G0 F2040 X36.358 Y17.548
G1 F1020 X-7.42 Y-26.229 E159.63069
G0 F2040 X-7.604 Y-25.918
G1 F1020 X37.011 Y18.697 E162.04531
G1 X37.073 Y18.759
G0 F2040 X37.664 Y19.844
G1 F1020 X-7.789 Y-25.608 E164.50526
G0 F2040 X-7.974 Y-25.298
G1 F1020 X38.317 Y20.993 E167.01058
G1 X38.379 Y21.055
G0 F2040 X38.97 Y22.141
G1 F1020 X-8.158 Y-24.987 E169.56121
G0 F2040 X-8.343 Y-24.677
G1 F1020 X39.623 Y23.289 E172.15719
G1 X39.685 Y23.351
G0 F2040 X40.276 Y24.437
G1 F1020 X-8.527 Y-24.366 E174.79847
G0 F2040 X-8.712 Y-24.056
G1 F1020 X40.93 Y25.585 E177.48513
G1 X40.992 Y25.647
G0 F2040 X41.582 Y26.733
G1 F1020 X-8.896 Y-23.746 E180.2171
G0 F2040 X-9.081 Y-23.435
G1 F1020 X42.236 Y27.881 E182.99441
G1 X42.298 Y27.943
G0 F2040 X42.889 Y29.03
G1 F1020 X-9.265 Y-23.125 E185.81708
G0 F2040 X-9.45 Y-22.814
G1 F1020 X43.542 Y30.177 E188.68504
G1 X43.604 Y30.239
G0 F2040 X44.195 Y31.326
G1 F1020 X-9.635 Y-22.504 E191.59839
G0 F2040 X-9.819 Y-22.193
G1 F1020 X44.848 Y32.474 E194.55704
G1 X44.91 Y32.536
G0 F2040 X45.502 Y33.622
G1 F1020 X-10.004 Y-21.883 E197.56107
G0 F2040 X-10.188 Y-21.573
G1 F1020 X46.154 Y34.77 E200.6104
G1 X46.216 Y34.832
G0 F2040 X46.808 Y35.918
G1 F1020 X-10.373 Y-21.262 E203.70508
G0 F2040 X-10.557 Y-20.952
G1 F1020 X47.461 Y37.067 E206.84511
G1 X47.523 Y37.129
G0 F2040 X48.114 Y38.214
G1 F1020 X-10.742 Y-20.641 E210.03045
G0 F2040 X-10.926 Y-20.331
G1 F1020 X48.767 Y39.363 E213.26114
G1 X48.829 Y39.425
G0 F2040 X49.421 Y40.511
G1 F1020 X-11.111 Y-20.021 E216.53721
G0 F2040 X-11.296 Y-19.71
G1 F1020 X49.827 Y41.413 E219.84526
G0 F2040 X49.332 Y41.413
G1 F1020 X-11.48 Y-19.4 E223.13651
G0 F2040 X-11.665 Y-19.089
G1 F1020 X48.837 Y41.413 E226.41096
G0 F2040 X48.342 Y41.413
G1 F1020 X-11.849 Y-18.779 E229.6686
G0 F2040 X-12.034 Y-18.468
G1 F1020 X47.847 Y41.413 E232.90943
G0 F2040 X47.352 Y41.413
G1 F1020 X-12.218 Y-18.158 E236.13346
G0 F2040 X-12.403 Y-17.848
G1 F1020 X46.857 Y41.413 E239.34072
G0 F2040 X46.362 Y41.413
G1 F1020 X-12.587 Y-17.537 E242.53114
G0 F2040 X-12.772 Y-17.227
G1 F1020 X45.867 Y41.413 E245.70478
G0 F2040 X45.372 Y41.413
G1 F1020 X-12.957 Y-16.916 E248.86162
G0 F2040 X-13.141 Y-16.606
G1 F1020 X44.877 Y41.413 E252.00166
G0 F2040 X44.382 Y41.413
G1 F1020 X-13.326 Y-16.295 E255.12489
G0 F2040 X-13.51 Y-15.985
G1 F1020 X43.887 Y41.413 E258.23132
G0 F2040 X43.393 Y41.413
G1 F1020 X-13.695 Y-15.675 E261.32099
G0 F2040 X-13.879 Y-15.364
G1 F1020 X42.898 Y41.413 E264.39383
G0 F2040 X42.403 Y41.413
G1 F1020 X-14.064 Y-15.054 E267.4499
G0 F2040 X-14.248 Y-14.743
G1 F1020 X41.908 Y41.413 E270.48913
G0 F2040 X41.413 Y41.413
G1 F1020 X-14.433 Y-14.433 E273.51159
G0 F2040 X-14.618 Y-14.123
G1 F1020 X40.918 Y41.413 E276.51727
G0 F2040 X40.423 Y41.413
G1 F1020 X-14.802 Y-13.812 E279.50612
G0 F2040 X-14.987 Y-13.502
G1 F1020 X39.928 Y41.413 E282.47819
G0 F2040 X39.433 Y41.413
G1 F1020 X-15.17 Y-13.191 E285.4334
G0 F2040 X-15.355 Y-12.88
G1 F1020 X38.938 Y41.413 E288.3718
G0 F2040 X38.443 Y41.413
G1 F1020 X-15.54 Y-12.57 E291.29343
G0 F2040 X-15.724 Y-12.259
G1 F1020 X37.948 Y41.413 E294.19823
G0 F2040 X37.453 Y41.413
G1 F1020 X-15.909 Y-11.949 E297.08625
G0 F2040 X-16.093 Y-11.638
G1 F1020 X36.958 Y41.413 E299.95744
G0 F2040 X36.463 Y41.413
G1 F1020 X-16.278 Y-11.328 E302.81185
G0 F2040 X-16.462 Y-11.018
G1 F1020 X35.968 Y41.413 E305.64945
G0 F2040 X35.473 Y41.413
G1 F1020 X-16.647 Y-10.707 E308.47025
G0 F2040 X-16.831 Y-10.397
G1 F1020 X34.978 Y41.413 E311.27425
G0 F2040 X34.483 Y41.413
G1 F1020 X-17.016 Y-10.086 E314.06144
G0 F2040 X-17.201 Y-9.776
G1 F1020 X33.988 Y41.413 E316.83186
G0 F2040 X33.493 Y41.413
G1 F1020 X-17.385 Y-9.466 E319.58546
G0 F2040 X-17.57 Y-9.155
G1 F1020 X32.998 Y41.413 E322.32227
G0 F2040 X32.503 Y41.413
G1 F1020 X-17.754 Y-8.845 E325.04227
G0 F2040 X-17.939 Y-8.534
