;FLAVOR:Marlin
;TIME:6282
;Filament used: 8.02388m
;Layer height: 0.3
;MINX:-41.079
;MINY:-24.836
;MINZ:0.26
;MAXX:71.096
;MAXY:71.733
;MAXZ:22.76
;Generated with Cura_SteamEngine 4.9.1
M82 ;absolute extrusion mode
;Gcode by Cura
G90
G28
M107
M109 R100
G30
M109 S215 U-55 X55 V-85 Y-85 W0.26 Z0.26
M82
G92 E0
G1 F200 E6
G92 E0
G1 F200 E-3.5
G0 Z0.15
G0 X10
G0 Z3
G1 F6000
G92 E0
G92 E0
G1 F3600 E-3.8
;LAYER_COUNT:76
;LAYER:0
M107
G0 F2040 X-35.622 Y-24.836 Z0.26
;TYPE:SKIRT
G1 F3600 E0
G1 F1020 X65.912 Y-24.836 E3.88566
G1 X66.59 Y-24.826 E3.91161
G1 X67.193 Y-24.777 E3.93476
G1 X67.784 Y-24.649 E3.9579
G1 X68.353 Y-24.444 E3.98105
G1 X68.89 Y-24.166 E4.00419
G1 X69.386 Y-23.82 E4.02733
G1 X69.831 Y-23.411 E4.05046
G1 X70.219 Y-22.947 E4.07361
G1 X70.542 Y-22.436 E4.09674
G1 X70.795 Y-21.887 E4.11988
G1 X70.974 Y-21.309 E4.14303
G1 X71.075 Y-20.713 E4.16617
G1 X71.096 Y-20.109 E4.1893
G1 X71.037 Y-19.507 E4.21245
G1 X70.9 Y-18.918 E4.23559
G1 X70.568 Y-18.113 E4.26891
G1 X70.063 Y-17.16 E4.31019
G1 X22.366 Y68.827 E8.07322
G1 X22.021 Y69.43 E8.09981
G1 X21.687 Y69.934 E8.12295
G1 X21.289 Y70.389 E8.14608
G1 X20.834 Y70.788 E8.16924
G1 X20.331 Y71.124 E8.19239
G1 X19.789 Y71.39 E8.2155
G1 X19.215 Y71.582 E8.23866
G1 X18.622 Y71.697 E8.26178
G1 X18.018 Y71.733 E8.28493
G1 X17.415 Y71.689 E8.30807
G1 X16.823 Y71.565 E8.33122
G1 X16.253 Y71.365 E8.35434
G1 X15.714 Y71.091 E8.37748
G1 X15.215 Y70.749 E8.40063
G1 X14.766 Y70.344 E8.42377
G1 X14.22 Y69.66 E8.45726
G1 X13.63 Y68.755 E8.4986
G1 X-40.071 Y-17.301 E12.38054
G1 X-40.421 Y-17.881 E12.40647
G1 X-40.699 Y-18.418 E12.42961
G1 X-40.903 Y-18.988 E12.45278
G1 X-41.03 Y-19.579 E12.47591
G1 X-41.079 Y-20.181 E12.49903
G1 X-41.047 Y-20.785 E12.52217
G1 X-40.936 Y-21.38 E12.54534
G1 X-40.748 Y-21.954 E12.56845
G1 X-40.485 Y-22.499 E12.59161
G1 X-40.153 Y-23.004 E12.61474
G1 X-39.758 Y-23.461 E12.63786
G1 X-39.305 Y-23.862 E12.66101
G1 X-38.803 Y-24.2 E12.68417
G1 X-38.262 Y-24.469 E12.70729
G1 X-37.689 Y-24.664 E12.73045
G1 X-37.096 Y-24.781 E12.75358
G1 X-36.587 Y-24.819 E12.77312
G1 X-35.622 Y-24.836 E12.81005
G0 F2040 X-35.622 Y-24.486
G1 F1020 X65.907 Y-24.486 E16.69552
G1 X66.585 Y-24.476 E16.72147
G1 X67.164 Y-24.427 E16.74371
G1 X67.731 Y-24.3 E16.76594
G1 X68.275 Y-24.096 E16.78818
G1 X68.786 Y-23.819 E16.81042
G1 X69.254 Y-23.475 E16.83265
G1 X69.671 Y-23.069 E16.85492
G1 X70.028 Y-22.611 E16.87715
G1 X70.318 Y-22.108 E16.89937
G1 X70.537 Y-21.569 E16.92163
G1 X70.68 Y-21.006 E16.94386
G1 X70.744 Y-20.429 E16.96608
G1 X70.729 Y-19.848 E16.98832
G1 X70.634 Y-19.275 E17.01055
G1 X70.461 Y-18.72 E17.03279
G1 X70.258 Y-18.276 E17.05148
G1 X69.757 Y-17.33 E17.09244
G1 X22.062 Y68.653 E20.85531
G1 X21.717 Y69.256 E20.8819
G1 X21.395 Y69.739 E20.90411
G1 X21.009 Y70.174 E20.92637
G1 X20.567 Y70.551 E20.9486
G1 X20.078 Y70.865 E20.97084
G1 X19.55 Y71.108 E20.99308
G1 X18.994 Y71.276 E21.01531
G1 X18.42 Y71.367 E21.03755
G1 X17.839 Y71.378 E21.05979
G1 X17.262 Y71.309 E21.08203
G1 X16.7 Y71.162 E21.10426
G1 X16.164 Y70.938 E21.12649
G1 X15.663 Y70.644 E21.14872
G1 X15.207 Y70.283 E21.17098
G1 X14.805 Y69.864 E21.1932
G1 X14.513 Y69.469 E21.212
G1 X13.927 Y68.57 E21.25307
G1 X-39.771 Y-17.482 E25.13482
G1 X-40.121 Y-18.062 E25.16074
G1 X-40.387 Y-18.579 E25.18299
G1 X-40.579 Y-19.127 E25.20522
G1 X-40.693 Y-19.697 E25.22746
G1 X-40.729 Y-20.277 E25.2497
G1 X-40.685 Y-20.856 E25.27192
G1 X-40.561 Y-21.424 E25.29417
G1 X-40.361 Y-21.97 E25.31642
G1 X-40.088 Y-22.482 E25.33863
G1 X-39.747 Y-22.953 E25.36088
G1 X-39.345 Y-23.372 E25.3831
G1 X-38.889 Y-23.733 E25.40536
G1 X-38.388 Y-24.027 E25.42759
G1 X-37.851 Y-24.249 E25.44983
G1 X-37.289 Y-24.396 E25.47206
G1 X-36.581 Y-24.469 E25.4993
G1 X-35.622 Y-24.486 E25.53601
G0 F2040 X-35.622 Y-24.136
G1 F1020 X65.902 Y-24.136 E29.42128
G1 X66.58 Y-24.126 E29.44723
G1 X67.134 Y-24.077 E29.46851
G1 X67.676 Y-23.95 E29.48982
G1 X68.194 Y-23.747 E29.51111
G1 X68.678 Y-23.472 E29.53241
G1 X69.117 Y-23.13 E29.55371
G1 X69.502 Y-22.729 E29.57498
G1 X69.826 Y-22.277 E29.59627
G1 X70.082 Y-21.783 E29.61756
G1 X70.265 Y-21.257 E29.63887
G1 X70.371 Y-20.711 E29.66016
G1 X70.397 Y-20.155 E29.68146
G1 X70.343 Y-19.601 E29.70276
G1 X70.211 Y-19.061 E29.72403
G1 X69.949 Y-18.44 E29.74983
G1 X69.451 Y-17.499 E29.79057
G1 X21.758 Y68.479 E33.55323
G1 X21.413 Y69.082 E33.57982
G1 X21.103 Y69.544 E33.60111
G1 X20.73 Y69.957 E33.62241
G1 X20.301 Y70.312 E33.64372
G1 X19.827 Y70.602 E33.66499
G1 X19.315 Y70.821 E33.6863
G1 X18.777 Y70.964 E33.7076
G1 X18.225 Y71.029 E33.72887
G1 X17.669 Y71.014 E33.75016
G1 X17.12 Y70.92 E33.77147
G1 X16.591 Y70.748 E33.79276
G1 X16.092 Y70.502 E33.81405
G1 X15.633 Y70.187 E33.83536
G1 X15.224 Y69.81 E33.85664
G1 X14.806 Y69.277 E33.88256
G1 X14.224 Y68.384 E33.92336
G1 X-39.472 Y-17.663 E37.8049
G1 X-39.822 Y-18.243 E37.83083
G1 X-40.074 Y-18.739 E37.85212
G1 X-40.253 Y-19.266 E37.87342
G1 X-40.355 Y-19.813 E37.89471
G1 X-40.377 Y-20.369 E37.91601
G1 X-40.319 Y-20.922 E37.93729
G1 X-40.183 Y-21.462 E37.9586
G1 X-39.971 Y-21.976 E37.97987
G1 X-39.687 Y-22.455 E38.00119
G1 X-39.338 Y-22.888 E38.02247
G1 X-38.93 Y-23.266 E38.04375
G1 X-38.473 Y-23.583 E38.06504
G1 X-37.974 Y-23.83 E38.08635
G1 X-37.446 Y-24.004 E38.10762
G1 X-36.898 Y-24.1 E38.12891
G1 X-36.574 Y-24.119 E38.14133
G1 X-35.622 Y-24.136 E38.17777
G0 F2040 X-35.622 Y-23.786
G1 F1020 X65.897 Y-23.786 E42.06286
G1 X66.575 Y-23.776 E42.0888
G1 X67.103 Y-23.728 E42.10909
G1 X67.619 Y-23.601 E42.12943
G1 X68.109 Y-23.399 E42.14971
G1 X68.564 Y-23.125 E42.17004
G1 X68.972 Y-22.786 E42.19034
G1 X69.325 Y-22.39 E42.21064
G1 X69.614 Y-21.945 E42.23095
G1 X69.834 Y-21.462 E42.25126
G1 X69.978 Y-20.951 E42.27158
G1 X70.044 Y-20.424 E42.2919
G1 X70.03 Y-19.894 E42.31219
G1 X69.937 Y-19.372 E42.33248
G1 X69.766 Y-18.869 E42.35282
G1 X69.639 Y-18.604 E42.36406
G1 X69.145 Y-17.669 E42.40453
G1 X21.455 Y68.306 E46.16704
G1 X21.11 Y68.909 E46.19362
G1 X20.812 Y69.348 E46.21393
G1 X20.452 Y69.738 E46.23424
G1 X20.038 Y70.069 E46.25453
G1 X19.578 Y70.335 E46.27486
G1 X19.084 Y70.528 E46.29516
G1 X18.566 Y70.645 E46.31548
G1 X18.037 Y70.683 E46.33578
G1 X17.508 Y70.641 E46.35609
G1 X16.991 Y70.52 E46.37641
G1 X16.499 Y70.323 E46.39669
G1 X16.041 Y70.054 E46.41701
G1 X15.629 Y69.72 E46.43731
G1 X15.272 Y69.328 E46.4576
G1 X15.099 Y69.086 E46.46899
G1 X14.52 Y68.199 E46.50952
G1 X-39.172 Y-17.844 E50.39086
G1 X-39.522 Y-18.424 E50.41678
G1 X-39.761 Y-18.897 E50.43706
G1 X-39.927 Y-19.402 E50.45741
G1 X-40.014 Y-19.925 E50.4777
G1 X-40.023 Y-20.456 E50.49802
G1 X-39.951 Y-20.981 E50.5183
G1 X-39.802 Y-21.491 E50.53863
G1 X-39.577 Y-21.971 E50.55892
G1 X-39.283 Y-22.413 E50.57924
G1 X-38.926 Y-22.806 E50.59956
G1 X-38.514 Y-23.14 E50.61985
G1 X-38.057 Y-23.409 E50.64015
G1 X-37.564 Y-23.607 E50.66048
G1 X-37.048 Y-23.728 E50.68076
G1 X-36.568 Y-23.769 E50.6992
G1 X-35.622 Y-23.786 E50.73541
G0 F2040 X-35.622 Y-23.436
G1 F1020 X65.892 Y-23.436 E54.6203
G1 X66.57 Y-23.426 E54.64625
G1 X67.071 Y-23.378 E54.66551
G1 X67.559 Y-23.252 E54.6848
G1 X68.02 Y-23.051 E54.70404
G1 X68.444 Y-22.779 E54.72332
G1 X68.82 Y-22.443 E54.74262
G1 X69.137 Y-22.053 E54.76185
G1 X69.389 Y-21.617 E54.78112
G1 X69.569 Y-21.146 E54.80042
G1 X69.672 Y-20.653 E54.81969
G1 X69.696 Y-20.15 E54.83897
G1 X69.641 Y-19.65 E54.85822
G1 X69.506 Y-19.164 E54.87752
G1 X69.33 Y-18.767 E54.89414
G1 X68.838 Y-17.839 E54.93434
G1 X21.151 Y68.132 E58.69665
G1 X20.806 Y68.735 E58.72324
G1 X20.522 Y69.151 E58.74251
G1 X20.176 Y69.516 E58.76176
G1 X19.776 Y69.823 E58.78106
G1 X19.333 Y70.062 E58.80032
G1 X18.858 Y70.229 E58.81959
G1 X18.362 Y70.318 E58.83888
G1 X17.859 Y70.327 E58.85813
G1 X17.36 Y70.257 E58.87741
G1 X16.879 Y70.109 E58.89667
G1 X16.427 Y69.887 E58.91594
G1 X16.016 Y69.596 E58.93521
G1 X15.656 Y69.243 E58.95451
G1 X15.392 Y68.895 E58.97123
G1 X14.817 Y68.014 E59.01149
G1 X-38.872 Y-18.025 E62.89263
G1 X-39.222 Y-18.605 E62.91856
G1 X-39.448 Y-19.055 E62.93783
G1 X-39.599 Y-19.535 E62.95708
G1 X-39.672 Y-20.034 E62.97638
G1 X-39.666 Y-20.537 E62.99563
G1 X-39.58 Y-21.033 E63.0149
G1 X-39.416 Y-21.51 E63.0342
G1 X-39.18 Y-21.954 E63.05345
G1 X-38.876 Y-22.356 E63.07273
G1 X-38.512 Y-22.704 E63.09201
G1 X-38.098 Y-22.991 E63.11128
G1 X-37.644 Y-23.208 E63.13054
G1 X-37.161 Y-23.351 E63.14982
G1 X-36.562 Y-23.419 E63.17289
G1 X-35.622 Y-23.436 E63.20887
G1 F3600 E59.40887
;MESH:support_tri_0_058.stl
G0 F2040 X-35.622 Y-20.926
G0 X-35.622 Y-19.891
G0 X18.018 Y66.152
;TYPE:WALL-INNER
G1 F3600 E63.20887
G1 F1020 X-35.579 Y-19.736 E67.08325
G1 X65.66 Y-19.736 E70.95761
G1 X18.018 Y66.152 E74.71632
G0 F2040 X18.034 Y66.793
;TYPE:WALL-OUTER
G1 F1020 X-36.165 Y-20.061 E78.63425
G1 X66.212 Y-20.061 E82.55217
G1 X18.034 Y66.793 E86.35316
G0 F2040 X17.929 Y66.624
G0 X18.025 Y66.398
G0 X18.001 Y65.482
;TYPE:SKIN
G1 F1020 X-34.967 Y-19.396 E90.182
G1 X65.083 Y-19.396 E94.01086
G1 X18.001 Y65.482 E97.72537
G0 F2040 X18.048 Y65.071
G1 F1020 X17.734 Y64.756 E97.74239
G0 F2040 X18.225 Y64.753
G1 F1020 X16.912 Y63.44 E97.81345
G1 X16.85 Y63.378
G0 F2040 X16.09 Y62.123
G1 F1020 X18.402 Y64.435 E97.93858
G0 F2040 X18.578 Y64.116
G1 F1020 X15.269 Y60.806 E98.1177
G1 X15.207 Y60.744
G0 F2040 X14.447 Y59.49
G1 F1020 X18.755 Y63.798 E98.35085
G0 F2040 X18.932 Y63.479
G1 F1020 X13.625 Y58.173 E98.63805
G1 X13.563 Y58.111
G0 F2040 X12.804 Y56.857
G1 F1020 X19.108 Y63.161 E98.97923
G0 F2040 X19.284 Y62.842
G1 F1020 X11.982 Y55.54 E99.37442
G1 X11.92 Y55.478
G0 F2040 X11.16 Y54.223
G1 F1020 X19.461 Y62.524 E99.82368
G0 F2040 X19.638 Y62.206
G1 F1020 X10.339 Y52.907 E100.32695
G1 X10.277 Y52.845
G0 F2040 X9.517 Y51.59
G1 F1020 X19.815 Y61.888 E100.88429
G0 F2040 X19.991 Y61.569
G1 F1020 X8.695 Y50.273 E101.49565
G1 X8.633 Y50.211
G0 F2040 X7.874 Y48.957
G1 F1020 X20.168 Y61.251 E102.16102
G0 F2040 X20.344 Y60.932
G1 F1020 X7.052 Y47.64 E102.8804
G1 X6.99 Y47.578
G0 F2040 X6.231 Y46.323
G1 F1020 X20.521 Y60.614 E103.65382
G0 F2040 X20.697 Y60.295
G1 F1020 X5.41 Y45.008 E104.48117
G1 X5.348 Y44.946
G0 F2040 X4.588 Y43.691
G1 F1020 X20.874 Y59.977 E105.36259
G0 F2040 X21.051 Y59.659
G1 F1020 X3.766 Y42.374 E106.29807
G1 X3.704 Y42.312
G0 F2040 X2.945 Y41.058
G1 F1020 X21.228 Y59.341 E107.28757
G0 F2040 X21.404 Y59.022
G1 F1020 X2.123 Y39.741 E108.33108
G1 X2.061 Y39.679
G0 F2040 X1.301 Y38.424
G1 F1020 X21.58 Y58.704 E109.42864
G0 F2040 X21.757 Y58.385
G1 F1020 X0.48 Y37.108 E110.58017
G1 X0.418 Y37.046
G0 F2040 X-.341 Y35.791
G1 F1020 X21.934 Y58.067 E111.78575
G0 F2040 X22.11 Y57.748
G1 F1020 X-1.163 Y34.474 E113.04534
G1 X-1.225 Y34.412
G0 F2040 X-1.984 Y33.158
G1 F1020 X22.287 Y57.43 E114.35895
G0 F2040 X22.464 Y57.112
G1 F1020 X-2.806 Y31.841 E115.72662
G1 X-2.868 Y31.779
G0 F2040 X-3.628 Y30.525
G1 F1020 X22.64 Y56.794 E117.14831
G0 F2040 X22.816 Y56.475
G1 F1020 X-4.449 Y29.208 E118.62398
G1 X-4.511 Y29.146
G0 F2040 X-5.271 Y27.891
G1 F1020 X22.993 Y56.157 E120.15371
G0 F2040 X23.17 Y55.838
G1 F1020 X-6.093 Y26.575 E121.73747
G1 X-6.155 Y26.513
G0 F2040 X-6.914 Y25.258
G1 F1020 X23.347 Y55.52 E123.37526
G0 F2040 X23.523 Y55.201
G1 F1020 X-7.736 Y23.941 E125.06706
G1 X-7.798 Y23.879
G0 F2040 X-8.558 Y22.625
G1 F1020 X23.7 Y54.883 E126.8129
G0 F2040 X23.876 Y54.565
G1 F1020 X-9.379 Y21.308 E128.61276
G1 X-9.441 Y21.246
G0 F2040 X-10.201 Y19.992
G1 F1020 X24.053 Y54.247 E130.46666
G0 F2040 X24.229 Y53.928
G1 F1020 X-11.023 Y18.675 E132.37457
G1 X-11.085 Y18.613
G0 F2040 X-11.844 Y17.358
G1 F1020 X24.406 Y53.61 E134.33652
G0 F2040 X24.583 Y53.291
G1 F1020 X-12.666 Y16.042 E136.35248
G1 X-12.728 Y15.98
G0 F2040 X-13.488 Y14.725
G1 F1020 X24.76 Y52.973 E138.42251
G0 F2040 X24.936 Y52.654
G1 F1020 X-14.309 Y13.408 E140.54653
G1 X-14.371 Y13.346
G0 F2040 X-15.131 Y12.092
G1 F1020 X25.112 Y52.336 E142.72456
G0 F2040 X25.289 Y52.018
G1 F1020 X-15.953 Y10.775 E144.95666
G1 X-16.015 Y10.713
G0 F2040 X-16.774 Y9.458
G1 F1020 X25.466 Y51.7 E147.24279
G0 F2040 X25.642 Y51.381
G1 F1020 X-17.596 Y8.142 E149.58291
G1 X-17.658 Y8.08
G0 F2040 X-18.418 Y6.825
G1 F1020 X25.819 Y51.063 E151.9771
G0 F2040 X25.996 Y50.744
G1 F1020 X-19.239 Y5.509 E154.42528
G1 X-19.301 Y5.447
G0 F2040 X-20.061 Y4.192
G1 F1020 X26.172 Y50.426 E156.9275
G0 F2040 X26.348 Y50.107
G1 F1020 X-20.882 Y2.875 E159.4837
G1 X-20.944 Y2.813
G0 F2040 X-21.704 Y1.559
G1 F1020 X26.525 Y49.789 E162.09394
G0 F2040 X26.702 Y49.471
G1 F1020 X-22.526 Y0.242 E164.75825
G1 X-22.588 Y0.18
G0 F2040 X-23.347 Y-1.074
G1 F1020 X26.879 Y49.153 E167.47657
G0 F2040 X27.056 Y48.834
G1 F1020 X-24.169 Y-2.39 E170.24891
G1 X-24.231 Y-2.452
G0 F2040 X-24.991 Y-3.707
G1 F1020 X27.232 Y48.516 E173.07528
G0 F2040 X27.408 Y48.197
G1 F1020 X-25.812 Y-5.023 E175.95562
G1 X-25.874 Y-5.085
G0 F2040 X-26.634 Y-6.34
G1 F1020 X27.585 Y47.879 E178.89002
G0 F2040 X27.762 Y47.561
G1 F1020 X-27.456 Y-7.657 E181.87849
G1 X-27.518 Y-7.719
G0 F2040 X-28.277 Y-8.973
G1 F1020 X27.938 Y47.242 E184.92091
G0 F2040 X28.115 Y46.924
G1 F1020 X-29.099 Y-10.29 E188.01741
G1 X-29.161 Y-10.352
G0 F2040 X-29.921 Y-11.607
G1 F1020 X28.292 Y46.606 E191.16797
G0 F2040 X28.468 Y46.287
G1 F1020 X-30.742 Y-12.923 E194.37249
G1 X-30.804 Y-12.985
G0 F2040 X-31.564 Y-14.24
G1 F1020 X28.644 Y45.969 E197.63105
G0 F2040 X28.821 Y45.65
G1 F1020 X-32.386 Y-15.557 E200.94365
G1 X-32.448 Y-15.619
G0 F2040 X-33.207 Y-16.873
G1 F1020 X28.998 Y45.332 E204.31027
G0 F2040 X29.175 Y45.014
G1 F1020 X-34.029 Y-18.19 E207.73095
G1 X-34.091 Y-18.252
G0 F2040 X-34.088 Y-19.238
G1 F1020 X29.528 Y44.377 E211.1739
G0 F2040 X29.704 Y44.059
G1 F1020 X-33.593 Y-19.238 E214.59961
G0 F2040 X-33.098 Y-19.238
G1 F1020 X29.881 Y43.74 E218.00809
G0 F2040 X30.057 Y43.422
G1 F1020 X-32.603 Y-19.238 E221.39933
G0 F2040 X-32.108 Y-19.238
G1 F1020 X30.234 Y43.103 E224.77333
G0 F2040 X30.411 Y42.785
G1 F1020 X-31.613 Y-19.238 E228.13012
G0 F2040 X-31.118 Y-19.238
G1 F1020 X30.588 Y42.467 E231.4697
G0 F2040 X30.764 Y42.148
G1 F1020 X-30.623 Y-19.238 E234.79202
G0 F2040 X-30.128 Y-19.238
G1 F1020 X30.94 Y41.83 E238.09709
G0 F2040 X31.117 Y41.512
G1 F1020 X-29.633 Y-19.238 E241.38496
G0 F2040 X-29.138 Y-19.238
G1 F1020 X31.294 Y41.193 E244.65559
G0 F2040 X31.47 Y40.875
G1 F1020 X-28.643 Y-19.238 E247.90898
G0 F2040 X-28.148 Y-19.238
G1 F1020 X31.647 Y40.556 E251.14514
G0 F2040 X31.824 Y40.238
G1 F1020 X-27.653 Y-19.238 E254.36408
G0 F2040 X-27.158 Y-19.238
G1 F1020 X32 Y39.92 E257.56579
G0 F2040 X32.176 Y39.601
G1 F1020 X-26.663 Y-19.238 E260.75023
G0 F2040 X-26.168 Y-19.238
G1 F1020 X32.353 Y39.283 E263.91746
G0 F2040 X32.53 Y38.965
G1 F1020 X-25.673 Y-19.238 E267.06748
G0 F2040 X-25.178 Y-19.238
G1 F1020 X32.707 Y38.646 E270.20027
G0 F2040 X32.883 Y38.328
G1 F1020 X-24.683 Y-19.238 E273.31581
G0 F2040 X-24.188 Y-19.238
G1 F1020 X33.06 Y38.009 E276.41412
G0 F2040 X33.236 Y37.691
G1 F1020 X-23.693 Y-19.238 E279.49519
G0 F2040 X-23.198 Y-19.238
G1 F1020 X33.413 Y37.373 E282.55905
G0 F2040 X33.589 Y37.054
G1 F1020 X-22.703 Y-19.238 E285.60564
G0 F2040 X-22.208 Y-19.238
G1 F1020 X33.766 Y36.736 E288.63503
G0 F2040 X33.943 Y36.418
G1 F1020 X-21.713 Y-19.238 E291.6472
G0 F2040 X-21.218 Y-19.238
G1 F1020 X34.12 Y36.099 E294.64214
G0 F2040 X34.296 Y35.781
G1 F1020 X-20.723 Y-19.238 E297.61983
G0 F2040 X-20.228 Y-19.238
G1 F1020 X34.472 Y35.462 E300.58027
G0 F2040 X34.649 Y35.144
G1 F1020 X-19.733 Y-19.238 E303.52349
G0 F2040 X-19.238 Y-19.238
G1 F1020 X34.826 Y34.826 E306.4495
G0 F2040 X35.003 Y34.508
G1 F1020 X-18.743 Y-19.238 E309.35831
G0 F2040 X-18.249 Y-19.238
G1 F1020 X35.179 Y34.189 E312.24987
G0 F2040 X35.356 Y33.871
G1 F1020 X-17.754 Y-19.238 E315.12422
G0 F2040 X-17.259 Y-19.238
G1 F1020 X35.532 Y33.552 E317.98131
G0 F2040 X35.709 Y33.234
G1 F1020 X-16.764 Y-19.238 E320.82119
G0 F2040 X-16.269 Y-19.238
G1 F1020 X35.885 Y32.915 E323.64381
G0 F2040 X36.062 Y32.597
G1 F1020 X-15.774 Y-19.238 E326.44921
G0 F2040 X-15.279 Y-19.238
G1 F1020 X36.239 Y32.279 E329.2374
G0 F2040 X36.415 Y31.961
G1 F1020 X-14.784 Y-19.238 E332.00836
G0 F2040 X-14.289 Y-19.238
G1 F1020 X36.592 Y31.642 E334.76207
G0 F2040 X36.768 Y31.324
G1 F1020 X-13.794 Y-19.238 E337.49855
