;FLAVOR:Marlin
;TIME:6280
;Filament used: 8.00312m
;Layer height: 0.3
;MINX:-41.89
;MINY:-72.892
;MINZ:0.26
;MAXX:68.001
;MAXY:24.812
;MAXZ:23.06
;Generated with Cura_SteamEngine 4.9.1
M82 ;absolute extrusion mode
;Gcode by Cura
G90
G28
M107
M109 R100
G30
M109 S215 U-55 X55 V-85 Y-85 W0.26 Z0.26
M82
G92 E0
G1 F200 E6
G92 E0
G1 F200 E-3.5
G0 Z0.15
G0 X10
G0 Z3
G1 F6000
G92 E0
G92 E0
G1 F3600 E-3.8
;LAYER_COUNT:77
;LAYER:0
M107
G0 F2040 X-36.692 Y24.812 Z0.26
;TYPE:SKIRT
G1 F3600 E0
G1 F1020 X-37.383 Y24.802 E0.02645
G1 X-37.986 Y24.753 E0.0496
G1 X-38.577 Y24.625 E0.07274
G1 X-39.146 Y24.421 E0.09587
G1 X-39.683 Y24.143 E0.11902
G1 X-40.179 Y23.797 E0.14216
G1 X-40.624 Y23.388 E0.16529
G1 X-41.012 Y22.924 E0.18844
G1 X-41.336 Y22.413 E0.21159
G1 X-41.589 Y21.864 E0.23473
G1 X-41.768 Y21.287 E0.25785
G1 X-41.868 Y20.69 E0.28101
G1 X-41.89 Y20.086 E0.30414
G1 X-41.831 Y19.484 E0.32729
G1 X-41.694 Y18.895 E0.35043
G1 X-41.48 Y18.33 E0.37355
G1 X-41.167 Y17.738 E0.39918
G1 X-41.102 Y17.625 E0.40417
G1 X11.132 Y-70.145 E4.3129
G1 X11.486 Y-70.72 E4.33874
G1 X11.836 Y-71.212 E4.36185
G1 X12.249 Y-71.655 E4.38503
G1 X12.716 Y-72.039 E4.40817
G1 X13.229 Y-72.358 E4.43128
G1 X13.78 Y-72.607 E4.45442
G1 X14.36 Y-72.78 E4.47759
G1 X14.957 Y-72.876 E4.50073
G1 X15.561 Y-72.892 E4.52385
G1 X16.162 Y-72.829 E4.54698
G1 X16.75 Y-72.687 E4.57013
G1 X17.314 Y-72.468 E4.59328
G1 X17.844 Y-72.177 E4.61642
G1 X18.331 Y-71.819 E4.63955
G1 X18.766 Y-71.399 E4.66269
G1 X19.143 Y-70.926 E4.68584
G1 X19.521 Y-70.302 E4.71376
G1 X19.581 Y-70.195 E4.71845
G1 X67.16 Y17.49 E8.53629
G1 X67.477 Y18.091 E8.56229
G1 X67.723 Y18.643 E8.58542
G1 X67.894 Y19.223 E8.60856
G1 X67.987 Y19.82 E8.63168
G1 X68.001 Y20.425 E8.65484
G1 X67.934 Y21.026 E8.67799
G1 X67.789 Y21.613 E8.70112
G1 X67.568 Y22.176 E8.72427
G1 X67.275 Y22.704 E8.74738
G1 X66.914 Y23.19 E8.77055
G1 X66.493 Y23.623 E8.79366
G1 X66.018 Y23.998 E8.81682
G1 X65.498 Y24.306 E8.83995
G1 X64.942 Y24.543 E8.86308
G1 X64.359 Y24.705 E8.88624
G1 X63.503 Y24.799 E8.91919
G1 X62.675 Y24.812 E8.95088
G1 X-36.692 Y24.812 E12.75361
G0 F2040 X-36.687 Y24.462
G1 F1020 X-37.378 Y24.452 E12.78006
G1 X-37.957 Y24.403 E12.80229
G1 X-38.524 Y24.276 E12.82453
G1 X-39.068 Y24.072 E12.84677
G1 X-39.579 Y23.795 E12.86901
G1 X-40.047 Y23.451 E12.89124
G1 X-40.464 Y23.046 E12.91348
G1 X-40.821 Y22.588 E12.93571
G1 X-41.112 Y22.085 E12.95795
G1 X-41.331 Y21.547 E12.98018
G1 X-41.474 Y20.983 E13.00244
G1 X-41.538 Y20.406 E13.02466
G1 X-41.523 Y19.825 E13.0469
G1 X-41.428 Y19.252 E13.06913
G1 X-41.255 Y18.697 E13.09138
G1 X-41.008 Y18.17 E13.11365
G1 X-40.802 Y17.804 E13.12972
G1 X11.43 Y-69.961 E17.03825
G1 X11.784 Y-70.536 E17.06409
G1 X12.122 Y-71.009 E17.08634
G1 X12.522 Y-71.431 E17.10859
G1 X12.975 Y-71.794 E17.13081
G1 X13.475 Y-72.091 E17.15306
G1 X14.01 Y-72.317 E17.17529
G1 X14.571 Y-72.467 E17.19751
G1 X15.148 Y-72.539 E17.21977
G1 X15.728 Y-72.532 E17.24196
G1 X16.303 Y-72.444 E17.26423
G1 X16.86 Y-72.279 E17.28646
G1 X17.389 Y-72.039 E17.30869
G1 X17.88 Y-71.728 E17.33093
G1 X18.324 Y-71.353 E17.35317
G1 X18.712 Y-70.921 E17.37539
G1 X19.04 Y-70.435 E17.39783
G1 X19.274 Y-70.028 E17.4158
G1 X66.85 Y17.653 E21.23345
G1 X67.167 Y18.254 E21.25945
G1 X67.402 Y18.785 E21.28167
G1 X67.562 Y19.344 E21.30392
G1 X67.644 Y19.919 E21.32615
G1 X67.646 Y20.5 E21.34839
G1 X67.568 Y21.076 E21.37063
G1 X67.413 Y21.636 E21.39287
G1 X67.181 Y22.169 E21.41511
G1 X66.879 Y22.665 E21.43734
G1 X66.512 Y23.115 E21.45956
G1 X66.086 Y23.511 E21.48182
G1 X65.61 Y23.844 E21.50405
G1 X65.093 Y24.109 E21.52628
G1 X64.545 Y24.3 E21.54849
G1 X63.975 Y24.415 E21.57074
G1 X63.497 Y24.449 E21.58908
G1 X62.675 Y24.462 E21.62054
G1 X-36.687 Y24.462 E25.42308
G0 F2040 X-36.682 Y24.112
G1 F1020 X-37.373 Y24.102 E25.44953
G1 X-37.927 Y24.054 E25.47081
G1 X-38.469 Y23.927 E25.49211
G1 X-38.987 Y23.724 E25.5134
G1 X-39.471 Y23.448 E25.53473
G1 X-39.91 Y23.107 E25.556
G1 X-40.296 Y22.706 E25.5773
G1 X-40.62 Y22.253 E25.59861
G1 X-40.876 Y21.76 E25.61987
G1 X-41.059 Y21.234 E25.64119
G1 X-41.165 Y20.688 E25.66247
G1 X-41.191 Y20.132 E25.68377
G1 X-41.137 Y19.578 E25.70507
G1 X-41.005 Y19.038 E25.72635
G1 X-40.702 Y18.341 E25.75543
G1 X-40.501 Y17.983 E25.77115
G1 X11.728 Y-69.778 E29.67949
G1 X12.082 Y-70.353 E29.70533
G1 X12.407 Y-70.804 E29.7266
G1 X12.794 Y-71.205 E29.74793
G1 X13.233 Y-71.546 E29.7692
G1 X13.717 Y-71.82 E29.79049
G1 X14.235 Y-72.023 E29.81178
G1 X14.777 Y-72.149 E29.83307
G1 X15.332 Y-72.196 E29.85439
G1 X15.887 Y-72.163 E29.87566
G1 X16.432 Y-72.051 E29.89696
G1 X16.956 Y-71.862 E29.91828
G1 X17.447 Y-71.6 E29.93957
G1 X17.895 Y-71.271 E29.96084
G1 X18.292 Y-70.88 E29.98217
G1 X18.737 Y-70.26 E30.01138
G1 X18.966 Y-69.861 E30.02898
G1 X66.54 Y17.816 E33.84646
G1 X66.857 Y18.417 E33.87246
G1 X67.081 Y18.927 E33.89378
G1 X67.229 Y19.463 E33.91506
G1 X67.299 Y20.015 E33.93635
G1 X67.289 Y20.571 E33.95763
G1 X67.2 Y21.121 E33.97896
G1 X67.033 Y21.651 E34.00022
G1 X66.792 Y22.153 E34.02153
G1 X66.481 Y22.614 E34.04281
G1 X66.107 Y23.026 E34.06411
G1 X65.678 Y23.381 E34.08542
G1 X65.203 Y23.67 E34.1067
G1 X64.691 Y23.889 E34.12801
G1 X64.154 Y24.032 E34.14927
G1 X63.492 Y24.1 E34.17474
G1 X62.737 Y24.112 E34.20364
G1 X-36.682 Y24.112 E38.00836
G0 F2040 X-36.677 Y23.762
G1 F1020 X-37.368 Y23.752 E38.0348
G1 X-37.897 Y23.704 E38.05513
G1 X-38.412 Y23.578 E38.07542
G1 X-38.902 Y23.375 E38.09572
G1 X-39.357 Y23.102 E38.11602
G1 X-39.766 Y22.763 E38.13635
G1 X-40.118 Y22.367 E38.15663
G1 X-40.408 Y21.922 E38.17696
G1 X-40.627 Y21.439 E38.19725
G1 X-40.772 Y20.928 E38.21758
G1 X-40.838 Y20.401 E38.23791
G1 X-40.824 Y19.871 E38.2582
G1 X-40.731 Y19.348 E38.27853
G1 X-40.56 Y18.846 E38.29882
G1 X-40.25 Y18.249 E38.32456
G1 X-40.2 Y18.162 E38.3284
G1 X12.026 Y-69.594 E42.23652
G1 X12.38 Y-70.169 E42.26236
G1 X12.692 Y-70.599 E42.28269
G1 X13.064 Y-70.977 E42.30299
G1 X13.489 Y-71.295 E42.3233
G1 X13.957 Y-71.545 E42.34361
G1 X14.457 Y-71.722 E42.36391
G1 X14.978 Y-71.823 E42.38422
G1 X15.508 Y-71.844 E42.40451
G1 X16.036 Y-71.785 E42.42485
G1 X16.548 Y-71.647 E42.44514
G1 X17.034 Y-71.435 E42.46543
G1 X17.483 Y-71.151 E42.48576
G1 X17.884 Y-70.804 E42.50606
G1 X18.229 Y-70.4 E42.52639
G1 X18.612 Y-69.777 E42.55438
G1 X66.231 Y17.979 E46.37533
G1 X66.548 Y18.58 E46.40133
G1 X66.759 Y19.067 E46.42165
G1 X66.895 Y19.58 E46.44196
G1 X66.953 Y20.108 E46.46228
G1 X66.931 Y20.638 E46.48258
G1 X66.829 Y21.159 E46.5029
G1 X66.65 Y21.658 E46.52319
G1 X66.399 Y22.125 E46.54348
G1 X66.08 Y22.55 E46.56381
G1 X65.701 Y22.921 E46.58411
G1 X65.27 Y23.231 E46.60443
G1 X64.798 Y23.474 E46.62475
G1 X64.295 Y23.642 E46.64504
G1 X63.772 Y23.733 E46.66536
G1 X63.486 Y23.75 E46.67632
G1 X62.731 Y23.762 E46.70522
G1 X-36.677 Y23.762 E50.50951
G0 F2040 X-36.672 Y23.412
G1 F1020 X-37.363 Y23.402 E50.53596
G1 X-37.864 Y23.354 E50.55522
G1 X-38.352 Y23.229 E50.5745
G1 X-38.813 Y23.027 E50.59376
G1 X-39.237 Y22.755 E50.61304
G1 X-39.613 Y22.42 E50.63231
G1 X-39.931 Y22.029 E50.6516
G1 X-40.183 Y21.593 E50.67087
G1 X-40.363 Y21.123 E50.69013
G1 X-40.466 Y20.63 E50.70941
G1 X-40.49 Y20.127 E50.72868
G1 X-40.435 Y19.627 E50.74793
G1 X-40.301 Y19.141 E50.76722
G1 X-40.09 Y18.681 E50.78659
G1 X-39.899 Y18.341 E50.80151
G1 X12.324 Y-69.411 E54.70944
G1 X12.678 Y-69.986 E54.73528
G1 X12.975 Y-70.392 E54.75453
G1 X13.333 Y-70.747 E54.77383
G1 X13.742 Y-71.04 E54.79308
G1 X14.193 Y-71.265 E54.81237
G1 X14.673 Y-71.416 E54.83162
G1 X15.172 Y-71.489 E54.85092
G1 X15.675 Y-71.482 E54.87018
G1 X16.171 Y-71.396 E54.88944
G1 X16.648 Y-71.233 E54.90873
G1 X17.092 Y-70.996 E54.92799
G1 X17.494 Y-70.692 E54.94728
G1 X17.842 Y-70.328 E54.96655
G1 X18.131 Y-69.91 E54.986
G1 X18.351 Y-69.527 E55.0029
G1 X65.921 Y18.143 E58.82007
G1 X66.238 Y18.744 E58.84607
G1 X66.437 Y19.206 E58.86533
G1 X66.56 Y19.695 E58.88462
G1 X66.605 Y20.196 E58.90387
G1 X66.569 Y20.699 E58.92317
G1 X66.455 Y21.189 E58.94242
G1 X66.265 Y21.655 E58.96168
G1 X66.003 Y22.085 E58.98095
G1 X65.676 Y22.469 E59.00026
G1 X65.293 Y22.796 E59.01953
G1 X64.863 Y23.058 E59.0388
G1 X64.397 Y23.249 E59.05807
G1 X63.907 Y23.364 E59.07733
G1 X63.48 Y23.4 E59.09373
G1 X62.725 Y23.412 E59.12263
G1 X-36.672 Y23.412 E62.9265
G1 F3600 E59.1265
;MESH:support_tri_0_101.stl
G0 F2040 X-36.672 Y20.902
G0 X-36.672 Y20.017
G0 X-36.41 Y19.712
;TYPE:WALL-INNER
G1 F3600 E62.9265
G1 F1020 X15.361 Y-67.279 E66.80056
G1 X62.564 Y19.712 E70.58819
G1 X-36.41 Y19.712 E74.37588
G0 F2040 X-36.981 Y20.037
;TYPE:WALL-OUTER
G1 F1020 X15.374 Y-67.936 E78.29365
G1 X63.11 Y20.037 E82.12404
G1 X-36.981 Y20.037 E85.95448
G0 F2040 X-36.879 Y19.866
G0 X-36.795 Y19.917
G0 X-35.813 Y19.372
;TYPE:SKIN
G1 F1020 X15.347 Y-66.592 E89.7828
G1 X61.993 Y19.372 E93.52572
G1 X-35.813 Y19.372 E97.26871
G0 F2040 X-35.423 Y19.023
G1 F1020 X-35.232 Y19.214 E97.27904
G0 F2040 X-34.737 Y19.214
G1 F1020 X-35.239 Y18.712 E97.30621
G0 F2040 X-35.054 Y18.402
G1 F1020 X-34.242 Y19.214 E97.35016
G0 F2040 X-33.747 Y19.214
G1 F1020 X-34.869 Y18.092 E97.41088
G0 F2040 X-34.685 Y17.782
G1 F1020 X-33.252 Y19.214 E97.48841
G0 F2040 X-32.757 Y19.214
G1 F1020 X-34.5 Y17.471 E97.58274
G0 F2040 X-34.315 Y17.161
G1 F1020 X-32.262 Y19.214 E97.69386
G0 F2040 X-31.767 Y19.214
G1 F1020 X-34.131 Y16.851 E97.82177
G0 F2040 X-33.946 Y16.54
G1 F1020 X-31.272 Y19.214 E97.96649
G0 F2040 X-30.777 Y19.214
G1 F1020 X-33.761 Y16.23 E98.12799
G0 F2040 X-33.576 Y15.92
G1 F1020 X-30.282 Y19.214 E98.30626
G0 F2040 X-29.787 Y19.214
G1 F1020 X-33.392 Y15.61 E98.50135
G0 F2040 X-33.207 Y15.299
G1 F1020 X-29.292 Y19.214 E98.71323
G0 F2040 X-28.797 Y19.214
G1 F1020 X-33.023 Y14.989 E98.94192
G0 F2040 X-32.838 Y14.678
G1 F1020 X-28.302 Y19.214 E99.18741
G0 F2040 X-27.807 Y19.214
G1 F1020 X-32.653 Y14.369 E99.44966
G0 F2040 X-32.468 Y14.058
G1 F1020 X-27.312 Y19.214 E99.72871
G0 F2040 X-26.817 Y19.214
G1 F1020 X-32.284 Y13.748 E100.02456
G0 F2040 X-32.099 Y13.437
G1 F1020 X-26.322 Y19.214 E100.33722
G0 F2040 X-25.827 Y19.214
G1 F1020 X-31.915 Y13.127 E100.66668
G0 F2040 X-31.73 Y12.817
G1 F1020 X-25.332 Y19.214 E101.01292
G0 F2040 X-24.837 Y19.214
G1 F1020 X-31.545 Y12.507 E101.37594
G0 F2040 X-31.36 Y12.196
G1 F1020 X-24.342 Y19.214 E101.75577
G0 F2040 X-23.847 Y19.214
G1 F1020 X-31.176 Y11.886 E102.15239
G0 F2040 X-30.991 Y11.576
G1 F1020 X-23.352 Y19.214 E102.5658
G0 F2040 X-22.857 Y19.214
G1 F1020 X-30.807 Y11.265 E102.99604
G0 F2040 X-30.622 Y10.955
G1 F1020 X-22.362 Y19.214 E103.44305
G0 F2040 X-21.867 Y19.214
G1 F1020 X-30.437 Y10.645 E103.90684
G0 F2040 X-30.252 Y10.335
G1 F1020 X-21.373 Y19.214 E104.38739
G0 F2040 X-20.878 Y19.214
G1 F1020 X-30.068 Y10.024 E104.88476
G0 F2040 X-29.883 Y9.714
G1 F1020 X-20.383 Y19.214 E105.39891
G0 F2040 X-19.888 Y19.214
G1 F1020 X-29.699 Y9.403 E105.9299
G0 F2040 X-29.514 Y9.093
G1 F1020 X-19.393 Y19.214 E106.47766
G0 F2040 X-18.898 Y19.214
G1 F1020 X-29.329 Y8.783 E107.0422
G0 F2040 X-29.144 Y8.473
G1 F1020 X-18.403 Y19.214 E107.62351
G0 F2040 X-17.908 Y19.214
G1 F1020 X-28.96 Y8.162 E108.22166
G0 F2040 X-28.775 Y7.852
G1 F1020 X-17.413 Y19.214 E108.83659
G0 F2040 X-16.918 Y19.214
G1 F1020 X-28.591 Y7.542 E109.46832
G0 F2040 X-28.406 Y7.231
G1 F1020 X-16.423 Y19.214 E110.11685
G0 F2040 X-15.928 Y19.214
G1 F1020 X-28.221 Y6.921 E110.78217
G0 F2040 X-28.036 Y6.611
G1 F1020 X-15.433 Y19.214 E111.46426
G0 F2040 X-14.938 Y19.214
G1 F1020 X-27.852 Y6.301 E112.16315
G0 F2040 X-27.667 Y5.99
G1 F1020 X-14.443 Y19.214 E112.87885
G0 F2040 X-13.948 Y19.214
G1 F1020 X-27.483 Y5.68 E113.61136
G0 F2040 X-27.298 Y5.369
G1 F1020 X-13.453 Y19.214 E114.36066
G0 F2040 X-12.958 Y19.214
G1 F1020 X-27.113 Y5.06 E115.12672
G0 F2040 X-26.928 Y4.749
G1 F1020 X-12.463 Y19.214 E115.90959
G0 F2040 X-11.968 Y19.214
G1 F1020 X-26.744 Y4.439 E116.70926
G0 F2040 X-26.559 Y4.128
G1 F1020 X-11.473 Y19.214 E117.52573
G0 F2040 X-10.978 Y19.214
G1 F1020 X-26.375 Y3.818 E118.35901
G0 F2040 X-26.19 Y3.507
G1 F1020 X-10.483 Y19.214 E119.20909
G0 F2040 X-9.988 Y19.214
G1 F1020 X-26.005 Y3.198 E120.07593
G0 F2040 X-25.82 Y2.887
G1 F1020 X-9.493 Y19.214 E120.95956
G0 F2040 X-8.998 Y19.214
G1 F1020 X-25.636 Y2.577 E121.86001
G0 F2040 X-25.451 Y2.266
G1 F1020 X-8.503 Y19.214 E122.77725
G0 F2040 X-8.008 Y19.214
G1 F1020 X-25.267 Y1.956 E123.71131
G0 F2040 X-25.082 Y1.646
G1 F1020 X-7.513 Y19.214 E124.66213
G0 F2040 X-7.018 Y19.214
G1 F1020 X-24.897 Y1.336 E125.62974
G0 F2040 X-24.712 Y1.026
G1 F1020 X-6.523 Y19.214 E126.61413
G0 F2040 X-6.028 Y19.214
G1 F1020 X-24.528 Y0.715 E127.61534
G0 F2040 X-24.343 Y0.405
G1 F1020 X-5.533 Y19.214 E128.63334
G0 F2040 X-5.038 Y19.214
G1 F1020 X-24.159 Y0.094 E129.66816
G0 F2040 X-23.974 Y-.215
G1 F1020 X-4.543 Y19.214 E130.71974
G0 F2040 X-4.048 Y19.214
G1 F1020 X-23.789 Y-.525 E131.78809
G0 F2040 X-23.604 Y-.835
G1 F1020 X-3.553 Y19.214 E132.87323
G0 F2040 X-3.058 Y19.214
G1 F1020 X-23.42 Y-1.146 E133.97519
G0 F2040 X-23.235 Y-1.456
G1 F1020 X-2.563 Y19.214 E135.09393
G0 F2040 X-2.068 Y19.214
G1 F1020 X-23.05 Y-1.767 E136.22947
G0 F2040 X-22.866 Y-2.077
G1 F1020 X-1.574 Y19.214 E137.3818
G0 F2040 X-1.079 Y19.214
G1 F1020 X-22.681 Y-2.387 E138.5509
G0 F2040 X-22.496 Y-2.697
G1 F1020 X-.584 Y19.214 E139.73678
G0 F2040 X-0.089 Y19.214
G1 F1020 X-22.312 Y-3.008 E140.93949
G0 F2040 X-22.127 Y-3.318
G1 F1020 X0.405 Y19.214 E142.15895
G0 F2040 X0.9 Y19.214
G1 F1020 X-21.942 Y-3.628 E143.39519
G0 F2040 X-21.758 Y-3.939
G1 F1020 X1.395 Y19.214 E144.64826
G0 F2040 X1.89 Y19.214
G1 F1020 X-21.573 Y-4.249 E145.9181
G0 F2040 X-21.388 Y-4.559
G1 F1020 X2.385 Y19.214 E147.20473
G0 F2040 X2.88 Y19.214
G1 F1020 X-21.204 Y-4.869 E148.50816
G0 F2040 X-21.019 Y-5.18
G1 F1020 X3.375 Y19.214 E149.82839
G0 F2040 X3.87 Y19.214
G1 F1020 X-20.834 Y-5.49 E151.1654
G0 F2040 X-20.65 Y-5.801
G1 F1020 X4.365 Y19.214 E152.51925
G0 F2040 X4.86 Y19.214
G1 F1020 X-20.465 Y-6.11 E153.88984
G0 F2040 X-20.28 Y-6.421
G1 F1020 X5.355 Y19.214 E155.27724
G0 F2040 X5.85 Y19.214
G1 F1020 X-20.095 Y-6.731 E156.68142
G0 F2040 X-19.911 Y-7.042
G1 F1020 X6.345 Y19.214 E158.10243
G0 F2040 X6.84 Y19.214
G1 F1020 X-19.726 Y-7.352 E159.54021
G0 F2040 X-19.542 Y-7.662
G1 F1020 X7.335 Y19.214 E160.9948
G0 F2040 X7.83 Y19.214
G1 F1020 X-19.357 Y-7.972 E162.46617
G0 F2040 X-19.172 Y-8.283
G1 F1020 X8.325 Y19.214 E163.95434
G0 F2040 X8.82 Y19.214
G1 F1020 X-18.987 Y-8.593 E165.45929
G0 F2040 X-18.803 Y-8.903
G1 F1020 X9.315 Y19.214 E166.98105
G0 F2040 X9.81 Y19.214
G1 F1020 X-18.618 Y-9.214 E168.51961
G0 F2040 X-18.434 Y-9.524
G1 F1020 X10.305 Y19.214 E170.07497
G0 F2040 X10.8 Y19.214
G1 F1020 X-18.249 Y-9.834 E171.64711
G0 F2040 X-18.064 Y-10.144
G1 F1020 X11.295 Y19.214 E173.23603
G0 F2040 X11.79 Y19.214
G1 F1020 X-17.879 Y-10.455 E174.84176
G0 F2040 X-17.695 Y-10.765
G1 F1020 X12.285 Y19.214 E176.46429
G0 F2040 X12.78 Y19.214
G1 F1020 X-17.51 Y-11.076 E178.10362
G0 F2040 X-17.326 Y-11.386
G1 F1020 X13.275 Y19.214 E179.75976
G0 F2040 X13.77 Y19.214
G1 F1020 X-17.14 Y-11.696 E181.43265
G0 F2040 X-16.956 Y-12.006
G1 F1020 X14.265 Y19.214 E183.12234
G0 F2040 X14.76 Y19.214
G1 F1020 X-16.771 Y-12.317 E184.82884
G0 F2040 X-16.587 Y-12.627
G1 F1020 X15.255 Y19.214 E186.55214
G0 F2040 X15.75 Y19.214
G1 F1020 X-16.402 Y-12.937 E188.29222
G0 F2040 X-16.217 Y-13.247
G1 F1020 X16.245 Y19.214 E190.04908
G0 F2040 X16.74 Y19.214
G1 F1020 X-16.032 Y-13.558 E191.82274
G0 F2040 X-15.848 Y-13.868
G1 F1020 X17.235 Y19.214 E193.61321
G0 F2040 X17.729 Y19.214
G1 F1020 X-15.663 Y-14.178 E195.42042
G0 F2040 X-15.479 Y-14.489
G1 F1020 X18.224 Y19.214 E197.24447
G0 F2040 X18.719 Y19.214
G1 F1020 X-15.294 Y-14.799 E199.0853
G0 F2040 X-15.109 Y-15.109
G1 F1020 X19.214 Y19.214 E200.9429
G0 F2040 X19.709 Y19.214
G1 F1020 X-14.924 Y-15.419 E202.81729
G0 F2040 X-14.74 Y-15.73
G1 F1020 X20.204 Y19.214 E204.7085
G0 F2040 X20.699 Y19.214
G1 F1020 X-14.555 Y-16.04 E206.61649
G0 F2040 X-14.371 Y-16.351
G1 F1020 X21.194 Y19.214 E208.54131
G0 F2040 X21.689 Y19.214
G1 F1020 X-14.186 Y-16.661 E210.48292
G0 F2040 X-14.001 Y-16.971
G1 F1020 X22.184 Y19.214 E212.44129
G0 F2040 X22.679 Y19.214
G1 F1020 X-13.816 Y-17.281 E214.41645
G0 F2040 X-13.632 Y-17.592
