;FLAVOR:Marlin
;TIME:7891
;Filament used: 7.38175m
;Layer height: 0.2
;MINX:-42.163
;MINY:-75.734
;MINZ:0.26
;MAXX:66.942
;MAXY:25.047
;MAXZ:22.66
;Generated with Cura_SteamEngine 4.8.0
M82 ;absolute extrusion mode
;Gcode by Cura
G90
G28
M107
M109 R100
G30
M109 S215 U-55 X55 V-85 Y-85 W0.26 Z0.26
M82
G92 E0
G1 F200 E6
G92 E0
G1 F200 E-3.5
G0 Z0.15
G0 X10
G0 Z3
G1 F6000
G92 E0
G92 E0
G1 F3600 E-3.8
;LAYER_COUNT:113
;LAYER:0
M107
G0 F2040 X-36.964 Y25.047 Z0.26
;TYPE:SKIRT
G1 F3600 E0
G1 F1020 X-37.65 Y25.038 E0.02626
G1 X-38.253 Y24.99 E0.0494
G1 X-38.844 Y24.863 E0.07254
G1 X-39.413 Y24.659 E0.09567
G1 X-39.951 Y24.382 E0.11883
G1 X-40.447 Y24.036 E0.14197
G1 X-40.893 Y23.628 E0.16511
G1 X-41.282 Y23.165 E0.18825
G1 X-41.606 Y22.655 E0.21137
G1 X-41.86 Y22.106 E0.23452
G1 X-42.039 Y21.529 E0.25764
G1 X-42.141 Y20.933 E0.28078
G1 X-42.163 Y20.328 E0.30395
G1 X-42.105 Y19.726 E0.32709
G1 X-41.969 Y19.137 E0.35023
G1 X-41.643 Y18.341 E0.38315
G1 X-41.227 Y17.548 E0.41742
G1 X8.065 Y-72.806 E4.3563
G1 X8.404 Y-73.407 E4.38271
G1 X8.735 Y-73.913 E4.40585
G1 X9.13 Y-74.37 E4.42897
G1 X9.582 Y-74.772 E4.45212
G1 X10.083 Y-75.111 E4.47527
G1 X10.625 Y-75.38 E4.49842
G1 X11.197 Y-75.576 E4.52156
G1 X11.79 Y-75.695 E4.54471
G1 X12.393 Y-75.734 E4.56783
G1 X12.996 Y-75.694 E4.59096
G1 X13.589 Y-75.574 E4.61411
G1 X14.161 Y-75.377 E4.63727
G1 X14.701 Y-75.107 E4.66037
G1 X15.202 Y-74.767 E4.68354
G1 X15.653 Y-74.365 E4.70666
G1 X16.047 Y-73.906 E4.72981
G1 X16.335 Y-73.474 E4.74968
G1 X16.608 Y-72.997 E4.77071
G1 X66.114 Y17.748 E8.72666
G1 X66.417 Y18.322 E8.7515
G1 X66.663 Y18.874 E8.77463
G1 X66.835 Y19.454 E8.79778
G1 X66.928 Y20.052 E8.82094
G1 X66.942 Y20.656 E8.84406
G1 X66.876 Y21.257 E8.8672
G1 X66.731 Y21.844 E8.89034
G1 X66.51 Y22.407 E8.91349
G1 X66.217 Y22.936 E8.93663
G1 X65.856 Y23.422 E8.9598
G1 X65.435 Y23.855 E8.98291
G1 X64.96 Y24.23 E9.00607
G1 X64.44 Y24.538 E9.0292
G1 X63.884 Y24.775 E9.05233
G1 X63.302 Y24.937 E9.07545
G1 X62.447 Y25.032 E9.10837
G1 X61.527 Y25.047 E9.14358
G1 X-36.964 Y25.047 E12.91279
G0 F2040 X-36.959 Y24.697
G1 F1020 X-37.645 Y24.688 E12.93904
G1 X-38.225 Y24.64 E12.96131
G1 X-38.792 Y24.514 E12.98354
G1 X-39.336 Y24.31 E13.00578
G1 X-39.847 Y24.034 E13.028
G1 X-40.316 Y23.691 E13.05024
G1 X-40.733 Y23.286 E13.07248
G1 X-41.091 Y22.829 E13.0947
G1 X-41.382 Y22.326 E13.11694
G1 X-41.602 Y21.788 E13.13918
G1 X-41.746 Y21.225 E13.16142
G1 X-41.811 Y20.648 E13.18364
G1 X-41.796 Y20.067 E13.20589
G1 X-41.702 Y19.494 E13.22811
G1 X-41.53 Y18.938 E13.25038
G1 X-41.333 Y18.504 E13.26862
G1 X-40.92 Y17.716 E13.30267
G1 X8.37 Y-72.634 E17.24138
G1 X8.709 Y-73.235 E17.26779
G1 X9.029 Y-73.72 E17.29003
G1 X9.412 Y-74.157 E17.31227
G1 X9.851 Y-74.537 E17.33449
G1 X10.339 Y-74.853 E17.35673
G1 X10.865 Y-75.1 E17.37897
G1 X11.42 Y-75.271 E17.4012
G1 X11.993 Y-75.365 E17.42342
G1 X12.574 Y-75.38 E17.44566
G1 X13.151 Y-75.315 E17.46788
G1 X13.714 Y-75.171 E17.49012
G1 X14.252 Y-74.951 E17.51237
G1 X14.755 Y-74.659 E17.53462
G1 X15.213 Y-74.302 E17.55685
G1 X15.617 Y-73.885 E17.57907
G1 X16.033 Y-73.297 E17.60663
G1 X16.304 Y-72.825 E17.62746
G1 X65.804 Y17.912 E21.58303
G1 X66.107 Y18.486 E21.60787
G1 X66.343 Y19.017 E21.63011
G1 X66.503 Y19.575 E21.65232
G1 X66.585 Y20.151 E21.67459
G1 X66.587 Y20.732 E21.69682
G1 X66.51 Y21.308 E21.71906
G1 X66.354 Y21.867 E21.74127
G1 X66.123 Y22.4 E21.7635
G1 X65.821 Y22.897 E21.78576
G1 X65.454 Y23.347 E21.80798
G1 X65.028 Y23.743 E21.83024
G1 X64.552 Y24.076 E21.85247
G1 X64.035 Y24.341 E21.8747
G1 X63.487 Y24.533 E21.89692
G1 X62.917 Y24.648 E21.91918
G1 X62.441 Y24.682 E21.93744
G1 X61.527 Y24.697 E21.97242
G1 X-36.959 Y24.697 E25.74143
G0 F2040 X-36.955 Y24.347
G1 F1020 X-37.641 Y24.338 E25.76769
G1 X-38.195 Y24.29 E25.78897
G1 X-38.737 Y24.164 E25.81027
G1 X-39.255 Y23.962 E25.83154
G1 X-39.739 Y23.687 E25.85285
G1 X-40.179 Y23.346 E25.87415
G1 X-40.565 Y22.946 E25.89542
G1 X-40.89 Y22.494 E25.91673
G1 X-41.147 Y22 E25.93804
G1 X-41.331 Y21.475 E25.95933
G1 X-41.437 Y20.929 E25.98061
G1 X-41.464 Y20.373 E26.00192
G1 X-41.411 Y19.819 E26.02321
G1 X-41.28 Y19.279 E26.04448
G1 X-41.023 Y18.666 E26.06992
G1 X-40.613 Y17.883 E26.10374
G1 X8.675 Y-72.462 E30.04225
G1 X9.014 Y-73.063 E30.06866
G1 X9.321 Y-73.527 E30.08995
G1 X9.692 Y-73.941 E30.11123
G1 X10.118 Y-74.299 E30.13252
G1 X10.591 Y-74.592 E30.15382
G1 X11.102 Y-74.814 E30.17514
G1 X11.638 Y-74.961 E30.19641
G1 X12.191 Y-75.029 E30.21773
G1 X12.747 Y-75.017 E30.23901
G1 X13.296 Y-74.926 E30.26031
G1 X13.826 Y-74.758 E30.28159
G1 X14.327 Y-74.515 E30.3029
G1 X14.787 Y-74.203 E30.32417
G1 X15.198 Y-73.828 E30.34546
G1 X15.552 Y-73.398 E30.36677
G1 X15.819 Y-72.97 E30.38608
G1 X16.025 Y-72.606 E30.40209
G1 X65.495 Y18.075 E34.35522
G1 X65.798 Y18.649 E34.38006
G1 X66.022 Y19.158 E34.40134
G1 X66.17 Y19.695 E34.42266
G1 X66.24 Y20.247 E34.44395
G1 X66.231 Y20.803 E34.46524
G1 X66.141 Y21.352 E34.48653
G1 X65.974 Y21.883 E34.50783
G1 X65.733 Y22.384 E34.5291
G1 X65.423 Y22.846 E34.5504
G1 X65.049 Y23.259 E34.57172
G1 X64.62 Y23.613 E34.593
G1 X64.145 Y23.903 E34.6143
G1 X63.634 Y24.122 E34.63558
G1 X63.096 Y24.265 E34.65688
G1 X62.435 Y24.332 E34.68231
G1 X61.527 Y24.347 E34.71706
G1 X-36.955 Y24.347 E38.48592
G0 F2040 X-36.95 Y23.997
G1 F1020 X-37.636 Y23.988 E38.51218
G1 X-38.165 Y23.941 E38.5325
G1 X-38.68 Y23.815 E38.55279
G1 X-39.171 Y23.613 E38.57311
G1 X-39.626 Y23.34 E38.59341
G1 X-40.035 Y23.002 E38.61372
G1 X-40.389 Y22.606 E38.63405
G1 X-40.679 Y22.162 E38.65434
G1 X-40.899 Y21.679 E38.67465
G1 X-41.044 Y21.169 E38.69494
G1 X-41.11 Y20.642 E38.71527
G1 X-41.097 Y20.112 E38.73556
G1 X-41.005 Y19.589 E38.75588
G1 X-40.835 Y19.086 E38.7762
G1 X-40.713 Y18.828 E38.78712
G1 X-40.305 Y18.051 E38.82071
G1 X8.98 Y-72.29 E42.75903
G1 X9.319 Y-72.891 E42.78544
G1 X9.614 Y-73.332 E42.80574
G1 X9.971 Y-73.724 E42.82603
G1 X10.384 Y-74.058 E42.84636
G1 X10.842 Y-74.326 E42.86667
G1 X11.334 Y-74.523 E42.88695
G1 X11.851 Y-74.643 E42.90726
G1 X12.38 Y-74.684 E42.92757
G1 X12.91 Y-74.645 E42.9479
G1 X13.427 Y-74.528 E42.96819
G1 X13.921 Y-74.334 E42.9885
G1 X14.38 Y-74.068 E43.0088
G1 X14.794 Y-73.736 E43.02911
G1 X15.154 Y-73.346 E43.04942
G1 X15.517 Y-72.793 E43.07474
G1 X15.717 Y-72.438 E43.09033
G1 X65.185 Y18.238 E47.04326
G1 X65.488 Y18.812 E47.0681
G1 X65.7 Y19.299 E47.08843
G1 X65.836 Y19.812 E47.10874
G1 X65.894 Y20.339 E47.12903
G1 X65.872 Y20.87 E47.14937
G1 X65.77 Y21.39 E47.16965
G1 X65.592 Y21.89 E47.18996
G1 X65.34 Y22.358 E47.2103
G1 X65.022 Y22.782 E47.23058
G1 X64.643 Y23.153 E47.25088
G1 X64.212 Y23.464 E47.27122
G1 X63.74 Y23.706 E47.29152
G1 X63.237 Y23.875 E47.31183
G1 X62.714 Y23.966 E47.33214
G1 X62.429 Y23.983 E47.34307
G1 X61.585 Y23.997 E47.37537
G1 X-36.95 Y23.997 E51.14626
G0 F2040 X-36.946 Y23.647
G1 F1020 X-37.632 Y23.638 E51.17251
G1 X-38.133 Y23.591 E51.19177
G1 X-38.621 Y23.466 E51.21105
G1 X-39.083 Y23.265 E51.23033
G1 X-39.507 Y22.994 E51.24959
G1 X-39.883 Y22.659 E51.26886
G1 X-40.201 Y22.269 E51.28812
G1 X-40.454 Y21.833 E51.30741
G1 X-40.635 Y21.363 E51.32668
G1 X-40.739 Y20.87 E51.34597
G1 X-40.764 Y20.367 E51.36524
G1 X-40.709 Y19.867 E51.38449
G1 X-40.575 Y19.381 E51.40378
G1 X-40.403 Y18.991 E51.4201
G1 X-39.998 Y18.218 E51.45349
G1 X9.285 Y-72.118 E55.39161
G1 X9.624 Y-72.719 E55.41802
G1 X9.905 Y-73.136 E55.43726
G1 X10.249 Y-73.504 E55.45654
G1 X10.647 Y-73.813 E55.47582
G1 X11.088 Y-74.055 E55.49507
G1 X11.563 Y-74.225 E55.51438
G1 X12.058 Y-74.317 E55.53365
G1 X12.561 Y-74.329 E55.5529
G1 X13.06 Y-74.262 E55.57217
G1 X13.542 Y-74.117 E55.59143
G1 X13.996 Y-73.898 E55.61072
G1 X14.408 Y-73.609 E55.62998
G1 X14.77 Y-73.259 E55.64925
G1 X15.128 Y-72.766 E55.67257
G1 X15.389 Y-72.309 E55.69271
G1 X64.876 Y18.402 E59.64717
G1 X65.179 Y18.976 E59.67201
G1 X65.378 Y19.438 E59.69126
G1 X65.501 Y19.927 E59.71055
G1 X65.546 Y20.428 E59.7298
G1 X65.511 Y20.931 E59.7491
G1 X65.396 Y21.421 E59.76836
G1 X65.206 Y21.887 E59.78762
G1 X64.944 Y22.318 E59.80692
G1 X64.618 Y22.701 E59.82617
G1 X64.235 Y23.028 E59.84544
G1 X63.805 Y23.291 E59.86473
G1 X63.339 Y23.482 E59.88401
G1 X62.849 Y23.597 E59.90327
G1 X62.424 Y23.633 E59.91959
G1 X61.58 Y23.647 E59.95189
G1 X-36.946 Y23.647 E63.72244
G1 F3600 E59.92244
;MESH:support_tri_0_068.stl
G0 F2040 X-36.946 Y21.137
G0 X-36.946 Y20.102
G0 X61.505 Y19.947
;TYPE:WALL-INNER
G1 F3600 E63.72244
G1 F1020 X-36.727 Y19.947 E67.48173
G1 X12.389 Y-70.082 E71.40647
G1 X61.505 Y19.947 E75.33122
G0 F2040 X62.052 Y20.272
;TYPE:WALL-OUTER
G1 F1020 X-37.274 Y20.272 E79.13238
G1 X12.389 Y-70.76 E83.10084
G1 X62.052 Y20.272 E87.06931
G0 F2040 X61.852 Y20.272
G0 X61.715 Y20.071
G0 X60.932 Y19.607
;TYPE:SKIN
G1 F1020 X-36.154 Y19.607 E90.78474
G1 X12.389 Y-69.371 E94.66368
G1 X60.932 Y19.607 E98.54261
G0 F2040 X-35.749 Y19.192
G1 F1020 X-35.492 Y19.449 E98.55652
G0 F2040 X-34.997 Y19.449
G1 F1020 X-35.574 Y18.872 E98.58775
G0 F2040 X-35.399 Y18.552
G1 F1020 X-34.502 Y19.449 E98.63629
G0 F2040 X-34.007 Y19.449
G1 F1020 X-35.225 Y18.232 E98.70219
G0 F2040 X-35.049 Y17.912
G1 F1020 X-33.512 Y19.449 E98.78537
G0 F2040 X-33.017 Y19.449
G1 F1020 X-34.875 Y17.592 E98.8859
G0 F2040 X-34.7 Y17.271
G1 F1020 X-32.522 Y19.449 E99.00378
G0 F2040 X-32.027 Y19.449
G1 F1020 X-34.525 Y16.951 E99.13897
G0 F2040 X-34.351 Y16.631
G1 F1020 X-31.532 Y19.449 E99.29151
G0 F2040 X-31.037 Y19.449
G1 F1020 X-34.176 Y16.31 E99.4614
G0 F2040 X-34.001 Y15.99
G1 F1020 X-30.542 Y19.449 E99.64861
G0 F2040 X-30.047 Y19.449
G1 F1020 X-33.827 Y15.67 E99.85316
G0 F2040 X-33.652 Y15.349
G1 F1020 X-29.552 Y19.449 E100.07505
G0 F2040 X-29.057 Y19.449
G1 F1020 X-33.477 Y15.029 E100.31427
G0 F2040 X-33.303 Y14.709
G1 F1020 X-28.562 Y19.449 E100.57083
G0 F2040 X-28.067 Y19.449
G1 F1020 X-33.128 Y14.388 E100.84474
G0 F2040 X-32.953 Y14.069
G1 F1020 X-27.572 Y19.449 E101.13594
G0 F2040 X-27.077 Y19.449
G1 F1020 X-32.778 Y13.748 E101.44448
G0 F2040 X-32.603 Y13.428
G1 F1020 X-26.582 Y19.449 E101.77035
G0 F2040 X-26.087 Y19.449
G1 F1020 X-32.429 Y13.108 E102.11356
G0 F2040 X-32.254 Y12.788
G1 F1020 X-25.593 Y19.449 E102.47406
G0 F2040 X-25.098 Y19.449
G1 F1020 X-32.08 Y12.467 E102.85194
G0 F2040 X-31.905 Y12.147
G1 F1020 X-24.603 Y19.449 E103.24713
G0 F2040 X-24.108 Y19.449
G1 F1020 X-31.73 Y11.827 E103.65964
G0 F2040 X-31.556 Y11.506
G1 F1020 X-23.613 Y19.449 E104.08953
G0 F2040 X-23.118 Y19.449
G1 F1020 X-31.381 Y11.186 E104.53673
G0 F2040 X-31.206 Y10.866
G1 F1020 X-22.623 Y19.449 E105.00125
G0 F2040 X-22.128 Y19.449
G1 F1020 X-31.031 Y10.546 E105.4831
G0 F2040 X-30.856 Y10.226
G1 F1020 X-21.633 Y19.449 E105.98226
G0 F2040 X-21.138 Y19.449
G1 F1020 X-30.682 Y9.905 E106.49879
G0 F2040 X-30.507 Y9.585
G1 F1020 X-20.643 Y19.449 E107.03264
G0 F2040 X-20.148 Y19.449
G1 F1020 X-30.332 Y9.265 E107.58381
G0 F2040 X-30.158 Y8.944
G1 F1020 X-19.653 Y19.449 E108.15236
G0 F2040 X-19.158 Y19.449
G1 F1020 X-29.983 Y8.624 E108.73822
G0 F2040 X-29.808 Y8.304
G1 F1020 X-18.663 Y19.449 E109.3414
G0 F2040 X-18.168 Y19.449
G1 F1020 X-29.634 Y7.983 E109.96196
G0 F2040 X-29.459 Y7.663
G1 F1020 X-17.673 Y19.449 E110.59983
G0 F2040 X-17.178 Y19.449
G1 F1020 X-29.284 Y7.343 E111.25502
G0 F2040 X-29.11 Y7.022
G1 F1020 X-16.683 Y19.449 E111.92759
G0 F2040 X-16.188 Y19.449
G1 F1020 X-28.934 Y6.703 E112.61742
G0 F2040 X-28.76 Y6.383
G1 F1020 X-15.693 Y19.449 E113.32459
G0 F2040 X-15.198 Y19.449
G1 F1020 X-28.585 Y6.062 E114.04911
G0 F2040 X-28.41 Y5.742
G1 F1020 X-14.703 Y19.449 E114.79095
G0 F2040 X-14.208 Y19.449
G1 F1020 X-28.236 Y5.422 E115.55014
G0 F2040 X-28.061 Y5.101
G1 F1020 X-13.713 Y19.449 E116.32667
G0 F2040 X-13.218 Y19.449
G1 F1020 X-27.886 Y4.781 E117.12052
G0 F2040 X-27.712 Y4.461
G1 F1020 X-12.723 Y19.449 E117.93172
G0 F2040 X-12.228 Y19.449
G1 F1020 X-27.537 Y4.14 E118.76026
G0 F2040 X-27.362 Y3.82
G1 F1020 X-11.733 Y19.449 E119.60612
G0 F2040 X-11.238 Y19.449
G1 F1020 X-27.188 Y3.5 E120.46933
G0 F2040 X-27.012 Y3.18
G1 F1020 X-10.743 Y19.449 E121.34983
G0 F2040 X-10.248 Y19.449
G1 F1020 X-26.838 Y2.86 E122.24767
G0 F2040 X-26.663 Y2.539
G1 F1020 X-9.753 Y19.449 E123.16286
G0 F2040 X-9.258 Y19.449
G1 F1020 X-26.488 Y2.219 E124.09537
G0 F2040 X-26.314 Y1.899
G1 F1020 X-8.763 Y19.449 E125.04523
G0 F2040 X-8.268 Y19.449
G1 F1020 X-26.139 Y1.578 E126.01243
G0 F2040 X-25.964 Y1.258
G1 F1020 X-7.773 Y19.449 E126.99695
G0 F2040 X-7.278 Y19.449
G1 F1020 X-25.79 Y0.938 E127.99882
G0 F2040 X-25.615 Y0.618
G1 F1020 X-6.783 Y19.449 E129.018
G0 F2040 X-6.289 Y19.449
G1 F1020 X-25.44 Y0.297 E130.05451
G0 F2040 X-25.266 Y-0.022
G1 F1020 X-5.794 Y19.449 E131.10833
G0 F2040 X-5.299 Y19.449
G1 F1020 X-25.09 Y-.342 E132.17944
G0 F2040 X-24.916 Y-.662
G1 F1020 X-4.804 Y19.449 E133.2679
G0 F2040 X-4.309 Y19.449
G1 F1020 X-24.741 Y-.982 E134.37368
G0 F2040 X-24.567 Y-1.303
G1 F1020 X-3.814 Y19.449 E135.49683
G0 F2040 X-3.319 Y19.449
G1 F1020 X-24.392 Y-1.623 E136.6373
G0 F2040 X-24.217 Y-1.943
G1 F1020 X-2.824 Y19.449 E137.79509
G0 F2040 X-2.329 Y19.449
G1 F1020 X-24.043 Y-2.264 E138.97025
G0 F2040 X-23.868 Y-2.584
G1 F1020 X-1.834 Y19.449 E140.16274
G0 F2040 X-1.339 Y19.449
G1 F1020 X-23.693 Y-2.904 E141.37254
G0 F2040 X-23.519 Y-3.225
G1 F1020 X-.844 Y19.449 E142.59971
G0 F2040 X-.349 Y19.449
G1 F1020 X-23.344 Y-3.545 E143.8442
G0 F2040 X-23.169 Y-3.865
G1 F1020 X0.145 Y19.449 E145.10598
G0 F2040 X0.64 Y19.449
G1 F1020 X-22.994 Y-4.185 E146.38509
G0 F2040 X-22.819 Y-4.505
G1 F1020 X1.135 Y19.449 E147.68151
G0 F2040 X1.63 Y19.449
G1 F1020 X-22.645 Y-4.826 E148.9953
G0 F2040 X-22.47 Y-5.146
G1 F1020 X2.125 Y19.449 E150.32641
G0 F2040 X2.62 Y19.449
G1 F1020 X-22.295 Y-5.466 E151.67485
G0 F2040 X-22.121 Y-5.786
G1 F1020 X3.115 Y19.449 E153.04062
G0 F2040 X3.61 Y19.449
G1 F1020 X-21.946 Y-6.107 E154.42375
G0 F2040 X-21.771 Y-6.427
G1 F1020 X4.105 Y19.449 E155.82419
G0 F2040 X4.6 Y19.449
G1 F1020 X-21.597 Y-6.747 E157.24198
G0 F2040 X-21.422 Y-7.068
G1 F1020 X5.095 Y19.449 E158.67711
G0 F2040 X5.59 Y19.449
G1 F1020 X-21.247 Y-7.388 E160.12956
G0 F2040 X-21.072 Y-7.708
G1 F1020 X6.085 Y19.449 E161.59933
G0 F2040 X6.58 Y19.449
G1 F1020 X-20.897 Y-8.028 E163.08642
G0 F2040 X-20.723 Y-8.348
G1 F1020 X7.075 Y19.449 E164.59086
G0 F2040 X7.57 Y19.449
G1 F1020 X-20.548 Y-8.669 E166.11264
G0 F2040 X-20.373 Y-8.989
G1 F1020 X8.065 Y19.449 E167.65174
G0 F2040 X8.56 Y19.449
G1 F1020 X-20.199 Y-9.309 E169.20819
G0 F2040 X-20.024 Y-9.63
G1 F1020 X9.055 Y19.449 E170.78198
G0 F2040 X9.55 Y19.449
G1 F1020 X-19.849 Y-9.95 E172.37309
G0 F2040 X-19.675 Y-10.27
G1 F1020 X10.045 Y19.449 E173.98155
G0 F2040 X10.54 Y19.449
G1 F1020 X-19.5 Y-10.591 E175.60735
G0 F2040 X-19.325 Y-10.911
G1 F1020 X11.035 Y19.449 E177.25048
G0 F2040 X11.53 Y19.449
G1 F1020 X-19.151 Y-11.231 E178.91094
G0 F2040 X-18.975 Y-11.551
G1 F1020 X12.025 Y19.449 E180.5887
G0 F2040 X12.52 Y19.449
G1 F1020 X-18.801 Y-11.871 E182.28381
G0 F2040 X-18.626 Y-12.191
G1 F1020 X13.015 Y19.449 E183.99623
G0 F2040 X13.509 Y19.449
G1 F1020 X-18.451 Y-12.512 E185.72598
G0 F2040 X-18.277 Y-12.832
G1 F1020 X14.004 Y19.449 E187.47306
G0 F2040 X14.499 Y19.449
G1 F1020 X-18.102 Y-13.152 E189.23747
G0 F2040 X-17.927 Y-13.473
G1 F1020 X14.994 Y19.449 E191.01923
G0 F2040 X15.489 Y19.449
G1 F1020 X-17.753 Y-13.793 E192.81832
G0 F2040 X-17.578 Y-14.113
G1 F1020 X15.984 Y19.449 E194.63474
G0 F2040 X16.479 Y19.449
G1 F1020 X-17.404 Y-14.434 E196.46853
G0 F2040 X-17.229 Y-14.754
G1 F1020 X16.974 Y19.449 E198.31964
G0 F2040 X17.469 Y19.449
G1 F1020 X-17.054 Y-15.074 E200.18807
G0 F2040 X-16.879 Y-15.394
G1 F1020 X17.964 Y19.449 E202.07382
G0 F2040 X18.459 Y19.449
G1 F1020 X-16.704 Y-15.714 E203.97689
G0 F2040 X-16.53 Y-16.035
G1 F1020 X18.954 Y19.449 E205.89733
G0 F2040 X19.449 Y19.449
G1 F1020 X-16.355 Y-16.355 E207.83508
G0 F2040 X-16.18 Y-16.675
G1 F1020 X19.944 Y19.449 E209.79016
G0 F2040 X20.439 Y19.449
G1 F1020 X-16.006 Y-16.996 E211.76261
G0 F2040 X-15.831 Y-17.316
G1 F1020 X20.934 Y19.449 E213.75238
G0 F2040 X21.429 Y19.449
G1 F1020 X-15.656 Y-17.636 E215.75947
G0 F2040 X-15.482 Y-17.956
G1 F1020 X21.924 Y19.449 E217.7839
G0 F2040 X22.419 Y19.449
G1 F1020 X-15.307 Y-18.277 E219.82568
