;FLAVOR:Marlin
;TIME:7887
;Filament used: 7.25108m
;Layer height: 0.2
;MINX:-41.726
;MINY:-25.722
;MINZ:0.26
;MAXX:68.5
;MAXY:70.328
;MAXZ:23.46
;Generated with Cura_SteamEngine 4.8.0
M82 ;absolute extrusion mode
;Gcode by Cura
G90
G28
M107
M109 R100
G30
M109 S215 U-55 X55 V-85 Y-85 W0.26 Z0.26
M82
G92 E0
G1 F200 E6
G92 E0
G1 F200 E-3.5
G0 Z0.15
G0 X10
G0 Z3
G1 F6000
G92 E0
G92 E0
G1 F3600 E-3.8
;LAYER_COUNT:117
;LAYER:0
M107
G0 F2040 X-36.134 Y-25.722 Z0.26
;TYPE:SKIRT
G1 F3600 E0
G1 F1020 X63.303 Y-25.722 E3.80541
G1 X63.993 Y-25.712 E3.83181
G1 X64.596 Y-25.663 E3.85497
G1 X65.187 Y-25.535 E3.87811
G1 X65.756 Y-25.331 E3.90124
G1 X66.293 Y-25.053 E3.92438
G1 X66.789 Y-24.706 E3.94755
G1 X67.234 Y-24.298 E3.97065
G1 X67.622 Y-23.834 E3.9938
G1 X67.946 Y-23.323 E4.01696
G1 X68.199 Y-22.774 E4.04009
G1 X68.378 Y-22.196 E4.06325
G1 X68.478 Y-21.6 E4.08637
G1 X68.5 Y-20.996 E4.1095
G1 X68.441 Y-20.394 E4.13265
G1 X68.304 Y-19.805 E4.15579
G1 X67.992 Y-19.039 E4.18745
G1 X67.662 Y-18.432 E4.21389
G1 X18.838 Y67.395 E7.99271
G1 X18.444 Y68.068 E8.02256
G1 X18.104 Y68.568 E8.0457
G1 X17.702 Y69.019 E8.06882
G1 X17.243 Y69.413 E8.09197
G1 X16.737 Y69.743 E8.11508
G1 X16.191 Y70.004 E8.13824
G1 X15.616 Y70.19 E8.16137
G1 X15.021 Y70.299 E8.18452
G1 X14.417 Y70.328 E8.20766
G1 X13.815 Y70.278 E8.23078
G1 X13.224 Y70.148 E8.25394
G1 X12.656 Y69.942 E8.27706
G1 X12.119 Y69.663 E8.30022
G1 X11.625 Y69.315 E8.32334
G1 X11.18 Y68.905 E8.3465
G1 X10.645 Y68.222 E8.3797
G1 X10.313 Y67.686 E8.40383
G1 X-40.772 Y-18.244 E12.22957
G1 X-41.118 Y-18.846 E12.25614
G1 X-41.384 Y-19.389 E12.27928
G1 X-41.576 Y-19.962 E12.30241
G1 X-41.69 Y-20.556 E12.32555
G1 X-41.726 Y-21.159 E12.34867
G1 X-41.681 Y-21.762 E12.37181
G1 X-41.558 Y-22.354 E12.39495
G1 X-41.357 Y-22.925 E12.41812
G1 X-41.083 Y-23.464 E12.44126
G1 X-40.74 Y-23.962 E12.4644
G1 X-40.335 Y-24.41 E12.48751
G1 X-39.874 Y-24.802 E12.51067
G1 X-39.365 Y-25.128 E12.5338
G1 X-38.818 Y-25.386 E12.55694
G1 X-38.242 Y-25.568 E12.58006
G1 X-37.646 Y-25.673 E12.60322
G1 X-37.25 Y-25.699 E12.61841
G1 X-36.134 Y-25.722 E12.66113
G0 F2040 X-36.134 Y-25.372
G1 F1020 X63.298 Y-25.372 E16.46634
G1 X63.988 Y-25.362 E16.49275
G1 X64.567 Y-25.313 E16.51499
G1 X65.134 Y-25.186 E16.53722
G1 X65.678 Y-24.982 E16.55946
G1 X66.189 Y-24.705 E16.5817
G1 X66.657 Y-24.361 E16.60393
G1 X67.074 Y-23.956 E16.62618
G1 X67.431 Y-23.498 E16.6484
G1 X67.722 Y-22.995 E16.67064
G1 X67.941 Y-22.457 E16.69287
G1 X68.084 Y-21.893 E16.71514
G1 X68.148 Y-21.316 E16.73735
G1 X68.133 Y-20.735 E16.75959
G1 X68.038 Y-20.162 E16.78182
G1 X67.865 Y-19.607 E16.80407
G1 X67.633 Y-19.106 E16.8252
G1 X67.356 Y-18.601 E16.84724
G1 X18.506 Y67.27 E20.62802
G1 X18.142 Y67.891 E20.65557
G1 X17.814 Y68.37 E20.67778
G1 X17.424 Y68.801 E20.70003
G1 X16.978 Y69.174 E20.72228
G1 X16.486 Y69.482 E20.74449
G1 X15.956 Y69.719 E20.76671
G1 X15.398 Y69.882 E20.78896
G1 X14.823 Y69.966 E20.8112
G1 X14.242 Y69.971 E20.83343
G1 X13.666 Y69.896 E20.85566
G1 X13.105 Y69.743 E20.87791
G1 X12.571 Y69.514 E20.90015
G1 X12.073 Y69.215 E20.92238
G1 X11.621 Y68.849 E20.94464
G1 X11.224 Y68.426 E20.96684
G1 X10.874 Y67.93 E20.99007
G1 X10.583 Y67.457 E21.01132
G1 X-40.502 Y-18.477 E24.83719
G1 X-40.814 Y-19.02 E24.86116
G1 X-41.068 Y-19.543 E24.88341
G1 X-41.249 Y-20.095 E24.90564
G1 X-41.351 Y-20.667 E24.92787
G1 X-41.374 Y-21.248 E24.95013
G1 X-41.317 Y-21.826 E24.97235
G1 X-41.182 Y-22.391 E24.99458
G1 X-40.97 Y-22.932 E25.01682
G1 X-40.686 Y-23.439 E25.03906
G1 X-40.335 Y-23.902 E25.06129
G1 X-39.924 Y-24.312 E25.08351
G1 X-39.461 Y-24.663 E25.10575
G1 X-38.953 Y-24.946 E25.128
G1 X-38.412 Y-25.157 E25.15022
G1 X-37.847 Y-25.292 E25.17245
G1 X-37.242 Y-25.349 E25.19571
G1 X-36.134 Y-25.372 E25.23812
G0 F2040 X-36.134 Y-25.022
G1 F1020 X63.293 Y-25.022 E29.04314
G1 X63.983 Y-25.012 E29.06955
G1 X64.537 Y-24.964 E29.09083
G1 X65.079 Y-24.837 E29.11214
G1 X65.597 Y-24.634 E29.13343
G1 X66.081 Y-24.358 E29.15475
G1 X66.52 Y-24.017 E29.17603
G1 X66.906 Y-23.616 E29.19733
G1 X67.23 Y-23.163 E29.21864
G1 X67.486 Y-22.669 E29.23993
G1 X67.669 Y-22.144 E29.26121
G1 X67.775 Y-21.598 E29.2825
G1 X67.801 Y-21.042 E29.3038
G1 X67.747 Y-20.488 E29.3251
G1 X67.615 Y-19.948 E29.34637
G1 X67.37 Y-19.36 E29.37075
G1 X67.05 Y-18.77 E29.39644
G1 X18.204 Y67.093 E33.17687
G1 X17.84 Y67.714 E33.20442
G1 X17.525 Y68.172 E33.22569
G1 X17.147 Y68.581 E33.24701
G1 X16.715 Y68.931 E33.26828
G1 X16.237 Y69.216 E33.28958
G1 X15.723 Y69.43 E33.31089
G1 X15.184 Y69.568 E33.33218
G1 X14.631 Y69.627 E33.35346
G1 X14.075 Y69.606 E33.37476
G1 X13.528 Y69.506 E33.39604
G1 X13 Y69.328 E33.41736
G1 X12.504 Y69.077 E33.43863
G1 X12.049 Y68.757 E33.45992
G1 X11.644 Y68.376 E33.4812
G1 X11.234 Y67.845 E33.50688
G1 X10.91 Y67.321 E33.53045
G1 X-40.199 Y-18.651 E37.35804
G1 X-40.511 Y-19.194 E37.38201
G1 X-40.753 Y-19.696 E37.40333
G1 X-40.92 Y-20.226 E37.4246
G1 X-41.01 Y-20.775 E37.44589
G1 X-41.02 Y-21.332 E37.46721
G1 X-40.951 Y-21.884 E37.4885
G1 X-40.803 Y-22.42 E37.50978
G1 X-40.58 Y-22.93 E37.53108
G1 X-40.286 Y-23.402 E37.55236
G1 X-39.928 Y-23.828 E37.57366
G1 X-39.512 Y-24.198 E37.59496
G1 X-39.048 Y-24.504 E37.61623
G1 X-38.544 Y-24.741 E37.63755
G1 X-38.012 Y-24.903 E37.65883
G1 X-37.235 Y-24.999 E37.68879
G1 X-36.134 Y-25.022 E37.73093
G0 F2040 X-36.134 Y-24.672
G1 F1020 X63.288 Y-24.672 E41.53577
G1 X63.978 Y-24.662 E41.56218
G1 X64.507 Y-24.614 E41.5825
G1 X65.022 Y-24.488 E41.60279
G1 X65.513 Y-24.285 E41.62313
G1 X65.967 Y-24.012 E41.6434
G1 X66.376 Y-23.673 E41.66373
G1 X66.728 Y-23.276 E41.68403
G1 X67.018 Y-22.832 E41.70433
G1 X67.237 Y-22.348 E41.72466
G1 X67.382 Y-21.838 E41.74495
G1 X67.448 Y-21.311 E41.76528
G1 X67.434 Y-20.781 E41.78557
G1 X67.341 Y-20.258 E41.80589
G1 X67.059 Y-19.52 E41.83613
G1 X66.743 Y-18.939 E41.86144
G1 X17.902 Y66.916 E45.64152
G1 X17.538 Y67.537 E45.66906
G1 X17.236 Y67.973 E45.68936
G1 X16.872 Y68.359 E45.70967
G1 X16.454 Y68.686 E45.72998
G1 X15.992 Y68.946 E45.75026
G1 X15.496 Y69.135 E45.77058
G1 X14.977 Y69.246 E45.79089
G1 X14.447 Y69.279 E45.81121
G1 X13.919 Y69.231 E45.8315
G1 X13.403 Y69.105 E45.85183
G1 X12.912 Y68.903 E45.87214
G1 X12.458 Y68.629 E45.89244
G1 X12.049 Y68.291 E45.91274
G1 X11.696 Y67.894 E45.93307
G1 X11.208 Y67.138 E45.96751
G1 X-39.895 Y-18.826 E49.79472
G1 X-40.207 Y-19.369 E49.81868
G1 X-40.436 Y-19.848 E49.839
G1 X-40.591 Y-20.355 E49.85929
G1 X-40.667 Y-20.88 E49.87959
G1 X-40.664 Y-21.411 E49.89991
G1 X-40.582 Y-21.935 E49.92021
G1 X-40.421 Y-22.441 E49.94053
G1 X-40.187 Y-22.917 E49.96083
G1 X-39.883 Y-23.352 E49.98114
G1 X-39.518 Y-23.737 E50.00144
G1 X-39.099 Y-24.063 E50.02176
G1 X-38.636 Y-24.322 E50.04206
G1 X-38.139 Y-24.509 E50.06238
G1 X-37.62 Y-24.619 E50.08268
G1 X-37.227 Y-24.649 E50.09777
G1 X-36.134 Y-24.672 E50.13961
G0 F2040 X-36.134 Y-24.322
G1 F1020 X63.283 Y-24.322 E53.94425
G1 X63.973 Y-24.312 E53.97066
G1 X64.474 Y-24.264 E53.98992
G1 X64.962 Y-24.139 E54.00919
G1 X65.424 Y-23.937 E54.02849
G1 X65.847 Y-23.665 E54.04774
G1 X66.223 Y-23.33 E54.06701
G1 X66.541 Y-22.939 E54.0863
G1 X66.793 Y-22.503 E54.10557
G1 X66.973 Y-22.033 E54.12483
G1 X67.076 Y-21.54 E54.1441
G1 X67.1 Y-21.037 E54.16338
G1 X67.045 Y-20.537 E54.18263
G1 X66.911 Y-20.051 E54.20192
G1 X66.7 Y-19.588 E54.22139
G1 X66.418 Y-19.074 E54.24383
G1 X17.6 Y66.739 E58.02207
G1 X17.236 Y67.36 E58.04962
G1 X16.948 Y67.772 E58.06886
G1 X16.598 Y68.135 E58.08815
G1 X16.195 Y68.437 E58.10743
G1 X15.75 Y68.672 E58.12668
G1 X15.272 Y68.833 E58.14599
G1 X14.776 Y68.917 E58.16524
G1 X14.272 Y68.921 E58.18453
G1 X13.774 Y68.846 E58.2038
G1 X13.295 Y68.693 E58.22304
G1 X12.845 Y68.465 E58.24235
G1 X12.437 Y68.17 E58.26162
G1 X12.081 Y67.814 E58.28088
G1 X11.758 Y67.364 E58.30208
G1 X11.486 Y66.92 E58.32201
G1 X-39.592 Y-19 E62.14728
G1 X-39.904 Y-19.543 E62.17125
G1 X-40.119 Y-19.998 E62.1905
G1 X-40.26 Y-20.482 E62.2098
G1 X-40.323 Y-20.982 E62.22908
G1 X-40.306 Y-21.485 E62.24834
G1 X-40.209 Y-21.979 E62.26761
G1 X-40.035 Y-22.452 E62.2869
G1 X-39.789 Y-22.891 E62.30615
G1 X-39.477 Y-23.286 E62.32542
G1 X-39.106 Y-23.627 E62.3447
G1 X-38.686 Y-23.904 E62.36396
G1 X-38.227 Y-24.112 E62.38324
G1 X-37.741 Y-24.245 E62.40252
G1 X-37.22 Y-24.299 E62.42257
G1 X-36.134 Y-24.322 E62.46414
G1 F3600 E58.66414
;MESH:support_tri_0_006.stl
G0 F2040 X-36.134 Y-21.812
G0 X-36.134 Y-20.777
G0 X14.487 Y64.728
;TYPE:WALL-INNER
G1 F3600 E62.46414
G1 F1020 X-36.252 Y-20.622 E66.26403
G1 X63.042 Y-20.622 E70.06396
G1 X14.487 Y64.728 E73.82183
G0 F2040 X14.493 Y65.374
;TYPE:WALL-OUTER
G1 F1020 X-36.823 Y-20.947 E77.66494
G1 X63.6 Y-20.947 E81.50808
G1 X14.493 Y65.374 E85.30869
G0 F2040 X14.391 Y65.203
G0 X14.49 Y64.976
G0 X14.48 Y64.052
;TYPE:SKIN
G1 F1020 X-35.655 Y-20.282 E89.06335
G1 X62.457 Y-20.282 E92.81805
G1 X14.48 Y64.052 E96.53118
G0 F2040 X14.571 Y63.573
G1 F1020 X14.094 Y63.097 E96.55697
G0 F2040 X14.75 Y63.258
G1 F1020 X13.369 Y61.876 E96.63174
G1 X13.307 Y61.814
G0 F2040 X12.643 Y60.656
G1 F1020 X14.93 Y62.943 E96.75552
G0 F2040 X15.109 Y62.627
G1 F1020 X11.918 Y59.435 E96.92824
G1 X11.856 Y59.373
G0 F2040 X11.192 Y58.214
G1 F1020 X15.289 Y62.311 E97.14998
G0 F2040 X15.468 Y61.996
G1 F1020 X10.466 Y56.994 E97.42069
G1 X10.404 Y56.932
G0 F2040 X9.741 Y55.773
G1 F1020 X15.648 Y61.68 E97.74039
G0 F2040 X15.827 Y61.365
G1 F1020 X9.015 Y54.553 E98.10906
G1 X8.953 Y54.491
G0 F2040 X8.29 Y53.332
G1 F1020 X16.007 Y61.05 E98.52674
G0 F2040 X16.186 Y60.734
G1 F1020 X7.564 Y52.112 E98.99338
G1 X7.502 Y52.05
G0 F2040 X6.838 Y50.891
G1 F1020 X16.365 Y60.418 E99.50899
G0 F2040 X16.545 Y60.103
G1 F1020 X6.112 Y49.67 E100.07364
G1 X6.05 Y49.608
G0 F2040 X5.387 Y48.45
G1 F1020 X16.725 Y59.787 E100.68724
G0 F2040 X16.904 Y59.472
G1 F1020 X4.661 Y47.229 E101.34984
G1 X4.599 Y47.167
G0 F2040 X3.936 Y46.009
G1 F1020 X17.084 Y59.157 E102.06143
G0 F2040 X17.263 Y58.841
G1 F1020 X3.21 Y44.788 E102.822
G1 X3.148 Y44.726
G0 F2040 X2.485 Y43.568
G1 F1020 X17.442 Y58.525 E103.63149
G0 F2040 X17.622 Y58.21
G1 F1020 X1.759 Y42.347 E104.49001
G1 X1.697 Y42.285
G0 F2040 X1.033 Y41.126
G1 F1020 X17.802 Y57.895 E105.39757
G0 F2040 X17.981 Y57.579
G1 F1020 X0.308 Y39.906 E106.35406
G1 X0.246 Y39.844
G0 F2040 X-.417 Y38.685
G1 F1020 X18.16 Y57.263 E107.3595
G0 F2040 X18.34 Y56.948
G1 F1020 X-1.142 Y37.465 E108.41391
G1 X-1.204 Y37.403
G0 F2040 X-1.868 Y36.244
G1 F1020 X18.519 Y56.632 E109.51731
G0 F2040 X18.699 Y56.317
G1 F1020 X-2.594 Y35.023 E110.66974
G1 X-2.656 Y34.961
G0 F2040 X-3.319 Y33.803
G1 F1020 X18.879 Y56.002 E111.87115
G0 F2040 X19.058 Y55.686
G1 F1020 X-4.045 Y32.582 E113.12154
G1 X-4.107 Y32.52
G0 F2040 X-4.77 Y31.362
G1 F1020 X19.237 Y55.37 E114.42086
G0 F2040 X19.417 Y55.055
G1 F1020 X-5.496 Y30.141 E115.76921
G1 X-5.558 Y30.079
G0 F2040 X-6.221 Y28.921
G1 F1020 X19.596 Y54.739 E117.16649
G0 F2040 X19.776 Y54.424
G1 F1020 X-6.947 Y27.7 E118.6128
G1 X-7.009 Y27.638
G0 F2040 X-7.673 Y26.479
G1 F1020 X19.955 Y54.109 E120.10811
G0 F2040 X20.135 Y53.793
G1 F1020 X-8.399 Y25.259 E121.65241
G1 X-8.461 Y25.197
G0 F2040 X-9.124 Y24.038
G1 F1020 X20.314 Y53.477 E123.24566
G0 F2040 X20.494 Y53.162
G1 F1020 X-9.849 Y22.818 E124.88789
G1 X-9.911 Y22.756
G0 F2040 X-10.575 Y21.597
G1 F1020 X20.673 Y52.847 E126.57912
G0 F2040 X20.853 Y52.531
G1 F1020 X-11.3 Y20.377 E128.31931
G1 X-11.362 Y20.315
G0 F2040 X-12.027 Y19.156
G1 F1020 X21.032 Y52.216 E130.10854
G0 F2040 X21.211 Y51.9
G1 F1020 X-12.752 Y17.935 E131.94671
G1 X-12.814 Y17.873
G0 F2040 X-13.478 Y16.715
G1 F1020 X21.391 Y51.584 E133.83386
G0 F2040 X21.57 Y51.269
G1 F1020 X-14.203 Y15.494 E135.77
G1 X-14.265 Y15.432
G0 F2040 X-14.929 Y14.274
G1 F1020 X21.75 Y50.954 E137.75514
G0 F2040 X21.93 Y50.638
G1 F1020 X-15.654 Y13.053 E139.78926
G1 X-15.716 Y12.991
G0 F2040 X-16.38 Y11.833
G1 F1020 X22.109 Y50.323 E141.87236
G0 F2040 X22.288 Y50.007
G1 F1020 X-17.106 Y10.612 E144.00444
G1 X-17.168 Y10.55
G0 F2040 X-17.831 Y9.391
G1 F1020 X22.468 Y49.691 E146.1855
G0 F2040 X22.647 Y49.376
G1 F1020 X-18.557 Y8.171 E148.41554
G1 X-18.619 Y8.109
G0 F2040 X-19.282 Y6.95
G1 F1020 X22.827 Y49.061 E150.69459
G0 F2040 X23.007 Y48.745
G1 F1020 X-20.008 Y5.73 E153.02262
G1 X-20.07 Y5.668
G0 F2040 X-20.733 Y4.509
G1 F1020 X23.186 Y48.43 E155.39962
G0 F2040 X23.365 Y48.114
G1 F1020 X-21.459 Y3.288 E157.82561
G1 X-21.521 Y3.226
G0 F2040 X-22.185 Y2.068
G1 F1020 X23.545 Y47.799 E160.3006
G0 F2040 X23.724 Y47.483
G1 F1020 X-22.91 Y0.847 E162.82455
G1 X-22.972 Y0.785
G0 F2040 X-23.636 Y-.372
G1 F1020 X23.904 Y47.168 E165.39747
G0 F2040 X24.084 Y46.852
G1 F1020 X-24.361 Y-1.593 E168.01938
G1 X-24.423 Y-1.655
G0 F2040 X-25.087 Y-2.813
G1 F1020 X24.263 Y46.537 E170.69026
G0 F2040 X24.442 Y46.221
G1 F1020 X-25.813 Y-4.034 E173.41013
G1 X-25.875 Y-4.096
G0 F2040 X-26.539 Y-5.255
G1 F1020 X24.622 Y45.906 E176.17903
G0 F2040 X24.801 Y45.59
G1 F1020 X-27.264 Y-6.475 E178.99685
G1 X-27.326 Y-6.537
G0 F2040 X-27.99 Y-7.696
G1 F1020 X24.981 Y45.275 E181.86371
G0 F2040 X25.16 Y44.959
G1 F1020 X-28.715 Y-8.916 E184.77949
G1 X-28.777 Y-8.978
G0 F2040 X-29.441 Y-10.137
G1 F1020 X25.339 Y44.643 E187.74426
G0 F2040 X25.519 Y44.328
G1 F1020 X-30.166 Y-11.357 E190.758
G1 X-30.228 Y-11.419
G0 F2040 X-30.892 Y-12.578
G1 F1020 X25.699 Y44.013 E193.82078
G0 F2040 X25.878 Y43.697
G1 F1020 X-31.618 Y-13.799 E196.93253
G1 X-31.68 Y-13.861
G0 F2040 X-32.343 Y-15.019
G1 F1020 X26.058 Y43.382 E200.09327
G0 F2040 X26.237 Y43.067
G1 F1020 X-33.069 Y-16.24 E203.30301
G1 X-33.131 Y-16.302
G0 F2040 X-33.794 Y-17.46
G1 F1020 X26.416 Y42.75 E206.56165
G0 F2040 X26.596 Y42.435
G1 F1020 X-34.52 Y-18.681 E209.86933
G1 X-34.582 Y-18.743
G0 F2040 X-35.246 Y-19.902
G1 F1020 X26.776 Y42.12 E213.22604
G0 F2040 X26.955 Y41.804
G1 F1020 X-34.974 Y-20.124 E216.57769
G0 F2040 X-34.479 Y-20.124
G1 F1020 X27.135 Y41.489 E219.91229
G0 F2040 X27.314 Y41.174
G1 F1020 X-33.984 Y-20.124 E223.22982
G0 F2040 X-33.489 Y-20.124
G1 F1020 X27.493 Y40.858 E226.53024
G0 F2040 X27.673 Y40.542
G1 F1020 X-32.994 Y-20.124 E229.81359
G0 F2040 X-32.499 Y-20.124
G1 F1020 X27.852 Y40.227 E233.07986
G0 F2040 X28.032 Y39.911
G1 F1020 X-32.004 Y-20.124 E236.32906
G0 F2040 X-31.509 Y-20.124
G1 F1020 X28.212 Y39.596 E239.56121
G0 F2040 X28.391 Y39.281
G1 F1020 X-31.014 Y-20.124 E242.77628
G0 F2040 X-30.519 Y-20.124
G1 F1020 X28.57 Y38.965 E245.97425
G0 F2040 X28.75 Y38.649
G1 F1020 X-30.024 Y-20.124 E249.15515
G0 F2040 X-29.529 Y-20.124
G1 F1020 X28.929 Y38.334 E252.31897
G0 F2040 X29.109 Y38.019
G1 F1020 X-29.034 Y-20.124 E255.46575
G0 F2040 X-28.539 Y-20.124
G1 F1020 X29.289 Y37.703 E258.59544
G0 F2040 X29.467 Y37.387
G1 F1020 X-28.044 Y-20.124 E261.70801
G0 F2040 X-27.549 Y-20.124
G1 F1020 X29.647 Y37.072 E264.80353
G0 F2040 X29.827 Y36.756
G1 F1020 X-27.054 Y-20.124 E267.88198
G0 F2040 X-26.559 Y-20.124
G1 F1020 X30.006 Y36.441 E270.94335
G0 F2040 X30.186 Y36.126
G1 F1020 X-26.064 Y-20.124 E273.98767
G0 F2040 X-25.569 Y-20.124
G1 F1020 X30.365 Y35.81 E277.01489
G0 F2040 X30.544 Y35.494
G1 F1020 X-25.074 Y-20.124 E280.02501
G0 F2040 X-24.579 Y-20.124
G1 F1020 X30.724 Y35.179 E283.01807
G0 F2040 X30.904 Y34.863
G1 F1020 X-24.084 Y-20.124 E285.99407
G0 F2040 X-23.589 Y-20.124
G1 F1020 X31.083 Y34.548 E288.95299
G0 F2040 X31.263 Y34.233
G1 F1020 X-23.094 Y-20.124 E291.89486
G0 F2040 X-22.599 Y-20.124
G1 F1020 X31.442 Y33.917 E294.81962
G0 F2040 X31.621 Y33.601
G1 F1020 X-22.104 Y-20.124 E297.72729
G0 F2040 X-21.609 Y-20.124
G1 F1020 X31.801 Y33.286 E300.61791
G0 F2040 X31.981 Y32.97
G1 F1020 X-21.114 Y-20.124 E303.49145
G0 F2040 X-20.619 Y-20.124
G1 F1020 X32.16 Y32.655 E306.34792
G0 F2040 X32.34 Y32.34
G1 F1020 X-20.124 Y-20.124 E309.18733
G0 F2040 X-19.629 Y-20.124
G1 F1020 X32.519 Y32.024 E312.00965
G0 F2040 X32.698 Y31.708
G1 F1020 X-19.135 Y-20.124 E314.81489
G0 F2040 X-18.64 Y-20.124
G1 F1020 X32.878 Y31.393 E317.60308
G0 F2040 X33.057 Y31.078
G1 F1020 X-18.145 Y-20.124 E320.3742
G0 F2040 X-17.65 Y-20.124
G1 F1020 X33.237 Y30.762 E323.12824
G0 F2040 X33.417 Y30.447
G1 F1020 X-17.155 Y-20.124 E325.86524
G0 F2040 X-16.66 Y-20.124
G1 F1020 X33.596 Y30.131 E328.58513
G0 F2040 X33.775 Y29.815
