;FLAVOR:Marlin
;TIME:8011
;Filament used: 7.38185m
;Layer height: 0.2
;MINX:-54.553
;MINY:-45.203
;MINZ:0.26
;MAXX:54.552
;MAXY:55.578
;MAXZ:22.66
;Generated with Cura_SteamEngine 4.8.0
M82 ;absolute extrusion mode
;Gcode by Cura
G90
G28
M107
M109 R100
G30
M109 S215 U-55 X55 V-85 Y-85 W0.26 Z0.26
M82
G92 E0
G1 F200 E6
G92 E0
G1 F200 E-3.5
G0 Z0.15
G0 X10
G0 Z3
G1 F6000
G92 E0
G92 E0
G1 F3600 E-3.8
;LAYER_COUNT:113
;LAYER:0
M107
G0 F2040 X4.334 Y52.63 Z0.26
;TYPE:SKIRT
G1 F3600 E0
G1 F1020 X3.986 Y53.248 E0.02714
G1 X3.656 Y53.754 E0.05026
G1 X3.261 Y54.212 E0.07341
G1 X2.809 Y54.614 E0.09656
G1 X2.308 Y54.953 E0.11971
G1 X1.767 Y55.223 E0.14284
G1 X1.196 Y55.419 E0.16595
G1 X0.603 Y55.538 E0.18909
G1 X-0.001 Y55.578 E0.21226
G1 X-.604 Y55.538 E0.23539
G1 X-1.197 Y55.419 E0.25853
G1 X-1.769 Y55.222 E0.28169
G1 X-2.31 Y54.952 E0.30482
G1 X-2.81 Y54.613 E0.32794
G1 X-3.262 Y54.211 E0.35109
G1 X-3.656 Y53.753 E0.37421
G1 X-3.942 Y53.325 E0.39391
G1 X-4.264 Y52.759 E0.41883
G1 X-53.725 Y-37.904 E4.3712
G1 X-54.028 Y-38.478 E4.39604
G1 X-54.274 Y-39.03 E4.41917
G1 X-54.446 Y-39.61 E4.44232
G1 X-54.539 Y-40.208 E4.46548
G1 X-54.553 Y-40.812 E4.4886
G1 X-54.487 Y-41.413 E4.51174
G1 X-54.342 Y-42 E4.53488
G1 X-54.121 Y-42.563 E4.55802
G1 X-53.828 Y-43.092 E4.58117
G1 X-53.467 Y-43.578 E4.60433
G1 X-53.046 Y-44.011 E4.62745
G1 X-52.571 Y-44.386 E4.65061
G1 X-52.051 Y-44.694 E4.67374
G1 X-51.495 Y-44.931 E4.69687
G1 X-50.913 Y-45.093 E4.71999
G1 X-50.058 Y-45.188 E4.75291
G1 X-49.138 Y-45.203 E4.78812
G1 X49.36 Y-45.203 E8.55759
G1 X50.046 Y-45.193 E8.58385
G1 X50.648 Y-45.144 E8.60696
G1 X51.239 Y-45.016 E8.6301
G1 X51.808 Y-44.811 E8.65325
G1 X52.345 Y-44.533 E8.67639
G1 X52.841 Y-44.187 E8.69953
G1 X53.287 Y-43.779 E8.72267
G1 X53.675 Y-43.315 E8.74581
G1 X53.998 Y-42.804 E8.76895
G1 X54.251 Y-42.255 E8.79208
G1 X54.43 Y-41.677 E8.81524
G1 X54.531 Y-41.081 E8.83837
G1 X54.552 Y-40.477 E8.8615
G1 X54.493 Y-39.875 E8.88465
G1 X54.356 Y-39.286 E8.90779
G1 X54.032 Y-38.496 E8.94047
G1 X53.626 Y-37.722 E8.97392
G1 X4.334 Y52.63 E12.91274
G0 F2040 X4.029 Y52.458
G1 F1020 X3.681 Y53.076 E12.93988
G1 X3.362 Y53.562 E12.96213
G1 X2.979 Y53.999 E12.98437
G1 X2.54 Y54.379 E13.00659
G1 X2.053 Y54.696 E13.02882
G1 X1.527 Y54.942 E13.05105
G1 X0.972 Y55.115 E13.07329
G1 X0.399 Y55.209 E13.09552
G1 X-.182 Y55.224 E13.11776
G1 X-.759 Y55.159 E13.13998
G1 X-1.322 Y55.016 E13.16221
G1 X-1.861 Y54.796 E13.18449
G1 X-2.363 Y54.505 E13.20669
G1 X-2.821 Y54.148 E13.22892
G1 X-3.226 Y53.731 E13.25116
G1 X-3.641 Y53.147 E13.27858
G1 X-3.958 Y52.589 E13.30314
G1 X-53.415 Y-38.068 E17.25523
G1 X-53.718 Y-38.642 E17.28007
G1 X-53.954 Y-39.173 E17.30231
G1 X-54.114 Y-39.731 E17.32453
G1 X-54.196 Y-40.307 E17.34679
G1 X-54.198 Y-40.888 E17.36903
G1 X-54.121 Y-41.464 E17.39126
G1 X-53.965 Y-42.023 E17.41347
G1 X-53.734 Y-42.556 E17.43571
G1 X-53.432 Y-43.053 E17.45796
G1 X-53.065 Y-43.503 E17.48018
G1 X-52.639 Y-43.899 E17.50244
G1 X-52.163 Y-44.232 E17.52467
G1 X-51.646 Y-44.497 E17.54691
G1 X-51.098 Y-44.689 E17.56913
G1 X-50.528 Y-44.804 E17.59138
G1 X-50.052 Y-44.838 E17.60964
G1 X-49.138 Y-44.853 E17.64463
G1 X49.355 Y-44.853 E21.41391
G1 X50.041 Y-44.843 E21.44016
G1 X50.62 Y-44.794 E21.4624
G1 X51.186 Y-44.667 E21.4846
G1 X51.731 Y-44.463 E21.50687
G1 X52.241 Y-44.186 E21.52908
G1 X52.71 Y-43.842 E21.55134
G1 X53.126 Y-43.437 E21.57356
G1 X53.483 Y-42.978 E21.59581
G1 X53.774 Y-42.475 E21.61805
G1 X53.993 Y-41.937 E21.64028
G1 X54.136 Y-41.374 E21.66251
G1 X54.2 Y-40.797 E21.68473
G1 X54.185 Y-40.216 E21.70697
G1 X54.09 Y-39.643 E21.7292
G1 X53.917 Y-39.088 E21.75144
G1 X53.722 Y-38.659 E21.76948
G1 X53.319 Y-37.89 E21.8027
G1 X4.029 Y52.458 E25.74135
G0 F2040 X3.724 Y52.286
G1 F1020 X3.376 Y52.904 E25.7685
G1 X3.069 Y53.368 E25.78979
G1 X2.699 Y53.784 E25.81109
G1 X2.273 Y54.141 E25.83236
G1 X1.8 Y54.435 E25.85368
G1 X1.29 Y54.657 E25.87496
G1 X0.753 Y54.804 E25.89627
G1 X0.201 Y54.873 E25.91756
G1 X-.355 Y54.862 E25.93884
G1 X-.904 Y54.771 E25.96014
G1 X-1.434 Y54.603 E25.98142
G1 X-1.935 Y54.36 E26.00273
G1 X-2.396 Y54.048 E26.02403
G1 X-2.808 Y53.674 E26.04532
G1 X-3.161 Y53.244 E26.06661
G1 X-3.435 Y52.806 E26.08639
G1 X-3.671 Y52.386 E26.10482
G1 X-53.106 Y-38.231 E30.05517
G1 X-53.409 Y-38.805 E30.08001
G1 X-53.633 Y-39.314 E30.10129
G1 X-53.781 Y-39.851 E30.12261
G1 X-53.851 Y-40.403 E30.1439
G1 X-53.842 Y-40.959 E30.16518
G1 X-53.752 Y-41.508 E30.18647
G1 X-53.585 Y-42.039 E30.20777
G1 X-53.344 Y-42.54 E30.22905
G1 X-53.034 Y-43.002 E30.25034
G1 X-52.66 Y-43.415 E30.27166
G1 X-52.231 Y-43.769 E30.29295
G1 X-51.756 Y-44.059 E30.31425
G1 X-51.245 Y-44.278 E30.33552
G1 X-50.707 Y-44.421 E30.35683
G1 X-50.046 Y-44.488 E30.38225
G1 X-49.138 Y-44.503 E30.41701
G1 X49.349 Y-44.503 E34.18606
G1 X50.035 Y-44.493 E34.21231
G1 X50.59 Y-44.445 E34.23363
G1 X51.132 Y-44.318 E34.25494
G1 X51.65 Y-44.114 E34.27624
G1 X52.133 Y-43.839 E34.29751
G1 X52.572 Y-43.497 E34.31881
G1 X52.958 Y-43.096 E34.34011
G1 X53.282 Y-42.644 E34.36139
G1 X53.538 Y-42.15 E34.38268
G1 X53.721 Y-41.625 E34.40396
G1 X53.827 Y-41.078 E34.42528
G1 X53.853 Y-40.523 E34.44655
G1 X53.799 Y-39.969 E34.46785
G1 X53.667 Y-39.428 E34.48916
G1 X53.412 Y-38.821 E34.51436
G1 X53.012 Y-38.057 E34.54736
G1 X3.724 Y52.286 E38.4858
G0 F2040 X3.42 Y52.115
G1 F1020 X3.072 Y52.733 E38.51295
G1 X2.777 Y53.174 E38.53325
G1 X2.42 Y53.566 E38.55354
G1 X2.007 Y53.901 E38.57389
G1 X1.55 Y54.169 E38.59417
G1 X1.057 Y54.366 E38.61449
G1 X0.54 Y54.486 E38.6348
G1 X0.011 Y54.528 E38.6551
G1 X-.518 Y54.49 E38.6754
G1 X-1.036 Y54.372 E38.69573
G1 X-1.53 Y54.179 E38.71603
G1 X-1.989 Y53.913 E38.73633
G1 X-2.403 Y53.582 E38.75662
G1 X-2.763 Y53.192 E38.77693
G1 X-3.133 Y52.629 E38.80271
G1 X-3.363 Y52.218 E38.82073
G1 X-52.796 Y-38.394 E42.77088
G1 X-53.099 Y-38.968 E42.79571
G1 X-53.311 Y-39.455 E42.81604
G1 X-53.447 Y-39.968 E42.83635
G1 X-53.505 Y-40.495 E42.85664
G1 X-53.483 Y-41.026 E42.87698
G1 X-53.381 Y-41.546 E42.89726
G1 X-53.203 Y-42.046 E42.91757
G1 X-52.951 Y-42.514 E42.93791
G1 X-52.633 Y-42.938 E42.9582
G1 X-52.254 Y-43.309 E42.97849
G1 X-51.823 Y-43.62 E42.99883
G1 X-51.351 Y-43.862 E43.01913
G1 X-50.848 Y-44.031 E43.03944
G1 X-50.325 Y-44.122 E43.05975
G1 X-50.04 Y-44.139 E43.07068
G1 X-49.196 Y-44.153 E43.10298
G1 X49.344 Y-44.153 E46.87406
G1 X50.03 Y-44.143 E46.90032
G1 X50.559 Y-44.095 E46.92065
G1 X51.074 Y-43.969 E46.94094
G1 X51.565 Y-43.766 E46.96127
G1 X52.019 Y-43.492 E46.98156
G1 X52.428 Y-43.154 E47.00187
G1 X52.781 Y-42.757 E47.0222
G1 X53.07 Y-42.312 E47.0425
G1 X53.289 Y-41.829 E47.0628
G1 X53.434 Y-41.319 E47.08309
G1 X53.5 Y-40.792 E47.10342
G1 X53.486 Y-40.262 E47.12371
G1 X53.393 Y-39.739 E47.14403
G1 X53.222 Y-39.237 E47.16433
G1 X53.102 Y-38.983 E47.17508
G1 X52.704 Y-38.225 E47.20784
G1 X3.42 Y52.115 E51.14612
G0 F2040 X3.115 Y51.943
G1 F1020 X2.767 Y52.561 E51.17326
G1 X2.485 Y52.979 E51.19256
G1 X2.142 Y53.347 E51.21181
G1 X1.744 Y53.656 E51.23109
G1 X1.303 Y53.898 E51.25034
G1 X0.829 Y54.068 E51.26961
G1 X0.334 Y54.16 E51.28888
G1 X-.17 Y54.173 E51.30817
G1 X-.669 Y54.107 E51.32744
G1 X-1.151 Y53.962 E51.3467
G1 X-1.605 Y53.743 E51.36599
G1 X-2.018 Y53.455 E51.38526
G1 X-2.38 Y53.105 E51.40453
G1 X-2.736 Y52.614 E51.42774
G1 X-3.041 Y52.077 E51.45137
G1 X-52.487 Y-38.558 E55.40252
G1 X-52.79 Y-39.132 E55.42736
G1 X-52.989 Y-39.594 E55.44661
G1 X-53.112 Y-40.083 E55.46591
G1 X-53.157 Y-40.584 E55.48516
G1 X-53.122 Y-41.087 E55.50446
G1 X-53.007 Y-41.577 E55.52372
G1 X-52.817 Y-42.043 E55.54298
G1 X-52.555 Y-42.474 E55.56228
G1 X-52.229 Y-42.857 E55.58153
G1 X-51.846 Y-43.184 E55.6008
G1 X-51.416 Y-43.447 E55.62009
G1 X-50.95 Y-43.638 E55.63936
G1 X-50.46 Y-43.753 E55.65863
G1 X-50.035 Y-43.789 E55.67495
G1 X-49.191 Y-43.803 E55.70725
G1 X49.339 Y-43.803 E59.47795
G1 X50.025 Y-43.793 E59.5042
G1 X50.527 Y-43.745 E59.5235
G1 X51.014 Y-43.619 E59.54275
G1 X51.476 Y-43.418 E59.56204
G1 X51.9 Y-43.146 E59.58131
G1 X52.275 Y-42.811 E59.60056
G1 X52.593 Y-42.42 E59.61984
G1 X52.845 Y-41.984 E59.63912
G1 X53.025 Y-41.514 E59.65838
G1 X53.128 Y-41.021 E59.67765
G1 X53.152 Y-40.518 E59.69692
G1 X53.097 Y-40.017 E59.71621
G1 X52.962 Y-39.532 E59.73548
G1 X52.792 Y-39.146 E59.75162
G1 X52.397 Y-38.392 E59.78419
G1 X3.115 Y51.943 E63.72226
G1 F3600 E59.92226
;MESH:support_tri_0_094.stl
G0 F2040 X0.913 Y50.738
G0 X0.135 Y50.315
G0 X0.00 Y49.926
;TYPE:WALL-INNER
G1 F3600 E63.72226
G1 F1020 X-49.116 Y-40.103 E67.647
G1 X49.116 Y-40.103 E71.4063
G1 X0.00 Y49.926 E75.33104
G0 F2040 X0.00 Y50.604
;TYPE:WALL-OUTER
G1 F1020 X-49.663 Y-40.428 E79.29951
G1 X49.663 Y-40.428 E83.10067
G1 X0.00 Y50.604 E87.06913
G0 F2040 X-0.095 Y50.429
G0 X-0.007 Y50.382
G0 X0.00 Y49.215
;TYPE:SKIN
G1 F1020 X-48.543 Y-39.763 E90.94806
G1 X48.543 Y-39.763 E94.6635
G1 X0.00 Y49.215 E98.54243
G0 F2040 X0.133 Y48.641
G1 F1020 X-.453 Y48.053 E98.5742
G1 X-.515 Y47.991
G0 F2040 X0.308 Y48.32
G1 F1020 X-1.048 Y46.963 E98.64762
G1 X-1.11 Y46.901
G0 F2040 X-1.642 Y45.874
G1 F1020 X0.482 Y48 E98.76263
G0 F2040 X0.657 Y47.68
G1 F1020 X-2.236 Y44.786 E98.91923
G1 X-2.298 Y44.724
G0 F2040 X-2.831 Y43.696
G1 F1020 X0.832 Y47.36 E99.1175
G0 F2040 X1.007 Y47.04
G1 F1020 X-3.425 Y42.607 E99.35739
G1 X-3.487 Y42.545
G0 F2040 X-4.019 Y41.518
G1 F1020 X1.182 Y46.719 E99.63888
G0 F2040 X1.356 Y46.399
G1 F1020 X-4.613 Y40.428 E99.96198
G1 X-4.675 Y40.366
G0 F2040 X-5.207 Y39.339
G1 F1020 X1.531 Y46.079 E100.3267
G0 F2040 X1.706 Y45.759
G1 F1020 X-5.802 Y38.25 E100.73307
G1 X-5.864 Y38.188
G0 F2040 X-6.396 Y37.161
G1 F1020 X1.88 Y45.438 E101.18101
G0 F2040 X2.055 Y45.118
G1 F1020 X-6.99 Y36.072 E101.67056
G1 X-7.052 Y36.01
G0 F2040 X-7.585 Y34.982
G1 F1020 X2.23 Y44.798 E102.20179
G0 F2040 X2.404 Y44.477
G1 F1020 X-8.179 Y33.893 E102.77458
G1 X-8.241 Y33.831
G0 F2040 X-8.773 Y32.804
G1 F1020 X2.579 Y44.157 E103.38899
G0 F2040 X2.754 Y43.837
G1 F1020 X-9.367 Y31.715 E104.04502
G1 X-9.429 Y31.653
G0 F2040 X-9.961 Y30.626
G1 F1020 X2.929 Y43.517 E104.74267
G0 F2040 X3.104 Y43.197
G1 F1020 X-10.556 Y29.536 E105.482
G1 X-10.618 Y29.474
G0 F2040 X-11.15 Y28.447
G1 F1020 X3.278 Y42.876 E106.26289
G0 F2040 X3.453 Y42.556
G1 F1020 X-11.744 Y27.358 E107.0854
G1 X-11.806 Y27.296
G0 F2040 X-12.339 Y26.269
G1 F1020 X3.628 Y42.236 E107.94955
G0 F2040 X3.802 Y41.915
G1 F1020 X-12.932 Y25.18 E108.85524
G1 X-12.994 Y25.118
G0 F2040 X-13.526 Y24.091
G1 F1020 X3.977 Y41.595 E109.80255
G0 F2040 X4.152 Y41.275
G1 F1020 X-14.121 Y23.001 E110.79154
G1 X-14.183 Y22.939
G0 F2040 X-14.715 Y21.912
G1 F1020 X4.326 Y40.954 E111.82209
G0 F2040 X4.501 Y40.634
G1 F1020 X-15.31 Y20.822 E112.89431
G1 X-15.372 Y20.76
G0 F2040 X-15.904 Y19.733
G1 F1020 X4.676 Y40.314 E114.00816
G0 F2040 X4.851 Y39.994
G1 F1020 X-16.498 Y18.644 E115.16362
G1 X-16.56 Y18.582
G0 F2040 X-17.092 Y17.555
G1 F1020 X5.026 Y39.674 E116.3607
G0 F2040 X5.2 Y39.354
G1 F1020 X-17.686 Y16.466 E117.59937
G1 X-17.748 Y16.404
G0 F2040 X-18.28 Y15.377
G1 F1020 X5.375 Y39.033 E118.87964
G0 F2040 X5.55 Y38.713
G1 F1020 X-18.875 Y14.287 E120.20158
G1 X-18.937 Y14.225
G0 F2040 X-19.469 Y13.198
G1 F1020 X5.724 Y38.393 E121.56511
G0 F2040 X5.899 Y38.072
G1 F1020 X-20.064 Y12.109 E122.97026
G1 X-20.126 Y12.047
G0 F2040 X-20.658 Y11.02
G1 F1020 X6.074 Y37.752 E124.41703
G0 F2040 X6.248 Y37.432
G1 F1020 X-21.252 Y9.931 E125.90539
G1 X-21.314 Y9.869
G0 F2040 X-21.846 Y8.841
G1 F1020 X6.423 Y37.111 E127.43537
G0 F2040 X6.598 Y36.792
G1 F1020 X-22.44 Y7.752 E129.007
G1 X-22.502 Y7.69
G0 F2040 X-23.034 Y6.663
G1 F1020 X6.773 Y36.471 E130.62022
G0 F2040 X6.948 Y36.151
G1 F1020 X-23.629 Y5.574 E132.27509
G1 X-23.691 Y5.512
G0 F2040 X-24.223 Y4.485
G1 F1020 X7.122 Y35.831 E133.97155
G0 F2040 X7.297 Y35.51
G1 F1020 X-24.818 Y3.395 E135.70965
G1 X-24.88 Y3.333
G0 F2040 X-25.412 Y2.306
G1 F1020 X7.471 Y35.19 E137.48935
G0 F2040 X7.646 Y34.87
G1 F1020 X-26.005 Y1.217 E139.31064
G1 X-26.067 Y1.155
G0 F2040 X-26.6 Y0.127
G1 F1020 X7.821 Y34.549 E141.17357
G0 F2040 X7.995 Y34.229
G1 F1020 X-27.194 Y-.96 E143.07805
G1 X-27.256 Y-1.022
G0 F2040 X-27.788 Y-2.049
G1 F1020 X8.17 Y33.909 E145.02414
G0 F2040 X8.345 Y33.588
G1 F1020 X-28.383 Y-3.139 E147.01188
G1 X-28.445 Y-3.201
G0 F2040 X-28.977 Y-4.228
G1 F1020 X8.52 Y33.269 E149.04126
G0 F2040 X8.695 Y32.949
G1 F1020 X-29.571 Y-5.318 E151.11229
G1 X-29.633 Y-5.38
G0 F2040 X-30.165 Y-6.407
G1 F1020 X8.869 Y32.628 E153.22489
G0 F2040 X9.044 Y32.308
G1 F1020 X-30.759 Y-7.496 E155.37911
G1 X-30.821 Y-7.558
G0 F2040 X-31.354 Y-8.585
G1 F1020 X9.219 Y31.988 E157.57497
G0 F2040 X9.393 Y31.667
G1 F1020 X-31.948 Y-9.674 E159.8124
G1 X-32.01 Y-9.736
G0 F2040 X-32.542 Y-10.763
G1 F1020 X9.568 Y31.347 E162.09144
G0 F2040 X9.743 Y31.027
G1 F1020 X-33.137 Y-11.853 E164.41216
G1 X-33.199 Y-11.915
G0 F2040 X-33.731 Y-12.942
G1 F1020 X9.917 Y30.706 E166.77445
G0 F2040 X10.092 Y30.386
G1 F1020 X-34.325 Y-14.031 E169.17835
G1 X-34.387 Y-14.093
G0 F2040 X-34.919 Y-15.12
G1 F1020 X10.267 Y30.066 E171.62388
G0 F2040 X10.442 Y29.746
G1 F1020 X-35.513 Y-16.209 E174.11102
G1 X-35.575 Y-16.271
G0 F2040 X-36.108 Y-17.299
G1 F1020 X10.617 Y29.426 E176.63984
G0 F2040 X10.791 Y29.105
G1 F1020 X-36.702 Y-18.388 E179.21022
G1 X-36.764 Y-18.45
G0 F2040 X-37.296 Y-19.477
G1 F1020 X10.966 Y28.785 E181.82222
G0 F2040 X11.141 Y28.465
G1 F1020 X-37.891 Y-20.566 E184.47587
G1 X-37.953 Y-20.628
G0 F2040 X-38.484 Y-21.655
G1 F1020 X11.315 Y28.144 E187.17105
G0 F2040 X11.49 Y27.824
G1 F1020 X-39.079 Y-22.745 E189.90791
G1 X-39.141 Y-22.807
G0 F2040 X-39.673 Y-23.834
G1 F1020 X11.665 Y27.504 E192.68639
G0 F2040 X11.839 Y27.184
G1 F1020 X-40.267 Y-24.923 E195.50646
G1 X-40.329 Y-24.985
G0 F2040 X-40.862 Y-26.013
G1 F1020 X12.014 Y26.863 E198.36818
G0 F2040 X12.189 Y26.543
G1 F1020 X-41.456 Y-27.101 E201.27149
G1 X-41.518 Y-27.163
G0 F2040 X-42.05 Y-28.19
G1 F1020 X12.364 Y26.223 E204.21641
G0 F2040 X12.539 Y25.903
G1 F1020 X-42.644 Y-29.28 E207.20299
G1 X-42.706 Y-29.342
G0 F2040 X-43.238 Y-30.369
G1 F1020 X12.713 Y25.583 E210.23115
G0 F2040 X12.888 Y25.262
G1 F1020 X-43.833 Y-31.459 E213.30097
G1 X-43.895 Y-31.521
G0 F2040 X-44.427 Y-32.548
G1 F1020 X13.063 Y24.942 E216.4124
G0 F2040 X13.237 Y24.622
G1 F1020 X-45.021 Y-33.637 E219.56542
G1 X-45.083 Y-33.699
G0 F2040 X-45.616 Y-34.726
G1 F1020 X13.412 Y24.301 E222.76007
G0 F2040 X13.587 Y23.981
G1 F1020 X-46.21 Y-35.815 E225.99633
G1 X-46.272 Y-35.877
G0 F2040 X-46.804 Y-36.904
G1 F1020 X13.761 Y23.661 E229.27418
G0 F2040 X13.936 Y23.34
G1 F1020 X-47.398 Y-37.994 E232.59366
G1 X-47.46 Y-38.056
G0 F2040 X-47.992 Y-39.083
G1 F1020 X14.111 Y23.02 E235.95475
G0 F2040 X14.286 Y22.7
G1 F1020 X-48.02 Y-39.605 E239.3268
G0 F2040 X-47.525 Y-39.605
G1 F1020 X14.461 Y22.38 E242.68154
G0 F2040 X14.635 Y22.06
G1 F1020 X-47.03 Y-39.605 E246.01893
G0 F2040 X-46.535 Y-39.605
G1 F1020 X14.81 Y21.739 E249.33897
G0 F2040 X14.985 Y21.419
G1 F1020 X-46.04 Y-39.605 E252.64169
G0 F2040 X-45.545 Y-39.605
G1 F1020 X15.159 Y21.099 E255.92707
G0 F2040 X15.334 Y20.779
G1 F1020 X-45.05 Y-39.605 E259.19513
G0 F2040 X-44.555 Y-39.605
G1 F1020 X15.508 Y20.458 E262.44582
G0 F2040 X15.683 Y20.138
G1 F1020 X-44.06 Y-39.605 E265.67918
G0 F2040 X-43.565 Y-39.605
G1 F1020 X15.858 Y19.818 E268.89523
G0 F2040 X16.032 Y19.497
G1 F1020 X-43.07 Y-39.605 E272.09391
G0 F2040 X-42.575 Y-39.605
G1 F1020 X16.208 Y19.178 E275.27532
G0 F2040 X16.382 Y18.857
G1 F1020 X-42.08 Y-39.605 E278.43936
G0 F2040 X-41.585 Y-39.605
G1 F1020 X16.557 Y18.537 E281.58608
G0 F2040 X16.732 Y18.217
G1 F1020 X-41.09 Y-39.605 E284.71548
G0 F2040 X-40.595 Y-39.605
G1 F1020 X16.906 Y17.896 E287.8275
G0 F2040 X17.081 Y17.576
G1 F1020 X-40.1 Y-39.605 E290.92221
G0 F2040 X-39.605 Y-39.605
G1 F1020 X17.256 Y17.256 E293.9996
G0 F2040 X17.43 Y16.935
G1 F1020 X-39.11 Y-39.605 E297.05962
G0 F2040 X-38.615 Y-39.605
G1 F1020 X17.605 Y16.615 E300.10232
G0 F2040 X17.78 Y16.295
G1 F1020 X-38.12 Y-39.605 E303.1277
G0 F2040 X-37.625 Y-39.605
G1 F1020 X17.954 Y15.974 E306.1357
G0 F2040 X18.13 Y15.655
G1 F1020 X-37.13 Y-39.605 E309.12644
G0 F2040 X-36.635 Y-39.605
G1 F1020 X18.304 Y15.335 E312.09984
G0 F2040 X18.479 Y15.014
