;FLAVOR:Marlin
;TIME:7893
;Filament used: 7.2511m
;Layer height: 0.2
;MINX:-42.111
;MINY:-71.092
;MINZ:0.26
;MAXX:67.003
;MAXY:25.916
;MAXZ:23.46
;Generated with Cura_SteamEngine 4.8.0
M82 ;absolute extrusion mode
;Gcode by Cura
G90
G28
M107
M109 R100
G30
M109 S215 U-55 X55 V-85 Y-85 W0.26 Z0.26
M82
G92 E0
G1 F200 E6
G92 E0
G1 F200 E-3.5
G0 Z0.15
G0 X10
G0 Z3
G1 F6000
G92 E0
G92 E0
G1 F3600 E-3.8
;LAYER_COUNT:117
;LAYER:0
M107
G0 F2040 X-36.914 Y25.916 Z0.26
;TYPE:SKIRT
G1 F3600 E0
G1 F1020 X-37.604 Y25.906 E0.02641
G1 X-38.207 Y25.857 E0.04956
G1 X-38.798 Y25.729 E0.0727
G1 X-39.367 Y25.525 E0.09584
G1 X-39.904 Y25.247 E0.11898
G1 X-40.4 Y24.9 E0.14214
G1 X-40.845 Y24.492 E0.16525
G1 X-41.233 Y24.028 E0.18839
G1 X-41.557 Y23.517 E0.21155
G1 X-41.81 Y22.968 E0.23468
G1 X-41.989 Y22.39 E0.25784
G1 X-42.089 Y21.794 E0.28097
G1 X-42.111 Y21.19 E0.3041
G1 X-42.052 Y20.588 E0.32725
G1 X-41.915 Y19.999 E0.35039
G1 X-41.614 Y19.252 E0.38121
G1 X-41.247 Y18.58 E0.41051
G1 X8.107 Y-68.177 E4.2303
G1 X8.493 Y-68.834 E4.25946
G1 X8.833 Y-69.334 E4.2826
G1 X9.235 Y-69.785 E4.30572
G1 X9.694 Y-70.179 E4.32887
G1 X10.201 Y-70.509 E4.35202
G1 X10.747 Y-70.769 E4.37516
G1 X11.322 Y-70.955 E4.39829
G1 X11.917 Y-71.063 E4.42143
G1 X12.521 Y-71.092 E4.44458
G1 X13.123 Y-71.041 E4.4677
G1 X13.714 Y-70.911 E4.49085
G1 X14.282 Y-70.705 E4.51398
G1 X14.818 Y-70.425 E4.53712
G1 X15.313 Y-70.077 E4.56028
G1 X15.757 Y-69.667 E4.5834
G1 X16.143 Y-69.202 E4.60653
G1 X16.365 Y-68.865 E4.62198
G1 X16.935 Y-67.91 E4.66454
G1 X66.077 Y18.474 E8.46791
G1 X66.433 Y19.118 E8.49607
G1 X66.69 Y19.665 E8.5192
G1 X66.872 Y20.241 E8.54231
G1 X66.977 Y20.837 E8.56547
G1 X67.003 Y21.441 E8.58861
G1 X66.948 Y22.043 E8.61174
G1 X66.815 Y22.633 E8.63489
G1 X66.605 Y23.2 E8.65803
G1 X66.322 Y23.734 E8.68116
G1 X65.971 Y24.227 E8.70432
G1 X65.558 Y24.669 E8.72747
G1 X65.091 Y25.052 E8.75058
G1 X64.577 Y25.371 E8.77373
G1 X64.025 Y25.618 E8.79687
G1 X63.446 Y25.792 E8.82001
G1 X62.602 Y25.903 E8.85259
G1 X61.943 Y25.916 E8.87781
G1 X-36.914 Y25.916 E12.66102
G0 F2040 X-36.909 Y25.566
G1 F1020 X-37.599 Y25.556 E12.68743
G1 X-38.178 Y25.507 E12.70967
G1 X-38.745 Y25.38 E12.73191
G1 X-39.289 Y25.176 E12.75414
G1 X-39.8 Y24.899 E12.77638
G1 X-40.268 Y24.555 E12.79861
G1 X-40.685 Y24.15 E12.82086
G1 X-41.042 Y23.692 E12.84308
G1 X-41.333 Y23.189 E12.86532
G1 X-41.552 Y22.651 E12.88755
G1 X-41.695 Y22.087 E12.90982
G1 X-41.759 Y21.51 E12.93203
G1 X-41.744 Y20.929 E12.95428
G1 X-41.649 Y20.356 E12.9765
G1 X-41.476 Y19.801 E12.99875
G1 X-41.251 Y19.311 E13.01939
G1 X-40.942 Y18.75 E13.0439
G1 X8.44 Y-68.054 E16.86578
G1 X8.794 Y-68.657 E16.89254
G1 X9.122 Y-69.137 E16.91479
G1 X9.513 Y-69.567 E16.93703
G1 X9.959 Y-69.939 E16.95925
G1 X10.452 Y-70.247 E16.9815
G1 X10.982 Y-70.484 E17.00372
G1 X11.54 Y-70.646 E17.02595
G1 X12.115 Y-70.731 E17.0482
G1 X12.696 Y-70.735 E17.07043
G1 X13.272 Y-70.66 E17.09266
G1 X13.833 Y-70.506 E17.11493
G1 X14.367 Y-70.277 E17.13716
G1 X14.864 Y-69.977 E17.15938
G1 X15.316 Y-69.612 E17.18161
G1 X15.713 Y-69.187 E17.20387
G1 X16.065 Y-68.686 E17.2273
G1 X16.585 Y-67.816 E17.26609
G1 X65.771 Y18.643 E21.07279
G1 X66.127 Y19.287 E21.10095
G1 X66.372 Y19.814 E21.12319
G1 X66.543 Y20.369 E21.14541
G1 X66.636 Y20.942 E21.16763
G1 X66.65 Y21.523 E21.18987
G1 X66.583 Y22.101 E21.21214
G1 X66.438 Y22.663 E21.23435
G1 X66.218 Y23.201 E21.25659
G1 X65.925 Y23.703 E21.27884
G1 X65.567 Y24.16 E21.30105
G1 X65.149 Y24.564 E21.3233
G1 X64.68 Y24.907 E21.34554
G1 X64.168 Y25.182 E21.36778
G1 X63.623 Y25.384 E21.39002
G1 X63.056 Y25.509 E21.41224
G1 X62.457 Y25.558 E21.43524
G1 X61.939 Y25.566 E21.45507
G1 X-36.909 Y25.566 E25.23793
G0 F2040 X-36.904 Y25.216
G1 F1020 X-37.594 Y25.206 E25.26434
G1 X-38.148 Y25.158 E25.28562
G1 X-38.69 Y25.031 E25.30693
G1 X-39.208 Y24.828 E25.32822
G1 X-39.692 Y24.552 E25.34954
G1 X-40.131 Y24.211 E25.37081
G1 X-40.517 Y23.81 E25.39211
G1 X-40.841 Y23.357 E25.41343
G1 X-41.097 Y22.863 E25.43472
G1 X-41.28 Y22.338 E25.456
G1 X-41.386 Y21.792 E25.47728
G1 X-41.412 Y21.236 E25.49858
G1 X-41.358 Y20.682 E25.51989
G1 X-41.226 Y20.142 E25.54116
G1 X-40.99 Y19.57 E25.56484
G1 X-40.636 Y18.92 E25.59316
G1 X8.742 Y-67.877 E29.41474
G1 X9.096 Y-68.48 E29.4415
G1 X9.412 Y-68.938 E29.46279
G1 X9.79 Y-69.347 E29.4841
G1 X10.222 Y-69.697 E29.50538
G1 X10.7 Y-69.981 E29.52666
G1 X11.214 Y-70.195 E29.54797
G1 X11.753 Y-70.332 E29.56925
G1 X12.307 Y-70.391 E29.59057
G1 X12.863 Y-70.37 E29.61186
G1 X13.41 Y-70.269 E29.63315
G1 X13.937 Y-70.091 E29.65444
G1 X14.433 Y-69.84 E29.67571
G1 X14.889 Y-69.52 E29.69703
G1 X15.293 Y-69.138 E29.71831
G1 X15.764 Y-68.506 E29.74847
G1 X16.326 Y-67.564 E29.79045
G1 X65.464 Y18.812 E33.59348
G1 X65.82 Y19.456 E33.62164
G1 X66.054 Y19.961 E33.64294
G1 X66.213 Y20.495 E33.66426
G1 X66.293 Y21.045 E33.68553
G1 X66.295 Y21.602 E33.70685
G1 X66.216 Y22.152 E33.72811
G1 X66.059 Y22.686 E33.74941
G1 X65.828 Y23.192 E33.7707
G1 X65.526 Y23.66 E33.79202
G1 X65.161 Y24.079 E33.81328
G1 X64.739 Y24.442 E33.83458
G1 X64.269 Y24.741 E33.8559
G1 X63.762 Y24.969 E33.87718
G1 X63.227 Y25.123 E33.89848
G1 X62.576 Y25.203 E33.92358
G1 X61.934 Y25.216 E33.94816
G1 X-36.904 Y25.216 E37.73064
G0 F2040 X-36.899 Y24.866
G1 F1020 X-37.589 Y24.856 E37.75705
G1 X-38.118 Y24.808 E37.77738
G1 X-38.633 Y24.682 E37.79767
G1 X-39.124 Y24.479 E37.818
G1 X-39.578 Y24.206 E37.83827
G1 X-39.987 Y23.867 E37.8586
G1 X-40.339 Y23.47 E37.87891
G1 X-40.629 Y23.026 E37.8992
G1 X-40.848 Y22.542 E37.91953
G1 X-40.993 Y22.032 E37.93982
G1 X-41.059 Y21.505 E37.96015
G1 X-41.045 Y20.975 E37.98044
G1 X-40.952 Y20.452 E38.00077
G1 X-40.678 Y19.73 E38.03032
G1 X-40.33 Y19.09 E38.0582
G1 X9.044 Y-67.7 E41.87946
G1 X9.398 Y-68.303 E41.90622
G1 X9.7 Y-68.739 E41.92652
G1 X10.065 Y-69.124 E41.94682
G1 X10.483 Y-69.451 E41.96713
G1 X10.945 Y-69.711 E41.98742
G1 X11.442 Y-69.899 E42.00776
G1 X11.961 Y-70.011 E42.02808
G1 X12.49 Y-70.043 E42.04836
G1 X13.019 Y-69.995 E42.06869
G1 X13.534 Y-69.868 E42.08898
G1 X14.025 Y-69.666 E42.1093
G1 X14.479 Y-69.392 E42.1296
G1 X14.887 Y-69.053 E42.1499
G1 X15.24 Y-68.656 E42.17023
G1 X15.464 Y-68.326 E42.18549
G1 X16.022 Y-67.391 E42.22716
G1 X65.158 Y18.982 E46.03005
G1 X65.514 Y19.626 E46.05821
G1 X65.735 Y20.108 E46.0785
G1 X65.881 Y20.618 E46.0988
G1 X65.949 Y21.144 E46.1191
G1 X65.937 Y21.675 E46.13943
G1 X65.846 Y22.198 E46.15974
G1 X65.677 Y22.701 E46.18005
G1 X65.435 Y23.173 E46.20035
G1 X65.124 Y23.603 E46.22066
G1 X64.752 Y23.982 E46.24098
G1 X64.328 Y24.301 E46.26129
G1 X63.861 Y24.552 E46.28158
G1 X63.361 Y24.731 E46.3019
G1 X62.84 Y24.832 E46.32221
G1 X62.34 Y24.861 E46.34138
G1 X61.93 Y24.866 E46.35707
G1 X-36.899 Y24.866 E50.13921
G0 F2040 X-36.894 Y24.516
G1 F1020 X-37.584 Y24.506 E50.16562
G1 X-38.085 Y24.458 E50.18488
G1 X-38.573 Y24.333 E50.20416
G1 X-39.035 Y24.131 E50.22345
G1 X-39.458 Y23.859 E50.2427
G1 X-39.834 Y23.524 E50.26197
G1 X-40.152 Y23.133 E50.28126
G1 X-40.404 Y22.697 E50.30053
G1 X-40.584 Y22.227 E50.31979
G1 X-40.687 Y21.734 E50.33906
G1 X-40.711 Y21.231 E50.35834
G1 X-40.656 Y20.731 E50.37759
G1 X-40.522 Y20.245 E50.39688
G1 X-40.315 Y19.789 E50.41604
G1 X-40.024 Y19.26 E50.43915
G1 X9.346 Y-67.522 E54.26007
G1 X9.7 Y-68.125 E54.28683
G1 X9.989 Y-68.538 E54.30612
G1 X10.339 Y-68.9 E54.32539
G1 X10.742 Y-69.202 E54.34466
G1 X11.187 Y-69.436 E54.3639
G1 X11.665 Y-69.597 E54.38321
G1 X12.161 Y-69.681 E54.40246
G1 X12.665 Y-69.685 E54.42175
G1 X13.163 Y-69.609 E54.44103
G1 X13.642 Y-69.456 E54.46027
G1 X14.092 Y-69.228 E54.47958
G1 X14.499 Y-68.933 E54.49881
G1 X14.855 Y-68.577 E54.51808
G1 X15.163 Y-68.147 E54.53832
G1 X15.718 Y-67.218 E54.57974
G1 X64.852 Y19.151 E58.38245
G1 X65.208 Y19.795 E58.41061
G1 X65.416 Y20.254 E58.4299
G1 X65.548 Y20.739 E58.44914
G1 X65.603 Y21.24 E58.46842
G1 X65.577 Y21.743 E58.4877
G1 X65.472 Y22.236 E58.50699
G1 X65.291 Y22.705 E58.52623
G1 X65.038 Y23.141 E58.54552
G1 X64.719 Y23.53 E58.56477
G1 X64.342 Y23.865 E58.58407
G1 X63.918 Y24.135 E58.60331
G1 X63.456 Y24.335 E58.62257
G1 X62.968 Y24.46 E58.64185
G1 X62.417 Y24.509 E58.66302
G1 X61.926 Y24.516 E58.68181
G1 X-36.894 Y24.516 E62.46361
G1 F3600 E58.66361
;MESH:support_tri_0_016.stl
G0 F2040 X-36.894 Y22.006
G0 X-36.894 Y20.971
G0 X61.543 Y20.816
;TYPE:WALL-INNER
G1 F3600 E62.46361
G1 F1020 X-36.653 Y20.816 E66.22152
G1 X12.445 Y-65.488 E70.0214
G1 X61.543 Y20.816 E73.82127
G0 F2040 X62.101 Y21.141
;TYPE:WALL-OUTER
G1 F1020 X-37.211 Y21.141 E77.6219
G1 X12.445 Y-66.145 E81.46499
G1 X62.101 Y21.141 E85.30809
G0 F2040 X61.901 Y21.141
G0 X61.758 Y20.941
G0 X60.958 Y20.476
;TYPE:SKIN
G1 F1020 X-36.068 Y20.476 E89.02123
G1 X12.445 Y-64.801 E92.77588
G1 X60.958 Y20.476 E96.53052
G0 F2040 X-35.73 Y20.201
G1 F1020 X-35.613 Y20.318 E96.53685
G0 F2040 X-35.551 Y19.885
G1 F1020 X-35.118 Y20.318 E96.56029
G0 F2040 X-34.623 Y20.318
G1 F1020 X-35.372 Y19.569 E96.60082
G0 F2040 X-35.192 Y19.254
G1 F1020 X-34.128 Y20.318 E96.65841
G0 F2040 X-33.633 Y20.318
G1 F1020 X-35.013 Y18.939 E96.73307
G0 F2040 X-34.833 Y18.623
G1 F1020 X-33.138 Y20.318 E96.8248
G0 F2040 X-32.643 Y20.318
G1 F1020 X-34.653 Y18.308 E96.93359
G0 F2040 X-34.474 Y17.993
G1 F1020 X-32.148 Y20.318 E97.05945
G0 F2040 X-31.653 Y20.318
G1 F1020 X-34.295 Y17.676 E97.20243
G0 F2040 X-34.115 Y17.361
G1 F1020 X-31.158 Y20.318 E97.36247
G0 F2040 X-30.663 Y20.318
G1 F1020 X-33.936 Y17.046 E97.53958
G0 F2040 X-33.756 Y16.73
G1 F1020 X-30.168 Y20.318 E97.73377
G0 F2040 X-29.673 Y20.318
G1 F1020 X-33.576 Y16.415 E97.94501
G0 F2040 X-33.397 Y16.1
G1 F1020 X-29.178 Y20.318 E98.17332
G0 F2040 X-28.683 Y20.318
G1 F1020 X-33.218 Y15.784 E98.41873
G0 F2040 X-33.038 Y15.468
G1 F1020 X-28.188 Y20.318 E98.68122
G0 F2040 X-27.693 Y20.318
G1 F1020 X-32.859 Y15.153 E98.96078
G0 F2040 X-32.679 Y14.837
G1 F1020 X-27.198 Y20.318 E99.25742
G0 F2040 X-26.703 Y20.318
G1 F1020 X-32.5 Y14.522 E99.57113
G0 F2040 X-32.321 Y14.206
G1 F1020 X-26.208 Y20.318 E99.90195
G0 F2040 X-25.713 Y20.318
G1 F1020 X-32.141 Y13.891 E100.24981
G0 F2040 X-31.961 Y13.575
G1 F1020 X-25.218 Y20.318 E100.61475
G0 F2040 X-24.723 Y20.318
G1 F1020 X-31.782 Y13.26 E100.99677
G0 F2040 X-31.602 Y12.945
G1 F1020 X-24.229 Y20.318 E101.3958
G0 F2040 X-23.734 Y20.318
G1 F1020 X-31.423 Y12.629 E101.81194
G0 F2040 X-31.244 Y12.313
G1 F1020 X-23.239 Y20.318 E102.24518
G0 F2040 X-22.744 Y20.318
G1 F1020 X-31.064 Y11.998 E102.69547
G0 F2040 X-30.885 Y11.682
G1 F1020 X-22.249 Y20.318 E103.16286
G0 F2040 X-21.754 Y20.318
G1 F1020 X-30.705 Y11.367 E103.6473
G0 F2040 X-30.525 Y11.052
G1 F1020 X-21.259 Y20.318 E104.14879
G0 F2040 X-20.764 Y20.318
G1 F1020 X-30.346 Y10.736 E104.66738
G0 F2040 X-30.167 Y10.42
G1 F1020 X-20.269 Y20.318 E105.20307
G0 F2040 X-19.774 Y20.318
G1 F1020 X-29.987 Y10.105 E105.75581
G0 F2040 X-29.808 Y9.789
G1 F1020 X-19.279 Y20.318 E106.32566
G0 F2040 X-18.784 Y20.318
G1 F1020 X-29.628 Y9.474 E106.91255
G0 F2040 X-29.448 Y9.159
G1 F1020 X-18.289 Y20.318 E107.51649
G0 F2040 X-17.794 Y20.318
G1 F1020 X-29.269 Y8.843 E108.13753
G0 F2040 X-29.09 Y8.527
G1 F1020 X-17.299 Y20.318 E108.77567
G0 F2040 X-16.804 Y20.318
G1 F1020 X-28.91 Y8.212 E109.43087
G0 F2040 X-28.731 Y7.896
G1 F1020 X-16.309 Y20.318 E110.10316
G0 F2040 X-15.814 Y20.318
G1 F1020 X-28.551 Y7.581 E110.7925
G0 F2040 X-28.371 Y7.266
G1 F1020 X-15.319 Y20.318 E111.49889
G0 F2040 X-14.824 Y20.318
G1 F1020 X-28.193 Y6.95 E112.22241
G0 F2040 X-28.013 Y6.634
G1 F1020 X-14.329 Y20.318 E112.96301
G0 F2040 X-13.834 Y20.318
G1 F1020 X-27.833 Y6.319 E113.72065
G0 F2040 X-27.654 Y6.004
G1 F1020 X-13.339 Y20.318 E114.49537
G0 F2040 X-12.844 Y20.318
G1 F1020 X-27.474 Y5.688 E115.28717
G0 F2040 X-27.295 Y5.373
G1 F1020 X-12.349 Y20.318 E116.09604
G0 F2040 X-11.854 Y20.318
G1 F1020 X-27.116 Y5.057 E116.92201
G0 F2040 X-26.936 Y4.741
G1 F1020 X-11.359 Y20.318 E117.76505
G0 F2040 X-10.864 Y20.318
G1 F1020 X-26.756 Y4.426 E118.62515
G0 F2040 X-26.577 Y4.111
G1 F1020 X-10.369 Y20.318 E119.50232
G0 F2040 X-9.874 Y20.318
G1 F1020 X-26.397 Y3.795 E120.39657
G0 F2040 X-26.218 Y3.48
G1 F1020 X-9.379 Y20.318 E121.30789
G0 F2040 X-8.884 Y20.318
G1 F1020 X-26.039 Y3.164 E122.23631
G0 F2040 X-25.859 Y2.848
G1 F1020 X-8.389 Y20.318 E123.18181
G0 F2040 X-7.894 Y20.318
G1 F1020 X-25.679 Y2.533 E124.14436
G0 F2040 X-25.5 Y2.218
G1 F1020 X-7.399 Y20.318 E125.12398
G0 F2040 X-6.904 Y20.318
G1 F1020 X-25.32 Y1.902 E126.12068
G0 F2040 X-25.141 Y1.587
G1 F1020 X-6.409 Y20.318 E127.13445
G0 F2040 X-5.914 Y20.318
G1 F1020 X-24.962 Y1.271 E128.16532
G0 F2040 X-24.782 Y0.956
G1 F1020 X-5.419 Y20.318 E129.21325
G0 F2040 X-4.924 Y20.318
G1 F1020 X-24.603 Y0.64 E130.27827
G0 F2040 X-24.423 Y0.325
G1 F1020 X-4.43 Y20.318 E131.36032
G0 F2040 X-3.935 Y20.318
G1 F1020 X-24.243 Y0.009 E132.45944
G0 F2040 X-24.064 Y-.306
G1 F1020 X-3.44 Y20.318 E133.57564
G0 F2040 X-2.945 Y20.318
G1 F1020 X-23.885 Y-.621 E134.70891
G0 F2040 X-23.705 Y-.936
G1 F1020 X-2.45 Y20.318 E135.85923
G0 F2040 X-1.955 Y20.318
G1 F1020 X-23.526 Y-1.252 E137.02665
G0 F2040 X-23.346 Y-1.567
G1 F1020 X-1.46 Y20.318 E138.21112
G0 F2040 X-.965 Y20.318
G1 F1020 X-23.166 Y-1.883 E139.41267
G0 F2040 X-22.988 Y-2.199
G1 F1020 X-.47 Y20.318 E140.63135
G0 F2040 X0.024 Y20.318
G1 F1020 X-22.808 Y-2.514 E141.86704
G0 F2040 X-22.628 Y-2.829
G1 F1020 X0.519 Y20.318 E143.11979
G0 F2040 X1.014 Y20.318
G1 F1020 X-22.449 Y-3.145 E144.38964
G0 F2040 X-22.269 Y-3.46
G1 F1020 X1.509 Y20.318 E145.67653
G0 F2040 X2.004 Y20.318
G1 F1020 X-22.09 Y-3.775 E146.9805
G0 F2040 X-21.911 Y-4.092
G1 F1020 X2.499 Y20.318 E148.3016
G0 F2040 X2.994 Y20.318
G1 F1020 X-21.731 Y-4.407 E149.63975
G0 F2040 X-21.551 Y-4.722
G1 F1020 X3.489 Y20.318 E150.99495
G0 F2040 X3.984 Y20.318
G1 F1020 X-21.372 Y-5.038 E152.36725
G0 F2040 X-21.192 Y-5.353
G1 F1020 X4.479 Y20.318 E153.75659
G0 F2040 X4.974 Y20.318
G1 F1020 X-21.013 Y-5.668 E155.16302
G0 F2040 X-20.834 Y-5.984
G1 F1020 X5.469 Y20.318 E156.58654
G0 F2040 X5.964 Y20.318
G1 F1020 X-20.654 Y-6.3 E158.02714
G0 F2040 X-20.474 Y-6.615
G1 F1020 X6.459 Y20.318 E159.48479
G0 F2040 X6.954 Y20.318
G1 F1020 X-20.295 Y-6.931 E160.95954
G0 F2040 X-20.115 Y-7.246
G1 F1020 X7.449 Y20.318 E162.45134
G0 F2040 X7.944 Y20.318
G1 F1020 X-19.936 Y-7.562 E163.96024
G0 F2040 X-19.757 Y-7.877
G1 F1020 X8.439 Y20.318 E165.48622
G0 F2040 X8.934 Y20.318
G1 F1020 X-19.577 Y-8.193 E167.02927
G0 F2040 X-19.398 Y-8.508
G1 F1020 X9.429 Y20.318 E168.5894
G0 F2040 X9.924 Y20.318
G1 F1020 X-19.218 Y-8.823 E170.16657
G0 F2040 X-19.038 Y-9.139
G1 F1020 X10.419 Y20.318 E171.76082
G0 F2040 X10.914 Y20.318
G1 F1020 X-18.859 Y-9.455 E173.37217
G0 F2040 X-18.68 Y-9.77
G1 F1020 X11.409 Y20.318 E175.0006
G0 F2040 X11.904 Y20.318
G1 F1020 X-18.5 Y-10.086 E176.64611
G0 F2040 X-18.321 Y-10.401
G1 F1020 X12.399 Y20.318 E178.30868
G0 F2040 X12.894 Y20.318
G1 F1020 X-18.141 Y-10.716 E179.98831
G0 F2040 X-17.961 Y-11.032
G1 F1020 X13.389 Y20.318 E181.68501
G0 F2040 X13.884 Y20.318
G1 F1020 X-17.783 Y-11.348 E183.39884
G0 F2040 X-17.603 Y-11.663
G1 F1020 X14.379 Y20.318 E185.12972
G0 F2040 X14.873 Y20.318
G1 F1020 X-17.423 Y-11.979 E186.87765
G0 F2040 X-17.244 Y-12.294
G1 F1020 X15.368 Y20.318 E188.64265
G0 F2040 X15.863 Y20.318
G1 F1020 X-17.064 Y-12.609 E190.42471
G0 F2040 X-16.885 Y-12.925
G1 F1020 X16.358 Y20.318 E192.22386
G0 F2040 X16.853 Y20.318
G1 F1020 X-16.706 Y-13.241 E194.04011
G0 F2040 X-16.526 Y-13.556
G1 F1020 X17.348 Y20.318 E195.87342
G0 F2040 X17.843 Y20.318
G1 F1020 X-16.346 Y-13.872 E197.7238
G0 F2040 X-16.167 Y-14.187
G1 F1020 X18.338 Y20.318 E199.59125
G0 F2040 X18.833 Y20.318
G1 F1020 X-15.987 Y-14.502 E201.47576
G0 F2040 X-15.808 Y-14.818
G1 F1020 X19.328 Y20.318 E203.37736
G0 F2040 X19.823 Y20.318
G1 F1020 X-15.629 Y-15.134 E205.29607
G0 F2040 X-15.449 Y-15.449
G1 F1020 X20.318 Y20.318 E207.23182
G0 F2040 X20.813 Y20.318
G1 F1020 X-15.269 Y-15.764 E209.18463
G0 F2040 X-15.09 Y-16.08
G1 F1020 X21.308 Y20.318 E211.15453
G0 F2040 X21.803 Y20.318
G1 F1020 X-14.91 Y-16.395 E213.14149
G0 F2040 X-14.731 Y-16.711
G1 F1020 X22.298 Y20.318 E215.14554
G0 F2040 X22.793 Y20.318
G1 F1020 X-14.552 Y-17.027 E217.1667
