;FLAVOR:Marlin
;TIME:6330
;Filament used: 8.00947m
;Layer height: 0.3
;MINX:-66.956
;MINY:-73.877
;MINZ:0.26
;MAXX:42.14
;MAXY:25.388
;MAXZ:22.76
;Generated with Cura_SteamEngine 4.9.1
M82 ;absolute extrusion mode
;Gcode by Cura
G90
G28
M107
M109 R100
G30
M109 S215 U-55 X55 V-85 Y-85 W0.26 Z0.26
M82
G92 E0
G1 F200 E6
G92 E0
G1 F200 E-3.5
G0 Z0.15
G0 X10
G0 Z3
G1 F6000
G92 E0
G92 E0
G1 F3600 E-3.8
;LAYER_COUNT:76
;LAYER:0
M107
G0 F2040 X36.584 Y25.388 Z0.26
;TYPE:SKIRT
G1 F3600 E0
G1 F1020 X-61.764 Y25.388 E3.76373
G1 X-62.444 Y25.379 E3.78976
G1 X-63.046 Y25.331 E3.81287
G1 X-63.637 Y25.204 E3.836
G1 X-64.207 Y25 E3.85917
G1 X-64.744 Y24.723 E3.88229
G1 X-65.24 Y24.377 E3.90544
G1 X-65.686 Y23.969 E3.92857
G1 X-66.075 Y23.506 E3.95171
G1 X-66.399 Y22.995 E3.97487
G1 X-66.653 Y22.447 E3.99798
G1 X-66.832 Y21.869 E4.02114
G1 X-66.934 Y21.273 E4.04428
G1 X-66.956 Y20.669 E4.06741
G1 X-66.898 Y20.067 E4.09055
G1 X-66.762 Y19.478 E4.11369
G1 X-66.426 Y18.663 E4.14742
G1 X-65.916 Y17.701 E4.18909
G1 X-16.667 Y-71.082 E8.07451
G1 X-16.384 Y-71.576 E8.0963
G1 X-16.049 Y-72.08 E8.11946
G1 X-15.651 Y-72.535 E8.14259
G1 X-15.196 Y-72.934 E8.16575
G1 X-14.693 Y-73.269 E8.18888
G1 X-14.15 Y-73.535 E8.21202
G1 X-13.577 Y-73.727 E8.23515
G1 X-12.983 Y-73.841 E8.25829
G1 X-12.38 Y-73.877 E8.28141
G1 X-11.777 Y-73.832 E8.30455
G1 X-11.185 Y-73.709 E8.32769
G1 X-10.614 Y-73.508 E8.35086
G1 X-10.075 Y-73.234 E8.374
G1 X-9.577 Y-72.891 E8.39714
G1 X-9.129 Y-72.486 E8.42025
G1 X-8.737 Y-72.025 E8.44341
G1 X-8.456 Y-71.596 E8.46304
G1 X-8.012 Y-70.829 E8.49695
G1 X41.282 Y18.038 E12.38602
G1 X41.6 Y18.631 E12.41177
G1 X41.85 Y19.181 E12.43489
G1 X42.025 Y19.76 E12.45804
G1 X42.122 Y20.357 E12.48118
G1 X42.14 Y20.961 E12.50431
G1 X42.078 Y21.563 E12.52747
G1 X41.937 Y22.151 E12.55061
G1 X41.72 Y22.715 E12.57373
G1 X41.43 Y23.246 E12.59689
G1 X41.073 Y23.734 E12.62003
G1 X40.654 Y24.17 E12.64317
G1 X40.182 Y24.548 E12.66631
G1 X39.664 Y24.86 E12.68945
G1 X39.109 Y25.101 E12.71261
G1 X38.528 Y25.266 E12.73572
G1 X37.661 Y25.367 E12.76913
G1 X36.584 Y25.388 E12.81035
G0 F2040 X36.584 Y25.038
G1 F1020 X-61.759 Y25.038 E16.57389
G1 X-62.439 Y25.029 E16.59992
G1 X-63.018 Y24.981 E16.62215
G1 X-63.585 Y24.854 E16.64439
G1 X-64.129 Y24.651 E16.66661
G1 X-64.641 Y24.375 E16.68887
G1 X-65.109 Y24.032 E16.71107
G1 X-65.526 Y23.627 E16.73332
G1 X-65.884 Y23.169 E16.75556
G1 X-66.175 Y22.666 E16.7778
G1 X-66.395 Y22.129 E16.80001
G1 X-66.539 Y21.566 E16.82225
G1 X-66.604 Y20.988 E16.84451
G1 X-66.589 Y20.407 E16.86675
G1 X-66.495 Y19.834 E16.88897
G1 X-66.323 Y19.279 E16.91121
G1 X-66.117 Y18.827 E16.93022
G1 X-65.61 Y17.871 E16.97163
G1 X-16.363 Y-70.908 E20.85688
G1 X-16.08 Y-71.402 E20.87867
G1 X-15.757 Y-71.885 E20.9009
G1 X-15.371 Y-72.32 E20.92316
G1 X-14.929 Y-72.697 E20.94539
G1 X-14.44 Y-73.01 E20.96761
G1 X-13.912 Y-73.253 E20.98985
G1 X-13.356 Y-73.421 E21.01208
G1 X-12.782 Y-73.511 E21.03432
G1 X-12.201 Y-73.522 E21.05656
G1 X-11.624 Y-73.452 E21.0788
G1 X-11.062 Y-73.305 E21.10103
G1 X-10.526 Y-73.081 E21.12326
G1 X-10.025 Y-72.787 E21.14549
G1 X-9.569 Y-72.426 E21.16775
G1 X-9.168 Y-72.006 E21.18997
G1 X-8.758 Y-71.42 E21.21734
G1 X-8.318 Y-70.659 E21.25098
G1 X40.973 Y18.203 E25.13983
G1 X41.291 Y18.796 E25.16558
G1 X41.53 Y19.326 E25.18783
G1 X41.694 Y19.883 E25.21005
G1 X41.78 Y20.458 E25.2323
G1 X41.786 Y21.039 E25.25453
G1 X41.712 Y21.616 E25.2768
G1 X41.56 Y22.176 E25.299
G1 X41.333 Y22.711 E25.32124
G1 X41.034 Y23.209 E25.34347
G1 X40.67 Y23.662 E25.36571
G1 X40.247 Y24.06 E25.38794
G1 X39.773 Y24.397 E25.4102
G1 X39.258 Y24.665 E25.43241
G1 X38.71 Y24.861 E25.45469
G1 X38.142 Y24.979 E25.47689
G1 X37.654 Y25.017 E25.49562
G1 X36.584 Y25.038 E25.53658
G0 F2040 X36.584 Y24.688
G1 F1020 X-61.754 Y24.688 E29.29992
G1 X-62.434 Y24.679 E29.32595
G1 X-62.989 Y24.631 E29.34727
G1 X-63.531 Y24.505 E29.36856
G1 X-64.049 Y24.303 E29.38984
G1 X-64.533 Y24.028 E29.41114
G1 X-64.972 Y23.687 E29.43242
G1 X-65.359 Y23.286 E29.45374
G1 X-65.683 Y22.835 E29.475
G1 X-65.94 Y22.341 E29.49631
G1 X-66.124 Y21.816 E29.5176
G1 X-66.23 Y21.269 E29.53892
G1 X-66.257 Y20.714 E29.56018
G1 X-66.204 Y20.16 E29.58148
G1 X-66.072 Y19.619 E29.60279
G1 X-65.808 Y18.991 E29.62886
G1 X-65.304 Y18.04 E29.67005
G1 X-16.059 Y-70.734 E33.5551
G1 X-15.776 Y-71.228 E33.57688
G1 X-15.466 Y-71.69 E33.59818
G1 X-15.092 Y-72.102 E33.61947
G1 X-14.664 Y-72.457 E33.64075
G1 X-14.189 Y-72.747 E33.66205
G1 X-13.677 Y-72.965 E33.68335
G1 X-13.139 Y-73.109 E33.70466
G1 X-12.587 Y-73.173 E33.72593
G1 X-12.03 Y-73.158 E33.74725
G1 X-11.482 Y-73.063 E33.76853
G1 X-10.953 Y-72.891 E33.78982
G1 X-10.454 Y-72.645 E33.81111
G1 X-9.995 Y-72.33 E33.83242
G1 X-9.587 Y-71.952 E33.8537
G1 X-9.236 Y-71.52 E33.875
G1 X-9.061 Y-71.245 E33.88748
G1 X-8.624 Y-70.49 E33.92086
G1 X40.665 Y18.369 E37.80957
G1 X40.983 Y18.962 E37.83532
G1 X41.21 Y19.47 E37.85661
G1 X41.362 Y20.005 E37.8779
G1 X41.436 Y20.556 E37.89917
G1 X41.43 Y21.113 E37.92049
G1 X41.344 Y21.663 E37.94179
G1 X41.181 Y22.194 E37.96305
G1 X40.943 Y22.697 E37.98435
G1 X40.635 Y23.161 E38.00566
G1 X40.264 Y23.576 E38.02696
G1 X39.838 Y23.933 E38.04823
G1 X39.365 Y24.226 E38.06952
G1 X38.855 Y24.448 E38.09081
G1 X38.318 Y24.595 E38.11212
G1 X37.647 Y24.667 E38.13794
G1 X36.584 Y24.688 E38.17863
G0 F2040 X36.584 Y24.338
G1 F1020 X-61.75 Y24.338 E41.94183
G1 X-62.43 Y24.329 E41.96785
G1 X-62.958 Y24.282 E41.98814
G1 X-63.474 Y24.156 E42.00847
G1 X-63.965 Y23.954 E42.02879
G1 X-64.42 Y23.681 E42.04909
G1 X-64.828 Y23.343 E42.06937
G1 X-65.182 Y22.947 E42.08969
G1 X-65.472 Y22.503 E42.10999
G1 X-65.692 Y22.02 E42.1303
G1 X-65.837 Y21.509 E42.15063
G1 X-65.903 Y20.983 E42.17092
G1 X-65.89 Y20.452 E42.19124
G1 X-65.798 Y19.93 E42.21153
G1 X-65.628 Y19.427 E42.23185
G1 X-65.498 Y19.155 E42.24338
G1 X-64.998 Y18.21 E42.2843
G1 X-15.756 Y-70.56 E46.16915
G1 X-15.473 Y-71.054 E46.19094
G1 X-15.175 Y-71.494 E46.21128
G1 X-14.815 Y-71.883 E46.23156
G1 X-14.4 Y-72.214 E46.25188
G1 X-13.94 Y-72.479 E46.27219
G1 X-13.446 Y-72.673 E46.2925
G1 X-12.928 Y-72.789 E46.31282
G1 X-12.399 Y-72.827 E46.33311
G1 X-11.87 Y-72.785 E46.35342
G1 X-11.353 Y-72.664 E46.37374
G1 X-10.861 Y-72.466 E46.39404
G1 X-10.403 Y-72.197 E46.41437
G1 X-9.992 Y-71.863 E46.43463
G1 X-9.635 Y-71.47 E46.45495
G1 X-9.364 Y-71.069 E46.47347
G1 X-8.93 Y-70.32 E46.5066
G1 X40.357 Y18.534 E50.3951
G1 X40.675 Y19.127 E50.42085
G1 X40.889 Y19.612 E50.44114
G1 X41.029 Y20.124 E50.46145
G1 X41.09 Y20.651 E50.48176
G1 X41.071 Y21.182 E50.50209
G1 X40.973 Y21.703 E50.52238
G1 X40.798 Y22.204 E50.54269
G1 X40.55 Y22.673 E50.56299
G1 X40.234 Y23.099 E50.58329
G1 X39.857 Y23.473 E50.60361
G1 X39.429 Y23.787 E50.62393
G1 X38.959 Y24.032 E50.64421
G1 X38.457 Y24.204 E50.66452
G1 X37.934 Y24.299 E50.68486
G1 X37.64 Y24.317 E50.69613
G1 X36.584 Y24.338 E50.73655
G0 F2040 X36.584 Y23.988
G1 F1020 X-61.745 Y23.988 E54.49956
G1 X-62.425 Y23.979 E54.52558
G1 X-62.926 Y23.932 E54.54484
G1 X-63.414 Y23.807 E54.56412
G1 X-63.876 Y23.606 E54.5834
G1 X-64.3 Y23.335 E54.60266
G1 X-64.676 Y23 E54.62193
G1 X-64.995 Y22.61 E54.64121
G1 X-65.247 Y22.174 E54.66048
G1 X-65.428 Y21.704 E54.67976
G1 X-65.532 Y21.211 E54.69904
G1 X-65.557 Y20.708 E54.71831
G1 X-65.501 Y20.208 E54.73757
G1 X-65.368 Y19.722 E54.75685
G1 X-65.189 Y19.318 E54.77376
G1 X-64.691 Y18.38 E54.8144
G1 X-15.452 Y-70.386 E58.69907
G1 X-15.169 Y-70.88 E58.72085
G1 X-14.885 Y-71.296 E58.74013
G1 X-14.538 Y-71.662 E58.75943
G1 X-14.139 Y-71.968 E58.77867
G1 X-13.695 Y-72.207 E58.79797
G1 X-13.22 Y-72.373 E58.81723
G1 X-12.724 Y-72.462 E58.83651
G1 X-12.221 Y-72.471 E58.85577
G1 X-11.722 Y-72.401 E58.87505
G1 X-11.241 Y-72.252 E58.89432
G1 X-10.789 Y-72.03 E58.91359
G1 X-10.378 Y-71.739 E58.93286
G1 X-10.019 Y-71.386 E58.95213
G1 X-9.667 Y-70.894 E58.97528
G1 X-9.237 Y-70.15 E59.00817
G1 X40.048 Y18.7 E62.8965
G1 X40.366 Y19.293 E62.92225
G1 X40.568 Y19.754 E62.94151
G1 X40.695 Y20.241 E62.96077
G1 X40.743 Y20.743 E62.98007
G1 X40.711 Y21.245 E62.99932
G1 X40.6 Y21.736 E63.01858
G1 X40.412 Y22.204 E63.03788
G1 X40.154 Y22.636 E63.05714
G1 X39.83 Y23.021 E63.0764
G1 X39.449 Y23.351 E63.09569
G1 X39.021 Y23.616 E63.11495
G1 X38.556 Y23.81 E63.13423
G1 X38.067 Y23.929 E63.15349
G1 X37.633 Y23.967 E63.17017
G1 X36.584 Y23.988 E63.21032
G1 F3600 E59.41032
;MESH:support_tri_0_038.stl
G0 F2040 X36.584 Y21.478
G0 X36.584 Y20.443
G0 X-61.518 Y20.288
;TYPE:WALL-INNER
G1 F3600 E63.21032
G1 F1020 X-12.41 Y-68.244 E67.08472
G1 X36.698 Y20.288 E70.95912
G1 X-61.518 Y20.288 E74.7178
G0 F2040 X-62.07 Y20.613
;TYPE:WALL-OUTER
G1 F1020 X-12.41 Y-68.914 E78.63575
G1 X37.25 Y20.613 E82.55369
G1 X-62.07 Y20.613 E86.35462
G0 F2040 X-61.973 Y20.439
G0 X-61.729 Y20.413
G0 X-60.941 Y19.948
;TYPE:SKIN
G1 F1020 X-12.41 Y-67.543 E90.18348
G1 X36.121 Y19.948 E94.01233
G1 X-60.941 Y19.948 E97.72684
G0 F2040 X-60.575 Y19.61
G1 F1020 X-60.394 Y19.791 E97.73664
G0 F2040 X-59.899 Y19.791
G1 F1020 X-60.398 Y19.292 E97.76365
G0 F2040 X-60.222 Y18.973
G1 F1020 X-59.404 Y19.791 E97.80792
G0 F2040 X-58.909 Y19.791
G1 F1020 X-60.045 Y18.655 E97.8694
G0 F2040 X-59.868 Y18.337
G1 F1020 X-58.414 Y19.791 E97.94809
G0 F2040 X-57.919 Y19.791
G1 F1020 X-59.691 Y18.019 E98.04399
G0 F2040 X-59.515 Y17.7
G1 F1020 X-57.424 Y19.791 E98.15716
G0 F2040 X-56.929 Y19.791
G1 F1020 X-59.338 Y17.382 E98.28754
G0 F2040 X-59.162 Y17.063
G1 F1020 X-56.434 Y19.791 E98.43518
G0 F2040 X-55.939 Y19.791
G1 F1020 X-58.985 Y16.745 E98.60004
G0 F2040 X-58.809 Y16.426
G1 F1020 X-55.444 Y19.791 E98.78215
G0 F2040 X-54.949 Y19.791
G1 F1020 X-58.632 Y16.108 E98.98148
G0 F2040 X-58.455 Y15.79
G1 F1020 X-54.455 Y19.791 E99.19799
G0 F2040 X-53.96 Y19.791
G1 F1020 X-58.279 Y15.472 E99.43174
G0 F2040 X-58.102 Y15.153
G1 F1020 X-53.465 Y19.791 E99.68273
G0 F2040 X-52.97 Y19.791
G1 F1020 X-57.926 Y14.835 E99.95096
G0 F2040 X-57.749 Y14.516
G1 F1020 X-52.475 Y19.791 E100.23642
G0 F2040 X-51.98 Y19.791
G1 F1020 X-57.572 Y14.198 E100.53909
G0 F2040 X-57.396 Y13.879
G1 F1020 X-51.485 Y19.791 E100.85903
G0 F2040 X-50.99 Y19.791
G1 F1020 X-57.219 Y13.561 E101.19618
G0 F2040 X-57.043 Y13.243
G1 F1020 X-50.495 Y19.791 E101.55057
G0 F2040 X-50 Y19.791
G1 F1020 X-56.866 Y12.925 E101.92216
G0 F2040 X-56.69 Y12.606
G1 F1020 X-49.505 Y19.791 E102.31102
G0 F2040 X-49.01 Y19.791
G1 F1020 X-56.513 Y12.288 E102.7171
G0 F2040 X-56.336 Y11.969
G1 F1020 X-48.515 Y19.791 E103.14041
G0 F2040 X-48.02 Y19.791
G1 F1020 X-56.159 Y11.651 E103.58093
G0 F2040 X-55.983 Y11.332
G1 F1020 X-47.525 Y19.791 E104.03871
G0 F2040 X-47.03 Y19.791
G1 F1020 X-55.806 Y11.014 E104.51371
G0 F2040 X-55.63 Y10.696
G1 F1020 X-46.535 Y19.791 E105.00594
G0 F2040 X-46.04 Y19.791
G1 F1020 X-55.453 Y10.378 E105.51538
G0 F2040 X-55.277 Y10.059
G1 F1020 X-45.545 Y19.791 E106.04209
G0 F2040 X-45.05 Y19.791
G1 F1020 X-55.1 Y9.741 E106.58601
G0 F2040 X-54.923 Y9.422
G1 F1020 X-44.555 Y19.791 E107.14717
G0 F2040 X-44.06 Y19.791
G1 F1020 X-54.747 Y9.104 E107.72556
G0 F2040 X-54.57 Y8.785
G1 F1020 X-43.565 Y19.791 E108.32119
G0 F2040 X-43.07 Y19.791
G1 F1020 X-54.394 Y8.467 E108.93406
G0 F2040 X-54.217 Y8.149
G1 F1020 X-42.575 Y19.791 E109.56414
G0 F2040 X-42.08 Y19.791
G1 F1020 X-54.04 Y7.831 E110.21143
G0 F2040 X-53.864 Y7.512
G1 F1020 X-41.585 Y19.791 E110.87599
G0 F2040 X-41.09 Y19.791
G1 F1020 X-53.687 Y7.194 E111.55775
G0 F2040 X-53.511 Y6.875
G1 F1020 X-40.595 Y19.791 E112.25678
G0 F2040 X-40.1 Y19.791
G1 F1020 X-53.334 Y6.557 E112.97302
G0 F2040 X-53.158 Y6.238
G1 F1020 X-39.605 Y19.791 E113.70653
G0 F2040 X-39.11 Y19.791
G1 F1020 X-52.981 Y5.92 E114.45724
G0 F2040 X-52.804 Y5.602
G1 F1020 X-38.615 Y19.791 E115.22517
G0 F2040 X-38.12 Y19.791
G1 F1020 X-52.627 Y5.284 E116.01031
G0 F2040 X-52.451 Y4.965
G1 F1020 X-37.625 Y19.791 E116.81271
G0 F2040 X-37.13 Y19.791
G1 F1020 X-52.274 Y4.647 E117.63232
G0 F2040 X-52.098 Y4.328
G1 F1020 X-36.635 Y19.791 E118.4692
G0 F2040 X-36.14 Y19.791
G1 F1020 X-51.921 Y4.01 E119.32329
G0 F2040 X-51.745 Y3.691
G1 F1020 X-35.645 Y19.791 E120.19464
G0 F2040 X-35.15 Y19.791
G1 F1020 X-51.568 Y3.373 E121.0832
G0 F2040 X-51.391 Y3.055
G1 F1020 X-34.656 Y19.791 E121.98895
G0 F2040 X-34.161 Y19.791
G1 F1020 X-51.215 Y2.737 E122.91193
G0 F2040 X-51.038 Y2.418
G1 F1020 X-33.666 Y19.791 E123.85216
G0 F2040 X-33.171 Y19.791
G1 F1020 X-50.862 Y2.1 E124.80962
G0 F2040 X-50.685 Y1.781
G1 F1020 X-32.676 Y19.791 E125.78431
G0 F2040 X-32.181 Y19.791
G1 F1020 X-50.508 Y1.463 E126.77622
G0 F2040 X-50.332 Y1.144
G1 F1020 X-31.686 Y19.791 E127.78539
G0 F2040 X-31.191 Y19.791
G1 F1020 X-50.155 Y0.826 E128.81178
G0 F2040 X-49.979 Y0.508
G1 F1020 X-30.696 Y19.791 E129.8554
G0 F2040 X-30.201 Y19.791
G1 F1020 X-49.802 Y0.19 E130.91623
G0 F2040 X-49.626 Y-.128
G1 F1020 X-29.706 Y19.791 E131.9943
G0 F2040 X-29.211 Y19.791
G1 F1020 X-49.449 Y-.446 E133.08958
G0 F2040 X-49.272 Y-.765
G1 F1020 X-28.716 Y19.791 E134.20209
G0 F2040 X-28.221 Y19.791
G1 F1020 X-49.095 Y-1.083 E135.33182
G0 F2040 X-48.919 Y-1.402
G1 F1020 X-27.726 Y19.791 E136.47881
G0 F2040 X-27.231 Y19.791
G1 F1020 X-48.742 Y-1.72 E137.64301
G0 F2040 X-48.566 Y-2.038
G1 F1020 X-26.736 Y19.791 E138.82446
G0 F2040 X-26.241 Y19.791
G1 F1020 X-48.389 Y-2.356 E140.02311
G0 F2040 X-48.213 Y-2.675
G1 F1020 X-25.746 Y19.791 E141.23902
G0 F2040 X-25.251 Y19.791
G1 F1020 X-48.036 Y-2.993 E142.47215
G0 F2040 X-47.859 Y-3.312
G1 F1020 X-24.756 Y19.791 E143.72251
G0 F2040 X-24.261 Y19.791
G1 F1020 X-47.683 Y-3.63 E144.99011
G0 F2040 X-47.506 Y-3.949
G1 F1020 X-23.766 Y19.791 E146.27495
G0 F2040 X-23.271 Y19.791
G1 F1020 X-47.33 Y-4.267 E147.57703
G0 F2040 X-47.153 Y-4.585
G1 F1020 X-22.776 Y19.791 E148.89632
G0 F2040 X-22.281 Y19.791
G1 F1020 X-46.976 Y-4.903 E150.23281
G0 F2040 X-46.8 Y-5.222
G1 F1020 X-21.786 Y19.791 E151.58658
G0 F2040 X-21.291 Y19.791
G1 F1020 X-46.623 Y-5.54 E152.95755
G0 F2040 X-46.447 Y-5.859
G1 F1020 X-20.796 Y19.791 E154.34579
G0 F2040 X-20.301 Y19.791
G1 F1020 X-46.27 Y-6.177 E155.75124
G0 F2040 X-46.093 Y-6.495
G1 F1020 X-19.806 Y19.791 E157.17389
G0 F2040 X-19.311 Y19.791
G1 F1020 X-45.917 Y-6.814 E158.61382
G0 F2040 X-45.74 Y-7.132
G1 F1020 X-18.816 Y19.791 E160.07095
G0 F2040 X-18.321 Y19.791
G1 F1020 X-45.563 Y-7.45 E161.5453
G0 F2040 X-45.387 Y-7.768
G1 F1020 X-17.826 Y19.791 E163.03688
G0 F2040 X-17.331 Y19.791
G1 F1020 X-45.21 Y-8.087 E164.5457
G0 F2040 X-45.034 Y-8.406
G1 F1020 X-16.836 Y19.791 E166.07178
G0 F2040 X-16.341 Y19.791
G1 F1020 X-44.857 Y-8.724 E167.61508
G0 F2040 X-44.68 Y-9.042
G1 F1020 X-15.846 Y19.791 E169.17558
G0 F2040 X-15.351 Y19.791
G1 F1020 X-44.504 Y-9.361 E170.75336
G0 F2040 X-44.327 Y-9.679
G1 F1020 X-14.857 Y19.791 E172.34831
G0 F2040 X-14.362 Y19.791
G1 F1020 X-44.151 Y-9.997 E173.9605
G0 F2040 X-43.974 Y-10.315
G1 F1020 X-13.867 Y19.791 E175.5899
G0 F2040 X-13.372 Y19.791
G1 F1020 X-43.798 Y-10.634 E177.23657
G0 F2040 X-43.621 Y-10.953
G1 F1020 X-12.877 Y19.791 E178.90047
G0 F2040 X-12.382 Y19.791
G1 F1020 X-43.444 Y-11.271 E180.58159
G0 F2040 X-43.267 Y-11.589
G1 F1020 X-11.887 Y19.791 E182.27991
G0 F2040 X-11.392 Y19.791
G1 F1020 X-43.091 Y-11.908 E183.9955
G0 F2040 X-42.915 Y-12.226
G1 F1020 X-10.897 Y19.791 E185.72833
G0 F2040 X-10.402 Y19.791
G1 F1020 X-42.738 Y-12.544 E187.47837
G0 F2040 X-42.561 Y-12.862
G1 F1020 X-9.907 Y19.791 E189.24562
G0 F2040 X-9.412 Y19.791
G1 F1020 X-42.385 Y-13.181 E191.03013
G0 F2040 X-42.208 Y-13.5
G1 F1020 X-8.917 Y19.791 E192.83189
G0 F2040 X-8.422 Y19.791
G1 F1020 X-42.031 Y-13.818 E194.65085
G0 F2040 X-41.855 Y-14.136
G1 F1020 X-7.927 Y19.791 E196.48705
G0 F2040 X-7.432 Y19.791
G1 F1020 X-41.678 Y-14.455 E198.34048
G0 F2040 X-41.502 Y-14.773
G1 F1020 X-6.937 Y19.791 E200.21116
G0 F2040 X-6.442 Y19.791
G1 F1020 X-41.325 Y-15.091 E202.09904
G0 F2040 X-41.148 Y-15.409
G1 F1020 X-5.947 Y19.791 E204.00414
G0 F2040 X-5.452 Y19.791
G1 F1020 X-40.972 Y-15.728 E205.9265
G0 F2040 X-40.795 Y-16.047
G1 F1020 X-4.957 Y19.791 E207.8661
G0 F2040 X-4.462 Y19.791
G1 F1020 X-40.619 Y-16.365 E209.82293
G0 F2040 X-40.442 Y-16.683
G1 F1020 X-3.967 Y19.791 E211.79698
G0 F2040 X-3.472 Y19.791
