;FLAVOR:Marlin
;TIME:7357
;Filament used: 7.04712m
;Layer height: 0.2
;MINX:-40.434
;MINY:-24.148
;MINZ:0.26
;MAXX:73.077
;MAXY:72.764
;MAXZ:13.06
;Generated with Cura_SteamEngine 4.8.0
M82 ;absolute extrusion mode
;Gcode by Cura
G90
G28
M107
M109 R100
G30
M109 S215 U-55 X55 V-85 Y-85 W0.26 Z0.26
M82
G92 E0
G1 F200 E6
G92 E0
G1 F200 E-3.5
G0 Z0.15
G0 X10
G0 Z3
G1 F6000
G92 E0
G92 E0
G1 F3600 E-3.8
;LAYER_COUNT:65
;LAYER:0
M107
G0 F2040 X-39.373 Y-16.55 Z0.26
;TYPE:SKIRT
G1 F3600 E0
G1 F1020 X-39.742 Y-17.141 E0.02666
G1 X-40.027 Y-17.674 E0.04979
G1 X-40.24 Y-18.24 E0.07294
G1 X-40.377 Y-18.829 E0.09608
G1 X-40.434 Y-19.431 E0.11922
G1 X-40.412 Y-20.035 E0.14235
G1 X-40.31 Y-20.631 E0.16549
G1 X-40.13 Y-21.208 E0.18862
G1 X-39.876 Y-21.757 E0.21177
G1 X-39.552 Y-22.267 E0.2349
G1 X-39.163 Y-22.731 E0.25807
G1 X-38.717 Y-23.138 E0.28117
G1 X-38.22 Y-23.484 E0.30435
G1 X-37.683 Y-23.761 E0.32747
G1 X-37.113 Y-23.964 E0.35063
G1 X-36.522 Y-24.091 E0.37376
G1 X-35.891 Y-24.141 E0.39799
G1 X-35.414 Y-24.148 E0.41624
G1 X67.884 Y-24.148 E4.36941
G1 X68.571 Y-24.138 E4.3957
G1 X69.173 Y-24.089 E4.41882
G1 X69.764 Y-23.961 E4.44196
G1 X70.333 Y-23.756 E4.4651
G1 X70.87 Y-23.479 E4.48823
G1 X71.366 Y-23.132 E4.51139
G1 X71.812 Y-22.724 E4.53453
G1 X72.2 Y-22.26 E4.55767
G1 X72.523 Y-21.749 E4.58081
G1 X72.776 Y-21.2 E4.60394
G1 X72.955 Y-20.622 E4.6271
G1 X73.056 Y-20.026 E4.65023
G1 X73.077 Y-19.422 E4.67336
G1 X73.018 Y-18.82 E4.69651
G1 X72.881 Y-18.231 E4.71965
G1 X72.557 Y-17.44 E4.75236
G1 X72.147 Y-16.66 E4.78609
G1 X24.986 Y69.786 E8.55463
G1 X24.621 Y70.434 E8.58309
G1 X24.29 Y70.94 E8.60623
G1 X23.895 Y71.398 E8.62937
G1 X23.444 Y71.8 E8.6525
G1 X22.943 Y72.139 E8.67565
G1 X22.402 Y72.409 E8.69878
G1 X21.83 Y72.605 E8.72192
G1 X21.237 Y72.724 E8.74507
G1 X20.634 Y72.764 E8.7682
G1 X20.03 Y72.724 E8.79136
G1 X19.438 Y72.605 E8.81447
G1 X18.866 Y72.408 E8.83762
G1 X18.325 Y72.138 E8.86076
G1 X17.824 Y71.799 E8.88391
G1 X17.373 Y71.397 E8.90703
G1 X16.831 Y70.73 E8.93992
G1 X16.317 Y69.96 E8.97535
G1 X-39.373 Y-16.55 E12.91272
G0 F2040 X-39.076 Y-16.735
G1 F1020 X-39.445 Y-17.326 E12.93938
G1 X-39.718 Y-17.839 E12.96162
G1 X-39.918 Y-18.385 E12.98387
G1 X-40.042 Y-18.952 E13.00609
G1 X-40.086 Y-19.532 E13.02835
G1 X-40.05 Y-20.112 E13.05059
G1 X-39.936 Y-20.681 E13.07279
G1 X-39.744 Y-21.23 E13.09505
G1 X-39.478 Y-21.747 E13.1173
G1 X-39.145 Y-22.222 E13.1395
G1 X-38.749 Y-22.648 E13.16176
G1 X-38.299 Y-23.015 E13.18398
G1 X-37.802 Y-23.317 E13.20624
G1 X-37.269 Y-23.548 E13.22847
G1 X-36.709 Y-23.703 E13.25071
G1 X-36.015 Y-23.786 E13.27746
G1 X-35.41 Y-23.798 E13.30061
G1 X67.878 Y-23.798 E17.25339
G1 X68.565 Y-23.788 E17.27969
G1 X69.145 Y-23.739 E17.30196
G1 X69.711 Y-23.612 E17.32416
G1 X70.255 Y-23.408 E17.3464
G1 X70.766 Y-23.131 E17.36864
G1 X71.235 Y-22.787 E17.3909
G1 X71.651 Y-22.382 E17.41312
G1 X72.008 Y-21.924 E17.43534
G1 X72.299 Y-21.42 E17.45761
G1 X72.518 Y-20.882 E17.47984
G1 X72.661 Y-20.319 E17.50207
G1 X72.725 Y-19.742 E17.52429
G1 X72.71 Y-19.161 E17.54653
G1 X72.615 Y-18.588 E17.56876
G1 X72.442 Y-18.033 E17.59101
G1 X72.247 Y-17.602 E17.60911
G1 X71.84 Y-16.828 E17.64258
G1 X24.681 Y69.615 E21.41098
G1 X24.316 Y70.263 E21.43944
G1 X23.997 Y70.748 E21.46166
G1 X23.614 Y71.185 E21.4839
G1 X23.175 Y71.565 E21.50612
G1 X22.688 Y71.882 E21.52836
G1 X22.162 Y72.129 E21.55059
G1 X21.607 Y72.301 E21.57283
G1 X21.033 Y72.395 E21.59509
G1 X20.452 Y72.41 E21.61733
G1 X19.875 Y72.345 E21.63955
G1 X19.312 Y72.202 E21.66178
G1 X18.774 Y71.982 E21.68403
G1 X18.271 Y71.691 E21.70627
G1 X17.813 Y71.333 E21.72851
G1 X17.408 Y70.917 E21.75073
G1 X17.122 Y70.536 E21.76896
G1 X16.611 Y69.771 E21.80417
G1 X-39.076 Y-16.735 E25.74134
G0 F2040 X-38.779 Y-16.921
G1 F1020 X-39.148 Y-17.512 E25.76801
G1 X-39.408 Y-18.004 E25.7893
G1 X-39.595 Y-18.528 E25.8106
G1 X-39.705 Y-19.073 E25.83187
G1 X-39.735 Y-19.629 E25.85318
G1 X-39.686 Y-20.183 E25.87447
G1 X-39.558 Y-20.724 E25.89574
G1 X-39.354 Y-21.242 E25.91705
G1 X-39.077 Y-21.725 E25.93836
G1 X-38.735 Y-22.163 E25.95962
G1 X-38.333 Y-22.548 E25.98092
G1 X-37.88 Y-22.871 E26.00222
G1 X-37.386 Y-23.127 E26.02351
G1 X-36.86 Y-23.308 E26.0448
G1 X-36.313 Y-23.413 E26.06611
G1 X-35.767 Y-23.444 E26.08704
G1 X-35.406 Y-23.448 E26.10086
G1 X67.873 Y-23.448 E30.05329
G1 X68.56 Y-23.438 E30.07959
G1 X69.115 Y-23.39 E30.10091
G1 X69.656 Y-23.263 E30.12217
G1 X70.174 Y-23.059 E30.14348
G1 X70.658 Y-22.784 E30.16478
G1 X71.097 Y-22.442 E30.18608
G1 X71.483 Y-22.041 E30.20738
G1 X71.807 Y-21.589 E30.22866
G1 X72.063 Y-21.095 E30.24996
G1 X72.246 Y-20.57 E30.27123
G1 X72.352 Y-20.023 E30.29256
G1 X72.378 Y-19.468 E30.31382
G1 X72.324 Y-18.914 E30.33512
G1 X72.192 Y-18.373 E30.35643
G1 X71.937 Y-17.765 E30.38166
G1 X71.533 Y-16.995 E30.41494
G1 X24.376 Y69.443 E34.18314
G1 X24.011 Y70.091 E34.2116
G1 X23.704 Y70.555 E34.23289
G1 X23.334 Y70.97 E34.25417
G1 X22.908 Y71.328 E34.27547
G1 X22.435 Y71.621 E34.29676
G1 X21.925 Y71.843 E34.31805
G1 X21.388 Y71.99 E34.33935
G1 X20.836 Y72.059 E34.36064
G1 X20.279 Y72.048 E34.38196
G1 X19.73 Y71.957 E34.40326
G1 X19.2 Y71.789 E34.42454
G1 X18.699 Y71.546 E34.44585
G1 X18.239 Y71.234 E34.46712
G1 X17.827 Y70.859 E34.48844
G1 X17.413 Y70.342 E34.51378
G1 X16.906 Y69.581 E34.54878
G1 X-38.779 Y-16.921 E38.48578
G0 F2040 X-38.482 Y-17.106
G1 F1020 X-38.851 Y-17.697 E38.51245
G1 X-39.097 Y-18.167 E38.53275
G1 X-39.27 Y-18.669 E38.55307
G1 X-39.366 Y-19.191 E38.57338
G1 X-39.382 Y-19.721 E38.59367
G1 X-39.319 Y-20.248 E38.61398
G1 X-39.177 Y-20.759 E38.63428
G1 X-38.96 Y-21.244 E38.65461
G1 X-38.673 Y-21.69 E38.67491
G1 X-38.322 Y-22.088 E38.69522
G1 X-37.915 Y-22.429 E38.71554
G1 X-37.462 Y-22.705 E38.73584
G1 X-36.972 Y-22.909 E38.75615
G1 X-36.458 Y-23.038 E38.77643
G1 X-35.853 Y-23.092 E38.79968
G1 X-35.402 Y-23.098 E38.81694
G1 X67.868 Y-23.098 E42.76903
G1 X68.555 Y-23.088 E42.79533
G1 X69.084 Y-23.04 E42.81565
G1 X69.599 Y-22.914 E42.83594
G1 X70.09 Y-22.711 E42.85628
G1 X70.544 Y-22.437 E42.87657
G1 X70.953 Y-22.099 E42.89688
G1 X71.306 Y-21.702 E42.91721
G1 X71.595 Y-21.257 E42.93751
G1 X71.814 Y-20.774 E42.95781
G1 X71.959 Y-20.264 E42.9781
G1 X72.025 Y-19.737 E42.99842
G1 X72.011 Y-19.207 E43.01871
G1 X71.918 Y-18.684 E43.03904
G1 X71.747 Y-18.182 E43.05934
G1 X71.626 Y-17.927 E43.07014
G1 X71.225 Y-17.163 E43.10316
G1 X24.071 Y69.271 E46.87117
G1 X23.706 Y69.919 E46.89963
G1 X23.412 Y70.36 E46.91992
G1 X23.054 Y70.753 E46.94026
G1 X22.642 Y71.087 E46.96056
G1 X22.184 Y71.355 E46.98087
G1 X21.692 Y71.552 E47.00115
G1 X21.175 Y71.672 E47.02146
G1 X20.646 Y71.714 E47.04177
G1 X20.116 Y71.676 E47.0621
G1 X19.599 Y71.558 E47.0824
G1 X19.105 Y71.365 E47.10269
G1 X18.645 Y71.099 E47.12303
G1 X18.231 Y70.767 E47.14334
G1 X17.871 Y70.377 E47.16365
G1 X17.704 Y70.147 E47.17453
G1 X17.2 Y69.392 E47.20927
G1 X-38.482 Y-17.106 E51.14608
G0 F2040 X-38.185 Y-17.291
G1 F1020 X-38.554 Y-17.882 E51.17274
G1 X-38.786 Y-18.329 E51.19202
G1 X-38.945 Y-18.807 E51.2113
G1 X-39.025 Y-19.305 E51.2306
G1 X-39.027 Y-19.808 E51.24985
G1 X-38.948 Y-20.306 E51.26914
G1 X-38.792 Y-20.784 E51.28839
G1 X-38.562 Y-21.232 E51.30766
G1 X-38.265 Y-21.639 E51.32694
G1 X-37.906 Y-21.992 E51.34621
G1 X-37.497 Y-22.285 E51.36546
G1 X-37.046 Y-22.51 E51.38475
G1 X-36.565 Y-22.66 E51.40403
G1 X-35.977 Y-22.737 E51.42673
G1 X-35.398 Y-22.748 E51.44889
G1 X67.863 Y-22.748 E55.40064
G1 X68.55 Y-22.738 E55.42693
G1 X69.052 Y-22.69 E55.44623
G1 X69.539 Y-22.565 E55.46547
G1 X70.001 Y-22.363 E55.48477
G1 X70.425 Y-22.091 E55.50405
G1 X70.8 Y-21.756 E55.52329
G1 X71.118 Y-21.365 E55.54258
G1 X71.37 Y-20.929 E55.56185
G1 X71.55 Y-20.459 E55.58111
G1 X71.653 Y-19.966 E55.60039
G1 X71.677 Y-19.463 E55.61966
G1 X71.622 Y-18.962 E55.63895
G1 X71.488 Y-18.477 E55.6582
G1 X71.316 Y-18.09 E55.67441
G1 X70.918 Y-17.33 E55.70724
G1 X23.766 Y69.099 E59.47505
G1 X23.401 Y69.747 E59.50351
G1 X23.12 Y70.165 E59.52278
G1 X22.776 Y70.533 E59.54206
G1 X22.379 Y70.842 E59.56131
G1 X21.938 Y71.085 E59.58058
G1 X21.463 Y71.254 E59.59988
G1 X20.968 Y71.346 E59.61915
G1 X20.465 Y71.359 E59.6384
G1 X19.966 Y71.293 E59.65766
G1 X19.483 Y71.148 E59.67696
G1 X19.03 Y70.928 E59.69624
G1 X18.617 Y70.64 E59.7155
G1 X18.255 Y70.29 E59.73477
G1 X17.995 Y69.953 E59.75106
G1 X17.494 Y69.203 E59.78558
G1 X-38.185 Y-17.291 E63.7222
G1 F3600 E59.9222
;MESH:support_tri_0_091.stl
G0 F2040 X-36.056 Y-18.624
G0 X-35.196 Y-19.178
G0 X20.595 Y67.185
;TYPE:WALL-INNER
G1 F3600 E63.7222
G1 F1020 X-34.916 Y-19.048 E67.64695
G1 X67.641 Y-19.048 E71.57175
G1 X20.595 Y67.185 E75.33103
G0 F2040 X20.618 Y67.821
;TYPE:WALL-OUTER
G1 F1020 X-35.512 Y-19.373 E79.29952
G1 X68.188 Y-19.373 E83.26807
G1 X20.618 Y67.821 E87.06924
G0 F2040 X20.51 Y67.653
G0 X20.604 Y67.428
G0 X20.57 Y66.519
;TYPE:SKIN
G1 F1020 X-34.292 Y-18.708 E90.94817
G1 X67.068 Y-18.708 E94.82717
G1 X20.57 Y66.519 E98.5426
G0 F2040 X20.598 Y66.136
G1 F1020 X20.35 Y65.888 E98.55603
G0 F2040 X20.773 Y65.816
G1 F1020 X19.456 Y64.498 E98.62733
G1 X19.394 Y64.436
G0 F2040 X18.562 Y63.109
G1 F1020 X20.948 Y65.495 E98.75646
G0 F2040 X21.122 Y65.175
G1 F1020 X17.667 Y61.72 E98.94345
G1 X17.605 Y61.658
G0 F2040 X16.773 Y60.331
G1 F1020 X21.297 Y64.855 E99.1883
G0 F2040 X21.472 Y64.534
G1 F1020 X15.879 Y58.942 E99.49097
G1 X15.817 Y58.88
G0 F2040 X14.985 Y57.552
G1 F1020 X21.646 Y64.214 E99.8515
G0 F2040 X21.821 Y63.894
G1 F1020 X14.09 Y56.163 E100.26991
G1 X14.028 Y56.101
G0 F2040 X13.196 Y54.774
G1 F1020 X21.995 Y63.573 E100.74612
G0 F2040 X22.171 Y63.254
G1 F1020 X12.302 Y53.385 E101.28025
G1 X12.24 Y53.323
G0 F2040 X11.407 Y51.995
G1 F1020 X22.345 Y62.933 E101.87223
G0 F2040 X22.52 Y62.613
G1 F1020 X10.513 Y50.606 E102.52206
G1 X10.451 Y50.544
G0 F2040 X9.619 Y49.217
G1 F1020 X22.695 Y62.293 E103.22975
G0 F2040 X22.869 Y61.972
G1 F1020 X8.724 Y47.827 E103.9953
G1 X8.662 Y47.765
G0 F2040 X7.831 Y46.439
G1 F1020 X23.044 Y61.652 E104.81864
G0 F2040 X23.219 Y61.332
G1 F1020 X6.936 Y45.049 E105.6999
G1 X6.874 Y44.987
G0 F2040 X6.042 Y43.66
G1 F1020 X23.393 Y61.012 E106.63898
G0 F2040 X23.568 Y60.691
G1 F1020 X5.148 Y42.271 E107.6359
G1 X5.086 Y42.209
G0 F2040 X4.253 Y40.882
G1 F1020 X23.743 Y60.371 E108.69069
G0 F2040 X23.918 Y60.051
G1 F1020 X3.359 Y39.492 E109.80337
G1 X3.297 Y39.43
G0 F2040 X2.465 Y38.103
G1 F1020 X24.093 Y59.731 E110.97391
G0 F2040 X24.267 Y59.411
G1 F1020 X1.571 Y36.714 E112.20227
G1 X1.509 Y36.652
G0 F2040 X0.676 Y35.324
G1 F1020 X24.442 Y59.09 E113.48852
G0 F2040 X24.617 Y58.77
G1 F1020 X-.217 Y33.936 E114.83257
G1 X-.279 Y33.874
G0 F2040 X-1.111 Y32.546
G1 F1020 X24.791 Y58.45 E116.23447
G0 F2040 X24.966 Y58.129
G1 F1020 X-2.006 Y31.157 E117.69423
G1 X-2.068 Y31.095
G0 F2040 X-2.899 Y29.768
G1 F1020 X25.141 Y57.809 E119.21182
G0 F2040 X25.315 Y57.489
G1 F1020 X-3.794 Y28.379 E120.78726
G1 X-3.856 Y28.317
G0 F2040 X-4.688 Y26.989
G1 F1020 X25.49 Y57.168 E122.42056
G0 F2040 X25.665 Y56.849
G1 F1020 X-5.582 Y25.6 E124.11174
G1 X-5.644 Y25.538
G0 F2040 X-6.477 Y24.211
G1 F1020 X25.84 Y56.528 E125.86078
G0 F2040 X26.015 Y56.208
G1 F1020 X-7.371 Y22.821 E127.6677
G1 X-7.433 Y22.759
G0 F2040 X-8.265 Y21.433
G1 F1020 X26.189 Y55.888 E129.53242
G0 F2040 X26.364 Y55.567
G1 F1020 X-9.159 Y20.043 E131.455
G1 X-9.221 Y19.981
G0 F2040 X-10.053 Y18.654
G1 F1020 X26.539 Y55.247 E133.43543
G0 F2040 X26.713 Y54.927
G1 F1020 X-10.948 Y17.265 E135.47372
G1 X-11.01 Y17.203
G0 F2040 X-11.842 Y15.875
G1 F1020 X26.888 Y54.607 E137.56989
G0 F2040 X27.063 Y54.286
G1 F1020 X-12.736 Y14.487 E139.72386
G1 X-12.798 Y14.425
G0 F2040 X-13.63 Y13.097
G1 F1020 X27.237 Y53.966 E141.93569
G0 F2040 X27.413 Y53.646
G1 F1020 X-14.525 Y11.708 E144.20543
G1 X-14.587 Y11.646
G0 F2040 X-15.419 Y10.319
G1 F1020 X27.587 Y53.326 E146.53299
G0 F2040 X27.762 Y53.006
G1 F1020 X-16.313 Y8.93 E148.91842
G1 X-16.375 Y8.868
G0 F2040 X-17.208 Y7.54
G1 F1020 X27.937 Y52.685 E151.36172
G0 F2040 X28.111 Y52.365
G1 F1020 X-18.101 Y6.151 E153.86283
G1 X-18.163 Y6.089
G0 F2040 X-18.996 Y4.762
G1 F1020 X28.286 Y52.045 E156.42182
G0 F2040 X28.461 Y51.724
G1 F1020 X-19.89 Y3.372 E159.03866
G1 X-19.952 Y3.31
G0 F2040 X-20.784 Y1.984
G1 F1020 X28.635 Y51.404 E161.71331
G0 F2040 X28.81 Y51.084
G1 F1020 X-21.679 Y0.594 E164.44586
G1 X-21.741 Y0.532
G0 F2040 X-22.573 Y-.794
G1 F1020 X28.985 Y50.763 E167.23622
G0 F2040 X29.16 Y50.444
G1 F1020 X-23.467 Y-2.183 E170.08446
G1 X-23.529 Y-2.245
G0 F2040 X-24.361 Y-3.573
G1 F1020 X29.335 Y50.123 E172.99056
G0 F2040 X29.509 Y49.803
G1 F1020 X-25.256 Y-4.962 E175.95451
G1 X-25.318 Y-5.024
G0 F2040 X-26.15 Y-6.351
G1 F1020 X29.684 Y49.483 E178.97632
G0 F2040 X29.858 Y49.163
G1 F1020 X-27.044 Y-7.74 E182.05595
G1 X-27.106 Y-7.802
G0 F2040 X-27.939 Y-9.13
G1 F1020 X30.033 Y48.842 E185.19347
G0 F2040 X30.208 Y48.522
G1 F1020 X-28.832 Y-10.518 E188.38879
G1 X-28.894 Y-10.58
G0 F2040 X-29.727 Y-11.908
G1 F1020 X30.382 Y48.202 E191.64199
G0 F2040 X30.557 Y47.881
G1 F1020 X-30.621 Y-13.297 E194.95302
G1 X-30.683 Y-13.359
G0 F2040 X-31.515 Y-14.686
G1 F1020 X30.732 Y47.561 E198.32191
G0 F2040 X30.907 Y47.241
G1 F1020 X-32.41 Y-16.076 E201.74871
G1 X-32.472 Y-16.138
G0 F2040 X-33.304 Y-17.465
G1 F1020 X31.082 Y46.921 E205.23336
G0 F2040 X31.256 Y46.601
G1 F1020 X-33.895 Y-18.55 E208.75941
G0 F2040 X-33.4 Y-18.55
G1 F1020 X31.431 Y46.28 E212.26812
G0 F2040 X31.606 Y45.96
G1 F1020 X-32.905 Y-18.55 E215.75951
G0 F2040 X-32.41 Y-18.55
G1 F1020 X31.78 Y45.64 E219.23356
G0 F2040 X31.955 Y45.319
G1 F1020 X-31.915 Y-18.55 E222.69026
G0 F2040 X-31.42 Y-18.55
G1 F1020 X32.13 Y44.999 E226.12964
G0 F2040 X32.304 Y44.679
G1 F1020 X-30.925 Y-18.55 E229.55167
G0 F2040 X-30.43 Y-18.55
G1 F1020 X32.479 Y44.358 E232.95636
G0 F2040 X32.654 Y44.039
G1 F1020 X-29.935 Y-18.55 E236.34376
G0 F2040 X-29.44 Y-18.55
G1 F1020 X32.829 Y43.718 E239.71381
G0 F2040 X33.004 Y43.398
G1 F1020 X-28.945 Y-18.55 E243.06654
G0 F2040 X-28.45 Y-18.55
G1 F1020 X33.178 Y43.078 E246.40192
G0 F2040 X33.353 Y42.758
G1 F1020 X-27.955 Y-18.55 E249.71999
G0 F2040 X-27.46 Y-18.55
G1 F1020 X33.528 Y42.437 E253.02071
G0 F2040 X33.702 Y42.117
G1 F1020 X-26.965 Y-18.55 E256.30409
G0 F2040 X-26.47 Y-18.55
G1 F1020 X33.877 Y41.797 E259.57014
G0 F2040 X34.052 Y41.476
G1 F1020 X-25.975 Y-18.55 E262.81886
G0 F2040 X-25.48 Y-18.55
G1 F1020 X34.226 Y41.156 E266.05022
G0 F2040 X34.401 Y40.836
G1 F1020 X-24.985 Y-18.55 E269.26427
G0 F2040 X-24.49 Y-18.55
G1 F1020 X34.576 Y40.516 E272.46099
G0 F2040 X34.751 Y40.196
G1 F1020 X-23.995 Y-18.55 E275.6404
G0 F2040 X-23.5 Y-18.55
G1 F1020 X34.926 Y39.875 E278.80246
G0 F2040 X35.1 Y39.555
G1 F1020 X-23.005 Y-18.55 E281.94718
G0 F2040 X-22.51 Y-18.55
G1 F1020 X35.275 Y39.235 E285.07458
G0 F2040 X35.45 Y38.914
G1 F1020 X-22.015 Y-18.55 E288.18463
G0 F2040 X-21.52 Y-18.55
G1 F1020 X35.624 Y38.594 E291.27734
G0 F2040 X35.799 Y38.274
G1 F1020 X-21.025 Y-18.55 E294.35272
G0 F2040 X-20.53 Y-18.55
G1 F1020 X35.974 Y37.953 E297.41077
G0 F2040 X36.148 Y37.633
G1 F1020 X-20.035 Y-18.55 E300.45146
G0 F2040 X-19.54 Y-18.55
G1 F1020 X36.324 Y37.314 E303.47489
G0 F2040 X36.498 Y36.993
G1 F1020 X-19.045 Y-18.55 E306.48095
G0 F2040 X-18.55 Y-18.55
G1 F1020 X36.673 Y36.673 E309.46969
G0 F2040 X36.848 Y36.353
G1 F1020 X-18.055 Y-18.55 E312.44111
G0 F2040 X-17.56 Y-18.55
G1 F1020 X37.022 Y36.032 E315.39516
G0 F2040 X37.197 Y35.712
G1 F1020 X-17.066 Y-18.55 E318.33191
G0 F2040 X-16.571 Y-18.55
G1 F1020 X37.372 Y35.392 E321.25135
G0 F2040 X37.546 Y35.071
G1 F1020 X-16.076 Y-18.55 E324.15341
G0 F2040 X-15.581 Y-18.55
G1 F1020 X37.721 Y34.751 E327.03816
G0 F2040 X37.895 Y34.431
G1 F1020 X-15.086 Y-18.55 E329.90556
G0 F2040 X-14.591 Y-18.55
G1 F1020 X38.071 Y34.111 E332.75566
G0 F2040 X38.245 Y33.791
G1 F1020 X-14.096 Y-18.55 E335.58843
G0 F2040 X-13.601 Y-18.55
G1 F1020 X38.42 Y33.47 E338.40384
G0 F2040 X38.595 Y33.15
G1 F1020 X-13.106 Y-18.55 E341.20194
G0 F2040 X-12.611 Y-18.55
G1 F1020 X38.769 Y32.83 E343.98269
G0 F2040 X38.944 Y32.509
G1 F1020 X-12.116 Y-18.55 E346.7461
G0 F2040 X-11.621 Y-18.55
G1 F1020 X39.119 Y32.189 E349.49218
G0 F2040 X39.293 Y31.869
G1 F1020 X-11.126 Y-18.55 E352.22092
