;FLAVOR:Marlin
;TIME:6273
;Filament used: 8.00858m
;Layer height: 0.3
;MINX:-41.074
;MINY:-24.833
;MINZ:0.26
;MAXX:71.101
;MAXY:71.735
;MAXZ:22.76
;Generated with Cura_SteamEngine 4.9.1
M82 ;absolute extrusion mode
;Gcode by Cura
G90
G28
M107
M109 R100
G30
M109 S215 U-55 X55 V-85 Y-85 W0.26 Z0.26
M82
G92 E0
G1 F200 E6
G92 E0
G1 F200 E-3.5
G0 Z0.15
G0 X10
G0 Z3
G1 F6000
G92 E0
G92 E0
G1 F3600 E-3.8
;LAYER_COUNT:76
;LAYER:0
M107
G0 F2040 X-35.617 Y-24.833 Z0.26
;TYPE:SKIRT
G1 F3600 E0
G1 F1020 X65.917 Y-24.833 E3.88566
G1 X66.595 Y-24.823 E3.91161
G1 X67.198 Y-24.774 E3.93476
G1 X67.789 Y-24.646 E3.9579
G1 X68.358 Y-24.441 E3.98105
G1 X68.895 Y-24.163 E4.00419
G1 X69.391 Y-23.817 E4.02733
G1 X69.836 Y-23.408 E4.05046
G1 X70.224 Y-22.944 E4.07361
G1 X70.547 Y-22.433 E4.09674
G1 X70.8 Y-21.884 E4.11988
G1 X70.979 Y-21.306 E4.14303
G1 X71.08 Y-20.71 E4.16617
G1 X71.101 Y-20.106 E4.1893
G1 X71.042 Y-19.504 E4.21245
G1 X70.905 Y-18.915 E4.23559
G1 X70.572 Y-18.108 E4.269
G1 X70.065 Y-17.152 E4.31041
G1 X22.39 Y68.797 E8.07177
G1 X22.029 Y69.429 E8.09962
G1 X21.695 Y69.933 E8.12276
G1 X21.297 Y70.389 E8.14592
G1 X20.843 Y70.788 E8.16905
G1 X20.34 Y71.124 E8.1922
G1 X19.798 Y71.391 E8.21533
G1 X19.224 Y71.583 E8.23849
G1 X18.631 Y71.699 E8.26161
G1 X18.027 Y71.735 E8.28477
G1 X17.424 Y71.691 E8.30791
G1 X16.832 Y71.568 E8.33105
G1 X16.262 Y71.368 E8.35416
G1 X15.722 Y71.095 E8.37732
G1 X15.224 Y70.753 E8.40044
G1 X14.775 Y70.348 E8.42358
G1 X14.225 Y69.661 E8.45726
G1 X13.615 Y68.724 E8.50005
G1 X-40.047 Y-17.267 E12.37908
G1 X-40.415 Y-17.876 E12.40631
G1 X-40.692 Y-18.413 E12.42944
G1 X-40.897 Y-18.982 E12.45258
G1 X-41.025 Y-19.573 E12.47573
G1 X-41.074 Y-20.176 E12.49888
G1 X-41.042 Y-20.779 E12.52199
G1 X-40.932 Y-21.374 E12.54514
G1 X-40.744 Y-21.949 E12.56829
G1 X-40.482 Y-22.493 E12.5914
G1 X-40.15 Y-22.999 E12.61456
G1 X-39.754 Y-23.456 E12.6377
G1 X-39.302 Y-23.858 E12.66085
G1 X-38.801 Y-24.196 E12.68398
G1 X-38.259 Y-24.465 E12.70714
G1 X-37.687 Y-24.66 E12.73027
G1 X-37.094 Y-24.778 E12.7534
G1 X-36.582 Y-24.816 E12.77305
G1 X-35.617 Y-24.833 E12.80999
G0 F2040 X-35.617 Y-24.483
G1 F1020 X65.912 Y-24.483 E16.69545
G1 X66.59 Y-24.473 E16.7214
G1 X67.169 Y-24.424 E16.74364
G1 X67.736 Y-24.297 E16.76588
G1 X68.28 Y-24.093 E16.78811
G1 X68.791 Y-23.816 E16.81036
G1 X69.259 Y-23.472 E16.83258
G1 X69.676 Y-23.066 E16.85486
G1 X70.033 Y-22.608 E16.87708
G1 X70.323 Y-22.105 E16.8993
G1 X70.542 Y-21.566 E16.92156
G1 X70.685 Y-21.003 E16.94379
G1 X70.749 Y-20.426 E16.96601
G1 X70.734 Y-19.845 E16.98825
G1 X70.639 Y-19.272 E17.01048
G1 X70.466 Y-18.717 E17.03273
G1 X70.263 Y-18.272 E17.05145
G1 X69.759 Y-17.322 E17.0926
G1 X22.086 Y68.624 E20.85382
G1 X21.725 Y69.256 E20.88168
G1 X21.402 Y69.739 E20.90391
G1 X21.017 Y70.174 E20.92614
G1 X20.576 Y70.552 E20.94837
G1 X20.086 Y70.865 E20.97062
G1 X19.559 Y71.109 E20.99285
G1 X19.003 Y71.278 E21.01509
G1 X18.429 Y71.369 E21.03733
G1 X17.848 Y71.38 E21.05957
G1 X17.271 Y71.311 E21.08181
G1 X16.709 Y71.165 E21.10403
G1 X16.172 Y70.942 E21.12628
G1 X15.671 Y70.648 E21.14851
G1 X15.215 Y70.287 E21.17077
G1 X14.813 Y69.868 E21.19299
G1 X14.518 Y69.469 E21.21198
G1 X13.912 Y68.539 E21.25446
G1 X-39.747 Y-17.448 E25.13331
G1 X-40.115 Y-18.057 E25.16054
G1 X-40.381 Y-18.574 E25.18279
G1 X-40.573 Y-19.122 E25.20501
G1 X-40.688 Y-19.692 E25.22726
G1 X-40.724 Y-20.271 E25.24946
G1 X-40.68 Y-20.851 E25.27172
G1 X-40.557 Y-21.419 E25.29396
G1 X-40.357 Y-21.964 E25.31618
G1 X-40.084 Y-22.477 E25.33842
G1 X-39.744 Y-22.948 E25.36065
G1 X-39.342 Y-23.368 E25.3829
G1 X-38.886 Y-23.728 E25.40513
G1 X-38.385 Y-24.023 E25.42738
G1 X-37.849 Y-24.246 E25.4496
G1 X-37.287 Y-24.393 E25.47183
G1 X-36.576 Y-24.466 E25.49918
G1 X-35.617 Y-24.483 E25.53589
G0 F2040 X-35.617 Y-24.133
G1 F1020 X65.907 Y-24.133 E29.42117
G1 X66.585 Y-24.123 E29.44712
G1 X67.139 Y-24.074 E29.4684
G1 X67.681 Y-23.947 E29.4897
G1 X68.199 Y-23.744 E29.51099
G1 X68.683 Y-23.469 E29.5323
G1 X69.122 Y-23.127 E29.55359
G1 X69.507 Y-22.726 E29.57487
G1 X69.831 Y-22.274 E29.59615
G1 X70.087 Y-21.78 E29.61744
G1 X70.27 Y-21.254 E29.63876
G1 X70.376 Y-20.708 E29.66004
G1 X70.402 Y-20.152 E29.68134
G1 X70.348 Y-19.598 E29.70265
G1 X70.216 Y-19.058 E29.72392
G1 X69.953 Y-18.436 E29.74976
G1 X69.453 Y-17.491 E29.79068
G1 X21.782 Y68.45 E33.55169
G1 X21.421 Y69.082 E33.57955
G1 X21.111 Y69.544 E33.60084
G1 X20.738 Y69.957 E33.62214
G1 X20.31 Y70.312 E33.64342
G1 X19.835 Y70.603 E33.66474
G1 X19.324 Y70.822 E33.68601
G1 X18.786 Y70.966 E33.70733
G1 X18.233 Y71.031 E33.72863
G1 X17.677 Y71.016 E33.74992
G1 X17.129 Y70.922 E33.7712
G1 X16.6 Y70.751 E33.79247
G1 X16.1 Y70.505 E33.8138
G1 X15.641 Y70.191 E33.83508
G1 X15.232 Y69.814 E33.85637
G1 X14.811 Y69.278 E33.88245
G1 X14.209 Y68.353 E33.92469
G1 X-39.448 Y-17.629 E37.80333
G1 X-39.816 Y-18.238 E37.83056
G1 X-40.068 Y-18.734 E37.85186
G1 X-40.248 Y-19.26 E37.87313
G1 X-40.35 Y-19.807 E37.89443
G1 X-40.372 Y-20.363 E37.91572
G1 X-40.315 Y-20.917 E37.93703
G1 X-40.179 Y-21.456 E37.95831
G1 X-39.967 Y-21.971 E37.97962
G1 X-39.684 Y-22.45 E38.00091
G1 X-39.335 Y-22.883 E38.0222
G1 X-38.927 Y-23.262 E38.04351
G1 X-38.47 Y-23.579 E38.06479
G1 X-37.971 Y-23.826 E38.0861
G1 X-37.443 Y-24 E38.10737
G1 X-36.895 Y-24.097 E38.12867
G1 X-36.569 Y-24.116 E38.14117
G1 X-35.617 Y-24.133 E38.17761
G0 F2040 X-35.617 Y-23.783
G1 F1020 X65.902 Y-23.783 E42.06269
G1 X66.58 Y-23.773 E42.08864
G1 X67.108 Y-23.725 E42.10893
G1 X67.624 Y-23.598 E42.12927
G1 X68.114 Y-23.396 E42.14955
G1 X68.569 Y-23.122 E42.16988
G1 X68.977 Y-22.783 E42.19018
G1 X69.33 Y-22.387 E42.21048
G1 X69.619 Y-21.942 E42.23078
G1 X69.839 Y-21.459 E42.25109
G1 X69.983 Y-20.948 E42.27141
G1 X70.049 Y-20.421 E42.29174
G1 X70.035 Y-19.891 E42.31203
G1 X69.942 Y-19.369 E42.33232
G1 X69.771 Y-18.866 E42.35265
G1 X69.644 Y-18.6 E42.36393
G1 X69.147 Y-17.661 E42.40459
G1 X21.478 Y68.276 E46.16543
G1 X21.117 Y68.908 E46.19329
G1 X20.82 Y69.348 E46.2136
G1 X20.46 Y69.738 E46.23392
G1 X20.046 Y70.07 E46.25422
G1 X19.586 Y70.335 E46.27454
G1 X19.092 Y70.529 E46.29485
G1 X18.575 Y70.647 E46.31515
G1 X18.046 Y70.685 E46.33544
G1 X17.516 Y70.643 E46.35579
G1 X17 Y70.523 E46.37606
G1 X16.507 Y70.326 E46.39638
G1 X16.049 Y70.058 E46.41669
G1 X15.637 Y69.724 E46.43698
G1 X15.279 Y69.332 E46.4573
G1 X15.104 Y69.087 E46.46882
G1 X14.544 Y68.229 E46.50803
G1 X-39.148 Y-17.81 E50.38924
G1 X-39.516 Y-18.419 E50.41647
G1 X-39.755 Y-18.892 E50.43675
G1 X-39.921 Y-19.397 E50.45709
G1 X-40.009 Y-19.92 E50.47739
G1 X-40.018 Y-20.451 E50.49771
G1 X-39.947 Y-20.976 E50.51799
G1 X-39.797 Y-21.486 E50.53833
G1 X-39.573 Y-21.967 E50.55864
G1 X-39.28 Y-22.409 E50.57893
G1 X-38.923 Y-22.801 E50.59922
G1 X-38.511 Y-23.136 E50.61954
G1 X-38.054 Y-23.406 E50.63986
G1 X-37.561 Y-23.603 E50.66018
G1 X-37.045 Y-23.724 E50.68046
G1 X-36.563 Y-23.766 E50.69897
G1 X-35.617 Y-23.783 E50.73518
G0 F2040 X-35.617 Y-23.433
G1 F1020 X65.897 Y-23.433 E54.62007
G1 X66.575 Y-23.423 E54.64602
G1 X67.076 Y-23.375 E54.66529
G1 X67.564 Y-23.249 E54.68457
G1 X68.025 Y-23.048 E54.70382
G1 X68.449 Y-22.776 E54.7231
G1 X68.825 Y-22.44 E54.74239
G1 X69.142 Y-22.05 E54.76163
G1 X69.394 Y-21.614 E54.7809
G1 X69.574 Y-21.143 E54.8002
G1 X69.677 Y-20.65 E54.81947
G1 X69.701 Y-20.147 E54.83874
G1 X69.646 Y-19.647 E54.85799
G1 X69.511 Y-19.161 E54.8773
G1 X69.334 Y-18.763 E54.89397
G1 X68.84 Y-17.831 E54.93433
G1 X21.174 Y68.103 E58.69502
G1 X20.813 Y68.735 E58.72288
G1 X20.529 Y69.151 E58.74215
G1 X20.183 Y69.517 E58.76143
G1 X19.784 Y69.824 E58.78069
G1 X19.341 Y70.063 E58.79996
G1 X18.866 Y70.23 E58.81923
G1 X18.37 Y70.319 E58.83851
G1 X17.867 Y70.329 E58.85776
G1 X17.368 Y70.26 E58.87704
G1 X16.887 Y70.112 E58.8963
G1 X16.435 Y69.89 E58.91557
G1 X16.023 Y69.599 E58.93488
G1 X15.663 Y69.247 E58.95414
G1 X15.397 Y68.895 E58.97103
G1 X14.802 Y67.983 E59.0127
G1 X-38.848 Y-17.991 E62.89095
G1 X-39.216 Y-18.6 E62.91818
G1 X-39.442 Y-19.05 E62.93745
G1 X-39.593 Y-19.531 E62.95674
G1 X-39.667 Y-20.029 E62.97601
G1 X-39.661 Y-20.532 E62.99526
G1 X-39.575 Y-21.029 E63.01456
G1 X-39.412 Y-21.505 E63.03382
G1 X-39.176 Y-21.95 E63.05309
G1 X-38.872 Y-22.351 E63.07235
G1 X-38.509 Y-22.7 E63.09162
G1 X-38.095 Y-22.987 E63.1109
G1 X-37.641 Y-23.205 E63.13017
G1 X-37.158 Y-23.348 E63.14945
G1 X-36.557 Y-23.416 E63.1726
G1 X-35.617 Y-23.433 E63.20858
G1 F3600 E59.40858
;MESH:support_tri_0_093.stl
G0 F2040 X-35.617 Y-20.923
G0 X-35.617 Y-19.888
G0 X18.024 Y66.155
;TYPE:WALL-INNER
G1 F3600 E63.20858
G1 F1020 X-35.574 Y-19.733 E67.08297
G1 X65.665 Y-19.733 E70.95734
G1 X18.024 Y66.155 E74.71603
G0 F2040 X18.04 Y66.796
;TYPE:WALL-OUTER
G1 F1020 X-36.16 Y-20.058 E78.63399
G1 X66.217 Y-20.058 E82.5519
G1 X18.04 Y66.796 E86.35287
G0 F2040 X17.935 Y66.627
G0 X18.031 Y66.401
G0 X18.007 Y65.485
;TYPE:SKIN
G1 F1020 X-34.962 Y-19.393 E90.18173
G1 X65.088 Y-19.393 E94.0106
G1 X18.007 Y65.485 E97.72508
G0 F2040 X18.053 Y65.076
G1 F1020 X17.744 Y64.767 E97.74181
G0 F2040 X18.229 Y64.757
G1 F1020 X16.923 Y63.45 E97.81252
G1 X16.861 Y63.388
G0 F2040 X16.101 Y62.134
G1 F1020 X18.406 Y64.439 E97.93727
G0 F2040 X18.583 Y64.121
G1 F1020 X15.279 Y60.817 E98.11608
G1 X15.217 Y60.755
G0 F2040 X14.458 Y59.5
G1 F1020 X18.76 Y63.802 E98.34891
G0 F2040 X18.936 Y63.484
G1 F1020 X13.636 Y58.184 E98.63576
G1 X13.574 Y58.122
G0 F2040 X12.814 Y56.867
G1 F1020 X19.113 Y63.165 E98.97664
G0 F2040 X19.289 Y62.847
G1 F1020 X11.993 Y55.551 E99.37151
G1 X11.931 Y55.489
G0 F2040 X11.17 Y54.233
G1 F1020 X19.466 Y62.529 E99.8205
G0 F2040 X19.642 Y62.21
G1 F1020 X10.349 Y52.917 E100.32345
G1 X10.287 Y52.855
G0 F2040 X9.527 Y51.6
G1 F1020 X19.819 Y61.892 E100.88046
G0 F2040 X19.996 Y61.574
G1 F1020 X8.705 Y50.283 E101.49155
G1 X8.643 Y50.221
G0 F2040 X7.884 Y48.967
G1 F1020 X20.173 Y61.255 E102.15662
G0 F2040 X20.349 Y60.937
G1 F1020 X7.062 Y47.65 E102.87573
G1 X7 Y47.588
G0 F2040 X6.24 Y46.333
G1 F1020 X20.525 Y60.618 E103.64885
G0 F2040 X20.702 Y60.3
G1 F1020 X5.419 Y45.017 E104.47598
G1 X5.357 Y44.955
G0 F2040 X4.597 Y43.7
G1 F1020 X20.879 Y59.982 E105.35719
G0 F2040 X21.055 Y59.663
G1 F1020 X3.775 Y42.383 E106.2924
G1 X3.713 Y42.321
G0 F2040 X2.954 Y41.067
G1 F1020 X21.232 Y59.345 E107.28163
G0 F2040 X21.409 Y59.027
G1 F1020 X2.132 Y39.75 E108.32493
G1 X2.07 Y39.688
G0 F2040 X1.31 Y38.434
G1 F1020 X21.585 Y58.708 E109.42221
G0 F2040 X21.761 Y58.39
G1 F1020 X0.489 Y37.117 E110.5735
G1 X0.427 Y37.055
G0 F2040 X-.332 Y35.8
G1 F1020 X21.938 Y58.071 E111.77881
G0 F2040 X22.115 Y57.753
G1 F1020 X-1.153 Y34.484 E113.03813
G1 X-1.215 Y34.422
G0 F2040 X-1.975 Y33.167
G1 F1020 X22.292 Y57.435 E114.35152
G0 F2040 X22.468 Y57.116
G1 F1020 X-2.797 Y31.85 E115.71892
G1 X-2.859 Y31.788
G0 F2040 X-3.618 Y30.534
G1 F1020 X22.645 Y56.798 E117.14033
G0 F2040 X22.821 Y56.48
G1 F1020 X-4.441 Y29.216 E118.61584
G1 X-4.503 Y29.154
G0 F2040 X-5.262 Y27.9
G1 F1020 X22.998 Y56.161 E120.14534
G0 F2040 X23.174 Y55.843
G1 F1020 X-6.084 Y26.583 E121.72887
G1 X-6.146 Y26.521
G0 F2040 X-6.906 Y25.267
G1 F1020 X23.351 Y55.524 E123.36642
G0 F2040 X23.528 Y55.206
G1 F1020 X-7.727 Y23.95 E125.05801
G1 X-7.789 Y23.888
G0 F2040 X-8.549 Y22.633
G1 F1020 X23.705 Y54.888 E126.80366
G0 F2040 X23.881 Y54.569
G1 F1020 X-9.371 Y21.317 E128.6033
G1 X-9.433 Y21.255
G0 F2040 X-10.192 Y20
G1 F1020 X24.057 Y54.251 E130.45695
G0 F2040 X24.234 Y53.933
G1 F1020 X-11.014 Y18.683 E132.36468
G1 X-11.076 Y18.621
G0 F2040 X-11.836 Y17.367
G1 F1020 X24.411 Y53.614 E134.32641
G0 F2040 X24.587 Y53.296
G1 F1020 X-12.657 Y16.05 E136.34216
G1 X-12.719 Y15.988
G0 F2040 X-13.479 Y14.733
G1 F1020 X24.764 Y52.977 E138.41194
G0 F2040 X24.941 Y52.659
G1 F1020 X-14.301 Y13.417 E140.53577
G1 X-14.363 Y13.355
G0 F2040 X-15.122 Y12.1
G1 F1020 X25.117 Y52.341 E142.71361
G0 F2040 X25.293 Y52.022
G1 F1020 X-15.944 Y10.784 E144.94544
G1 X-16.006 Y10.722
G0 F2040 X-16.766 Y9.467
G1 F1020 X25.47 Y51.704 E147.23133
G0 F2040 X25.647 Y51.386
G1 F1020 X-17.587 Y8.15 E149.57126
G1 X-17.649 Y8.088
G0 F2040 X-18.409 Y6.834
G1 F1020 X25.824 Y51.067 E151.96521
G0 F2040 X26.001 Y50.749
G1 F1020 X-19.231 Y5.517 E154.41322
G1 X-19.293 Y5.455
G0 F2040 X-20.053 Y4.2
G1 F1020 X26.177 Y50.43 E156.91525
G0 F2040 X26.353 Y50.112
G1 F1020 X-20.875 Y2.883 E159.47132
G1 X-20.937 Y2.821
G0 F2040 X-21.696 Y1.566
G1 F1020 X26.53 Y49.794 E162.08142
G0 F2040 X26.707 Y49.476
G1 F1020 X-22.518 Y0.25 E164.74557
G1 X-22.58 Y0.188
G0 F2040 X-23.34 Y-1.066
G1 F1020 X26.883 Y49.157 E167.4637
G0 F2040 X27.06 Y48.839
G1 F1020 X-24.161 Y-2.382 E170.23585
G1 X-24.223 Y-2.444
G0 F2040 X-24.983 Y-3.699
G1 F1020 X27.237 Y48.52 E173.06203
G0 F2040 X27.413 Y48.202
G1 F1020 X-25.805 Y-5.016 E175.94226
G1 X-25.867 Y-5.078
G0 F2040 X-26.626 Y-6.332
G1 F1020 X27.589 Y47.883 E178.87644
G0 F2040 X27.766 Y47.565
G1 F1020 X-27.448 Y-7.649 E181.8647
G1 X-27.51 Y-7.711
G0 F2040 X-28.27 Y-8.966
G1 F1020 X27.943 Y47.247 E184.90702
G0 F2040 X28.12 Y46.929
G1 F1020 X-29.091 Y-10.282 E188.00335
G1 X-29.153 Y-10.344
G0 F2040 X-29.913 Y-11.599
G1 F1020 X28.296 Y46.61 E191.15369
G0 F2040 X28.473 Y46.292
G1 F1020 X-30.735 Y-12.916 E194.35811
G1 X-30.797 Y-12.978
G0 F2040 X-31.556 Y-14.232
G1 F1020 X28.649 Y45.973 E197.61648
G0 F2040 X28.826 Y45.655
G1 F1020 X-32.378 Y-15.549 E200.92892
G1 X-32.44 Y-15.611
G0 F2040 X-33.2 Y-16.865
G1 F1020 X29.002 Y45.336 E204.29534
G0 F2040 X29.179 Y45.018
G1 F1020 X-34.021 Y-18.182 E207.7158
G1 X-34.083 Y-18.244
G0 F2040 X-34.084 Y-19.235
G1 F1020 X29.533 Y44.382 E211.15884
G0 F2040 X29.356 Y44.7
G1 F1020 X-34.579 Y-19.235 E214.61908
G1 X-34.641 Y-19.297
G0 F2040 X-33.589 Y-19.235
G1 F1020 X29.709 Y44.063 E218.04485
G0 F2040 X29.885 Y43.745
G1 F1020 X-33.094 Y-19.235 E221.45338
G0 F2040 X-32.599 Y-19.235
G1 F1020 X30.062 Y43.426 E224.84467
G0 F2040 X30.239 Y43.108
G1 F1020 X-32.104 Y-19.235 E228.21876
G0 F2040 X-31.609 Y-19.235
G1 F1020 X30.415 Y42.789 E231.57557
G0 F2040 X30.592 Y42.471
G1 F1020 X-31.114 Y-19.235 E234.91518
G0 F2040 X-30.619 Y-19.235
G1 F1020 X30.769 Y42.153 E238.23758
G0 F2040 X30.945 Y41.835
G1 F1020 X-30.124 Y-19.235 E241.54274
G0 F2040 X-29.629 Y-19.235
G1 F1020 X31.121 Y41.516 E244.83063
G0 F2040 X31.298 Y41.198
G1 F1020 X-29.134 Y-19.235 E248.10132
G0 F2040 X-28.639 Y-19.235
G1 F1020 X31.475 Y40.879 E251.35476
G0 F2040 X31.652 Y40.561
G1 F1020 X-28.144 Y-19.235 E254.591
G0 F2040 X-27.649 Y-19.235
G1 F1020 X31.828 Y40.242 E257.80997
G0 F2040 X32.005 Y39.924
G1 F1020 X-27.155 Y-19.235 E261.01176
G0 F2040 X-26.66 Y-19.235
G1 F1020 X32.181 Y39.606 E264.19631
G0 F2040 X32.358 Y39.288
G1 F1020 X-26.165 Y-19.235 E267.36365
G0 F2040 X-25.67 Y-19.235
G1 F1020 X32.534 Y38.969 E270.51372
G0 F2040 X32.711 Y38.651
G1 F1020 X-25.175 Y-19.235 E273.64658
G0 F2040 X-24.68 Y-19.235
G1 F1020 X32.888 Y38.332 E276.76221
G0 F2040 X33.065 Y38.014
G1 F1020 X-24.185 Y-19.235 E279.86063
G0 F2040 X-23.69 Y-19.235
G1 F1020 X33.241 Y37.695 E282.94178
G0 F2040 X33.417 Y37.377
G1 F1020 X-23.195 Y-19.235 E286.00569
G0 F2040 X-22.7 Y-19.235
G1 F1020 X33.594 Y37.059 E289.05239
G0 F2040 X33.771 Y36.741
G1 F1020 X-22.205 Y-19.235 E292.08189
G0 F2040 X-21.71 Y-19.235
G1 F1020 X33.947 Y36.422 E295.09411
G0 F2040 X34.124 Y36.104
G1 F1020 X-21.215 Y-19.235 E298.08913
G0 F2040 X-20.72 Y-19.235
G1 F1020 X34.301 Y35.785 E301.06691
G0 F2040 X34.477 Y35.467
G1 F1020 X-20.225 Y-19.235 E304.02745
G0 F2040 X-19.73 Y-19.235
G1 F1020 X34.653 Y35.148 E306.97073
G0 F2040 X34.83 Y34.83
G1 F1020 X-19.235 Y-19.235 E309.8968
G0 F2040 X-18.74 Y-19.235
G1 F1020 X35.007 Y34.512 E312.80565
G0 F2040 X35.184 Y34.194
G1 F1020 X-18.245 Y-19.235 E315.6973
G0 F2040 X-17.75 Y-19.235
G1 F1020 X35.36 Y33.875 E318.57168
G0 F2040 X35.537 Y33.557
G1 F1020 X-17.255 Y-19.235 E321.42885
G0 F2040 X-16.76 Y-19.235
G1 F1020 X35.713 Y33.238 E324.26876
G0 F2040 X35.89 Y32.92
G1 F1020 X-16.265 Y-19.235 E327.09145
G0 F2040 X-15.77 Y-19.235
G1 F1020 X36.067 Y32.602 E329.89693
G0 F2040 X36.243 Y32.283
G1 F1020 X-15.275 Y-19.235 E332.68515
G0 F2040 X-14.78 Y-19.235
G1 F1020 X36.42 Y31.965 E335.45616
G0 F2040 X36.597 Y31.647
G1 F1020 X-14.285 Y-19.235 E338.20996
G0 F2040 X-13.79 Y-19.235
