;FLAVOR:Marlin
;TIME:7953
;Filament used: 7.3472m
;Layer height: 0.2
;MINX:-66.346
;MINY:-23.203
;MINZ:0.26
;MAXX:43.887
;MAXY:75.342
;MAXZ:22.86
;Generated with Cura_SteamEngine 4.8.0
M82 ;absolute extrusion mode
;Gcode by Cura
G90
G28
M107
M109 R100
G30
M109 S215 U-55 X55 V-85 Y-85 W0.26 Z0.26
M82
G92 E0
G1 F200 E6
G92 E0
G1 F200 E-3.5
G0 Z0.15
G0 X10
G0 Z3
G1 F6000
G92 E0
G92 E0
G1 F3600 E-3.8
;LAYER_COUNT:114
;LAYER:0
M107
G0 F2040 X38.69 Y-23.203 Z0.26
;TYPE:SKIRT
G1 F3600 E0
G1 F1020 X39.38 Y-23.193 E0.02641
G1 X39.983 Y-23.144 E0.04956
G1 X40.574 Y-23.016 E0.0727
G1 X41.143 Y-22.812 E0.09584
G1 X41.68 Y-22.534 E0.11898
G1 X42.176 Y-22.187 E0.14214
G1 X42.621 Y-21.779 E0.16525
G1 X43.009 Y-21.315 E0.18839
G1 X43.333 Y-20.804 E0.21155
G1 X43.586 Y-20.255 E0.23468
G1 X43.765 Y-19.677 E0.25784
G1 X43.865 Y-19.081 E0.28097
G1 X43.887 Y-18.477 E0.3041
G1 X43.828 Y-17.875 E0.32725
G1 X43.691 Y-17.286 E0.35039
G1 X43.435 Y-16.632 E0.37727
G1 X43.162 Y-16.086 E0.40063
G1 X-3.506 Y72.282 E4.22505
G1 X-3.874 Y72.957 E4.25447
G1 X-4.198 Y73.468 E4.27763
G1 X-4.586 Y73.931 E4.30075
G1 X-5.033 Y74.339 E4.32391
G1 X-5.529 Y74.685 E4.34705
G1 X-6.066 Y74.962 E4.37018
G1 X-6.635 Y75.166 E4.39331
G1 X-7.226 Y75.293 E4.41644
G1 X-7.829 Y75.342 E4.4396
G1 X-8.433 Y75.31 E4.46274
G1 X-9.027 Y75.199 E4.48587
G1 X-9.602 Y75.01 E4.50903
G1 X-10.146 Y74.748 E4.53214
G1 X-10.651 Y74.415 E4.55529
G1 X-11.108 Y74.019 E4.57843
G1 X-11.509 Y73.567 E4.60155
G1 X-11.819 Y73.12 E4.62237
G1 X-12.071 Y72.713 E4.64069
G1 X-65.38 Y-15.726 E8.59253
G1 X-65.722 Y-16.312 E8.61849
G1 X-65.992 Y-16.853 E8.64163
G1 X-66.188 Y-17.425 E8.66477
G1 X-66.306 Y-18.018 E8.68791
G1 X-66.346 Y-18.621 E8.71104
G1 X-66.306 Y-19.225 E8.7342
G1 X-66.186 Y-19.817 E8.75732
G1 X-65.989 Y-20.389 E8.78047
G1 X-65.719 Y-20.93 E8.80361
G1 X-65.379 Y-21.43 E8.82675
G1 X-64.977 Y-21.882 E8.8499
G1 X-64.519 Y-22.276 E8.87302
G1 X-64.012 Y-22.606 E8.89617
G1 X-63.467 Y-22.867 E8.9193
G1 X-62.892 Y-23.054 E8.94244
G1 X-62.297 Y-23.163 E8.96558
G1 X-61.736 Y-23.197 E8.98709
G1 X-61.354 Y-23.203 E9.00171
G1 X38.69 Y-23.203 E12.83035
G0 F2040 X38.685 Y-22.853
G1 F1020 X39.375 Y-22.843 E12.85676
G1 X39.954 Y-22.794 E12.879
G1 X40.521 Y-22.667 E12.90123
G1 X41.065 Y-22.463 E12.92347
G1 X41.576 Y-22.186 E12.94571
G1 X42.044 Y-21.842 E12.96794
G1 X42.461 Y-21.437 E12.99019
G1 X42.818 Y-20.979 E13.01241
G1 X43.109 Y-20.476 E13.03465
G1 X43.328 Y-19.938 E13.05688
G1 X43.471 Y-19.374 E13.07914
G1 X43.535 Y-18.797 E13.10136
G1 X43.52 Y-18.216 E13.1236
G1 X43.425 Y-17.643 E13.14583
G1 X43.252 Y-17.088 E13.16808
G1 X43.04 Y-16.618 E13.18781
G1 X42.827 Y-16.2 E13.20576
G1 X-3.813 Y72.114 E17.02786
G1 X-4.181 Y72.789 E17.05728
G1 X-4.494 Y73.279 E17.07953
G1 X-4.871 Y73.721 E17.10177
G1 X-5.305 Y74.108 E17.12402
G1 X-5.788 Y74.431 E17.14626
G1 X-6.31 Y74.685 E17.16847
G1 X-6.863 Y74.865 E17.19073
G1 X-7.435 Y74.967 E17.21296
G1 X-8.015 Y74.99 E17.23518
G1 X-8.593 Y74.933 E17.25741
G1 X-9.158 Y74.797 E17.27964
G1 X-9.699 Y74.585 E17.30188
G1 X-10.206 Y74.301 E17.32412
G1 X-10.669 Y73.95 E17.34636
G1 X-11.08 Y73.539 E17.3686
G1 X-11.424 Y73.085 E17.3904
G1 X-11.754 Y72.561 E17.4141
G1 X-65.078 Y-15.902 E21.36702
G1 X-65.42 Y-16.488 E21.39298
G1 X-65.678 Y-17.009 E21.41523
G1 X-65.861 Y-17.56 E21.43745
G1 X-65.968 Y-18.132 E21.45972
G1 X-65.995 Y-18.712 E21.48194
G1 X-65.942 Y-19.291 E21.50419
G1 X-65.81 Y-19.856 E21.5264
G1 X-65.602 Y-20.399 E21.54865
G1 X-65.322 Y-20.908 E21.57088
G1 X-64.974 Y-21.373 E21.59311
G1 X-64.566 Y-21.787 E21.61535
G1 X-64.105 Y-22.14 E21.63757
G1 X-63.599 Y-22.427 E21.65983
G1 X-63.059 Y-22.642 E21.68208
G1 X-62.495 Y-22.78 E21.7043
G1 X-61.921 Y-22.84 E21.72638
G1 X-61.35 Y-22.853 E21.74824
G1 X38.685 Y-22.853 E25.57653
G0 F2040 X38.68 Y-22.503
G1 F1020 X39.37 Y-22.493 E25.60294
G1 X39.924 Y-22.445 E25.62422
G1 X40.466 Y-22.318 E25.64553
G1 X40.984 Y-22.115 E25.66682
G1 X41.468 Y-21.839 E25.68814
G1 X41.907 Y-21.498 E25.70941
G1 X42.293 Y-21.097 E25.73072
G1 X42.617 Y-20.644 E25.75203
G1 X42.873 Y-20.15 E25.77332
G1 X43.056 Y-19.625 E25.7946
G1 X43.162 Y-19.079 E25.81588
G1 X43.188 Y-18.523 E25.83719
G1 X43.134 Y-17.969 E25.85849
G1 X43.002 Y-17.429 E25.87976
G1 X42.805 Y-16.936 E25.90008
G1 X42.539 Y-16.406 E25.92277
G1 X42.518 Y-16.363 E25.9246
G1 X-4.121 Y71.947 E29.74655
G1 X-4.489 Y72.622 E29.77597
G1 X-4.789 Y73.09 E29.79724
G1 X-5.154 Y73.51 E29.81854
G1 X-5.575 Y73.874 E29.83984
G1 X-6.044 Y74.174 E29.86114
G1 X-6.551 Y74.403 E29.88243
G1 X-7.086 Y74.557 E29.90374
G1 X-7.637 Y74.634 E29.92503
G1 X-8.193 Y74.63 E29.94631
G1 X-8.743 Y74.547 E29.9676
G1 X-9.276 Y74.386 E29.9889
G1 X-9.78 Y74.15 E30.0102
G1 X-10.245 Y73.845 E30.03148
G1 X-10.662 Y73.476 E30.05279
G1 X-11.131 Y72.893 E30.08143
G1 X-11.455 Y72.378 E30.10471
G1 X-64.776 Y-16.079 E34.05738
G1 X-65.118 Y-16.665 E34.08334
G1 X-65.363 Y-17.164 E34.10462
G1 X-65.534 Y-17.694 E34.12593
G1 X-65.628 Y-18.242 E34.14721
G1 X-65.642 Y-18.798 E34.16849
G1 X-65.576 Y-19.351 E34.1898
G1 X-65.432 Y-19.888 E34.21108
G1 X-65.212 Y-20.4 E34.23241
G1 X-64.922 Y-20.874 E34.25367
G1 X-64.566 Y-21.302 E34.27498
G1 X-64.153 Y-21.675 E34.29627
G1 X-63.69 Y-21.984 E34.31758
G1 X-63.189 Y-22.224 E34.33884
G1 X-62.657 Y-22.39 E34.36016
G1 X-61.909 Y-22.491 E34.38905
G1 X-61.346 Y-22.503 E34.4106
G1 X38.68 Y-22.503 E38.23855
G0 F2040 X38.675 Y-22.153
G1 F1020 X39.365 Y-22.143 E38.26496
G1 X39.894 Y-22.095 E38.28528
G1 X40.409 Y-21.969 E38.30557
G1 X40.9 Y-21.766 E38.32591
G1 X41.354 Y-21.493 E38.34618
G1 X41.763 Y-21.154 E38.36651
G1 X42.115 Y-20.757 E38.38681
G1 X42.405 Y-20.313 E38.40711
G1 X42.624 Y-19.829 E38.42744
G1 X42.769 Y-19.319 E38.44773
G1 X42.835 Y-18.792 E38.46806
G1 X42.821 Y-18.262 E38.48835
G1 X42.728 Y-17.739 E38.50868
G1 X42.489 Y-17.088 E38.53521
G1 X42.228 Y-16.565 E38.55758
G1 X-4.428 Y71.779 E42.38098
G1 X-4.796 Y72.454 E42.4104
G1 X-5.084 Y72.9 E42.43072
G1 X-5.436 Y73.297 E42.45103
G1 X-5.844 Y73.637 E42.47135
G1 X-6.298 Y73.912 E42.49167
G1 X-6.788 Y74.115 E42.51196
G1 X-7.303 Y74.243 E42.53227
G1 X-7.832 Y74.291 E42.5526
G1 X-8.361 Y74.26 E42.57288
G1 X-8.88 Y74.15 E42.59318
G1 X-9.377 Y73.963 E42.6135
G1 X-9.84 Y73.704 E42.63381
G1 X-10.259 Y73.378 E42.65412
G1 X-10.624 Y72.993 E42.67443
G1 X-10.941 Y72.544 E42.69546
G1 X-11.172 Y72.171 E42.71225
G1 X-64.473 Y-16.255 E46.6635
G1 X-64.815 Y-16.841 E46.68947
G1 X-65.048 Y-17.318 E46.70978
G1 X-65.206 Y-17.825 E46.73011
G1 X-65.286 Y-18.35 E46.75043
G1 X-65.286 Y-18.88 E46.77071
G1 X-65.207 Y-19.405 E46.79103
G1 X-65.05 Y-19.912 E46.81134
G1 X-64.819 Y-20.389 E46.83162
G1 X-64.518 Y-20.827 E46.85196
G1 X-64.155 Y-21.214 E46.87227
G1 X-63.739 Y-21.543 E46.89257
G1 X-63.277 Y-21.805 E46.91289
G1 X-62.782 Y-21.995 E46.93318
G1 X-62.264 Y-22.108 E46.95347
G1 X-61.699 Y-22.148 E46.97515
G1 X-61.342 Y-22.153 E46.98881
G1 X38.675 Y-22.153 E50.81641
G0 F2040 X38.67 Y-21.803
G1 F1020 X39.36 Y-21.793 E50.84282
G1 X39.861 Y-21.745 E50.86208
G1 X40.349 Y-21.62 E50.88136
G1 X40.811 Y-21.418 E50.90066
G1 X41.234 Y-21.146 E50.91991
G1 X41.61 Y-20.811 E50.93918
G1 X41.928 Y-20.42 E50.95847
G1 X42.18 Y-19.984 E50.97774
G1 X42.36 Y-19.514 E50.997
G1 X42.463 Y-19.021 E51.01627
G1 X42.487 Y-18.518 E51.03554
G1 X42.432 Y-18.018 E51.05479
G1 X42.298 Y-17.532 E51.07409
G1 X42.094 Y-17.074 E51.09327
G1 X41.899 Y-16.69 E51.10976
G1 X-4.735 Y71.612 E54.93134
G1 X-5.103 Y72.287 E54.96076
G1 X-5.379 Y72.708 E54.98003
G1 X-5.717 Y73.081 E54.99929
G1 X-6.111 Y73.396 E55.0186
G1 X-6.549 Y73.644 E55.03786
G1 X-7.02 Y73.82 E55.0571
G1 X-7.514 Y73.92 E55.07639
G1 X-8.017 Y73.939 E55.09565
G1 X-8.517 Y73.88 E55.11492
G1 X-9.002 Y73.741 E55.13423
G1 X-9.458 Y73.528 E55.15349
G1 X-9.875 Y73.246 E55.17275
G1 X-10.242 Y72.901 E55.19203
G1 X-10.649 Y72.352 E55.21818
G1 X-10.872 Y71.99 E55.23446
G1 X-64.171 Y-16.432 E59.18554
G1 X-64.513 Y-17.018 E59.2115
G1 X-64.732 Y-17.471 E59.23076
G1 X-64.876 Y-17.954 E59.25005
G1 X-64.942 Y-18.453 E59.26931
G1 X-64.928 Y-18.957 E59.2886
G1 X-64.835 Y-19.451 E59.30784
G1 X-64.664 Y-19.925 E59.32713
G1 X-64.421 Y-20.366 E59.3464
G1 X-64.112 Y-20.763 E59.36565
G1 X-63.743 Y-21.106 E59.38493
G1 X-63.325 Y-21.387 E59.4042
G1 X-62.867 Y-21.598 E59.4235
G1 X-62.382 Y-21.734 E59.44278
G1 X-61.884 Y-21.791 E59.46196
G1 X-61.338 Y-21.803 E59.48286
G1 X38.67 Y-21.803 E63.31012
G1 F3600 E59.51012
;MESH:support_tri_0_072.stl
G0 F2040 X38.67 Y-19.293
G0 X38.67 Y-18.258
G0 X-7.921 Y69.721
;TYPE:WALL-INNER
G1 F3600 E63.31012
G1 F1020 X-60.859 Y-18.103 E67.23447
G1 X38.46 Y-18.103 E71.03536
G1 X-7.921 Y69.721 E74.83625
G0 F2040 X-7.902 Y70.381
;TYPE:WALL-OUTER
G1 F1020 X-61.434 Y-18.428 E78.80462
G1 X38.999 Y-18.428 E82.64814
G1 X-7.902 Y70.381 E86.49165
G0 F2040 X-8.005 Y70.21
G0 X-7.919 Y70.159
G0 X-7.941 Y69.03
;TYPE:SKIN
G1 F1020 X-60.257 Y-17.763 E90.36992
G1 X37.895 Y-17.763 E94.12615
G1 X-7.941 Y69.03 E97.88241
G0 F2040 X-7.799 Y68.426
G1 F1020 X-8.606 Y67.619 E97.92609
G1 X-8.668 Y67.557
G0 F2040 X-7.628 Y68.102
G1 F1020 X-9.357 Y66.373 E98.01966
G1 X-9.419 Y66.311
G0 F2040 X-10.108 Y65.127
G1 F1020 X-7.457 Y67.779 E98.16317
G0 F2040 X-7.286 Y67.455
G1 F1020 X-10.86 Y63.88 E98.35662
G1 X-10.922 Y63.818
G0 F2040 X-11.611 Y62.634
G1 F1020 X-7.114 Y67.131 E98.60001
G0 F2040 X-6.944 Y66.806
G1 F1020 X-12.362 Y61.388 E98.89323
G1 X-12.424 Y61.326
G0 F2040 X-13.113 Y60.142
G1 F1020 X-6.773 Y66.482 E99.23636
G0 F2040 X-6.602 Y66.159
G1 F1020 X-13.864 Y58.896 E99.62942
G1 X-13.926 Y58.834
G0 F2040 X-14.615 Y57.65
G1 F1020 X-6.431 Y65.835 E100.07237
G0 F2040 X-6.26 Y65.511
G1 F1020 X-15.366 Y56.404 E100.56523
G1 X-15.428 Y56.342
G0 F2040 X-16.117 Y55.158
G1 F1020 X-6.088 Y65.187 E101.10801
G0 F2040 X-5.917 Y64.863
G1 F1020 X-16.869 Y53.911 E101.70075
G1 X-16.931 Y53.849
G0 F2040 X-17.62 Y52.666
G1 F1020 X-5.746 Y64.539 E102.34336
G0 F2040 X-5.575 Y64.215
G1 F1020 X-18.371 Y51.42 E103.03587
G1 X-18.433 Y51.358
G0 F2040 X-19.122 Y50.174
G1 F1020 X-5.404 Y63.892 E103.7783
G0 F2040 X-5.233 Y63.568
G1 F1020 X-19.873 Y48.927 E104.57066
G1 X-19.935 Y48.865
G0 F2040 X-20.624 Y47.681
G1 F1020 X-5.062 Y63.243 E105.4129
G0 F2040 X-4.891 Y62.919
G1 F1020 X-21.375 Y46.435 E106.30503
G1 X-21.437 Y46.373
G0 F2040 X-22.126 Y45.189
G1 F1020 X-4.72 Y62.595 E107.24707
G0 F2040 X-4.549 Y62.272
G1 F1020 X-22.877 Y43.943 E108.23903
G1 X-22.939 Y43.881
G0 F2040 X-23.629 Y42.697
G1 F1020 X-4.378 Y61.948 E109.28092
G0 F2040 X-4.207 Y61.624
G1 F1020 X-24.38 Y41.451 E110.37271
G1 X-24.442 Y41.389
G0 F2040 X-25.131 Y40.205
G1 F1020 X-4.036 Y61.3 E111.5144
G0 F2040 X-3.865 Y60.976
G1 F1020 X-25.882 Y38.959 E112.70598
G1 X-25.944 Y38.897
G0 F2040 X-26.633 Y37.712
G1 F1020 X-3.693 Y60.652 E113.94753
G0 F2040 X-3.522 Y60.328
G1 F1020 X-27.384 Y36.466 E115.23897
G1 X-27.446 Y36.404
G0 F2040 X-28.135 Y35.22
G1 F1020 X-3.351 Y60.005 E116.58034
G0 F2040 X-3.181 Y59.68
G1 F1020 X-28.886 Y33.975 E117.97152
G1 X-28.948 Y33.913
G0 F2040 X-29.638 Y32.728
G1 F1020 X-3.01 Y59.356 E119.41267
G0 F2040 X-2.839 Y59.032
G1 F1020 X-30.389 Y31.482 E120.90371
G1 X-30.451 Y31.42
G0 F2040 X-31.14 Y30.236
G1 F1020 X-2.667 Y58.708 E122.44468
G0 F2040 X-2.496 Y58.385
G1 F1020 X-31.891 Y28.99 E124.03557
G1 X-31.953 Y28.928
G0 F2040 X-32.642 Y27.744
G1 F1020 X-2.325 Y58.061 E125.67636
G0 F2040 X-2.154 Y57.737
G1 F1020 X-33.393 Y26.498 E127.36706
G1 X-33.455 Y26.436
G0 F2040 X-34.144 Y25.252
G1 F1020 X-1.983 Y57.413 E129.10765
G0 F2040 X-1.812 Y57.089
G1 F1020 X-34.895 Y24.006 E130.89815
G1 X-34.957 Y23.944
G0 F2040 X-35.646 Y22.76
G1 F1020 X-1.641 Y56.765 E132.73854
G0 F2040 X-1.47 Y56.441
G1 F1020 X-36.398 Y21.513 E134.62889
G1 X-36.46 Y21.451
G0 F2040 X-37.149 Y20.267
G1 F1020 X-1.299 Y56.117 E136.56914
G0 F2040 X-1.128 Y55.793
G1 F1020 X-37.9 Y19.021 E138.55928
G1 X-37.962 Y18.959
G0 F2040 X-38.651 Y17.775
G1 F1020 X-.957 Y55.469 E140.59933
G0 F2040 X-.786 Y55.145
G1 F1020 X-39.402 Y16.529 E142.68928
G1 X-39.464 Y16.467
G0 F2040 X-40.153 Y15.283
G1 F1020 X-.615 Y54.821 E144.82913
G0 F2040 X-.444 Y54.498
G1 F1020 X-40.904 Y14.037 E147.0189
G1 X-40.966 Y13.975
G0 F2040 X-41.655 Y12.791
G1 F1020 X-.272 Y54.174 E149.2586
G0 F2040 X-.101 Y53.85
G1 F1020 X-42.406 Y11.545 E151.5482
G1 X-42.468 Y11.483
G0 F2040 X-43.158 Y10.299
G1 F1020 X0.069 Y53.526 E153.8877
G0 F2040 X0.24 Y53.202
G1 F1020 X-43.909 Y9.053 E156.2771
G1 X-43.971 Y8.991
G0 F2040 X-44.66 Y7.807
G1 F1020 X0.411 Y52.878 E158.7164
G0 F2040 X0.582 Y52.555
G1 F1020 X-45.411 Y6.561 E161.20563
G1 X-45.473 Y6.499
G0 F2040 X-46.162 Y5.314
G1 F1020 X0.753 Y52.23 E163.74475
G0 F2040 X0.924 Y51.906
G1 F1020 X-46.913 Y4.068 E166.33378
G1 X-46.975 Y4.006
G0 F2040 X-47.664 Y2.822
G1 F1020 X1.095 Y51.582 E168.97271
G0 F2040 X1.266 Y51.258
G1 F1020 X-48.415 Y1.576 E171.66153
G1 X-48.477 Y1.514
G0 F2040 X-49.167 Y0.33
G1 F1020 X1.437 Y50.935 E174.40031
G0 F2040 X1.608 Y50.611
G1 F1020 X-49.918 Y-.915 E177.18897
G1 X-49.98 Y-.977
G0 F2040 X-50.669 Y-2.161
G1 F1020 X1.779 Y50.287 E180.02752
G0 F2040 X1.95 Y49.963
G1 F1020 X-51.42 Y-3.407 E182.91597
G1 X-51.482 Y-3.469
G0 F2040 X-52.171 Y-4.654
G1 F1020 X2.122 Y49.639 E185.85438
G0 F2040 X2.293 Y49.315
G1 F1020 X-52.922 Y-5.9 E188.84268
G1 X-52.984 Y-5.962
G0 F2040 X-53.673 Y-7.146
G1 F1020 X2.464 Y48.991 E191.88089
G0 F2040 X2.634 Y48.667
G1 F1020 X-54.424 Y-8.391 E194.96894
G1 X-54.486 Y-8.453
G0 F2040 X-55.175 Y-9.637
G1 F1020 X2.805 Y48.343 E198.10689
G0 F2040 X2.976 Y48.019
G1 F1020 X-55.927 Y-10.884 E201.2948
G1 X-55.989 Y-10.946
G0 F2040 X-56.678 Y-12.13
G1 F1020 X3.148 Y47.695 E204.53263
G0 F2040 X3.319 Y47.371
G1 F1020 X-57.429 Y-13.376 E207.82036
G1 X-57.491 Y-13.438
G0 F2040 X-58.18 Y-14.622
G1 F1020 X3.49 Y47.048 E211.15802
G0 F2040 X3.661 Y46.724
G1 F1020 X-58.931 Y-15.868 E214.54558
G1 X-58.993 Y-15.93
G0 F2040 X-59.682 Y-17.114
G1 F1020 X3.832 Y46.4 E217.98304
G0 F2040 X4.003 Y46.076
G1 F1020 X-59.679 Y-17.606 E221.42959
G0 F2040 X-59.184 Y-17.606
G1 F1020 X4.174 Y45.752 E224.85861
G0 F2040 X4.345 Y45.428
G1 F1020 X-58.689 Y-17.606 E228.27009
G0 F2040 X-58.194 Y-17.606
G1 F1020 X4.516 Y45.104 E231.66403
G0 F2040 X4.687 Y44.78
G1 F1020 X-57.699 Y-17.606 E235.04044
G0 F2040 X-57.204 Y-17.606
G1 F1020 X4.858 Y44.456 E238.39932
G0 F2040 X5.029 Y44.132
G1 F1020 X-56.709 Y-17.606 E241.74065
G0 F2040 X-56.214 Y-17.606
G1 F1020 X5.2 Y43.808 E245.06446
G0 F2040 X5.371 Y43.484
G1 F1020 X-55.719 Y-17.606 E248.37073
G0 F2040 X-55.224 Y-17.606
G1 F1020 X5.543 Y43.161 E251.65951
G0 F2040 X5.714 Y42.837
G1 F1020 X-54.729 Y-17.606 E254.93077
G0 F2040 X-54.234 Y-17.606
G1 F1020 X5.885 Y42.513 E258.18448
G0 F2040 X6.056 Y42.189
G1 F1020 X-53.739 Y-17.606 E261.42067
G0 F2040 X-53.244 Y-17.606
G1 F1020 X6.227 Y41.865 E264.63931
G0 F2040 X6.398 Y41.541
G1 F1020 X-52.749 Y-17.606 E267.84042
G0 F2040 X-52.254 Y-17.606
G1 F1020 X6.569 Y41.217 E271.024
G0 F2040 X6.74 Y40.893
G1 F1020 X-51.759 Y-17.606 E274.19004
G0 F2040 X-51.264 Y-17.606
G1 F1020 X6.911 Y40.569 E277.33854
G0 F2040 X7.082 Y40.245
G1 F1020 X-50.769 Y-17.606 E280.46951
G0 F2040 X-50.274 Y-17.606
G1 F1020 X7.253 Y39.921 E283.58295
G0 F2040 X7.424 Y39.597
G1 F1020 X-49.779 Y-17.606 E286.67885
G0 F2040 X-49.284 Y-17.606
G1 F1020 X7.595 Y39.274 E289.75724
G0 F2040 X7.766 Y38.95
G1 F1020 X-48.789 Y-17.606 E292.81809
G0 F2040 X-48.294 Y-17.606
G1 F1020 X7.937 Y38.626 E295.86141
G0 F2040 X8.109 Y38.302
G1 F1020 X-47.799 Y-17.606 E298.88723
G0 F2040 X-47.304 Y-17.606
G1 F1020 X8.28 Y37.978 E301.8955
G0 F2040 X8.45 Y37.654
G1 F1020 X-46.809 Y-17.606 E304.88622
G0 F2040 X-46.314 Y-17.606
G1 F1020 X8.621 Y37.33 E307.8594
G0 F2040 X8.792 Y37.006
G1 F1020 X-45.819 Y-17.606 E310.81504
G0 F2040 X-45.324 Y-17.606
G1 F1020 X8.963 Y36.682 E313.75315
G0 F2040 X9.135 Y36.358
G1 F1020 X-44.829 Y-17.606 E316.67375
G0 F2040 X-44.334 Y-17.606
G1 F1020 X9.306 Y36.034 E319.57682
G0 F2040 X9.477 Y35.711
G1 F1020 X-43.839 Y-17.606 E322.46237
G0 F2040 X-43.344 Y-17.606
G1 F1020 X9.648 Y35.387 E325.33039
G0 F2040 X9.819 Y35.063
G1 F1020 X-42.849 Y-17.606 E328.18088
G0 F2040 X-42.354 Y-17.606
G1 F1020 X9.99 Y34.739 E331.01383
G0 F2040 X10.161 Y34.415
