;FLAVOR:Marlin
;TIME:7964
;Filament used: 7.37446m
;Layer height: 0.2
;MINX:-66.945
;MINY:-75.737
;MINZ:0.26
;MAXX:42.16
;MAXY:25.045
;MAXZ:22.66
;Generated with Cura_SteamEngine 4.8.0
M82 ;absolute extrusion mode
;Gcode by Cura
G90
G28
M107
M109 R100
G30
M109 S215 U-55 X55 V-85 Y-85 W0.26 Z0.26
M82
G92 E0
G1 F200 E6
G92 E0
G1 F200 E-3.5
G0 Z0.15
G0 X10
G0 Z3
G1 F6000
G92 E0
G92 E0
G1 F3600 E-3.8
;LAYER_COUNT:113
;LAYER:0
M107
G0 F2040 X36.744 Y25.045 Z0.26
;TYPE:SKIRT
G1 F3600 E0
G1 F1020 X-61.747 Y25.045 E3.7692
G1 X-62.432 Y25.036 E3.79542
G1 X-63.035 Y24.988 E3.81857
G1 X-63.626 Y24.861 E3.8417
G1 X-64.195 Y24.657 E3.86484
G1 X-64.733 Y24.38 E3.88799
G1 X-65.229 Y24.034 E3.91114
G1 X-65.675 Y23.626 E3.93427
G1 X-66.064 Y23.163 E3.95741
G1 X-66.388 Y22.653 E3.98054
G1 X-66.642 Y22.104 E4.00369
G1 X-66.821 Y21.527 E4.0268
G1 X-66.923 Y20.93 E4.04998
G1 X-66.945 Y20.326 E4.07311
G1 X-66.887 Y19.724 E4.09626
G1 X-66.751 Y19.135 E4.11939
G1 X-66.424 Y18.337 E4.1524
G1 X-65.963 Y17.459 E4.19035
G1 X-16.724 Y-72.797 E8.12497
G1 X-16.379 Y-73.409 E8.15186
G1 X-16.048 Y-73.915 E8.175
G1 X-15.653 Y-74.372 E8.19811
G1 X-15.202 Y-74.774 E8.22123
G1 X-14.701 Y-75.113 E8.24438
G1 X-14.159 Y-75.383 E8.26756
G1 X-13.587 Y-75.579 E8.2907
G1 X-12.995 Y-75.697 E8.3138
G1 X-12.391 Y-75.737 E8.33696
G1 X-11.788 Y-75.697 E8.36009
G1 X-11.195 Y-75.577 E8.38324
G1 X-10.623 Y-75.381 E8.40638
G1 X-10.083 Y-75.11 E8.42951
G1 X-9.582 Y-74.771 E8.45266
G1 X-9.131 Y-74.369 E8.47578
G1 X-8.736 Y-73.91 E8.49895
G1 X-8.455 Y-73.489 E8.51832
G1 X-8.151 Y-72.956 E8.5418
G1 X41.29 Y17.67 E12.49256
G1 X41.631 Y18.313 E12.52041
G1 X41.878 Y18.864 E12.54352
G1 X42.051 Y19.444 E12.56669
G1 X42.145 Y20.041 E12.58981
G1 X42.16 Y20.645 E12.61294
G1 X42.095 Y21.247 E12.63611
G1 X41.952 Y21.834 E12.65923
G1 X41.732 Y22.397 E12.68236
G1 X41.44 Y22.927 E12.70552
G1 X41.08 Y23.413 E12.72866
G1 X40.66 Y23.847 E12.75178
G1 X40.186 Y24.223 E12.77493
G1 X39.666 Y24.532 E12.79808
G1 X39.111 Y24.771 E12.82121
G1 X38.528 Y24.934 E12.84437
G1 X37.665 Y25.03 E12.8776
G1 X36.744 Y25.045 E12.91285
G0 F2040 X36.744 Y24.695
G1 F1020 X-61.743 Y24.695 E16.6819
G1 X-62.428 Y24.686 E16.70812
G1 X-63.007 Y24.638 E16.73035
G1 X-63.574 Y24.512 E16.75258
G1 X-64.118 Y24.308 E16.77482
G1 X-64.629 Y24.032 E16.79704
G1 X-65.098 Y23.689 E16.81928
G1 X-65.515 Y23.284 E16.84153
G1 X-65.873 Y22.826 E16.86377
G1 X-66.164 Y22.324 E16.88598
G1 X-66.384 Y21.786 E16.90822
G1 X-66.528 Y21.223 E16.93046
G1 X-66.593 Y20.646 E16.95268
G1 X-66.578 Y20.065 E16.97492
G1 X-66.484 Y19.491 E16.99718
G1 X-66.312 Y18.936 E17.01942
G1 X-66.114 Y18.5 E17.03775
G1 X-65.656 Y17.627 E17.07547
G1 X-16.419 Y-72.625 E21.00993
G1 X-16.074 Y-73.237 E21.03681
G1 X-15.755 Y-73.722 E21.05903
G1 X-15.372 Y-74.159 E21.08127
G1 X-14.933 Y-74.539 E21.10349
G1 X-14.445 Y-74.856 E21.12576
G1 X-13.919 Y-75.102 E21.14798
G1 X-13.364 Y-75.274 E21.17021
G1 X-12.791 Y-75.368 E21.19244
G1 X-12.21 Y-75.383 E21.21468
G1 X-11.633 Y-75.318 E21.2369
G1 X-11.07 Y-75.174 E21.25914
G1 X-10.532 Y-74.954 E21.28138
G1 X-10.029 Y-74.663 E21.30362
G1 X-9.571 Y-74.305 E21.32587
G1 X-9.166 Y-73.888 E21.34811
G1 X-8.757 Y-73.311 E21.37518
G1 X-8.456 Y-72.785 E21.39837
G1 X40.981 Y17.834 E25.34882
G1 X41.322 Y18.477 E25.37668
G1 X41.558 Y19.007 E25.39888
G1 X41.719 Y19.566 E25.42114
G1 X41.802 Y20.141 E25.44337
G1 X41.806 Y20.722 E25.46561
G1 X41.729 Y21.298 E25.48785
G1 X41.575 Y21.858 E25.51008
G1 X41.345 Y22.391 E25.53229
G1 X41.044 Y22.888 E25.55453
G1 X40.677 Y23.339 E25.57678
G1 X40.253 Y23.736 E25.59901
G1 X39.777 Y24.07 E25.62126
G1 X39.261 Y24.336 E25.64348
G1 X38.713 Y24.529 E25.66571
G1 X38.143 Y24.644 E25.68797
G1 X37.659 Y24.68 E25.70654
G1 X36.744 Y24.695 E25.74156
G0 F2040 X36.744 Y24.345
G1 F1020 X-61.738 Y24.345 E29.51042
G1 X-62.423 Y24.336 E29.53664
G1 X-62.977 Y24.288 E29.55792
G1 X-63.519 Y24.162 E29.57921
G1 X-64.038 Y23.96 E29.60053
G1 X-64.521 Y23.685 E29.6218
G1 X-64.961 Y23.344 E29.6431
G1 X-65.347 Y22.944 E29.66437
G1 X-65.672 Y22.492 E29.68568
G1 X-65.929 Y21.998 E29.70699
G1 X-66.113 Y21.473 E29.72828
G1 X-66.219 Y20.927 E29.74956
G1 X-66.246 Y20.371 E29.77087
G1 X-66.193 Y19.817 E29.79216
G1 X-66.062 Y19.277 E29.81343
G1 X-65.804 Y18.662 E29.83895
G1 X-65.349 Y17.794 E29.87646
G1 X-16.115 Y-72.453 E33.81069
G1 X-15.77 Y-73.065 E33.83757
G1 X-15.462 Y-73.529 E33.85889
G1 X-15.092 Y-73.944 E33.88016
G1 X-14.665 Y-74.301 E33.90146
G1 X-14.192 Y-74.594 E33.92276
G1 X-13.682 Y-74.817 E33.94406
G1 X-13.146 Y-74.963 E33.96532
G1 X-12.593 Y-75.032 E33.98665
G1 X-12.037 Y-75.021 E34.00793
G1 X-11.488 Y-74.93 E34.02922
G1 X-10.958 Y-74.761 E34.05051
G1 X-10.457 Y-74.518 E34.07182
G1 X-9.996 Y-74.206 E34.09313
G1 X-9.585 Y-73.832 E34.11439
G1 X-9.232 Y-73.402 E34.13568
G1 X-8.938 Y-72.928 E34.15703
G1 X-8.737 Y-72.571 E34.17271
G1 X40.671 Y17.997 E38.12091
G1 X41.012 Y18.64 E38.14876
G1 X41.237 Y19.15 E38.1701
G1 X41.387 Y19.685 E38.19136
G1 X41.458 Y20.237 E38.21266
G1 X41.449 Y20.794 E38.23398
G1 X41.361 Y21.343 E38.25526
G1 X41.195 Y21.874 E38.27655
G1 X40.955 Y22.376 E38.29784
G1 X40.645 Y22.838 E38.31913
G1 X40.273 Y23.251 E38.3404
G1 X39.844 Y23.607 E38.36174
G1 X39.37 Y23.897 E38.383
G1 X38.859 Y24.117 E38.4043
G1 X38.321 Y24.261 E38.42561
G1 X37.653 Y24.33 E38.45131
G1 X36.744 Y24.345 E38.4861
G0 F2040 X36.802 Y23.995
G1 F1020 X-61.733 Y23.995 E42.25699
G1 X-62.418 Y23.986 E42.28321
G1 X-62.947 Y23.939 E42.30353
G1 X-63.462 Y23.813 E42.32382
G1 X-63.953 Y23.611 E42.34414
G1 X-64.408 Y23.338 E42.36444
G1 X-64.817 Y23 E42.38475
G1 X-65.171 Y22.604 E42.40508
G1 X-65.461 Y22.16 E42.42537
G1 X-65.681 Y21.677 E42.44568
G1 X-65.826 Y21.166 E42.46601
G1 X-65.892 Y20.64 E42.4863
G1 X-65.879 Y20.11 E42.50659
G1 X-65.787 Y19.587 E42.52691
G1 X-65.617 Y19.084 E42.54723
G1 X-65.494 Y18.825 E42.5582
G1 X-65.041 Y17.962 E42.5955
G1 X-15.81 Y-72.281 E46.52954
G1 X-15.465 Y-72.893 E46.55643
G1 X-15.17 Y-73.334 E46.57673
G1 X-14.812 Y-73.726 E46.59705
G1 X-14.4 Y-74.06 E46.61735
G1 X-13.942 Y-74.329 E46.63768
G1 X-13.449 Y-74.525 E46.65798
G1 X-12.933 Y-74.646 E46.67826
G1 X-12.403 Y-74.687 E46.6986
G1 X-11.874 Y-74.648 E46.7189
G1 X-11.357 Y-74.531 E46.73919
G1 X-10.863 Y-74.337 E46.7595
G1 X-10.403 Y-74.071 E46.77984
G1 X-9.989 Y-73.739 E46.80014
G1 X-9.63 Y-73.349 E46.82043
G1 X-9.281 Y-72.823 E46.84459
G1 X-9.045 Y-72.403 E46.86302
G1 X40.362 Y18.161 E50.81108
G1 X40.703 Y18.804 E50.83893
G1 X40.916 Y19.291 E50.85927
G1 X41.053 Y19.803 E50.87955
G1 X41.112 Y20.331 E50.89989
G1 X41.091 Y20.861 E50.92019
G1 X40.99 Y21.382 E50.9405
G1 X40.813 Y21.882 E50.96079
G1 X40.562 Y22.35 E50.98112
G1 X40.244 Y22.775 E51.00143
G1 X39.866 Y23.147 E51.02173
G1 X39.436 Y23.458 E51.04204
G1 X38.965 Y23.702 E51.06234
G1 X38.462 Y23.871 E51.08264
G1 X37.939 Y23.964 E51.10297
G1 X37.647 Y23.981 E51.11417
G1 X36.802 Y23.995 E51.14651
G0 F2040 X36.797 Y23.645
G1 F1020 X-61.729 Y23.645 E54.91705
G1 X-62.414 Y23.636 E54.94327
G1 X-62.915 Y23.589 E54.96252
G1 X-63.403 Y23.464 E54.9818
G1 X-63.865 Y23.263 E55.00108
G1 X-64.289 Y22.992 E55.02034
G1 X-64.665 Y22.657 E55.03961
G1 X-64.983 Y22.267 E55.05887
G1 X-65.236 Y21.831 E55.07816
G1 X-65.417 Y21.361 E55.09744
G1 X-65.521 Y20.868 E55.11672
G1 X-65.546 Y20.365 E55.13599
G1 X-65.491 Y19.865 E55.15524
G1 X-65.357 Y19.379 E55.17454
G1 X-65.184 Y18.987 E55.19093
G1 X-64.734 Y18.129 E55.22801
G1 X-15.505 Y-72.109 E59.16185
G1 X-15.16 Y-72.721 E59.18873
G1 X-14.878 Y-73.139 E59.20803
G1 X-14.535 Y-73.507 E59.22728
G1 X-14.137 Y-73.816 E59.24657
G1 X-13.696 Y-74.058 E59.26582
G1 X-13.221 Y-74.227 E59.28511
G1 X-12.726 Y-74.32 E59.30439
G1 X-12.223 Y-74.332 E59.32364
G1 X-11.724 Y-74.265 E59.34291
G1 X-11.241 Y-74.12 E59.36221
G1 X-10.788 Y-73.901 E59.38146
G1 X-10.375 Y-73.613 E59.40073
G1 X-10.013 Y-73.263 E59.42
G1 X-9.661 Y-72.777 E59.44297
G1 X-9.371 Y-72.27 E59.46532
G1 X40.053 Y18.325 E63.41472
G1 X40.394 Y18.968 E63.44258
G1 X40.594 Y19.431 E63.46188
G1 X40.718 Y19.919 E63.48115
G1 X40.764 Y20.42 E63.5004
G1 X40.73 Y20.923 E63.51969
G1 X40.616 Y21.413 E63.53895
G1 X40.427 Y21.88 E63.55823
G1 X40.166 Y22.311 E63.57751
G1 X39.84 Y22.695 E63.59679
G1 X39.458 Y23.023 E63.61606
G1 X39.029 Y23.286 E63.63531
G1 X38.563 Y23.478 E63.6546
G1 X38.073 Y23.594 E63.67387
G1 X37.642 Y23.631 E63.69043
G1 X36.797 Y23.645 E63.72277
G1 F3600 E59.92277
;MESH:support_tri_0_038.stl
G0 F2040 X36.797 Y21.135
G0 X36.797 Y20.1
G0 X36.722 Y19.945
;TYPE:WALL-INNER
G1 F3600 E63.72277
G1 F1020 X-61.51 Y19.945 E67.48206
G1 X-12.394 Y-70.085 E71.40684
G1 X36.722 Y19.945 E75.33162
G0 F2040 X37.269 Y20.27
;TYPE:WALL-OUTER
G1 F1020 X-62.057 Y20.27 E79.13277
G1 X-12.394 Y-70.763 E83.10127
G1 X37.269 Y20.27 E87.06977
G0 F2040 X37.069 Y20.27
G0 X36.932 Y20.069
G0 X36.149 Y19.605
;TYPE:SKIN
G1 F1020 X-60.937 Y19.605 E90.78521
G1 X-12.394 Y-69.374 E94.66418
G1 X36.149 Y19.605 E98.54314
G0 F2040 X-60.52 Y19.17
G1 F1020 X-60.243 Y19.447 E98.55813
G0 F2040 X-59.748 Y19.447
G1 F1020 X-60.345 Y18.85 E98.59044
G0 F2040 X-60.17 Y18.53
G1 F1020 X-59.253 Y19.447 E98.64007
G0 F2040 X-58.758 Y19.447
G1 F1020 X-59.995 Y18.21 E98.70702
G0 F2040 X-59.821 Y17.889
G1 F1020 X-58.263 Y19.447 E98.79134
G0 F2040 X-57.768 Y19.447
G1 F1020 X-59.646 Y17.569 E98.89298
G0 F2040 X-59.471 Y17.249
G1 F1020 X-57.273 Y19.447 E99.01194
G0 F2040 X-56.778 Y19.447
G1 F1020 X-59.297 Y16.928 E99.14827
G0 F2040 X-59.122 Y16.608
G1 F1020 X-56.283 Y19.447 E99.30192
G0 F2040 X-55.788 Y19.447
G1 F1020 X-58.947 Y16.288 E99.47289
G0 F2040 X-58.773 Y15.967
G1 F1020 X-55.293 Y19.447 E99.66123
G0 F2040 X-54.798 Y19.447
G1 F1020 X-58.598 Y15.647 E99.86689
G0 F2040 X-58.423 Y15.327
G1 F1020 X-54.303 Y19.447 E100.08987
G0 F2040 X-53.808 Y19.447
G1 F1020 X-58.248 Y15.007 E100.33017
G0 F2040 X-58.073 Y14.687
G1 F1020 X-53.313 Y19.447 E100.58779
G0 F2040 X-52.818 Y19.447
G1 F1020 X-57.899 Y14.366 E100.86278
G0 F2040 X-57.724 Y14.046
G1 F1020 X-52.323 Y19.447 E101.15509
G0 F2040 X-51.828 Y19.447
G1 F1020 X-57.55 Y13.726 E101.46474
G0 F2040 X-57.375 Y13.406
G1 F1020 X-51.333 Y19.447 E101.79172
G0 F2040 X-50.838 Y19.447
G1 F1020 X-57.2 Y13.085 E102.13604
G0 F2040 X-57.026 Y12.765
G1 F1020 X-50.343 Y19.447 E102.4977
G0 F2040 X-49.848 Y19.447
G1 F1020 X-56.851 Y12.445 E102.87669
G0 F2040 X-56.676 Y12.124
G1 F1020 X-49.353 Y19.447 E103.27302
G0 F2040 X-48.858 Y19.447
G1 F1020 X-56.502 Y11.804 E103.68669
G0 F2040 X-56.327 Y11.484
G1 F1020 X-48.363 Y19.447 E104.11769
G0 F2040 X-47.869 Y19.447
G1 F1020 X-56.152 Y11.164 E104.56597
G0 F2040 X-55.977 Y10.844
G1 F1020 X-47.374 Y19.447 E105.03158
G0 F2040 X-46.879 Y19.447
G1 F1020 X-55.802 Y10.523 E105.51453
G0 F2040 X-55.628 Y10.203
G1 F1020 X-46.384 Y19.447 E106.01483
G0 F2040 X-45.889 Y19.447
G1 F1020 X-55.453 Y9.883 E106.53244
G0 F2040 X-55.278 Y9.562
G1 F1020 X-45.394 Y19.447 E107.06741
G0 F2040 X-44.899 Y19.447
G1 F1020 X-55.104 Y9.242 E107.61971
G0 F2040 X-54.929 Y8.922
G1 F1020 X-44.404 Y19.447 E108.18934
G0 F2040 X-43.909 Y19.447
G1 F1020 X-54.754 Y8.601 E108.77631
G0 F2040 X-54.58 Y8.281
G1 F1020 X-43.414 Y19.447 E109.38063
G0 F2040 X-42.919 Y19.447
G1 F1020 X-54.405 Y7.961 E110.00227
G0 F2040 X-54.23 Y7.64
G1 F1020 X-42.424 Y19.447 E110.64125
G0 F2040 X-41.929 Y19.447
G1 F1020 X-54.055 Y7.321 E111.29752
G0 F2040 X-53.88 Y7.001
G1 F1020 X-41.434 Y19.447 E111.97112
G0 F2040 X-40.939 Y19.447
G1 F1020 X-53.706 Y6.68 E112.66208
G0 F2040 X-53.531 Y6.36
G1 F1020 X-40.444 Y19.447 E113.37037
G0 F2040 X-39.949 Y19.447
G1 F1020 X-53.356 Y6.04 E114.09597
G0 F2040 X-53.182 Y5.719
G1 F1020 X-39.454 Y19.447 E114.83895
G0 F2040 X-38.959 Y19.447
G1 F1020 X-53.007 Y5.399 E115.59925
G0 F2040 X-52.832 Y5.079
G1 F1020 X-38.464 Y19.447 E116.37686
G0 F2040 X-37.969 Y19.447
G1 F1020 X-52.658 Y4.758 E117.17185
G0 F2040 X-52.483 Y4.438
G1 F1020 X-37.474 Y19.447 E117.98415
G0 F2040 X-36.979 Y19.447
G1 F1020 X-52.308 Y4.118 E118.81378
G0 F2040 X-52.134 Y3.797
G1 F1020 X-36.484 Y19.447 E119.66078
G0 F2040 X-35.989 Y19.447
G1 F1020 X-51.958 Y3.478 E120.52504
G0 F2040 X-51.784 Y3.157
G1 F1020 X-35.494 Y19.447 E121.40667
G0 F2040 X-34.999 Y19.447
G1 F1020 X-51.609 Y2.837 E122.30563
G0 F2040 X-51.434 Y2.517
G1 F1020 X-34.504 Y19.447 E123.2219
G0 F2040 X-34.009 Y19.447
G1 F1020 X-51.26 Y2.196 E124.15555
G0 F2040 X-51.085 Y1.876
G1 F1020 X-33.514 Y19.447 E125.10651
G0 F2040 X-33.019 Y19.447
G1 F1020 X-50.91 Y1.556 E126.0748
G0 F2040 X-50.736 Y1.236
G1 F1020 X-32.524 Y19.447 E127.06043
G0 F2040 X-32.029 Y19.447
G1 F1020 X-50.561 Y0.915 E128.0634
G0 F2040 X-50.387 Y0.595
G1 F1020 X-31.534 Y19.447 E129.08372
G0 F2040 X-31.039 Y19.447
G1 F1020 X-50.212 Y0.275 E130.12136
G0 F2040 X-50.036 Y-0.044
G1 F1020 X-30.544 Y19.447 E131.17627
G0 F2040 X-30.049 Y19.447
G1 F1020 X-49.862 Y-.364 E132.24852
G0 F2040 X-49.687 Y-.685
G1 F1020 X-29.554 Y19.447 E133.33812
G0 F2040 X-29.059 Y19.447
G1 F1020 X-49.513 Y-1.005 E134.44506
G0 F2040 X-49.338 Y-1.325
G1 F1020 X-28.564 Y19.447 E135.56932
G0 F2040 X-28.07 Y19.447
G1 F1020 X-49.163 Y-1.646 E136.7109
G0 F2040 X-48.989 Y-1.966
G1 F1020 X-27.575 Y19.447 E137.86983
G0 F2040 X-27.08 Y19.447
G1 F1020 X-48.814 Y-2.286 E139.04607
G0 F2040 X-48.639 Y-2.607
G1 F1020 X-26.585 Y19.447 E140.23966
G0 F2040 X-26.09 Y19.447
G1 F1020 X-48.465 Y-2.927 E141.4506
G0 F2040 X-48.29 Y-3.247
G1 F1020 X-25.595 Y19.447 E142.67885
G0 F2040 X-25.1 Y19.447
G1 F1020 X-48.115 Y-3.568 E143.92445
G0 F2040 X-47.94 Y-3.887
G1 F1020 X-24.605 Y19.447 E145.18735
G0 F2040 X-24.11 Y19.447
G1 F1020 X-47.765 Y-4.207 E146.46756
G0 F2040 X-47.591 Y-4.528
G1 F1020 X-23.615 Y19.447 E147.76514
G0 F2040 X-23.12 Y19.447
G1 F1020 X-47.416 Y-4.848 E149.08005
G0 F2040 X-47.241 Y-5.168
G1 F1020 X-22.625 Y19.447 E150.41227
G0 F2040 X-22.13 Y19.447
G1 F1020 X-47.067 Y-5.489 E151.76186
G0 F2040 X-46.892 Y-5.809
G1 F1020 X-21.635 Y19.447 E153.12878
G0 F2040 X-21.14 Y19.447
G1 F1020 X-46.717 Y-6.129 E154.51301
G0 F2040 X-46.543 Y-6.45
G1 F1020 X-20.645 Y19.447 E155.91462
G0 F2040 X-20.15 Y19.447
G1 F1020 X-46.368 Y-6.77 E157.33354
G0 F2040 X-46.193 Y-7.09
G1 F1020 X-19.655 Y19.447 E158.76978
G0 F2040 X-19.16 Y19.447
G1 F1020 X-46.019 Y-7.411 E160.2234
G0 F2040 X-45.843 Y-7.73
G1 F1020 X-18.665 Y19.447 E161.69428
G0 F2040 X-18.17 Y19.447
G1 F1020 X-45.669 Y-8.051 E163.18253
G0 F2040 X-45.494 Y-8.371
G1 F1020 X-17.675 Y19.447 E164.68811
G0 F2040 X-17.18 Y19.447
G1 F1020 X-45.319 Y-8.691 E166.211
G0 F2040 X-45.145 Y-9.012
G1 F1020 X-16.685 Y19.447 E167.75126
G0 F2040 X-16.19 Y19.447
G1 F1020 X-44.97 Y-9.332 E169.30885
G0 F2040 X-44.795 Y-9.652
G1 F1020 X-15.695 Y19.447 E170.88375
G0 F2040 X-15.2 Y19.447
G1 F1020 X-44.621 Y-9.973 E172.47602
G0 F2040 X-44.446 Y-10.293
G1 F1020 X-14.705 Y19.447 E174.08562
G0 F2040 X-14.21 Y19.447
G1 F1020 X-44.271 Y-10.613 E175.71253
G0 F2040 X-44.097 Y-10.933
G1 F1020 X-13.715 Y19.447 E177.35679
G0 F2040 X-13.22 Y19.447
G1 F1020 X-43.922 Y-11.254 E179.01839
G0 F2040 X-43.747 Y-11.573
G1 F1020 X-12.725 Y19.447 E180.69729
G0 F2040 X-12.23 Y19.447
G1 F1020 X-43.572 Y-11.894 E182.39353
G0 F2040 X-43.397 Y-12.214
G1 F1020 X-11.735 Y19.447 E184.10709
G0 F2040 X-11.24 Y19.447
G1 F1020 X-43.223 Y-12.534 E185.838
G0 F2040 X-43.048 Y-12.855
G1 F1020 X-10.745 Y19.447 E187.58625
G0 F2040 X-10.25 Y19.447
G1 F1020 X-42.874 Y-13.175 E189.35185
G0 F2040 X-42.699 Y-13.495
G1 F1020 X-9.755 Y19.447 E191.13477
G0 F2040 X-9.26 Y19.447
G1 F1020 X-42.524 Y-13.816 E192.93503
G0 F2040 X-42.35 Y-14.136
G1 F1020 X-8.766 Y19.447 E194.75261
G0 F2040 X-8.271 Y19.447
G1 F1020 X-42.175 Y-14.456 E196.58751
G0 F2040 X-42 Y-14.777
G1 F1020 X-7.776 Y19.447 E198.43976
G0 F2040 X-7.281 Y19.447
G1 F1020 X-41.825 Y-15.096 E200.3093
G0 F2040 X-41.65 Y-15.417
G1 F1020 X-6.786 Y19.447 E202.19618
G0 F2040 X-6.291 Y19.447
G1 F1020 X-41.476 Y-15.737 E204.10041
G0 F2040 X-41.301 Y-16.057
G1 F1020 X-5.796 Y19.447 E206.02196
G0 F2040 X-5.301 Y19.447
G1 F1020 X-41.126 Y-16.378 E207.96085
G0 F2040 X-40.952 Y-16.698
G1 F1020 X-4.806 Y19.447 E209.91709
G0 F2040 X-4.311 Y19.447
G1 F1020 X-40.777 Y-17.018 E211.89065
G0 F2040 X-40.602 Y-17.338
G1 F1020 X-3.816 Y19.447 E213.88153
G0 F2040 X-3.321 Y19.447
