;FLAVOR:Marlin
;TIME:7420
;Filament used: 7.05118m
;Layer height: 0.2
;MINX:-67.051
;MINY:-75.795
;MINZ:0.26
;MAXX:42.054
;MAXY:24.987
;MAXZ:13.06
;Generated with Cura_SteamEngine 4.8.0
M82 ;absolute extrusion mode
;Gcode by Cura
G90
G28
M107
M109 R100
G30
M109 S215 U-55 X55 V-85 Y-85 W0.26 Z0.26
M82
G92 E0
G1 F200 E6
G92 E0
G1 F200 E-3.5
G0 Z0.15
G0 X10
G0 Z3
G1 F6000
G92 E0
G92 E0
G1 F3600 E-3.8
;LAYER_COUNT:65
;LAYER:0
M107
G0 F2040 X36.638 Y24.987 Z0.26
;TYPE:SKIRT
G1 F3600 E0
G1 F1020 X-61.853 Y24.987 E3.7692
G1 X-62.538 Y24.978 E3.79542
G1 X-63.141 Y24.93 E3.81857
G1 X-63.732 Y24.803 E3.8417
G1 X-64.301 Y24.599 E3.86484
G1 X-64.839 Y24.322 E3.88799
G1 X-65.335 Y23.976 E3.91114
G1 X-65.781 Y23.568 E3.93427
G1 X-66.17 Y23.105 E3.95741
G1 X-66.494 Y22.595 E3.98054
G1 X-66.748 Y22.046 E4.00369
G1 X-66.927 Y21.469 E4.0268
G1 X-67.029 Y20.872 E4.04998
G1 X-67.051 Y20.268 E4.07311
G1 X-66.993 Y19.666 E4.09626
G1 X-66.857 Y19.077 E4.11939
G1 X-66.53 Y18.279 E4.1524
G1 X-66.069 Y17.401 E4.19035
G1 X-16.83 Y-72.855 E8.12497
G1 X-16.485 Y-73.467 E8.15186
G1 X-16.154 Y-73.973 E8.175
G1 X-15.759 Y-74.43 E8.19811
G1 X-15.308 Y-74.832 E8.22123
G1 X-14.807 Y-75.171 E8.24438
G1 X-14.265 Y-75.441 E8.26756
G1 X-13.693 Y-75.637 E8.2907
G1 X-13.101 Y-75.755 E8.3138
G1 X-12.497 Y-75.795 E8.33696
G1 X-11.894 Y-75.755 E8.36009
G1 X-11.301 Y-75.635 E8.38324
G1 X-10.729 Y-75.439 E8.40638
G1 X-10.189 Y-75.168 E8.42951
G1 X-9.688 Y-74.829 E8.45266
G1 X-9.237 Y-74.427 E8.47578
G1 X-8.842 Y-73.968 E8.49895
G1 X-8.561 Y-73.547 E8.51832
G1 X-8.257 Y-73.014 E8.5418
G1 X41.184 Y17.612 E12.49256
G1 X41.525 Y18.255 E12.52041
G1 X41.772 Y18.806 E12.54352
G1 X41.945 Y19.386 E12.56669
G1 X42.039 Y19.983 E12.58981
G1 X42.054 Y20.587 E12.61294
G1 X41.989 Y21.189 E12.63611
G1 X41.846 Y21.776 E12.65923
G1 X41.626 Y22.339 E12.68236
G1 X41.334 Y22.869 E12.70552
G1 X40.974 Y23.355 E12.72866
G1 X40.554 Y23.789 E12.75178
G1 X40.08 Y24.165 E12.77493
G1 X39.56 Y24.474 E12.79808
G1 X39.005 Y24.713 E12.82121
G1 X38.422 Y24.876 E12.84437
G1 X37.559 Y24.972 E12.8776
G1 X36.638 Y24.987 E12.91285
G0 F2040 X36.638 Y24.637
G1 F1020 X-61.849 Y24.637 E16.6819
G1 X-62.534 Y24.628 E16.70812
G1 X-63.113 Y24.58 E16.73035
G1 X-63.68 Y24.454 E16.75258
G1 X-64.224 Y24.25 E16.77482
G1 X-64.735 Y23.974 E16.79704
G1 X-65.204 Y23.631 E16.81928
G1 X-65.621 Y23.226 E16.84153
G1 X-65.979 Y22.768 E16.86377
G1 X-66.27 Y22.266 E16.88598
G1 X-66.49 Y21.728 E16.90822
G1 X-66.634 Y21.165 E16.93046
G1 X-66.699 Y20.588 E16.95268
G1 X-66.684 Y20.007 E16.97492
G1 X-66.59 Y19.433 E16.99718
G1 X-66.418 Y18.878 E17.01942
G1 X-66.22 Y18.442 E17.03775
G1 X-65.762 Y17.569 E17.07547
G1 X-16.525 Y-72.683 E21.00993
G1 X-16.18 Y-73.295 E21.03681
G1 X-15.861 Y-73.78 E21.05903
G1 X-15.478 Y-74.217 E21.08127
G1 X-15.039 Y-74.597 E21.10349
G1 X-14.551 Y-74.914 E21.12576
G1 X-14.025 Y-75.16 E21.14798
G1 X-13.47 Y-75.332 E21.17021
G1 X-12.897 Y-75.426 E21.19244
G1 X-12.316 Y-75.441 E21.21468
G1 X-11.739 Y-75.376 E21.2369
G1 X-11.176 Y-75.232 E21.25914
G1 X-10.638 Y-75.012 E21.28138
G1 X-10.135 Y-74.721 E21.30362
G1 X-9.677 Y-74.363 E21.32587
G1 X-9.272 Y-73.946 E21.34811
G1 X-8.863 Y-73.369 E21.37518
G1 X-8.562 Y-72.843 E21.39837
G1 X40.875 Y17.776 E25.34882
G1 X41.216 Y18.419 E25.37668
G1 X41.452 Y18.949 E25.39888
G1 X41.613 Y19.508 E25.42114
G1 X41.696 Y20.083 E25.44337
G1 X41.7 Y20.664 E25.46561
G1 X41.623 Y21.24 E25.48785
G1 X41.469 Y21.8 E25.51008
G1 X41.239 Y22.333 E25.53229
G1 X40.938 Y22.83 E25.55453
G1 X40.571 Y23.281 E25.57678
G1 X40.147 Y23.678 E25.59901
G1 X39.671 Y24.012 E25.62126
G1 X39.155 Y24.278 E25.64348
G1 X38.607 Y24.471 E25.66571
G1 X38.037 Y24.586 E25.68797
G1 X37.553 Y24.622 E25.70654
G1 X36.638 Y24.637 E25.74156
G0 F2040 X36.638 Y24.287
G1 F1020 X-61.844 Y24.287 E29.51042
G1 X-62.529 Y24.278 E29.53664
G1 X-63.083 Y24.23 E29.55792
G1 X-63.625 Y24.104 E29.57921
G1 X-64.144 Y23.902 E29.60053
G1 X-64.627 Y23.627 E29.6218
G1 X-65.067 Y23.286 E29.6431
G1 X-65.453 Y22.886 E29.66437
G1 X-65.778 Y22.434 E29.68568
G1 X-66.035 Y21.94 E29.70699
G1 X-66.219 Y21.415 E29.72828
G1 X-66.325 Y20.869 E29.74956
G1 X-66.352 Y20.313 E29.77087
G1 X-66.299 Y19.759 E29.79216
G1 X-66.168 Y19.219 E29.81343
G1 X-65.91 Y18.604 E29.83895
G1 X-65.455 Y17.736 E29.87646
G1 X-16.221 Y-72.511 E33.81069
G1 X-15.876 Y-73.123 E33.83757
G1 X-15.568 Y-73.587 E33.85889
G1 X-15.198 Y-74.002 E33.88016
G1 X-14.771 Y-74.359 E33.90146
G1 X-14.298 Y-74.652 E33.92276
G1 X-13.788 Y-74.875 E33.94406
G1 X-13.252 Y-75.021 E33.96532
G1 X-12.699 Y-75.09 E33.98665
G1 X-12.143 Y-75.079 E34.00793
G1 X-11.594 Y-74.988 E34.02922
G1 X-11.064 Y-74.819 E34.05051
G1 X-10.563 Y-74.576 E34.07182
G1 X-10.102 Y-74.264 E34.09313
G1 X-9.691 Y-73.89 E34.11439
G1 X-9.338 Y-73.46 E34.13568
G1 X-9.044 Y-72.986 E34.15703
G1 X-8.843 Y-72.629 E34.17271
G1 X40.565 Y17.939 E38.12091
G1 X40.906 Y18.582 E38.14876
G1 X41.131 Y19.092 E38.1701
G1 X41.281 Y19.627 E38.19136
G1 X41.352 Y20.179 E38.21266
G1 X41.343 Y20.736 E38.23398
G1 X41.255 Y21.285 E38.25526
G1 X41.089 Y21.816 E38.27655
G1 X40.849 Y22.318 E38.29784
G1 X40.539 Y22.78 E38.31913
G1 X40.167 Y23.193 E38.3404
G1 X39.738 Y23.549 E38.36174
G1 X39.264 Y23.839 E38.383
G1 X38.753 Y24.059 E38.4043
G1 X38.215 Y24.203 E38.42561
G1 X37.547 Y24.272 E38.45131
G1 X36.638 Y24.287 E38.4861
G0 F2040 X36.696 Y23.937
G1 F1020 X-61.839 Y23.937 E42.25699
G1 X-62.524 Y23.928 E42.28321
G1 X-63.053 Y23.881 E42.30353
G1 X-63.568 Y23.755 E42.32382
G1 X-64.059 Y23.553 E42.34414
G1 X-64.514 Y23.28 E42.36444
G1 X-64.923 Y22.942 E42.38475
G1 X-65.277 Y22.546 E42.40508
G1 X-65.567 Y22.102 E42.42537
G1 X-65.787 Y21.619 E42.44568
G1 X-65.932 Y21.108 E42.46601
G1 X-65.998 Y20.582 E42.4863
G1 X-65.985 Y20.052 E42.50659
G1 X-65.893 Y19.529 E42.52691
G1 X-65.723 Y19.026 E42.54723
G1 X-65.6 Y18.767 E42.5582
G1 X-65.147 Y17.904 E42.5955
G1 X-15.916 Y-72.339 E46.52954
G1 X-15.571 Y-72.951 E46.55643
G1 X-15.276 Y-73.392 E46.57673
G1 X-14.918 Y-73.784 E46.59705
G1 X-14.506 Y-74.118 E46.61735
G1 X-14.048 Y-74.387 E46.63768
G1 X-13.555 Y-74.583 E46.65798
G1 X-13.039 Y-74.704 E46.67826
G1 X-12.509 Y-74.745 E46.6986
G1 X-11.98 Y-74.706 E46.7189
G1 X-11.463 Y-74.589 E46.73919
G1 X-10.969 Y-74.395 E46.7595
G1 X-10.509 Y-74.129 E46.77984
G1 X-10.095 Y-73.797 E46.80014
G1 X-9.736 Y-73.407 E46.82043
G1 X-9.387 Y-72.881 E46.84459
G1 X-9.151 Y-72.461 E46.86302
G1 X40.256 Y18.103 E50.81108
G1 X40.597 Y18.746 E50.83893
G1 X40.81 Y19.233 E50.85927
G1 X40.947 Y19.745 E50.87955
G1 X41.006 Y20.273 E50.89989
G1 X40.985 Y20.803 E50.92019
G1 X40.884 Y21.324 E50.9405
G1 X40.707 Y21.824 E50.96079
G1 X40.456 Y22.292 E50.98112
G1 X40.138 Y22.717 E51.00143
G1 X39.76 Y23.089 E51.02173
G1 X39.33 Y23.4 E51.04204
G1 X38.859 Y23.644 E51.06234
G1 X38.356 Y23.813 E51.08264
G1 X37.833 Y23.906 E51.10297
G1 X37.541 Y23.923 E51.11417
G1 X36.696 Y23.937 E51.14651
G0 F2040 X36.691 Y23.587
G1 F1020 X-61.835 Y23.587 E54.91705
G1 X-62.52 Y23.578 E54.94327
G1 X-63.021 Y23.531 E54.96252
G1 X-63.509 Y23.406 E54.9818
G1 X-63.971 Y23.205 E55.00108
G1 X-64.395 Y22.934 E55.02034
G1 X-64.771 Y22.599 E55.03961
G1 X-65.089 Y22.209 E55.05887
G1 X-65.342 Y21.773 E55.07816
G1 X-65.523 Y21.303 E55.09744
G1 X-65.627 Y20.81 E55.11672
G1 X-65.652 Y20.307 E55.13599
G1 X-65.597 Y19.807 E55.15524
G1 X-65.463 Y19.321 E55.17454
G1 X-65.29 Y18.929 E55.19093
G1 X-64.84 Y18.071 E55.22801
G1 X-15.611 Y-72.167 E59.16185
G1 X-15.266 Y-72.779 E59.18873
G1 X-14.984 Y-73.197 E59.20803
G1 X-14.641 Y-73.565 E59.22728
G1 X-14.243 Y-73.874 E59.24657
G1 X-13.802 Y-74.116 E59.26582
G1 X-13.327 Y-74.285 E59.28511
G1 X-12.832 Y-74.378 E59.30439
G1 X-12.329 Y-74.39 E59.32364
G1 X-11.83 Y-74.323 E59.34291
G1 X-11.347 Y-74.178 E59.36221
G1 X-10.894 Y-73.959 E59.38146
G1 X-10.481 Y-73.671 E59.40073
G1 X-10.119 Y-73.321 E59.42
G1 X-9.767 Y-72.835 E59.44297
G1 X-9.477 Y-72.328 E59.46532
G1 X39.947 Y18.267 E63.41472
G1 X40.288 Y18.91 E63.44258
G1 X40.488 Y19.373 E63.46188
G1 X40.612 Y19.861 E63.48115
G1 X40.658 Y20.362 E63.5004
G1 X40.624 Y20.865 E63.51969
G1 X40.51 Y21.355 E63.53895
G1 X40.321 Y21.822 E63.55823
G1 X40.06 Y22.253 E63.57751
G1 X39.734 Y22.637 E63.59679
G1 X39.352 Y22.965 E63.61606
G1 X38.923 Y23.228 E63.63531
G1 X38.457 Y23.42 E63.6546
G1 X37.967 Y23.536 E63.67387
G1 X37.536 Y23.573 E63.69043
G1 X36.691 Y23.587 E63.72277
G1 F3600 E59.92277
;MESH:support_tri_0_081.stl
G0 F2040 X36.691 Y21.077
G0 X36.691 Y20.042
G0 X36.616 Y19.887
;TYPE:WALL-INNER
G1 F3600 E63.72277
G1 F1020 X-61.616 Y19.887 E67.48206
G1 X-12.5 Y-70.143 E71.40684
G1 X36.616 Y19.887 E75.33162
G0 F2040 X37.163 Y20.212
;TYPE:WALL-OUTER
G1 F1020 X-62.163 Y20.212 E79.13277
G1 X-12.5 Y-70.821 E83.10127
G1 X37.163 Y20.212 E87.06977
G0 F2040 X36.963 Y20.212
G0 X36.826 Y20.011
G0 X36.043 Y19.547
;TYPE:SKIN
G1 F1020 X-61.043 Y19.547 E90.78521
G1 X-12.5 Y-69.432 E94.66418
G1 X36.043 Y19.547 E98.54314
G0 F2040 X-60.609 Y19.081
G1 F1020 X-60.301 Y19.389 E98.55981
G0 F2040 X-59.806 Y19.389
G1 F1020 X-60.435 Y18.76 E98.59385
G0 F2040 X-60.259 Y18.441
G1 F1020 X-59.311 Y19.389 E98.64516
G0 F2040 X-58.816 Y19.389
G1 F1020 X-60.084 Y18.121 E98.71379
G0 F2040 X-59.91 Y17.8
G1 F1020 X-58.321 Y19.389 E98.79979
G0 F2040 X-57.826 Y19.389
G1 F1020 X-59.735 Y17.48 E98.9031
G0 F2040 X-59.561 Y17.16
G1 F1020 X-57.331 Y19.389 E99.02377
G0 F2040 X-56.836 Y19.389
G1 F1020 X-59.386 Y16.839 E99.16178
G0 F2040 X-59.211 Y16.519
G1 F1020 X-56.341 Y19.389 E99.3171
G0 F2040 X-55.846 Y19.389
G1 F1020 X-59.037 Y16.199 E99.48978
G0 F2040 X-58.862 Y15.878
G1 F1020 X-55.351 Y19.389 E99.6798
G0 F2040 X-54.856 Y19.389
G1 F1020 X-58.687 Y15.558 E99.88714
G0 F2040 X-58.513 Y15.238
G1 F1020 X-54.361 Y19.389 E100.11182
G0 F2040 X-53.866 Y19.389
G1 F1020 X-58.337 Y14.918 E100.3538
G0 F2040 X-58.163 Y14.598
G1 F1020 X-53.371 Y19.389 E100.61312
G0 F2040 X-52.876 Y19.389
G1 F1020 X-57.988 Y14.277 E100.88979
G0 F2040 X-57.813 Y13.957
G1 F1020 X-52.381 Y19.389 E101.18377
G0 F2040 X-51.886 Y19.389
G1 F1020 X-57.639 Y13.637 E101.49511
G0 F2040 X-57.464 Y13.316
G1 F1020 X-51.391 Y19.389 E101.82378
G0 F2040 X-50.896 Y19.389
G1 F1020 X-57.289 Y12.996 E102.16978
G0 F2040 X-57.115 Y12.676
G1 F1020 X-50.401 Y19.389 E102.53313
G0 F2040 X-49.906 Y19.389
G1 F1020 X-56.94 Y12.355 E102.91381
G0 F2040 X-56.765 Y12.035
G1 F1020 X-49.411 Y19.389 E103.31182
G0 F2040 X-48.916 Y19.389
G1 F1020 X-56.591 Y11.715 E103.72718
G0 F2040 X-56.416 Y11.395
G1 F1020 X-48.421 Y19.389 E104.15985
G0 F2040 X-47.926 Y19.389
G1 F1020 X-56.241 Y11.075 E104.60984
G0 F2040 X-56.066 Y10.755
G1 F1020 X-47.432 Y19.389 E105.07712
G0 F2040 X-46.937 Y19.389
G1 F1020 X-55.891 Y10.434 E105.56175
G0 F2040 X-55.717 Y10.114
G1 F1020 X-46.442 Y19.389 E106.06373
G0 F2040 X-45.947 Y19.389
G1 F1020 X-55.542 Y9.794 E106.58302
G0 F2040 X-55.367 Y9.473
G1 F1020 X-45.452 Y19.389 E107.11966
G0 F2040 X-44.957 Y19.389
G1 F1020 X-55.193 Y9.153 E107.67365
G0 F2040 X-55.018 Y8.833
G1 F1020 X-44.462 Y19.389 E108.24495
G0 F2040 X-43.967 Y19.389
G1 F1020 X-54.843 Y8.512 E108.8336
G0 F2040 X-54.669 Y8.192
G1 F1020 X-43.472 Y19.389 E109.4396
G0 F2040 X-42.977 Y19.389
G1 F1020 X-54.494 Y7.872 E110.06291
G0 F2040 X-54.319 Y7.551
G1 F1020 X-42.482 Y19.389 E110.70357
G0 F2040 X-41.987 Y19.389
G1 F1020 X-54.144 Y7.232 E111.36152
G0 F2040 X-53.969 Y6.911
G1 F1020 X-41.492 Y19.389 E112.03682
G0 F2040 X-40.997 Y19.389
G1 F1020 X-53.795 Y6.591 E112.72947
G0 F2040 X-53.62 Y6.271
G1 F1020 X-40.502 Y19.389 E113.43943
G0 F2040 X-40.007 Y19.389
G1 F1020 X-53.445 Y5.951 E114.16671
G0 F2040 X-53.271 Y5.63
G1 F1020 X-39.512 Y19.389 E114.91136
G0 F2040 X-39.017 Y19.389
G1 F1020 X-53.096 Y5.31 E115.67334
G0 F2040 X-52.921 Y4.99
G1 F1020 X-38.522 Y19.389 E116.45263
G0 F2040 X-38.027 Y19.389
G1 F1020 X-52.747 Y4.669 E117.2493
G0 F2040 X-52.572 Y4.349
G1 F1020 X-37.532 Y19.389 E118.06328
G0 F2040 X-37.037 Y19.389
G1 F1020 X-52.398 Y4.029 E118.89461
G0 F2040 X-52.223 Y3.708
G1 F1020 X-36.542 Y19.389 E119.74328
G0 F2040 X-36.047 Y19.389
G1 F1020 X-52.048 Y3.389 E120.60925
G0 F2040 X-51.873 Y3.068
G1 F1020 X-35.552 Y19.389 E121.49257
G0 F2040 X-35.057 Y19.389
G1 F1020 X-51.698 Y2.748 E122.3932
G0 F2040 X-51.524 Y2.428
G1 F1020 X-34.562 Y19.389 E123.31118
G0 F2040 X-34.067 Y19.389
G1 F1020 X-51.349 Y2.107 E124.2465
G0 F2040 X-51.174 Y1.787
G1 F1020 X-33.572 Y19.389 E125.19914
G0 F2040 X-33.077 Y19.389
G1 F1020 X-51 Y1.467 E126.16913
G0 F2040 X-50.825 Y1.146
G1 F1020 X-32.582 Y19.389 E127.15646
G0 F2040 X-32.087 Y19.389
G1 F1020 X-50.65 Y0.826 E128.16112
G0 F2040 X-50.476 Y0.506
G1 F1020 X-31.592 Y19.389 E129.18312
G0 F2040 X-31.097 Y19.389
G1 F1020 X-50.301 Y0.185 E130.22246
G0 F2040 X-50.126 Y-.133
G1 F1020 X-30.602 Y19.389 E131.27907
G0 F2040 X-30.107 Y19.389
G1 F1020 X-49.951 Y-.453 E132.353
G0 F2040 X-49.776 Y-.774
G1 F1020 X-29.612 Y19.389 E133.44427
G0 F2040 X-29.117 Y19.389
G1 F1020 X-49.602 Y-1.094 E134.55289
G0 F2040 X-49.427 Y-1.414
G1 F1020 X-28.622 Y19.389 E135.67883
G0 F2040 X-28.128 Y19.389
G1 F1020 X-49.252 Y-1.735 E136.82209
G0 F2040 X-49.078 Y-2.055
G1 F1020 X-27.633 Y19.389 E137.9827
G0 F2040 X-27.138 Y19.389
G1 F1020 X-48.903 Y-2.375 E139.16062
G0 F2040 X-48.728 Y-2.696
G1 F1020 X-26.643 Y19.389 E140.35589
G0 F2040 X-26.148 Y19.389
G1 F1020 X-48.554 Y-3.016 E141.5685
G0 F2040 X-48.379 Y-3.336
G1 F1020 X-25.653 Y19.389 E142.79843
G0 F2040 X-25.158 Y19.389
G1 F1020 X-48.204 Y-3.657 E144.04571
G0 F2040 X-48.029 Y-3.976
G1 F1020 X-24.663 Y19.389 E145.31028
G0 F2040 X-24.168 Y19.389
G1 F1020 X-47.854 Y-4.297 E146.5922
G0 F2040 X-47.68 Y-4.617
G1 F1020 X-23.673 Y19.389 E147.89146
G0 F2040 X-23.178 Y19.389
G1 F1020 X-47.505 Y-4.937 E149.20804
G0 F2040 X-47.33 Y-5.258
G1 F1020 X-22.683 Y19.389 E150.54197
G0 F2040 X-22.188 Y19.389
G1 F1020 X-47.156 Y-5.578 E151.89324
G0 F2040 X-46.981 Y-5.898
G1 F1020 X-21.693 Y19.389 E153.26183
G0 F2040 X-21.198 Y19.389
G1 F1020 X-46.806 Y-6.219 E154.64777
G0 F2040 X-46.632 Y-6.539
G1 F1020 X-20.703 Y19.389 E156.05106
G0 F2040 X-20.208 Y19.389
G1 F1020 X-46.457 Y-6.859 E157.47166
G0 F2040 X-46.282 Y-7.179
G1 F1020 X-19.713 Y19.389 E158.90958
G0 F2040 X-19.218 Y19.389
G1 F1020 X-46.108 Y-7.5 E160.36487
G0 F2040 X-45.932 Y-7.819
G1 F1020 X-18.723 Y19.389 E161.83743
G0 F2040 X-18.228 Y19.389
G1 F1020 X-45.758 Y-8.14 E163.32736
G0 F2040 X-45.583 Y-8.46
G1 F1020 X-17.733 Y19.389 E164.83461
G0 F2040 X-17.238 Y19.389
G1 F1020 X-45.408 Y-8.78 E166.35918
G0 F2040 X-45.234 Y-9.101
G1 F1020 X-16.743 Y19.389 E167.90112
G0 F2040 X-16.248 Y19.389
G1 F1020 X-45.059 Y-9.421 E169.46039
G0 F2040 X-44.885 Y-9.741
G1 F1020 X-15.753 Y19.389 E171.03699
G0 F2040 X-15.258 Y19.389
G1 F1020 X-44.71 Y-10.062 E172.63095
G0 F2040 X-44.535 Y-10.382
G1 F1020 X-14.763 Y19.389 E174.24222
G0 F2040 X-14.268 Y19.389
G1 F1020 X-44.361 Y-10.702 E175.87083
G0 F2040 X-44.186 Y-11.023
G1 F1020 X-13.773 Y19.389 E177.5168
G0 F2040 X-13.278 Y19.389
G1 F1020 X-44.011 Y-11.343 E179.18008
G0 F2040 X-43.836 Y-11.663
G1 F1020 X-12.783 Y19.389 E180.86068
G0 F2040 X-12.288 Y19.389
G1 F1020 X-43.661 Y-11.983 E182.5586
G0 F2040 X-43.487 Y-12.303
G1 F1020 X-11.793 Y19.389 E184.27387
G0 F2040 X-11.298 Y19.389
G1 F1020 X-43.312 Y-12.623 E186.00645
G0 F2040 X-43.137 Y-12.944
G1 F1020 X-10.803 Y19.389 E187.75638
G0 F2040 X-10.308 Y19.389
G1 F1020 X-42.963 Y-13.264 E189.52366
G0 F2040 X-42.788 Y-13.584
G1 F1020 X-9.813 Y19.389 E191.30825
G0 F2040 X-9.318 Y19.389
G1 F1020 X-42.613 Y-13.905 E193.11019
G0 F2040 X-42.439 Y-14.225
G1 F1020 X-8.823 Y19.389 E194.92948
G0 F2040 X-8.329 Y19.389
G1 F1020 X-42.264 Y-14.545 E196.76606
G0 F2040 X-42.089 Y-14.866
G1 F1020 X-7.834 Y19.389 E198.61998
G0 F2040 X-7.339 Y19.389
G1 F1020 X-41.914 Y-15.185 E200.4912
G0 F2040 X-41.739 Y-15.506
G1 F1020 X-6.844 Y19.389 E202.37976
G0 F2040 X-6.349 Y19.389
G1 F1020 X-41.565 Y-15.826 E204.28567
G0 F2040 X-41.39 Y-16.146
G1 F1020 X-5.854 Y19.389 E206.20889
G0 F2040 X-5.359 Y19.389
G1 F1020 X-41.215 Y-16.467 E208.14947
G0 F2040 X-41.041 Y-16.787
G1 F1020 X-4.864 Y19.389 E210.10738
G0 F2040 X-4.369 Y19.389
G1 F1020 X-40.866 Y-17.107 E212.08262
G0 F2040 X-40.691 Y-17.428
G1 F1020 X-3.874 Y19.389 E214.0752
