;FLAVOR:Marlin
;TIME:7978
;Filament used: 7.37451m
;Layer height: 0.2
;MINX:-54.552
;MINY:-55.568
;MINZ:0.26
;MAXX:54.553
;MAXY:45.213
;MAXZ:22.66
;Generated with Cura_SteamEngine 4.8.0
M82 ;absolute extrusion mode
;Gcode by Cura
G90
G28
M107
M109 R100
G30
M109 S215 U-55 X55 V-85 Y-85 W0.26 Z0.26
M82
G92 E0
G1 F200 E6
G92 E0
G1 F200 E-3.5
G0 Z0.15
G0 X10
G0 Z3
G1 F6000
G92 E0
G92 E0
G1 F3600 E-3.8
;LAYER_COUNT:113
;LAYER:0
M107
G0 F2040 X-4.324 Y-52.64 Z0.26
;TYPE:SKIRT
G1 F3600 E0
G1 F1020 X-3.985 Y-53.241 E0.02641
G1 X-3.654 Y-53.747 E0.04955
G1 X-3.259 Y-54.204 E0.07266
G1 X-2.807 Y-54.606 E0.09581
G1 X-2.306 Y-54.945 E0.11896
G1 X-1.764 Y-55.214 E0.14212
G1 X-1.192 Y-55.41 E0.16526
G1 X-.599 Y-55.529 E0.1884
G1 X0.004 Y-55.568 E0.21153
G1 X0.607 Y-55.528 E0.23466
G1 X1.2 Y-55.408 E0.25781
G1 X1.772 Y-55.211 E0.28096
G1 X2.312 Y-54.941 E0.30407
G1 X2.813 Y-54.601 E0.32724
G1 X3.264 Y-54.199 E0.35036
G1 X3.658 Y-53.74 E0.37351
G1 X3.946 Y-53.308 E0.39338
G1 X4.219 Y-52.831 E0.41441
G1 X53.725 Y37.914 E4.37036
G1 X54.028 Y38.488 E4.3952
G1 X54.274 Y39.04 E4.41832
G1 X54.446 Y39.62 E4.44148
G1 X54.539 Y40.218 E4.46464
G1 X54.553 Y40.822 E4.48776
G1 X54.487 Y41.423 E4.5109
G1 X54.342 Y42.01 E4.53403
G1 X54.121 Y42.573 E4.55718
G1 X53.828 Y43.102 E4.58032
G1 X53.467 Y43.588 E4.60349
G1 X53.046 Y44.021 E4.6266
G1 X52.571 Y44.396 E4.64976
G1 X52.051 Y44.704 E4.67289
G1 X51.495 Y44.941 E4.69602
G1 X50.913 Y45.103 E4.71914
G1 X50.058 Y45.198 E4.75207
G1 X49.138 Y45.213 E4.78728
G1 X-49.353 Y45.213 E8.55648
G1 X-50.039 Y45.204 E8.58274
G1 X-50.642 Y45.156 E8.60589
G1 X-51.233 Y45.029 E8.62902
G1 X-51.802 Y44.825 E8.65215
G1 X-52.34 Y44.548 E8.67531
G1 X-52.836 Y44.202 E8.69845
G1 X-53.282 Y43.794 E8.72159
G1 X-53.671 Y43.331 E8.74473
G1 X-53.995 Y42.821 E8.76785
G1 X-54.249 Y42.272 E8.791
G1 X-54.428 Y41.695 E8.81412
G1 X-54.53 Y41.099 E8.83726
G1 X-54.552 Y40.494 E8.86043
G1 X-54.494 Y39.892 E8.88357
G1 X-54.358 Y39.303 E8.90671
G1 X-54.032 Y38.507 E8.93963
G1 X-53.616 Y37.714 E8.9739
G1 X-4.324 Y-52.64 E12.91279
G0 F2040 X-4.019 Y-52.468
G1 F1020 X-3.68 Y-53.069 E12.93919
G1 X-3.36 Y-53.554 E12.96143
G1 X-2.977 Y-53.991 E12.98367
G1 X-2.538 Y-54.371 E13.00589
G1 X-2.05 Y-54.687 E13.02814
G1 X-1.524 Y-54.934 E13.05037
G1 X-.969 Y-55.105 E13.0726
G1 X-.396 Y-55.199 E13.09482
G1 X0.185 Y-55.214 E13.11706
G1 X0.762 Y-55.149 E13.13928
G1 X1.325 Y-55.005 E13.16152
G1 X1.863 Y-54.785 E13.18377
G1 X2.366 Y-54.493 E13.20602
G1 X2.824 Y-54.136 E13.22825
G1 X3.228 Y-53.719 E13.25047
G1 X3.644 Y-53.131 E13.27803
G1 X3.915 Y-52.659 E13.29886
G1 X53.415 Y38.078 E17.25443
G1 X53.718 Y38.652 E17.27927
G1 X53.954 Y39.183 E17.30151
G1 X54.114 Y39.741 E17.32372
G1 X54.196 Y40.317 E17.34599
G1 X54.198 Y40.898 E17.36822
G1 X54.121 Y41.474 E17.39046
G1 X53.965 Y42.033 E17.41267
G1 X53.734 Y42.566 E17.4349
G1 X53.432 Y43.063 E17.45716
G1 X53.065 Y43.513 E17.47938
G1 X52.639 Y43.909 E17.50164
G1 X52.163 Y44.242 E17.52387
G1 X51.646 Y44.507 E17.5461
G1 X51.098 Y44.699 E17.56832
G1 X50.528 Y44.814 E17.59058
G1 X50.052 Y44.848 E17.60884
G1 X49.138 Y44.863 E17.64382
G1 X-49.348 Y44.863 E21.41284
G1 X-50.034 Y44.854 E21.43909
G1 X-50.614 Y44.806 E21.46136
G1 X-51.181 Y44.68 E21.48359
G1 X-51.725 Y44.476 E21.50583
G1 X-52.236 Y44.2 E21.52805
G1 X-52.705 Y43.857 E21.55029
G1 X-53.122 Y43.452 E21.57253
G1 X-53.48 Y42.995 E21.59475
G1 X-53.771 Y42.492 E21.61699
G1 X-53.991 Y41.954 E21.63923
G1 X-54.135 Y41.391 E21.66147
G1 X-54.2 Y40.814 E21.68369
G1 X-54.185 Y40.233 E21.70594
G1 X-54.091 Y39.66 E21.72816
G1 X-53.919 Y39.104 E21.75043
G1 X-53.722 Y38.67 E21.76867
G1 X-53.309 Y37.882 E21.80272
G1 X-4.019 Y-52.468 E25.74143
G0 F2040 X-3.714 Y-52.296
G1 F1020 X-3.375 Y-52.897 E25.76784
G1 X-3.068 Y-53.361 E25.78913
G1 X-2.697 Y-53.775 E25.81041
G1 X-2.271 Y-54.133 E25.8317
G1 X-1.798 Y-54.426 E25.853
G1 X-1.287 Y-54.648 E25.87432
G1 X-.751 Y-54.795 E25.89559
G1 X-.198 Y-54.863 E25.91691
G1 X0.358 Y-54.851 E25.93819
G1 X0.907 Y-54.76 E25.95949
G1 X1.437 Y-54.592 E25.98077
G1 X1.938 Y-54.349 E26.00208
G1 X2.398 Y-54.037 E26.02335
G1 X2.809 Y-53.662 E26.04464
G1 X3.163 Y-53.232 E26.06595
G1 X3.43 Y-52.804 E26.08526
G1 X3.636 Y-52.44 E26.10127
G1 X53.106 Y38.241 E30.0544
G1 X53.409 Y38.815 E30.07924
G1 X53.633 Y39.324 E30.10052
G1 X53.781 Y39.861 E30.12184
G1 X53.851 Y40.413 E30.14313
G1 X53.842 Y40.969 E30.16442
G1 X53.752 Y41.518 E30.18571
G1 X53.585 Y42.049 E30.20701
G1 X53.344 Y42.55 E30.22828
G1 X53.034 Y43.012 E30.24958
G1 X52.66 Y43.425 E30.2709
G1 X52.231 Y43.779 E30.29218
G1 X51.756 Y44.069 E30.31348
G1 X51.245 Y44.288 E30.33476
G1 X50.707 Y44.431 E30.35606
G1 X50.046 Y44.498 E30.38149
G1 X49.138 Y44.513 E30.41624
G1 X-49.344 Y44.513 E34.1851
G1 X-50.03 Y44.504 E34.21136
G1 X-50.584 Y44.456 E34.23264
G1 X-51.126 Y44.33 E34.25393
G1 X-51.644 Y44.128 E34.27521
G1 X-52.128 Y43.853 E34.29651
G1 X-52.568 Y43.512 E34.31782
G1 X-52.954 Y43.112 E34.33909
G1 X-53.279 Y42.66 E34.36039
G1 X-53.536 Y42.166 E34.3817
G1 X-53.72 Y41.641 E34.40299
G1 X-53.826 Y41.095 E34.42428
G1 X-53.853 Y40.539 E34.44558
G1 X-53.8 Y39.985 E34.46688
G1 X-53.669 Y39.445 E34.48815
G1 X-53.412 Y38.832 E34.51358
G1 X-53.002 Y38.049 E34.54741
G1 X-3.714 Y-52.296 E38.48592
G0 F2040 X-3.409 Y-52.124
G1 F1020 X-3.07 Y-52.725 E38.51233
G1 X-2.775 Y-53.166 E38.53263
G1 X-2.418 Y-53.558 E38.55292
G1 X-2.005 Y-53.892 E38.57325
G1 X-1.547 Y-54.16 E38.59356
G1 X-1.055 Y-54.357 E38.61384
G1 X-.538 Y-54.477 E38.63415
G1 X-0.009 Y-54.518 E38.65446
G1 X0.521 Y-54.479 E38.67479
G1 X1.038 Y-54.362 E38.69508
G1 X1.532 Y-54.168 E38.71539
G1 X1.991 Y-53.902 E38.73569
G1 X2.405 Y-53.57 E38.756
G1 X2.765 Y-53.18 E38.77631
G1 X3.128 Y-52.627 E38.80163
G1 X3.328 Y-52.272 E38.81722
G1 X52.796 Y38.404 E42.77015
G1 X53.099 Y38.978 E42.79499
G1 X53.311 Y39.465 E42.81532
G1 X53.447 Y39.978 E42.83563
G1 X53.505 Y40.505 E42.85592
G1 X53.483 Y41.036 E42.87626
G1 X53.381 Y41.556 E42.89654
G1 X53.203 Y42.056 E42.91685
G1 X52.951 Y42.524 E42.93719
G1 X52.633 Y42.948 E42.95747
G1 X52.254 Y43.319 E42.97777
G1 X51.823 Y43.63 E42.99811
G1 X51.351 Y43.872 E43.01841
G1 X50.848 Y44.041 E43.03871
G1 X50.325 Y44.132 E43.05903
G1 X50.04 Y44.149 E43.06996
G1 X49.196 Y44.163 E43.10226
G1 X-49.339 Y44.163 E46.87315
G1 X-50.025 Y44.154 E46.8994
G1 X-50.554 Y44.107 E46.91973
G1 X-51.069 Y43.981 E46.94002
G1 X-51.56 Y43.779 E46.96034
G1 X-52.015 Y43.506 E46.98064
G1 X-52.424 Y43.168 E47.00095
G1 X-52.778 Y42.772 E47.02127
G1 X-53.068 Y42.328 E47.04157
G1 X-53.288 Y41.845 E47.06188
G1 X-53.433 Y41.335 E47.08217
G1 X-53.499 Y40.808 E47.1025
G1 X-53.486 Y40.278 E47.12279
G1 X-53.394 Y39.755 E47.14311
G1 X-53.224 Y39.252 E47.16343
G1 X-53.102 Y38.994 E47.17435
G1 X-52.694 Y38.217 E47.20794
G1 X-3.409 Y-52.124 E51.14626
G0 F2040 X-3.104 Y-51.952
G1 F1020 X-2.765 Y-52.553 E51.17267
G1 X-2.484 Y-52.97 E51.19191
G1 X-2.14 Y-53.338 E51.21119
G1 X-1.742 Y-53.647 E51.23047
G1 X-1.301 Y-53.889 E51.24972
G1 X-.826 Y-54.059 E51.26903
G1 X-.331 Y-54.151 E51.2883
G1 X0.172 Y-54.163 E51.30755
G1 X0.671 Y-54.096 E51.32682
G1 X1.153 Y-53.951 E51.34608
G1 X1.607 Y-53.732 E51.36537
G1 X2.019 Y-53.443 E51.38463
G1 X2.381 Y-53.093 E51.4039
G1 X2.739 Y-52.6 E51.42722
G1 X3 Y-52.143 E51.44736
G1 X52.487 Y38.568 E55.40181
G1 X52.79 Y39.142 E55.42665
G1 X52.989 Y39.604 E55.4459
G1 X53.112 Y40.093 E55.4652
G1 X53.157 Y40.594 E55.48445
G1 X53.122 Y41.097 E55.50375
G1 X53.007 Y41.587 E55.52301
G1 X52.817 Y42.053 E55.54227
G1 X52.555 Y42.484 E55.56157
G1 X52.229 Y42.867 E55.58082
G1 X51.846 Y43.194 E55.60009
G1 X51.416 Y43.457 E55.61938
G1 X50.95 Y43.648 E55.63865
G1 X50.46 Y43.763 E55.65792
G1 X50.035 Y43.799 E55.67424
G1 X49.191 Y43.813 E55.70654
G1 X-49.335 Y43.813 E59.47709
G1 X-50.021 Y43.804 E59.50334
G1 X-50.522 Y43.757 E59.5226
G1 X-51.01 Y43.632 E59.54188
G1 X-51.472 Y43.431 E59.56116
G1 X-51.896 Y43.16 E59.58042
G1 X-52.272 Y42.825 E59.59969
G1 X-52.59 Y42.435 E59.61895
G1 X-52.843 Y41.999 E59.63824
G1 X-53.024 Y41.529 E59.65751
G1 X-53.128 Y41.036 E59.67679
G1 X-53.153 Y40.533 E59.69607
G1 X-53.098 Y40.033 E59.71532
G1 X-52.964 Y39.547 E59.73461
G1 X-52.792 Y39.157 E59.75092
G1 X-52.387 Y38.384 E59.78432
G1 X-3.104 Y-51.952 E63.72244
G1 F3600 E59.92244
;MESH:support_tri_0_090.stl
G0 F2040 X-.912 Y-50.73
G0 X0.021 Y-50.222
G0 X49.116 Y40.113
;TYPE:WALL-INNER
G1 F3600 E63.72244
G1 F1020 X-49.116 Y40.113 E67.48173
G1 X0.00 Y-49.916 E71.40647
G1 X49.116 Y40.113 E75.33122
G0 F2040 X49.663 Y40.438
;TYPE:WALL-OUTER
G1 F1020 X-49.663 Y40.438 E79.13238
G1 X0.00 Y-50.594 E83.10084
G1 X49.663 Y40.438 E87.06931
G0 F2040 X49.463 Y40.438
G0 X49.326 Y40.237
G0 X48.543 Y39.773
;TYPE:SKIN
G1 F1020 X-48.543 Y39.773 E90.78474
G1 X0.00 Y-49.205 E94.66368
G1 X48.543 Y39.773 E98.54261
G0 F2040 X-48.177 Y39.433
G1 F1020 X-47.994 Y39.616 E98.55251
G0 F2040 X-47.499 Y39.616
G1 F1020 X-48.002 Y39.112 E98.57976
G0 F2040 X-47.827 Y38.792
G1 F1020 X-47.004 Y39.616 E98.62433
G0 F2040 X-46.509 Y39.616
G1 F1020 X-47.653 Y38.472 E98.68625
G0 F2040 X-47.478 Y38.151
G1 F1020 X-46.014 Y39.616 E98.76551
G0 F2040 X-45.519 Y39.616
G1 F1020 X-47.304 Y37.831 E98.86212
G0 F2040 X-47.129 Y37.511
G1 F1020 X-45.024 Y39.616 E98.97604
G0 F2040 X-44.529 Y39.616
G1 F1020 X-46.954 Y37.19 E99.10731
G0 F2040 X-46.78 Y36.87
G1 F1020 X-44.034 Y39.616 E99.25593
G0 F2040 X-43.539 Y39.616
G1 F1020 X-46.605 Y36.55 E99.42186
G0 F2040 X-46.43 Y36.23
G1 F1020 X-43.044 Y39.616 E99.60512
G0 F2040 X-42.549 Y39.616
G1 F1020 X-46.255 Y35.91 E99.80569
G0 F2040 X-46.08 Y35.59
G1 F1020 X-42.054 Y39.616 E100.02358
G0 F2040 X-41.559 Y39.616
G1 F1020 X-45.906 Y35.269 E100.25885
G0 F2040 X-45.731 Y34.949
G1 F1020 X-41.064 Y39.616 E100.51143
G0 F2040 X-40.569 Y39.616
G1 F1020 X-45.556 Y34.629 E100.78134
G0 F2040 X-45.382 Y34.308
G1 F1020 X-40.074 Y39.616 E101.06861
G0 F2040 X-39.579 Y39.616
G1 F1020 X-45.207 Y33.988 E101.37321
G0 F2040 X-45.032 Y33.668
G1 F1020 X-39.084 Y39.616 E101.69512
G0 F2040 X-38.589 Y39.616
G1 F1020 X-44.858 Y33.347 E102.03441
G0 F2040 X-44.683 Y33.027
G1 F1020 X-38.094 Y39.616 E102.39101
G0 F2040 X-37.599 Y39.616
G1 F1020 X-44.508 Y32.707 E102.76494
G0 F2040 X-44.333 Y32.387
G1 F1020 X-37.104 Y39.616 E103.15618
G0 F2040 X-36.609 Y39.616
G1 F1020 X-44.158 Y32.067 E103.56474
G0 F2040 X-43.984 Y31.746
G1 F1020 X-36.114 Y39.616 E103.99067
G0 F2040 X-35.619 Y39.616
G1 F1020 X-43.809 Y31.426 E104.43393
G0 F2040 X-43.634 Y31.106
G1 F1020 X-35.124 Y39.616 E104.8945
G0 F2040 X-34.629 Y39.616
G1 F1020 X-43.46 Y30.786 E105.37242
G0 F2040 X-43.285 Y30.465
G1 F1020 X-34.134 Y39.616 E105.86768
G0 F2040 X-33.639 Y39.616
G1 F1020 X-43.11 Y30.145 E106.38026
G0 F2040 X-42.936 Y29.825
G1 F1020 X-33.144 Y39.616 E106.91019
G0 F2040 X-32.649 Y39.616
G1 F1020 X-42.761 Y29.504 E107.45747
G0 F2040 X-42.586 Y29.184
G1 F1020 X-32.154 Y39.616 E108.02206
G0 F2040 X-31.659 Y39.616
G1 F1020 X-42.411 Y28.864 E108.60397
G0 F2040 X-42.236 Y28.544
G1 F1020 X-31.165 Y39.616 E109.20318
G0 F2040 X-30.67 Y39.616
G1 F1020 X-42.062 Y28.224 E109.81972
G0 F2040 X-41.887 Y27.903
G1 F1020 X-30.175 Y39.616 E110.45362
G0 F2040 X-29.68 Y39.616
G1 F1020 X-41.712 Y27.583 E111.10483
G0 F2040 X-41.538 Y27.263
G1 F1020 X-29.185 Y39.616 E111.77339
G0 F2040 X-28.69 Y39.616
G1 F1020 X-41.363 Y26.942 E112.4593
G0 F2040 X-41.188 Y26.622
G1 F1020 X-28.195 Y39.616 E113.16253
G0 F2040 X-27.7 Y39.616
G1 F1020 X-41.014 Y26.302 E113.8831
G0 F2040 X-40.839 Y25.981
G1 F1020 X-27.205 Y39.616 E114.62101
G0 F2040 X-26.71 Y39.616
G1 F1020 X-40.665 Y25.661 E115.37627
G0 F2040 X-40.489 Y25.341
G1 F1020 X-26.215 Y39.616 E116.14883
G0 F2040 X-25.72 Y39.616
G1 F1020 X-40.314 Y25.021 E116.9387
G0 F2040 X-40.14 Y24.701
G1 F1020 X-25.225 Y39.616 E117.74592
G0 F2040 X-24.73 Y39.616
G1 F1020 X-39.965 Y24.381 E118.57046
G0 F2040 X-39.791 Y24.06
G1 F1020 X-24.235 Y39.616 E119.41237
G0 F2040 X-23.74 Y39.616
G1 F1020 X-39.616 Y23.74 E120.2716
G0 F2040 X-39.441 Y23.42
G1 F1020 X-23.245 Y39.616 E121.14815
G0 F2040 X-22.75 Y39.616
G1 F1020 X-39.267 Y23.099 E122.04207
G0 F2040 X-39.092 Y22.779
G1 F1020 X-22.255 Y39.616 E122.95331
G0 F2040 X-21.76 Y39.616
G1 F1020 X-38.917 Y22.459 E123.88187
G0 F2040 X-38.743 Y22.138
G1 F1020 X-21.265 Y39.616 E124.8278
G0 F2040 X-20.77 Y39.616
G1 F1020 X-38.567 Y21.819 E125.79099
G0 F2040 X-38.393 Y21.498
G1 F1020 X-20.275 Y39.616 E126.77156
G0 F2040 X-19.78 Y39.616
G1 F1020 X-38.218 Y21.178 E127.76945
G0 F2040 X-38.043 Y20.858
G1 F1020 X-19.285 Y39.616 E128.78466
G0 F2040 X-18.79 Y39.616
G1 F1020 X-37.869 Y20.537 E129.81724
G0 F2040 X-37.694 Y20.217
G1 F1020 X-18.295 Y39.616 E130.86714
G0 F2040 X-17.8 Y39.616
G1 F1020 X-37.519 Y19.897 E131.93435
G0 F2040 X-37.345 Y19.576
G1 F1020 X-17.305 Y39.616 E133.01894
G0 F2040 X-16.81 Y39.616
G1 F1020 X-37.17 Y19.256 E134.12085
G0 F2040 X-36.995 Y18.936
G1 F1020 X-16.315 Y39.616 E135.24008
G0 F2040 X-15.82 Y39.616
G1 F1020 X-36.821 Y18.616 E136.37666
G0 F2040 X-36.646 Y18.295
G1 F1020 X-15.325 Y39.616 E137.53057
G0 F2040 X-14.83 Y39.616
G1 F1020 X-36.471 Y17.976 E138.70179
G0 F2040 X-36.296 Y17.655
G1 F1020 X-14.335 Y39.616 E139.89034
G0 F2040 X-13.84 Y39.616
G1 F1020 X-36.121 Y17.335 E141.09622
G0 F2040 X-35.947 Y17.015
G1 F1020 X-13.345 Y39.616 E142.31944
G0 F2040 X-12.85 Y39.616
G1 F1020 X-35.772 Y16.694 E143.56001
G0 F2040 X-35.597 Y16.374
G1 F1020 X-12.355 Y39.616 E144.8179
G0 F2040 X-11.861 Y39.616
G1 F1020 X-35.423 Y16.054 E146.0931
G0 F2040 X-35.248 Y15.733
G1 F1020 X-11.366 Y39.616 E147.38565
G0 F2040 X-10.871 Y39.616
G1 F1020 X-35.073 Y15.413 E148.69552
G0 F2040 X-34.899 Y15.093
G1 F1020 X-10.376 Y39.616 E150.02274
G0 F2040 X-9.881 Y39.616
G1 F1020 X-34.724 Y14.772 E151.3673
G0 F2040 X-34.549 Y14.453
G1 F1020 X-9.386 Y39.616 E152.72915
G0 F2040 X-8.891 Y39.616
G1 F1020 X-34.374 Y14.132 E154.10835
G0 F2040 X-34.199 Y13.812
G1 F1020 X-8.396 Y39.616 E155.50487
G0 F2040 X-7.901 Y39.616
G1 F1020 X-34.025 Y13.492 E156.91874
G0 F2040 X-33.85 Y13.171
G1 F1020 X-7.406 Y39.616 E158.34995
G0 F2040 X-6.911 Y39.616
G1 F1020 X-33.675 Y12.851 E159.79848
G0 F2040 X-33.501 Y12.531
G1 F1020 X-6.416 Y39.616 E161.26435
G0 F2040 X-5.921 Y39.616
G1 F1020 X-33.326 Y12.211 E162.74754
G0 F2040 X-33.151 Y11.89
G1 F1020 X-5.426 Y39.616 E164.24808
G0 F2040 X-4.931 Y39.616
G1 F1020 X-32.977 Y11.57 E165.76597
G0 F2040 X-32.802 Y11.25
G1 F1020 X-4.436 Y39.616 E167.30117
G0 F2040 X-3.941 Y39.616
G1 F1020 X-32.628 Y10.929 E168.85375
G0 F2040 X-32.452 Y10.61
G1 F1020 X-3.446 Y39.616 E170.42359
G0 F2040 X-2.951 Y39.616
G1 F1020 X-32.278 Y10.289 E172.01081
G0 F2040 X-32.103 Y9.969
G1 F1020 X-2.456 Y39.616 E173.61534
G0 F2040 X-1.961 Y39.616
G1 F1020 X-31.928 Y9.649 E175.23719
G0 F2040 X-31.754 Y9.328
G1 F1020 X-1.466 Y39.616 E176.87642
G0 F2040 X-.971 Y39.616
G1 F1020 X-31.579 Y9.008 E178.53296
G0 F2040 X-31.404 Y8.688
G1 F1020 X-.476 Y39.616 E180.20682
G0 F2040 X0.018 Y39.616
G1 F1020 X-31.23 Y8.367 E181.89803
G0 F2040 X-31.055 Y8.047
G1 F1020 X0.513 Y39.616 E183.60656
G0 F2040 X1.008 Y39.616
G1 F1020 X-30.88 Y7.727 E185.33241
G0 F2040 X-30.706 Y7.406
G1 F1020 X1.503 Y39.616 E187.07562
G0 F2040 X1.998 Y39.616
G1 F1020 X-30.53 Y7.087 E188.83611
G0 F2040 X-30.356 Y6.767
G1 F1020 X2.493 Y39.616 E190.61394
G0 F2040 X2.988 Y39.616
G1 F1020 X-30.181 Y6.446 E192.40911
G0 F2040 X-30.006 Y6.126
G1 F1020 X3.483 Y39.616 E194.22161
G0 F2040 X3.978 Y39.616
G1 F1020 X-29.832 Y5.806 E196.05145
G0 F2040 X-29.657 Y5.485
G1 F1020 X4.473 Y39.616 E197.89863
G0 F2040 X4.968 Y39.616
G1 F1020 X-29.482 Y5.165 E199.76314
G0 F2040 X-29.308 Y4.845
G1 F1020 X5.463 Y39.616 E201.64499
G0 F2040 X5.958 Y39.616
G1 F1020 X-29.133 Y4.524 E203.54419
G0 F2040 X-28.958 Y4.204
G1 F1020 X6.453 Y39.616 E205.4607
G0 F2040 X6.948 Y39.616
G1 F1020 X-28.784 Y3.884 E207.39456
G0 F2040 X-28.608 Y3.564
G1 F1020 X7.443 Y39.616 E209.34572
G0 F2040 X7.937 Y39.616
G1 F1020 X-28.434 Y3.244 E211.31419
G0 F2040 X-28.259 Y2.923
G1 F1020 X8.432 Y39.616 E213.30001
G0 F2040 X8.927 Y39.616
G1 F1020 X-28.084 Y2.603 E215.30314
G0 F2040 X-27.91 Y2.283
G1 F1020 X9.422 Y39.616 E217.32363
G0 F2040 X9.917 Y39.616
G1 F1020 X-27.735 Y1.962 E219.36145
G0 F2040 X-27.56 Y1.642
