;FLAVOR:Marlin
;TIME:7347
;Filament used: 6.9281m
;Layer height: 0.2
;MINX:-54.558
;MINY:-47.218
;MINZ:0.26
;MAXX:54.556
;MAXY:49.792
;MAXZ:13.66
;Generated with Cura_SteamEngine 4.8.0
M82 ;absolute extrusion mode
;Gcode by Cura
G90
G28
M107
M109 R100
G30
M109 S215 U-55 X55 V-85 Y-85 W0.26 Z0.26
M82
G92 E0
G1 F200 E6
G92 E0
G1 F200 E-3.5
G0 Z0.15
G0 X10
G0 Z3
G1 F6000
G92 E0
G92 E0
G1 F3600 E-3.8
;LAYER_COUNT:68
;LAYER:0
M107
G0 F2040 X-4.49 Y46.61 Z0.26
;TYPE:SKIRT
G1 F3600 E0
G1 F1020 X-53.666 Y-39.836 E3.80607
G1 X-53.991 Y-40.426 E3.83185
G1 X-54.247 Y-40.973 E3.85497
G1 X-54.429 Y-41.55 E3.87812
G1 X-54.533 Y-42.146 E3.90127
G1 X-54.558 Y-42.75 E3.92441
G1 X-54.502 Y-43.352 E3.94754
G1 X-54.368 Y-43.942 E3.9707
G1 X-54.157 Y-44.508 E3.99382
G1 X-53.873 Y-45.042 E4.01696
G1 X-53.522 Y-45.534 E4.04009
G1 X-53.108 Y-45.975 E4.06324
G1 X-52.64 Y-46.358 E4.08638
G1 X-52.126 Y-46.676 E4.10951
G1 X-51.574 Y-46.923 E4.13266
G1 X-50.994 Y-47.095 E4.15581
G1 X-50.155 Y-47.205 E4.18819
G1 X-49.498 Y-47.218 E4.21334
G1 X49.359 Y-47.218 E7.99655
G1 X50.049 Y-47.208 E8.02296
G1 X50.652 Y-47.159 E8.04611
G1 X51.243 Y-47.031 E8.06925
G1 X51.812 Y-46.827 E8.09238
G1 X52.349 Y-46.549 E8.11553
G1 X52.845 Y-46.202 E8.13869
G1 X53.29 Y-45.794 E8.1618
G1 X53.678 Y-45.33 E8.18494
G1 X54.002 Y-44.819 E8.2081
G1 X54.255 Y-44.27 E8.23123
G1 X54.434 Y-43.692 E8.25439
G1 X54.534 Y-43.096 E8.27752
G1 X54.556 Y-42.492 E8.30065
G1 X54.497 Y-41.89 E8.32379
G1 X54.36 Y-41.301 E8.34694
G1 X54.066 Y-40.569 E8.37713
G1 X53.74 Y-39.966 E8.40336
G1 X4.29 Y46.962 E12.23065
G1 X3.948 Y47.542 E12.25642
G1 X3.607 Y48.041 E12.27955
G1 X3.203 Y48.491 E12.30269
G1 X2.744 Y48.884 E12.32582
G1 X2.236 Y49.213 E12.34898
G1 X1.69 Y49.472 E12.3721
G1 X1.114 Y49.657 E12.39526
G1 X0.519 Y49.764 E12.41839
G1 X-0.085 Y49.792 E12.44153
G1 X-.687 Y49.74 E12.46466
G1 X-1.277 Y49.609 E12.48779
G1 X-1.845 Y49.401 E12.51093
G1 X-2.381 Y49.12 E12.53409
G1 X-2.875 Y48.771 E12.55724
G1 X-3.318 Y48.36 E12.58037
G1 X-3.703 Y47.895 E12.60347
G1 X-3.92 Y47.565 E12.61859
G1 X-4.49 Y46.61 E12.66115
G0 F2040 X-4.14 Y46.516
G1 F1020 X-53.36 Y-40.004 E16.47052
G1 X-53.685 Y-40.594 E16.49629
G1 X-53.929 Y-41.121 E16.51852
G1 X-54.099 Y-41.677 E16.54077
G1 X-54.192 Y-42.251 E16.56302
G1 X-54.204 Y-42.832 E16.58526
G1 X-54.137 Y-43.409 E16.60749
G1 X-53.991 Y-43.971 E16.62971
G1 X-53.77 Y-44.508 E16.65194
G1 X-53.477 Y-45.01 E16.67418
G1 X-53.118 Y-45.467 E16.69642
G1 X-52.699 Y-45.87 E16.71867
G1 X-52.229 Y-46.212 E16.74091
G1 X-51.717 Y-46.486 E16.76314
G1 X-51.172 Y-46.687 E16.78537
G1 X-50.605 Y-46.812 E16.80759
G1 X-50.008 Y-46.86 E16.83051
G1 X-49.494 Y-46.868 E16.85018
G1 X49.354 Y-46.868 E20.63305
G1 X50.044 Y-46.858 E20.65945
G1 X50.623 Y-46.809 E20.68169
G1 X51.19 Y-46.682 E20.70393
G1 X51.734 Y-46.478 E20.72616
G1 X52.245 Y-46.201 E20.74841
G1 X52.713 Y-45.857 E20.77063
G1 X53.13 Y-45.452 E20.79288
G1 X53.487 Y-44.994 E20.8151
G1 X53.778 Y-44.491 E20.83734
G1 X53.997 Y-43.953 E20.85957
G1 X54.14 Y-43.389 E20.88184
G1 X54.204 Y-42.812 E20.90406
G1 X54.189 Y-42.231 E20.9263
G1 X54.094 Y-41.658 E20.94853
G1 X53.921 Y-41.103 E20.97077
G1 X53.708 Y-40.638 E20.99035
G1 X53.434 Y-40.136 E21.01223
G1 X3.988 Y46.784 E24.83918
G1 X3.646 Y47.364 E24.86495
G1 X3.318 Y47.843 E24.88717
G1 X2.926 Y48.272 E24.90941
G1 X2.479 Y48.644 E24.93166
G1 X1.986 Y48.951 E24.95389
G1 X1.455 Y49.187 E24.97613
G1 X0.897 Y49.348 E24.99835
G1 X0.322 Y49.431 E25.02059
G1 X-.259 Y49.435 E25.04282
G1 X-.835 Y49.358 E25.06506
G1 X-1.395 Y49.204 E25.08729
G1 X-1.929 Y48.973 E25.10955
G1 X-2.426 Y48.672 E25.13179
G1 X-2.877 Y48.306 E25.15402
G1 X-3.273 Y47.881 E25.17625
G1 X-3.62 Y47.386 E25.19938
G1 X-4.14 Y46.516 E25.23817
G0 F2040 X-3.881 Y46.264
G1 F1020 X-53.053 Y-40.173 E29.04387
G1 X-53.378 Y-40.763 E29.06965
G1 X-53.611 Y-41.269 E29.09097
G1 X-53.769 Y-41.802 E29.11224
G1 X-53.849 Y-42.353 E29.13355
G1 X-53.849 Y-42.909 E29.15483
G1 X-53.77 Y-43.46 E29.17613
G1 X-53.612 Y-43.994 E29.19744
G1 X-53.38 Y-44.499 E29.21871
G1 X-53.078 Y-44.966 E29.23999
G1 X-52.712 Y-45.385 E29.26128
G1 X-52.289 Y-45.748 E29.28261
G1 X-51.819 Y-46.046 E29.30391
G1 X-51.312 Y-46.273 E29.32517
G1 X-50.777 Y-46.426 E29.34647
G1 X-50.128 Y-46.505 E29.37149
G1 X-49.489 Y-46.518 E29.39594
G1 X49.349 Y-46.518 E33.17843
G1 X50.039 Y-46.508 E33.20484
G1 X50.593 Y-46.46 E33.22612
G1 X51.135 Y-46.333 E33.24742
G1 X51.653 Y-46.13 E33.26871
G1 X52.137 Y-45.854 E33.29003
G1 X52.576 Y-45.513 E33.31131
G1 X52.962 Y-45.112 E33.33261
G1 X53.286 Y-44.659 E33.35392
G1 X53.542 Y-44.165 E33.37522
G1 X53.725 Y-43.64 E33.39649
G1 X53.831 Y-43.094 E33.41778
G1 X53.857 Y-42.538 E33.43908
G1 X53.803 Y-41.984 E33.46038
G1 X53.671 Y-41.444 E33.48165
G1 X53.441 Y-40.885 E33.50479
G1 X53.128 Y-40.305 E33.53001
G1 X3.687 Y46.606 E37.35657
G1 X3.345 Y47.186 E37.38233
G1 X3.029 Y47.644 E37.40363
G1 X2.65 Y48.052 E37.42494
G1 X2.217 Y48.401 E37.44622
G1 X1.738 Y48.685 E37.46753
G1 X1.224 Y48.897 E37.48881
G1 X0.684 Y49.033 E37.51012
G1 X0.131 Y49.091 E37.5314
G1 X-.425 Y49.069 E37.5527
G1 X-.972 Y48.967 E37.57399
G1 X-1.499 Y48.788 E37.59529
G1 X-1.995 Y48.536 E37.61658
G1 X-2.449 Y48.215 E37.63786
G1 X-2.853 Y47.832 E37.65916
G1 X-3.319 Y47.206 E37.68903
G1 X-3.881 Y46.264 E37.73101
G0 F2040 X-3.577 Y46.091
G1 F1020 X-52.747 Y-40.342 E41.53654
G1 X-53.072 Y-40.932 E41.56231
G1 X-53.292 Y-41.415 E41.58263
G1 X-53.437 Y-41.925 E41.60292
G1 X-53.504 Y-42.452 E41.62325
G1 X-53.492 Y-42.982 E41.64354
G1 X-53.399 Y-43.505 E41.66386
G1 X-53.23 Y-44.008 E41.68417
G1 X-52.987 Y-44.479 E41.70445
G1 X-52.676 Y-44.909 E41.72476
G1 X-52.303 Y-45.287 E41.74509
G1 X-51.879 Y-45.606 E41.76539
G1 X-51.411 Y-45.856 E41.7857
G1 X-50.911 Y-46.034 E41.80601
G1 X-50.39 Y-46.135 E41.82632
G1 X-49.485 Y-46.168 E41.86097
G1 X49.344 Y-46.168 E45.64311
G1 X50.034 Y-46.158 E45.66952
G1 X50.563 Y-46.11 E45.68985
G1 X51.078 Y-45.984 E45.71014
G1 X51.569 Y-45.781 E45.73047
G1 X52.023 Y-45.508 E45.75075
G1 X52.432 Y-45.169 E45.77108
G1 X52.784 Y-44.772 E45.79138
G1 X53.074 Y-44.328 E45.81168
G1 X53.293 Y-43.844 E45.83201
G1 X53.438 Y-43.334 E45.8523
G1 X53.504 Y-42.807 E45.87262
G1 X53.49 Y-42.277 E45.89291
G1 X53.397 Y-41.754 E45.91324
G1 X53.129 Y-41.042 E45.94236
G1 X52.821 Y-40.475 E45.96705
G1 X3.413 Y46.381 E49.79115
G1 X3.043 Y47.008 E49.81901
G1 X2.74 Y47.444 E49.83933
G1 X2.375 Y47.829 E49.85964
G1 X1.956 Y48.155 E49.87995
G1 X1.493 Y48.414 E49.90025
G1 X0.997 Y48.601 E49.92054
G1 X0.478 Y48.711 E49.94084
G1 X-0.052 Y48.743 E49.96116
G1 X-.581 Y48.694 E49.98149
G1 X-1.096 Y48.566 E50.0018
G1 X-1.586 Y48.363 E50.0221
G1 X-2.04 Y48.088 E50.04241
G1 X-2.447 Y47.748 E50.06271
G1 X-2.799 Y47.351 E50.08301
G1 X-3.019 Y47.026 E50.09803
G1 X-3.577 Y46.091 E50.1397
G0 F2040 X-3.273 Y45.918
G1 F1020 X-52.44 Y-40.511 E53.94504
G1 X-52.765 Y-41.101 E53.97082
G1 X-52.972 Y-41.56 E53.99009
G1 X-53.104 Y-42.046 E54.00936
G1 X-53.158 Y-42.547 E54.02865
G1 X-53.132 Y-43.05 E54.04792
G1 X-53.026 Y-43.542 E54.06718
G1 X-52.844 Y-44.012 E54.08647
G1 X-52.59 Y-44.447 E54.10575
G1 X-52.271 Y-44.836 E54.125
G1 X-51.894 Y-45.17 E54.14428
G1 X-51.468 Y-45.44 E54.16358
G1 X-51.006 Y-45.639 E54.18283
G1 X-50.518 Y-45.763 E54.2021
G1 X-49.968 Y-45.811 E54.22322
G1 X-49.481 Y-45.818 E54.24186
G1 X49.339 Y-45.818 E58.02366
G1 X50.029 Y-45.808 E58.05007
G1 X50.53 Y-45.76 E58.06933
G1 X51.018 Y-45.635 E58.08861
G1 X51.48 Y-45.433 E58.1079
G1 X51.903 Y-45.161 E58.12715
G1 X52.279 Y-44.826 E58.14642
G1 X52.597 Y-44.435 E58.16571
G1 X52.849 Y-43.999 E58.18498
G1 X53.029 Y-43.529 E58.20424
G1 X53.132 Y-43.036 E58.22352
G1 X53.156 Y-42.533 E58.24279
G1 X53.101 Y-42.033 E58.26204
G1 X52.967 Y-41.547 E58.28133
G1 X52.715 Y-41.005 E58.3042
G1 X52.498 Y-40.613 E58.32135
G1 X3.084 Y46.251 E62.14583
G1 X2.742 Y46.831 E62.1716
G1 X2.453 Y47.243 E62.19086
G1 X2.102 Y47.604 E62.21013
G1 X1.698 Y47.905 E62.22941
G1 X1.252 Y48.139 E62.24868
G1 X0.774 Y48.299 E62.26798
G1 X0.278 Y48.381 E62.28721
G1 X-.226 Y48.384 E62.3065
G1 X-.724 Y48.308 E62.32578
G1 X-1.203 Y48.153 E62.34505
G1 X-1.652 Y47.925 E62.36432
G1 X-2.059 Y47.629 E62.38358
G1 X-2.414 Y47.272 E62.40285
G1 X-2.718 Y46.847 E62.42284
G1 X-3.273 Y45.918 E62.46426
G1 F3600 E58.66426
;MESH:support_tri_0_009.stl
G0 F2040 X-.947 Y44.928
G0 X-.187 Y44.495
G0 X0.00 Y44.187
;TYPE:WALL-INNER
G1 F3600 E62.46426
G1 F1020 X-49.098 Y-42.118 E66.26417
G1 X49.098 Y-42.118 E70.02208
G1 X0.00 Y44.187 E73.82199
G0 F2040 X0.00 Y44.844
;TYPE:WALL-OUTER
G1 F1020 X-49.656 Y-42.443 E77.66512
G1 X49.656 Y-42.443 E81.46574
G1 X0.00 Y44.844 E85.30887
G0 F2040 X-0.098 Y44.671
G0 X-0.011 Y44.623
G0 X0.00 Y43.5
;TYPE:SKIN
G1 F1020 X-48.513 Y-41.778 E89.06355
G1 X48.513 Y-41.778 E92.77669
G1 X0.00 Y43.5 E96.53137
G0 F2040 X0.043 Y43.105
G1 F1020 X-.155 Y42.907 E96.54208
G0 F2040 X0.222 Y42.79
G1 F1020 X-.808 Y41.758 E96.59788
G1 X-.87 Y41.696
G0 F2040 X-1.462 Y40.61
G1 F1020 X0.402 Y42.475 E96.69879
G0 F2040 X0.581 Y42.159
G1 F1020 X-2.114 Y39.462 E96.8447
G1 X-2.176 Y39.4
G0 F2040 X-2.768 Y38.314
G1 F1020 X0.76 Y41.843 E97.03567
G0 F2040 X0.94 Y41.528
G1 F1020 X-3.421 Y37.166 E97.27172
G1 X-3.483 Y37.104
G0 F2040 X-4.075 Y36.017
G1 F1020 X1.12 Y41.213 E97.55291
G0 F2040 X1.299 Y40.897
G1 F1020 X-4.727 Y34.87 E97.87907
G1 X-4.789 Y34.808
G0 F2040 X-5.381 Y33.721
G1 F1020 X1.478 Y40.581 E98.25031
G0 F2040 X1.658 Y40.266
G1 F1020 X-6.034 Y32.573 E98.66664
G1 X-6.096 Y32.511
G0 F2040 X-6.687 Y31.425
G1 F1020 X1.837 Y39.95 E99.128
G0 F2040 X2.017 Y39.635
G1 F1020 X-7.34 Y30.277 E99.63444
G1 X-7.402 Y30.215
G0 F2040 X-7.993 Y29.129
G1 F1020 X2.196 Y39.32 E100.18593
G0 F2040 X2.376 Y39.004
G1 F1020 X-8.646 Y27.981 E100.78248
G1 X-8.708 Y27.919
G0 F2040 X-9.299 Y26.833
G1 F1020 X2.555 Y38.688 E101.42406
G0 F2040 X2.735 Y38.373
G1 F1020 X-9.953 Y25.684 E102.11078
G1 X-10.015 Y25.622
G0 F2040 X-10.605 Y24.537
G1 F1020 X2.914 Y38.057 E102.84248
G0 F2040 X3.094 Y37.742
G1 F1020 X-11.259 Y23.388 E103.6193
G1 X-11.321 Y23.326
G0 F2040 X-11.912 Y22.24
G1 F1020 X3.273 Y37.427 E104.44119
G0 F2040 X3.453 Y37.111
G1 F1020 X-12.565 Y21.092 E105.30813
G1 X-12.627 Y21.03
G0 F2040 X-13.218 Y19.944
G1 F1020 X3.632 Y36.795 E106.2201
G0 F2040 X3.812 Y36.48
G1 F1020 X-13.872 Y18.796 E107.17718
G1 X-13.934 Y18.734
G0 F2040 X-14.525 Y17.647
G1 F1020 X3.991 Y36.164 E108.17932
G0 F2040 X4.171 Y35.849
G1 F1020 X-15.178 Y16.5 E109.22651
G1 X-15.24 Y16.438
G0 F2040 X-15.831 Y15.351
G1 F1020 X4.35 Y35.534 E110.31879
G0 F2040 X4.529 Y35.218
G1 F1020 X-16.484 Y14.203 E111.45609
G1 X-16.546 Y14.141
G0 F2040 X-17.137 Y13.056
G1 F1020 X4.709 Y34.902 E112.63843
G0 F2040 X4.888 Y34.587
G1 F1020 X-17.79 Y11.907 E113.86584
G1 X-17.852 Y11.845
G0 F2040 X-18.444 Y10.759
G1 F1020 X5.068 Y34.272 E115.13837
G0 F2040 X5.248 Y33.956
G1 F1020 X-19.097 Y9.61 E116.45598
G1 X-19.159 Y9.548
G0 F2040 X-19.75 Y8.463
G1 F1020 X5.427 Y33.641 E117.81862
G0 F2040 X5.606 Y33.325
G1 F1020 X-20.403 Y7.315 E119.22628
G1 X-20.465 Y7.253
G0 F2040 X-21.056 Y6.166
G1 F1020 X5.786 Y33.009 E120.67903
G0 F2040 X5.965 Y32.694
G1 F1020 X-21.709 Y5.019 E122.17681
G1 X-21.771 Y4.957
G0 F2040 X-22.362 Y3.87
G1 F1020 X6.145 Y32.379 E123.7197
G0 F2040 X6.325 Y32.063
G1 F1020 X-23.016 Y2.722 E125.30767
G1 X-23.078 Y2.66
G0 F2040 X-23.668 Y1.574
G1 F1020 X6.504 Y31.748 E126.94068
G0 F2040 X6.683 Y31.432
G1 F1020 X-24.322 Y0.426 E128.61873
G1 X-24.384 Y0.364
G0 F2040 X-24.975 Y-.721
G1 F1020 X6.863 Y31.116 E130.34182
G0 F2040 X7.042 Y30.801
G1 F1020 X-25.629 Y-1.87 E132.11002
G1 X-25.691 Y-1.932
G0 F2040 X-26.281 Y-3.017
G1 F1020 X7.222 Y30.486 E133.92324
G0 F2040 X7.401 Y30.17
G1 F1020 X-26.935 Y-4.166 E135.78155
G1 X-26.997 Y-4.228
G0 F2040 X-27.588 Y-5.314
G1 F1020 X7.58 Y29.854 E137.68489
G0 F2040 X7.76 Y29.539
G1 F1020 X-28.241 Y-6.462 E139.63331
G1 X-28.303 Y-6.524
G0 F2040 X-28.894 Y-7.61
G1 F1020 X7.94 Y29.224 E141.62681
G0 F2040 X8.119 Y28.908
G1 F1020 X-29.547 Y-8.758 E143.66534
G1 X-29.609 Y-8.82
G0 F2040 X-30.2 Y-9.906
G1 F1020 X8.299 Y28.593 E145.74896
G0 F2040 X8.478 Y28.277
G1 F1020 X-30.853 Y-11.054 E147.8776
G1 X-30.915 Y-11.116
G0 F2040 X-31.507 Y-12.203
G1 F1020 X8.657 Y27.961 E150.05133
G0 F2040 X8.837 Y27.646
G1 F1020 X-32.159 Y-13.35 E152.27008
G1 X-32.221 Y-13.412
G0 F2040 X-32.813 Y-14.499
G1 F1020 X9.017 Y27.331 E154.53397
G0 F2040 X9.196 Y27.015
G1 F1020 X-33.466 Y-15.647 E156.8429
G1 X-33.528 Y-15.709
G0 F2040 X-34.12 Y-16.795
G1 F1020 X9.376 Y26.7 E159.19693
G0 F2040 X9.555 Y26.384
G1 F1020 X-34.772 Y-17.943 E161.59596
G1 X-34.834 Y-18.005
G0 F2040 X-35.426 Y-19.091
G1 F1020 X9.734 Y26.068 E164.04005
G0 F2040 X9.914 Y25.753
G1 F1020 X-36.079 Y-20.24 E166.52925
G1 X-36.141 Y-20.302
G0 F2040 X-36.732 Y-21.387
G1 F1020 X10.093 Y25.438 E169.06348
G0 F2040 X10.273 Y25.122
G1 F1020 X-37.385 Y-22.536 E171.64279
G1 X-37.447 Y-22.598
G0 F2040 X-38.038 Y-23.684
G1 F1020 X10.453 Y24.807 E174.26719
G0 F2040 X10.632 Y24.491
G1 F1020 X-38.691 Y-24.832 E176.93661
G1 X-38.753 Y-24.894
G0 F2040 X-39.344 Y-25.98
G1 F1020 X10.811 Y24.175 E179.65106
G0 F2040 X10.991 Y23.86
G1 F1020 X-39.998 Y-27.128 E182.41063
G1 X-40.06 Y-27.19
G0 F2040 X-40.651 Y-28.277
G1 F1020 X11.17 Y23.545 E185.21527
G0 F2040 X11.35 Y23.229
G1 F1020 X-41.304 Y-29.424 E188.06495
G1 X-41.366 Y-29.486
G0 F2040 X-41.957 Y-30.573
G1 F1020 X11.53 Y22.914 E190.95973
G0 F2040 X11.708 Y22.598
G1 F1020 X-42.61 Y-31.721 E193.89952
G1 X-42.672 Y-31.783
G0 F2040 X-43.263 Y-32.869
G1 F1020 X11.888 Y22.283 E196.88439
G0 F2040 X12.068 Y21.967
G1 F1020 X-43.916 Y-34.017 E199.91431
G1 X-43.978 Y-34.079
G0 F2040 X-44.57 Y-35.165
G1 F1020 X12.247 Y21.652 E202.98932
G0 F2040 X12.427 Y21.336
G1 F1020 X-45.223 Y-36.313 E206.10938
G1 X-45.285 Y-36.375
G0 F2040 X-45.876 Y-37.461
G1 F1020 X12.607 Y21.021 E209.27453
G0 F2040 X12.785 Y20.705
G1 F1020 X-46.529 Y-38.61 E212.48471
G1 X-46.591 Y-38.672
G0 F2040 X-47.182 Y-39.757
G1 F1020 X12.965 Y20.39 E215.73994
G0 F2040 X13.145 Y20.074
G1 F1020 X-47.835 Y-40.906 E219.04026
G1 X-47.897 Y-40.968
G0 F2040 X-48.055 Y-41.621
G1 F1020 X13.324 Y19.759 E222.36219
G0 F2040 X13.504 Y19.444
G1 F1020 X-47.56 Y-41.621 E225.66708
G0 F2040 X-47.065 Y-41.621
G1 F1020 X13.683 Y19.127 E228.95484
G0 F2040 X13.862 Y18.812
G1 F1020 X-46.57 Y-41.621 E232.22552
G0 F2040 X-46.075 Y-41.621
G1 F1020 X14.042 Y18.497 E235.47916
G0 F2040 X14.222 Y18.181
G1 F1020 X-45.58 Y-41.621 E238.71572
G0 F2040 X-45.085 Y-41.621
G1 F1020 X14.401 Y17.866 E241.93521
G0 F2040 X14.581 Y17.551
G1 F1020 X-44.59 Y-41.621 E245.13764
G0 F2040 X-44.095 Y-41.621
G1 F1020 X14.76 Y17.235 E248.32298
G0 F2040 X14.939 Y16.919
G1 F1020 X-43.6 Y-41.621 E251.49121
G0 F2040 X-43.105 Y-41.621
G1 F1020 X15.119 Y16.604 E254.64239
G0 F2040 X15.298 Y16.288
G1 F1020 X-42.61 Y-41.621 E257.77647
G0 F2040 X-42.115 Y-41.621
G1 F1020 X15.478 Y15.973 E260.89351
G0 F2040 X15.658 Y15.658
G1 F1020 X-41.621 Y-41.621 E263.99352
G0 F2040 X-41.126 Y-41.621
G1 F1020 X15.837 Y15.342 E267.07643
G0 F2040 X16.016 Y15.026
G1 F1020 X-40.631 Y-41.621 E270.14224
G0 F2040 X-40.136 Y-41.621
G1 F1020 X16.196 Y14.711 E273.191
G0 F2040 X16.375 Y14.395
G1 F1020 X-39.641 Y-41.621 E276.22266
G0 F2040 X-39.146 Y-41.621
G1 F1020 X16.555 Y14.08 E279.23726
G0 F2040 X16.734 Y13.764
G1 F1020 X-38.651 Y-41.621 E282.23477
G0 F2040 X-38.156 Y-41.621
G1 F1020 X16.913 Y13.449 E285.2152
G0 F2040 X17.093 Y13.133
G1 F1020 X-37.661 Y-41.621 E288.17856
G0 F2040 X-37.166 Y-41.621
G1 F1020 X17.273 Y12.818 E291.12487
G0 F2040 X17.452 Y12.503
G1 F1020 X-36.671 Y-41.621 E294.0541
G0 F2040 X-36.176 Y-41.621
G1 F1020 X17.632 Y12.187 E296.96626
G0 F2040 X17.811 Y11.871
G1 F1020 X-35.681 Y-41.621 E299.86131
G0 F2040 X-35.186 Y-41.621
G1 F1020 X17.99 Y11.556 E302.73929
G0 F2040 X18.17 Y11.24
G1 F1020 X-34.691 Y-41.621 E305.6002
G0 F2040 X-34.196 Y-41.621
G1 F1020 X18.35 Y10.925 E308.44405
G0 F2040 X18.529 Y10.61
G1 F1020 X-33.701 Y-41.621 E311.27084
G0 F2040 X-33.206 Y-41.621
G1 F1020 X18.709 Y10.294 E314.08054
G0 F2040 X18.888 Y9.978
G1 F1020 X-32.711 Y-41.621 E316.87314
G0 F2040 X-32.216 Y-41.621
G1 F1020 X19.067 Y9.663 E319.64867
G0 F2040 X19.247 Y9.347
