;FLAVOR:Marlin
;TIME:6368
;Filament used: 7.99027m
;Layer height: 0.3
;MINX:-41.888
;MINY:-24.811
;MINZ:0.26
;MAXX:68.003
;MAXY:72.897
;MAXZ:23.06
;Generated with Cura_SteamEngine 4.9.1
M82 ;absolute extrusion mode
;Gcode by Cura
G90
G28
M107
M109 R100
G30
M109 S215 U-55 X55 V-85 Y-85 W0.26 Z0.26
M82
G92 E0
G1 F200 E6
G92 E0
G1 F200 E-3.5
G0 Z0.15
G0 X10
G0 Z3
G1 F6000
G92 E0
G92 E0
G1 F3600 E-3.8
;LAYER_COUNT:77
;LAYER:0
M107
G0 F2040 X-40.938 Y-17.354 Z0.26
;TYPE:SKIRT
G1 F3600 E0
G1 F1020 X-41.276 Y-17.94 E0.02589
G1 X-41.543 Y-18.483 E0.04905
G1 X-41.736 Y-19.056 E0.07218
G1 X-41.852 Y-19.649 E0.09531
G1 X-41.888 Y-20.253 E0.11846
G1 X-41.844 Y-20.856 E0.1416
G1 X-41.722 Y-21.448 E0.16473
G1 X-41.522 Y-22.019 E0.18789
G1 X-41.249 Y-22.558 E0.21101
G1 X-40.907 Y-23.057 E0.23416
G1 X-40.502 Y-23.506 E0.2573
G1 X-40.042 Y-23.898 E0.28043
G1 X-39.534 Y-24.226 E0.30357
G1 X-38.987 Y-24.484 E0.32672
G1 X-38.411 Y-24.667 E0.34985
G1 X-37.816 Y-24.773 E0.37297
G1 X-37.103 Y-24.809 E0.4003
G1 X-36.97 Y-24.811 E0.40539
G1 X62.808 Y-24.811 E4.22384
G1 X63.496 Y-24.801 E4.25017
G1 X64.099 Y-24.752 E4.27333
G1 X64.69 Y-24.624 E4.29647
G1 X65.259 Y-24.419 E4.31961
G1 X65.796 Y-24.142 E4.34274
G1 X66.292 Y-23.795 E4.3659
G1 X66.738 Y-23.387 E4.38904
G1 X67.126 Y-22.923 E4.41218
G1 X67.449 Y-22.412 E4.43532
G1 X67.702 Y-21.863 E4.45845
G1 X67.881 Y-21.285 E4.48161
G1 X67.981 Y-20.689 E4.50474
G1 X68.003 Y-20.085 E4.52787
G1 X67.944 Y-19.483 E4.55101
G1 X67.807 Y-18.894 E4.57416
G1 X67.485 Y-18.107 E4.6067
G1 X67.104 Y-17.38 E4.63811
G1 X19.721 Y69.944 E8.44023
G1 X19.371 Y70.566 E8.46754
G1 X19.04 Y71.072 E8.49068
G1 X18.646 Y71.53 E8.5138
G1 X18.194 Y71.932 E8.53695
G1 X17.694 Y72.271 E8.56007
G1 X17.153 Y72.541 E8.58321
G1 X16.581 Y72.738 E8.60636
G1 X15.988 Y72.857 E8.6295
G1 X15.385 Y72.897 E8.65263
G1 X14.781 Y72.857 E8.6758
G1 X14.189 Y72.738 E8.69891
G1 X13.617 Y72.542 E8.72205
G1 X13.076 Y72.272 E8.74518
G1 X12.575 Y71.933 E8.76833
G1 X12.123 Y71.531 E8.79148
G1 X11.729 Y71.073 E8.8146
G1 X11.336 Y70.481 E8.8418
G1 X11.267 Y70.369 E8.84683
G1 X-40.938 Y-17.354 E12.75345
G0 F2040 X-40.635 Y-17.529
G1 F1020 X-40.973 Y-18.115 E12.77934
G1 X-41.228 Y-18.637 E12.80157
G1 X-41.409 Y-19.189 E12.8238
G1 X-41.512 Y-19.761 E12.84605
G1 X-41.536 Y-20.342 E12.8683
G1 X-41.481 Y-20.92 E12.89052
G1 X-41.346 Y-21.485 E12.91275
G1 X-41.135 Y-22.027 E12.93501
G1 X-40.852 Y-22.534 E12.95723
G1 X-40.502 Y-22.998 E12.97947
G1 X-40.091 Y-23.409 E13.00172
G1 X-39.629 Y-23.76 E13.02392
G1 X-39.122 Y-24.044 E13.04616
G1 X-38.581 Y-24.256 E13.0684
G1 X-38.016 Y-24.392 E13.09064
G1 X-37.436 Y-24.449 E13.11294
G1 X-36.97 Y-24.461 E13.13078
G1 X62.803 Y-24.461 E16.94904
G1 X63.491 Y-24.451 E16.97538
G1 X64.07 Y-24.402 E16.99761
G1 X64.637 Y-24.275 E17.01985
G1 X65.181 Y-24.071 E17.04208
G1 X65.692 Y-23.794 E17.06433
G1 X66.161 Y-23.45 E17.08659
G1 X66.577 Y-23.045 E17.10881
G1 X66.934 Y-22.587 E17.13103
G1 X67.225 Y-22.084 E17.15327
G1 X67.444 Y-21.545 E17.17553
G1 X67.587 Y-20.982 E17.19776
G1 X67.651 Y-20.405 E17.21998
G1 X67.636 Y-19.824 E17.24222
G1 X67.541 Y-19.251 E17.26445
G1 X67.368 Y-18.696 E17.2867
G1 X67.175 Y-18.269 E17.30463
G1 X66.797 Y-17.547 E17.33582
G1 X19.416 Y69.772 E21.13773
G1 X19.066 Y70.394 E21.16504
G1 X18.747 Y70.879 E21.18726
G1 X18.364 Y71.317 E21.20953
G1 X17.925 Y71.697 E21.23175
G1 X17.438 Y72.014 E21.25398
G1 X16.912 Y72.261 E21.27622
G1 X16.357 Y72.433 E21.29846
G1 X15.784 Y72.528 E21.32069
G1 X15.203 Y72.543 E21.34293
G1 X14.626 Y72.478 E21.36515
G1 X14.063 Y72.335 E21.38738
G1 X13.525 Y72.116 E21.40961
G1 X13.022 Y71.825 E21.43185
G1 X12.563 Y71.468 E21.4541
G1 X12.159 Y71.051 E21.47632
G1 X11.817 Y70.586 E21.49841
G1 X11.567 Y70.19 E21.51633
G1 X-40.635 Y-17.529 E25.42276
G0 F2040 X-40.332 Y-17.704
G1 F1020 X-40.67 Y-18.29 E25.44865
G1 X-40.912 Y-18.791 E25.46994
G1 X-41.081 Y-19.321 E25.49123
G1 X-41.172 Y-19.87 E25.51253
G1 X-41.183 Y-20.426 E25.53381
G1 X-41.114 Y-20.978 E25.5551
G1 X-40.967 Y-21.515 E25.57641
G1 X-40.745 Y-22.025 E25.59769
G1 X-40.452 Y-22.498 E25.61899
G1 X-40.094 Y-22.924 E25.64028
G1 X-39.679 Y-23.295 E25.66159
G1 X-39.215 Y-23.602 E25.68288
G1 X-38.712 Y-23.84 E25.70417
G1 X-38.18 Y-24.003 E25.72547
G1 X-37.426 Y-24.099 E25.75456
G1 X-36.97 Y-24.111 E25.77201
G1 X62.798 Y-24.111 E29.59009
G1 X63.486 Y-24.101 E29.61642
G1 X64.041 Y-24.053 E29.63774
G1 X64.582 Y-23.926 E29.659
G1 X65.1 Y-23.722 E29.68031
G1 X65.584 Y-23.447 E29.70161
G1 X66.023 Y-23.106 E29.72289
G1 X66.409 Y-22.704 E29.74421
G1 X66.733 Y-22.252 E29.7655
G1 X66.989 Y-21.758 E29.78679
G1 X67.172 Y-21.233 E29.80807
G1 X67.278 Y-20.686 E29.82939
G1 X67.304 Y-20.131 E29.85065
G1 X67.25 Y-19.577 E29.87195
G1 X67.118 Y-19.036 E29.89326
G1 X66.864 Y-18.431 E29.91838
G1 X66.489 Y-17.714 E29.94934
G1 X19.111 Y69.6 E33.75103
G1 X18.761 Y70.222 E33.77834
G1 X18.454 Y70.686 E33.79964
G1 X18.084 Y71.102 E33.82094
G1 X17.658 Y71.46 E33.84224
G1 X17.185 Y71.753 E33.86353
G1 X16.675 Y71.976 E33.88483
G1 X16.139 Y72.123 E33.9061
G1 X15.586 Y72.192 E33.92743
G1 X15.03 Y72.181 E33.94871
G1 X14.481 Y72.09 E33.97001
G1 X13.951 Y71.922 E33.99128
G1 X13.45 Y71.68 E34.01258
G1 X12.989 Y71.368 E34.03388
G1 X12.577 Y70.994 E34.05517
G1 X12.113 Y70.399 E34.08405
G1 X11.868 Y70.011 E34.10161
G1 X-40.332 Y-17.704 E38.00787
G0 F2040 X-40.028 Y-17.879
G1 F1020 X-40.366 Y-18.465 E38.03376
G1 X-40.596 Y-18.943 E38.05406
G1 X-40.752 Y-19.451 E38.0744
G1 X-40.829 Y-19.975 E38.09467
G1 X-40.827 Y-20.506 E38.11499
G1 X-40.745 Y-21.03 E38.13528
G1 X-40.585 Y-21.537 E38.15563
G1 X-40.352 Y-22.013 E38.17591
G1 X-40.049 Y-22.449 E38.19623
G1 X-39.684 Y-22.834 E38.21653
G1 X-39.266 Y-23.161 E38.23684
G1 X-38.803 Y-23.421 E38.25716
G1 X-38.307 Y-23.608 E38.27745
G1 X-37.788 Y-23.719 E38.29776
G1 X-37.073 Y-23.76 E38.32517
G1 X62.793 Y-23.761 E42.14699
G1 X63.481 Y-23.751 E42.17333
G1 X64.01 Y-23.703 E42.19365
G1 X64.525 Y-23.577 E42.21394
G1 X65.016 Y-23.374 E42.23428
G1 X65.47 Y-23.1 E42.25457
G1 X65.879 Y-22.762 E42.27488
G1 X66.232 Y-22.365 E42.29521
G1 X66.521 Y-21.921 E42.31548
G1 X66.74 Y-21.437 E42.33581
G1 X66.885 Y-20.927 E42.3561
G1 X66.951 Y-20.4 E42.37643
G1 X66.937 Y-19.87 E42.39672
G1 X66.844 Y-19.347 E42.41705
G1 X66.673 Y-18.845 E42.43734
G1 X66.554 Y-18.593 E42.44801
G1 X66.181 Y-17.881 E42.47877
G1 X18.806 Y69.429 E46.28027
G1 X18.456 Y70.051 E46.30758
G1 X18.162 Y70.492 E46.32786
G1 X17.804 Y70.885 E46.34821
G1 X17.392 Y71.219 E46.3685
G1 X16.935 Y71.488 E46.3888
G1 X16.442 Y71.684 E46.4091
G1 X15.925 Y71.805 E46.42942
G1 X15.396 Y71.847 E46.44973
G1 X14.867 Y71.809 E46.47003
G1 X14.349 Y71.692 E46.49035
G1 X13.855 Y71.498 E46.51066
G1 X13.396 Y71.233 E46.53094
G1 X12.981 Y70.901 E46.55128
G1 X12.621 Y70.511 E46.57159
G1 X12.222 Y69.918 E46.59895
G1 X12.169 Y69.832 E46.60281
G1 X-40.028 Y-17.879 E50.50888
G0 F2040 X-39.725 Y-18.054
G1 F1020 X-40.063 Y-18.64 E50.53477
G1 X-40.28 Y-19.094 E50.55403
G1 X-40.421 Y-19.578 E50.57332
G1 X-40.485 Y-20.077 E50.59257
G1 X-40.468 Y-20.581 E50.61187
G1 X-40.372 Y-21.075 E50.63113
G1 X-40.2 Y-21.548 E50.65039
G1 X-39.954 Y-21.988 E50.66968
G1 X-39.643 Y-22.383 E50.68892
G1 X-39.272 Y-22.724 E50.70821
G1 X-38.852 Y-23.003 E50.7275
G1 X-38.394 Y-23.211 E50.74675
G1 X-37.908 Y-23.345 E50.76605
G1 X-37.406 Y-23.4 E50.78537
G1 X-36.97 Y-23.411 E50.80206
G1 X62.788 Y-23.411 E54.61975
G1 X63.476 Y-23.401 E54.64609
G1 X63.978 Y-23.353 E54.66539
G1 X64.465 Y-23.228 E54.68463
G1 X64.927 Y-23.026 E54.70392
G1 X65.351 Y-22.754 E54.7232
G1 X65.726 Y-22.419 E54.74245
G1 X66.044 Y-22.028 E54.76173
G1 X66.296 Y-21.592 E54.78101
G1 X66.476 Y-21.122 E54.80027
G1 X66.579 Y-20.629 E54.81954
G1 X66.603 Y-20.126 E54.83881
G1 X66.548 Y-19.625 E54.8581
G1 X66.414 Y-19.14 E54.87736
G1 X66.244 Y-18.755 E54.89346
G1 X65.874 Y-18.048 E54.924
G1 X18.501 Y69.257 E58.72529
G1 X18.151 Y69.879 E58.75261
G1 X17.87 Y70.297 E58.77188
G1 X17.527 Y70.665 E58.79114
G1 X17.129 Y70.974 E58.81042
G1 X16.688 Y71.217 E58.82969
G1 X16.214 Y71.387 E58.84896
G1 X15.719 Y71.479 E58.86823
G1 X15.215 Y71.493 E58.88752
G1 X14.716 Y71.426 E58.90679
G1 X14.234 Y71.281 E58.92605
G1 X13.78 Y71.062 E58.94534
G1 X13.367 Y70.774 E58.96461
G1 X13.005 Y70.424 E58.98388
G1 X12.703 Y70.024 E59.00306
G1 X12.47 Y69.653 E59.01983
G1 X-39.725 Y-18.054 E62.92573
G1 F3600 E59.12573
;MESH:support_tri_0_087.stl
G0 F2040 X-37.562 Y-19.327
G0 X-36.683 Y-19.851
G0 X15.364 Y67.281
;TYPE:WALL-INNER
G1 F3600 E62.92573
G1 F1020 X-36.407 Y-19.711 E66.79981
G1 X62.567 Y-19.711 E70.5875
G1 X15.364 Y67.281 E74.37516
G0 F2040 X15.377 Y67.938
;TYPE:WALL-OUTER
G1 F1020 X-36.978 Y-20.036 E78.29297
G1 X63.113 Y-20.036 E82.12341
G1 X15.377 Y67.938 E85.95383
G0 F2040 X15.275 Y67.767
G0 X15.362 Y67.716
G0 X15.35 Y66.594
;TYPE:SKIN
G1 F1020 X-35.81 Y-19.371 E89.78219
G1 X61.996 Y-19.371 E93.52517
G1 X15.35 Y66.594 E97.26813
G0 F2040 X15.501 Y65.988
G1 F1020 X14.688 Y65.175 E97.31213
G1 X14.626 Y65.113
G0 F2040 X15.675 Y65.667
G1 F1020 X13.96 Y63.952 E97.40495
G1 X13.898 Y63.89
G0 F2040 X13.232 Y62.73
G1 F1020 X15.849 Y65.346 E97.54655
G0 F2040 X16.023 Y65.026
G1 F1020 X12.505 Y61.507 E97.73698
G1 X12.443 Y61.445
G0 F2040 X11.778 Y60.285
G1 F1020 X16.197 Y64.705 E97.97617
G0 F2040 X16.371 Y64.384
G1 F1020 X11.05 Y59.063 E98.26415
G1 X10.988 Y59.001
G0 F2040 X10.323 Y57.84
G1 F1020 X16.545 Y64.063 E98.60092
G0 F2040 X16.72 Y63.742
G1 F1020 X9.595 Y56.618 E98.9865
G1 X9.533 Y56.556
G0 F2040 X8.867 Y55.395
G1 F1020 X16.894 Y63.421 E99.42091
G0 F2040 X17.068 Y63.1
G1 F1020 X8.14 Y54.172 E99.9041
G1 X8.078 Y54.11
G0 F2040 X7.412 Y52.95
G1 F1020 X17.242 Y62.779 E100.43609
G0 F2040 X17.416 Y62.458
G1 F1020 X6.684 Y51.727 E101.01689
G1 X6.622 Y51.665
G0 F2040 X5.957 Y50.505
G1 F1020 X17.59 Y62.138 E101.64648
G0 F2040 X17.764 Y61.817
G1 F1020 X5.229 Y49.282 E102.32489
G1 X5.167 Y49.22
G0 F2040 X4.502 Y48.059
G1 F1020 X17.938 Y61.496 E103.05209
G0 F2040 X18.112 Y61.175
G1 F1020 X3.774 Y46.837 E103.82809
G1 X3.712 Y46.775
G0 F2040 X3.047 Y45.615
G1 F1020 X18.287 Y60.855 E104.65289
G0 F2040 X18.461 Y60.533
G1 F1020 X2.32 Y44.392 E105.52647
G1 X2.258 Y44.33
G0 F2040 X1.592 Y43.17
G1 F1020 X18.635 Y60.212 E106.44883
G0 F2040 X18.809 Y59.891
G1 F1020 X0.864 Y41.947 E107.42001
G1 X0.802 Y41.885
G0 F2040 X0.137 Y40.725
G1 F1020 X18.982 Y59.57 E108.43992
G0 F2040 X19.157 Y59.25
G1 F1020 X-.59 Y39.502 E109.50868
G1 X-.652 Y39.44
G0 F2040 X-1.318 Y38.279
G1 F1020 X19.331 Y58.929 E110.62626
G0 F2040 X19.505 Y58.608
G1 F1020 X-2.045 Y37.057 E111.7926
G1 X-2.107 Y36.995
G0 F2040 X-2.773 Y35.834
G1 F1020 X19.679 Y58.287 E113.00776
G0 F2040 X19.853 Y57.966
G1 F1020 X-3.5 Y34.612 E114.27168
G1 X-3.562 Y34.55
G0 F2040 X-4.228 Y33.389
G1 F1020 X20.028 Y57.646 E115.58447
G0 F2040 X20.202 Y57.325
G1 F1020 X-4.955 Y32.167 E116.94603
G1 X-5.017 Y32.105
G0 F2040 X-5.683 Y30.945
G1 F1020 X20.375 Y57.004 E118.35635
G0 F2040 X20.549 Y56.683
G1 F1020 X-6.41 Y29.722 E119.81546
G1 X-6.472 Y29.66
G0 F2040 X-7.138 Y28.499
G1 F1020 X20.724 Y56.362 E121.32341
G0 F2040 X20.898 Y56.041
G1 F1020 X-7.865 Y27.277 E122.88013
G1 X-7.927 Y27.215
G0 F2040 X-8.593 Y26.054
G1 F1020 X21.072 Y55.72 E124.48566
G0 F2040 X21.246 Y55.399
G1 F1020 X-9.321 Y24.832 E126.13999
G1 X-9.383 Y24.77
G0 F2040 X-10.048 Y23.609
G1 F1020 X21.42 Y55.078 E127.8431
G0 F2040 X21.595 Y54.758
G1 F1020 X-10.776 Y22.387 E129.59506
G1 X-10.838 Y22.325
G0 F2040 X-11.503 Y21.164
G1 F1020 X21.768 Y54.437 E131.39578
G0 F2040 X21.942 Y54.116
G1 F1020 X-12.231 Y19.941 E133.24533
G1 X-12.293 Y19.879
G0 F2040 X-12.959 Y18.719
G1 F1020 X22.116 Y53.795 E135.14366
G0 F2040 X22.291 Y53.474
G1 F1020 X-13.686 Y17.497 E137.09078
G1 X-13.748 Y17.435
G0 F2040 X-14.413 Y16.274
G1 F1020 X22.465 Y53.153 E139.08669
G0 F2040 X22.639 Y52.832
G1 F1020 X-15.141 Y15.052 E141.13139
G1 X-15.203 Y14.99
G0 F2040 X-15.868 Y13.829
G1 F1020 X22.813 Y52.511 E143.22488
G0 F2040 X22.987 Y52.19
G1 F1020 X-16.596 Y12.607 E145.36716
G1 X-16.658 Y12.545
G0 F2040 X-17.324 Y11.384
G1 F1020 X23.161 Y51.87 E147.55829
G0 F2040 X23.335 Y51.549
G1 F1020 X-18.051 Y10.161 E149.79821
G1 X-18.113 Y10.099
G0 F2040 X-18.779 Y8.939
G1 F1020 X23.509 Y51.228 E152.08692
G0 F2040 X23.683 Y50.907
G1 F1020 X-19.506 Y7.716 E154.42441
G1 X-19.568 Y7.654
G0 F2040 X-20.234 Y6.494
G1 F1020 X23.858 Y50.587 E156.81076
G0 F2040 X24.032 Y50.266
G1 F1020 X-20.962 Y5.271 E159.24592
G1 X-21.024 Y5.209
G0 F2040 X-21.689 Y4.049
G1 F1020 X24.206 Y49.945 E161.72984
G0 F2040 X24.38 Y49.624
G1 F1020 X-22.416 Y2.827 E164.26253
G1 X-22.478 Y2.765
G0 F2040 X-23.144 Y1.604
G1 F1020 X24.554 Y49.303 E166.84403
G0 F2040 X24.728 Y48.982
G1 F1020 X-23.871 Y0.381 E169.47432
G1 X-23.933 Y0.319
G0 F2040 X-24.599 Y-.84
G1 F1020 X24.902 Y48.661 E172.15338
G0 F2040 X25.076 Y48.34
G1 F1020 X-25.327 Y-2.063 E174.88125
G1 X-25.389 Y-2.125
G0 F2040 X-26.054 Y-3.285
G1 F1020 X25.25 Y48.019 E177.65789
G0 F2040 X25.424 Y47.698
G1 F1020 X-26.782 Y-4.508 E180.48335
G1 X-26.844 Y-4.57
G0 F2040 X-27.509 Y-5.731
G1 F1020 X25.599 Y47.378 E183.35765
G0 F2040 X25.773 Y47.057
G1 F1020 X-28.237 Y-6.953 E186.28074
G1 X-28.299 Y-7.015
G0 F2040 X-28.965 Y-8.176
G1 F1020 X25.947 Y46.736 E189.25264
G0 F2040 X26.121 Y46.415
G1 F1020 X-29.692 Y-9.398 E192.27332
G1 X-29.754 Y-9.46
G0 F2040 X-30.419 Y-10.62
G1 F1020 X26.295 Y46.094 E195.34275
G0 F2040 X26.469 Y45.773
G1 F1020 X-31.147 Y-11.843 E198.461
G1 X-31.209 Y-11.905
G0 F2040 X-31.874 Y-13.065
G1 F1020 X26.643 Y45.452 E201.62802
G0 F2040 X26.817 Y45.131
G1 F1020 X-32.602 Y-14.288 E204.84385
G1 X-32.664 Y-14.35
G0 F2040 X-33.33 Y-15.511
G1 F1020 X26.991 Y44.81 E208.1085
G0 F2040 X27.166 Y44.49
G1 F1020 X-34.057 Y-16.733 E211.42196
G1 X-34.119 Y-16.795
G0 F2040 X-34.785 Y-17.956
G1 F1020 X27.34 Y44.169 E214.78425
G0 F2040 X27.514 Y43.848
G1 F1020 X-35.513 Y-19.178 E218.19532
G0 F2040 X-35.052 Y-19.213
G1 F1020 X27.688 Y43.527 E221.59089
G0 F2040 X27.862 Y43.207
G1 F1020 X-34.557 Y-19.213 E224.96911
G0 F2040 X-34.062 Y-19.213
G1 F1020 X28.036 Y42.886 E228.32996
G0 F2040 X28.21 Y42.564
G1 F1020 X-33.567 Y-19.213 E231.67341
G0 F2040 X-33.072 Y-19.213
G1 F1020 X28.384 Y42.243 E234.99949
G0 F2040 X28.558 Y41.922
G1 F1020 X-32.577 Y-19.213 E238.30819
G0 F2040 X-32.082 Y-19.213
G1 F1020 X28.733 Y41.602 E241.59958
G0 F2040 X28.907 Y41.281
G1 F1020 X-31.587 Y-19.213 E244.87359
G0 F2040 X-31.092 Y-19.213
G1 F1020 X29.081 Y40.96 E248.13023
G0 F2040 X29.255 Y40.639
G1 F1020 X-30.597 Y-19.213 E251.3695
G0 F2040 X-30.102 Y-19.213
G1 F1020 X29.429 Y40.319 E254.59142
G0 F2040 X29.603 Y39.998
G1 F1020 X-29.607 Y-19.213 E257.79597
G0 F2040 X-29.113 Y-19.213
G1 F1020 X29.777 Y39.677 E260.98317
G0 F2040 X29.951 Y39.356
G1 F1020 X-28.618 Y-19.213 E264.153
G0 F2040 X-28.123 Y-19.213
G1 F1020 X30.125 Y39.035 E267.30545
G0 F2040 X30.3 Y38.714
G1 F1020 X-27.628 Y-19.213 E270.44056
G0 F2040 X-27.133 Y-19.213
G1 F1020 X30.474 Y38.393 E273.5583
G0 F2040 X30.648 Y38.072
G1 F1020 X-26.638 Y-19.213 E276.65866
G0 F2040 X-26.143 Y-19.213
G1 F1020 X30.822 Y37.751 E279.74166
G0 F2040 X30.996 Y37.43
G1 F1020 X-25.648 Y-19.213 E282.80727
G0 F2040 X-25.153 Y-19.213
G1 F1020 X31.17 Y37.11 E285.85555
G0 F2040 X31.344 Y36.789
G1 F1020 X-24.658 Y-19.213 E288.88645
G0 F2040 X-24.163 Y-19.213
G1 F1020 X31.518 Y36.468 E291.89997
G0 F2040 X31.692 Y36.147
G1 F1020 X-23.668 Y-19.213 E294.89613
G0 F2040 X-23.173 Y-19.213
G1 F1020 X31.867 Y35.826 E297.87493
G0 F2040 X32.041 Y35.505
G1 F1020 X-22.678 Y-19.213 E300.83637
G0 F2040 X-22.183 Y-19.213
G1 F1020 X32.215 Y35.184 E303.78043
G0 F2040 X32.389 Y34.863
G1 F1020 X-21.688 Y-19.213 E306.70712
G0 F2040 X-21.193 Y-19.213
G1 F1020 X32.562 Y34.542 E309.61641
G0 F2040 X32.737 Y34.222
G1 F1020 X-20.698 Y-19.213 E312.50838
G0 F2040 X-20.203 Y-19.213
G1 F1020 X32.911 Y33.901 E315.38298
G0 F2040 X33.085 Y33.58
G1 F1020 X-19.708 Y-19.213 E318.2402
G0 F2040 X-19.213 Y-19.213
G1 F1020 X33.259 Y33.259 E321.08005
G0 F2040 X33.434 Y32.939
G1 F1020 X-18.718 Y-19.213 E323.90259
G0 F2040 X-18.223 Y-19.213
G1 F1020 X33.608 Y32.618 E326.70775
G0 F2040 X33.782 Y32.297
G1 F1020 X-17.728 Y-19.213 E329.49553
G0 F2040 X-17.233 Y-19.213
