;FLAVOR:Marlin
;TIME:7903
;Filament used: 7.253m
;Layer height: 0.2
;MINX:-54.556
;MINY:-49.919
;MINZ:0.26
;MAXX:54.558
;MAXY:47.091
;MAXZ:23.46
;Generated with Cura_SteamEngine 4.8.0
M82 ;absolute extrusion mode
;Gcode by Cura
G90
G28
M107
M109 R100
G30
M109 S215 U-55 X55 V-85 Y-85 W0.26 Z0.26
M82
G92 E0
G1 F200 E6
G92 E0
G1 F200 E-3.5
G0 Z0.15
G0 X10
G0 Z3
G1 F6000
G92 E0
G92 E0
G1 F3600 E-3.8
;LAYER_COUNT:117
;LAYER:0
M107
G0 F2040 X4.483 Y-46.749 Z0.26
;TYPE:SKIRT
G1 F3600 E0
G1 F1020 X53.66 Y39.699 E3.80616
G1 X53.989 Y40.295 E3.83221
G1 X54.246 Y40.843 E3.85538
G1 X54.428 Y41.419 E3.87849
G1 X54.533 Y42.015 E3.90165
G1 X54.558 Y42.619 E3.92479
G1 X54.503 Y43.221 E3.94792
G1 X54.369 Y43.811 E3.97108
G1 X54.159 Y44.377 E3.99418
G1 X53.875 Y44.912 E4.01736
G1 X53.524 Y45.404 E4.04049
G1 X53.111 Y45.845 E4.06361
G1 X52.643 Y46.229 E4.08678
G1 X52.129 Y46.547 E4.10991
G1 X51.578 Y46.794 E4.13302
G1 X50.998 Y46.967 E4.15618
G1 X50.155 Y47.078 E4.18872
G1 X49.498 Y47.091 E4.21387
G1 X-49.36 Y47.091 E7.99712
G1 X-50.049 Y47.081 E8.02349
G1 X-50.652 Y47.032 E8.04664
G1 X-51.243 Y46.904 E8.06978
G1 X-51.812 Y46.699 E8.09293
G1 X-52.349 Y46.422 E8.11605
G1 X-52.845 Y46.075 E8.13922
G1 X-53.291 Y45.667 E8.16235
G1 X-53.678 Y45.203 E8.18547
G1 X-54.002 Y44.692 E8.20863
G1 X-54.255 Y44.143 E8.23176
G1 X-54.434 Y43.565 E8.25492
G1 X-54.534 Y42.969 E8.27804
G1 X-54.556 Y42.365 E8.30117
G1 X-54.497 Y41.763 E8.32432
G1 X-54.36 Y41.174 E8.34747
G1 X-54.058 Y40.425 E8.37837
G1 X-53.696 Y39.761 E8.40731
G1 X-4.309 Y-47.055 E12.22969
G1 X-3.949 Y-47.666 E12.25683
G1 X-3.609 Y-48.166 E12.27997
G1 X-3.205 Y-48.616 E12.30311
G1 X-2.746 Y-49.009 E12.32624
G1 X-2.239 Y-49.339 E12.34939
G1 X-1.693 Y-49.598 E12.37251
G1 X-1.117 Y-49.783 E12.39567
G1 X-.522 Y-49.891 E12.41881
G1 X0.082 Y-49.919 E12.44195
G1 X0.684 Y-49.867 E12.46507
G1 X1.275 Y-49.737 E12.48823
G1 X1.843 Y-49.529 E12.51138
G1 X2.378 Y-49.249 E12.53449
G1 X2.872 Y-48.9 E12.55763
G1 X3.316 Y-48.49 E12.58076
G1 X3.702 Y-48.024 E12.60392
G1 X3.92 Y-47.693 E12.61909
G1 X4.483 Y-46.749 E12.66115
G0 F2040 X4.178 Y-46.576
G1 F1020 X53.354 Y39.868 E16.46716
G1 X53.683 Y40.464 E16.49321
G1 X53.928 Y40.991 E16.51545
G1 X54.099 Y41.546 E16.53768
G1 X54.191 Y42.12 E16.55992
G1 X54.205 Y42.701 E16.58216
G1 X54.138 Y43.278 E16.60439
G1 X53.993 Y43.841 E16.62664
G1 X53.772 Y44.378 E16.64887
G1 X53.479 Y44.88 E16.67111
G1 X53.12 Y45.337 E16.69335
G1 X52.702 Y45.741 E16.7156
G1 X52.233 Y46.083 E16.73781
G1 X51.721 Y46.358 E16.76005
G1 X51.176 Y46.559 E16.78228
G1 X50.608 Y46.685 E16.80455
G1 X50.008 Y46.733 E16.82758
G1 X49.494 Y46.741 E16.84726
G1 X-49.355 Y46.741 E20.63016
G1 X-50.044 Y46.731 E20.65653
G1 X-50.623 Y46.682 E20.67877
G1 X-51.19 Y46.555 E20.701
G1 X-51.734 Y46.351 E20.72324
G1 X-52.245 Y46.074 E20.74548
G1 X-52.713 Y45.73 E20.76771
G1 X-53.13 Y45.325 E20.78996
G1 X-53.487 Y44.867 E20.81218
G1 X-53.778 Y44.364 E20.83442
G1 X-53.997 Y43.825 E20.85668
G1 X-54.14 Y43.262 E20.87891
G1 X-54.204 Y42.685 E20.90113
G1 X-54.189 Y42.104 E20.92337
G1 X-54.094 Y41.531 E20.9456
G1 X-53.921 Y40.976 E20.96785
G1 X-53.698 Y40.491 E20.98828
G1 X-53.39 Y39.931 E21.01274
G1 X-3.973 Y-46.937 E24.83741
G1 X-3.648 Y-47.489 E24.86192
G1 X-3.319 Y-47.968 E24.88416
G1 X-2.928 Y-48.397 E24.90637
G1 X-2.482 Y-48.769 E24.9286
G1 X-1.988 Y-49.077 E24.95088
G1 X-1.458 Y-49.313 E24.97308
G1 X-.9 Y-49.475 E24.99532
G1 X-.325 Y-49.558 E25.01755
G1 X0.256 Y-49.562 E25.03979
G1 X0.832 Y-49.486 E25.06202
G1 X1.393 Y-49.331 E25.08429
G1 X1.926 Y-49.102 E25.10649
G1 X2.423 Y-48.801 E25.12873
G1 X2.875 Y-48.435 E25.15099
G1 X3.271 Y-48.01 E25.17322
G1 X3.619 Y-47.513 E25.19644
G1 X4.178 Y-46.576 E25.23819
G0 F2040 X3.874 Y-46.403
G1 F1020 X53.047 Y40.037 E29.04401
G1 X53.376 Y40.633 E29.07006
G1 X53.61 Y41.138 E29.09136
G1 X53.768 Y41.672 E29.11268
G1 X53.849 Y42.222 E29.13395
G1 X53.849 Y42.779 E29.15527
G1 X53.77 Y43.33 E29.17657
G1 X53.613 Y43.863 E29.19783
G1 X53.382 Y44.369 E29.21912
G1 X53.08 Y44.837 E29.24044
G1 X52.714 Y45.256 E29.26173
G1 X52.292 Y45.619 E29.28303
G1 X51.822 Y45.917 E29.30433
G1 X51.315 Y46.145 E29.3256
G1 X50.78 Y46.298 E29.3469
G1 X50.128 Y46.378 E29.37203
G1 X49.489 Y46.391 E29.39649
G1 X-49.35 Y46.391 E33.17902
G1 X-50.039 Y46.381 E33.20539
G1 X-50.594 Y46.333 E33.2267
G1 X-51.135 Y46.206 E33.24797
G1 X-51.653 Y46.003 E33.26926
G1 X-52.137 Y45.727 E33.29058
G1 X-52.576 Y45.386 E33.31186
G1 X-52.962 Y44.984 E33.33319
G1 X-53.286 Y44.532 E33.35447
G1 X-53.542 Y44.038 E33.37576
G1 X-53.725 Y43.513 E33.39704
G1 X-53.831 Y42.967 E33.41832
G1 X-53.857 Y42.411 E33.43963
G1 X-53.803 Y41.857 E33.46093
G1 X-53.671 Y41.316 E33.48224
G1 X-53.434 Y40.744 E33.50593
G1 X-53.084 Y40.1 E33.53398
G1 X-3.671 Y-46.759 E37.35828
G1 X-3.346 Y-47.311 E37.38279
G1 X-3.03 Y-47.769 E37.40409
G1 X-2.652 Y-48.177 E37.42537
G1 X-2.219 Y-48.527 E37.44668
G1 X-1.741 Y-48.811 E37.46796
G1 X-1.226 Y-49.023 E37.48927
G1 X-.687 Y-49.16 E37.51056
G1 X-.134 Y-49.218 E37.53184
G1 X0.422 Y-49.196 E37.55313
G1 X0.97 Y-49.095 E37.57445
G1 X1.497 Y-48.916 E37.59575
G1 X1.993 Y-48.664 E37.61705
G1 X2.447 Y-48.344 E37.6383
G1 X2.851 Y-47.961 E37.65961
G1 X3.319 Y-47.334 E37.68955
G1 X3.874 Y-46.403 E37.73103
G0 F2040 X3.57 Y-46.23
G1 F1020 X52.741 Y40.206 E41.53668
G1 X53.07 Y40.802 E41.56273
G1 X53.291 Y41.285 E41.58306
G1 X53.437 Y41.795 E41.60336
G1 X53.504 Y42.322 E41.62369
G1 X53.492 Y42.852 E41.64398
G1 X53.4 Y43.375 E41.6643
G1 X53.231 Y43.878 E41.6846
G1 X52.988 Y44.35 E41.70492
G1 X52.678 Y44.78 E41.72521
G1 X52.306 Y45.158 E41.7455
G1 X51.881 Y45.477 E41.76584
G1 X51.414 Y45.728 E41.78613
G1 X50.914 Y45.906 E41.80644
G1 X50.393 Y46.007 E41.82675
G1 X49.893 Y46.036 E41.84592
G1 X49.485 Y46.041 E41.86153
G1 X-49.345 Y46.041 E45.64371
G1 X-50.034 Y46.031 E45.67008
G1 X-50.563 Y45.983 E45.69041
G1 X-51.078 Y45.857 E45.7107
G1 X-51.569 Y45.654 E45.73103
G1 X-52.023 Y45.381 E45.7513
G1 X-52.432 Y45.042 E45.77163
G1 X-52.785 Y44.645 E45.79196
G1 X-53.074 Y44.201 E45.81224
G1 X-53.293 Y43.717 E45.83257
G1 X-53.438 Y43.207 E45.85286
G1 X-53.504 Y42.68 E45.87319
G1 X-53.49 Y42.15 E45.89348
G1 X-53.397 Y41.627 E45.9138
G1 X-53.122 Y40.903 E45.94344
G1 X-52.778 Y40.27 E45.97101
G1 X-3.37 Y-46.581 E49.79495
G1 X-3.045 Y-47.133 E49.81946
G1 X-2.742 Y-47.569 E49.83978
G1 X-2.377 Y-47.954 E49.86009
G1 X-1.958 Y-48.281 E49.88043
G1 X-1.495 Y-48.54 E49.90073
G1 X-.999 Y-48.728 E49.92103
G1 X-.48 Y-48.838 E49.94133
G1 X0.05 Y-48.87 E49.96165
G1 X0.578 Y-48.821 E49.98194
G1 X1.093 Y-48.694 E50.00224
G1 X1.584 Y-48.491 E50.02258
G1 X2.038 Y-48.216 E50.04289
G1 X2.446 Y-47.877 E50.06319
G1 X2.798 Y-47.48 E50.08349
G1 X3.018 Y-47.154 E50.09855
G1 X3.57 Y-46.23 E50.13974
G0 F2040 X3.266 Y-46.057
G1 F1020 X52.435 Y40.376 E53.94525
G1 X52.764 Y40.972 E53.9713
G1 X52.971 Y41.43 E53.99053
G1 X53.104 Y41.916 E54.00982
G1 X53.158 Y42.417 E54.0291
G1 X53.132 Y42.92 E54.04838
G1 X53.027 Y43.412 E54.06763
G1 X52.845 Y43.882 E54.08692
G1 X52.592 Y44.317 E54.10617
G1 X52.273 Y44.707 E54.12546
G1 X51.896 Y45.041 E54.14473
G1 X51.471 Y45.311 E54.164
G1 X51.009 Y45.511 E54.18327
G1 X50.521 Y45.635 E54.20254
G1 X49.968 Y45.684 E54.22378
G1 X49.481 Y45.691 E54.24242
G1 X-49.34 Y45.691 E58.02425
G1 X-50.029 Y45.681 E58.05062
G1 X-50.53 Y45.633 E58.06988
G1 X-51.018 Y45.508 E58.08916
G1 X-51.48 Y45.306 E58.10846
G1 X-51.904 Y45.034 E58.12774
G1 X-52.279 Y44.699 E58.14698
G1 X-52.597 Y44.308 E58.16627
G1 X-52.849 Y43.872 E58.18554
G1 X-53.029 Y43.402 E58.2048
G1 X-53.132 Y42.909 E58.22408
G1 X-53.156 Y42.406 E58.24335
G1 X-53.101 Y41.906 E58.2626
G1 X-52.967 Y41.42 E58.28189
G1 X-52.712 Y40.873 E58.30499
G1 X-52.455 Y40.409 E58.32529
G1 X-3.068 Y-46.404 E62.14756
G1 X-2.743 Y-46.956 E62.17207
G1 X-2.454 Y-47.368 E62.19133
G1 X-2.103 Y-47.73 E62.21063
G1 X-1.7 Y-48.031 E62.22988
G1 X-1.254 Y-48.265 E62.24916
G1 X-.776 Y-48.425 E62.26845
G1 X-.28 Y-48.508 E62.28769
G1 X0.224 Y-48.512 E62.30698
G1 X0.722 Y-48.435 E62.32626
G1 X1.201 Y-48.281 E62.34552
G1 X1.65 Y-48.053 E62.36479
G1 X2.057 Y-47.757 E62.38405
G1 X2.413 Y-47.4 E62.40334
G1 X2.718 Y-46.974 E62.4234
G1 X3.266 Y-46.057 E62.46428
G1 F3600 E58.66428
;MESH:support_tri_0_007.stl
G0 F2040 X1.083 Y-44.816
G0 X0.201 Y-44.314
G0 X49.098 Y41.991
;TYPE:WALL-INNER
G1 F3600 E62.46428
G1 F1020 X-49.098 Y41.991 E66.22219
G1 X0.00 Y-44.314 E70.0221
G1 X49.098 Y41.991 E73.82201
G0 F2040 X49.656 Y42.316
;TYPE:WALL-OUTER
G1 F1020 X-49.656 Y42.316 E77.62263
G1 X0.00 Y-44.971 E81.46576
G1 X49.656 Y42.316 E85.30889
G0 F2040 X49.456 Y42.316
G0 X49.313 Y42.116
G0 X48.513 Y41.651
;TYPE:SKIN
G1 F1020 X-48.513 Y41.651 E89.02203
G1 X0.00 Y-43.627 E92.77671
G1 X48.513 Y41.651 E96.53139
G0 F2040 X-48.19 Y41.4
G1 F1020 X-48.096 Y41.493 E96.53645
G0 F2040 X-48.01 Y41.085
G1 F1020 X-47.601 Y41.493 E96.55856
G0 F2040 X-47.106 Y41.493
G1 F1020 X-47.83 Y40.769 E96.59774
G0 F2040 X-47.651 Y40.454
G1 F1020 X-46.611 Y41.493 E96.654
G0 F2040 X-46.116 Y41.493
G1 F1020 X-47.472 Y40.138 E96.72736
G0 F2040 X-47.292 Y39.822
G1 F1020 X-45.621 Y41.493 E96.8178
G0 F2040 X-45.126 Y41.493
G1 F1020 X-47.113 Y39.507 E96.92531
G0 F2040 X-46.933 Y39.192
G1 F1020 X-44.631 Y41.493 E97.04987
G0 F2040 X-44.136 Y41.493
G1 F1020 X-46.753 Y38.876 E97.1915
G0 F2040 X-46.574 Y38.561
G1 F1020 X-43.641 Y41.493 E97.35021
G0 F2040 X-43.146 Y41.493
G1 F1020 X-46.395 Y38.245 E97.52603
G0 F2040 X-46.215 Y37.929
G1 F1020 X-42.651 Y41.493 E97.71892
G0 F2040 X-42.156 Y41.493
G1 F1020 X-46.036 Y37.614 E97.92888
G0 F2040 X-45.856 Y37.299
G1 F1020 X-41.662 Y41.493 E98.15586
G0 F2040 X-41.167 Y41.493
G1 F1020 X-45.676 Y36.983 E98.39992
G0 F2040 X-45.497 Y36.668
G1 F1020 X-40.672 Y41.493 E98.66106
G0 F2040 X-40.177 Y41.493
G1 F1020 X-45.318 Y36.352 E98.9393
G0 F2040 X-45.138 Y36.036
G1 F1020 X-39.682 Y41.493 E99.23461
G0 F2040 X-39.187 Y41.493
G1 F1020 X-44.959 Y35.721 E99.547
G0 F2040 X-44.779 Y35.406
G1 F1020 X-38.692 Y41.493 E99.87643
G0 F2040 X-38.197 Y41.493
G1 F1020 X-44.6 Y35.09 E100.22297
G0 F2040 X-44.421 Y34.774
G1 F1020 X-37.702 Y41.493 E100.58661
G0 F2040 X-37.207 Y41.493
G1 F1020 X-44.241 Y34.459 E100.9673
G0 F2040 X-44.061 Y34.144
G1 F1020 X-36.712 Y41.493 E101.36504
G0 F2040 X-36.217 Y41.493
G1 F1020 X-43.882 Y33.828 E101.77988
G0 F2040 X-43.702 Y33.513
G1 F1020 X-35.722 Y41.493 E102.21177
G0 F2040 X-35.227 Y41.493
G1 F1020 X-43.523 Y33.197 E102.66076
G0 F2040 X-43.344 Y32.881
G1 F1020 X-34.732 Y41.493 E103.12685
G0 F2040 X-34.237 Y41.493
G1 F1020 X-43.164 Y32.566 E103.60999
G0 F2040 X-42.985 Y32.251
G1 F1020 X-33.742 Y41.493 E104.1102
G0 F2040 X-33.247 Y41.493
G1 F1020 X-42.805 Y31.935 E104.6275
G0 F2040 X-42.625 Y31.62
G1 F1020 X-32.752 Y41.493 E105.16184
G0 F2040 X-32.257 Y41.493
G1 F1020 X-42.446 Y31.305 E105.71325
G0 F2040 X-42.267 Y30.988
G1 F1020 X-31.762 Y41.493 E106.28179
G0 F2040 X-31.267 Y41.493
G1 F1020 X-42.087 Y30.673 E106.86739
G0 F2040 X-41.908 Y30.358
G1 F1020 X-30.772 Y41.493 E107.47005
G0 F2040 X-30.277 Y41.493
G1 F1020 X-41.728 Y30.042 E108.0898
G0 F2040 X-41.548 Y29.727
G1 F1020 X-29.782 Y41.493 E108.72659
G0 F2040 X-29.287 Y41.493
G1 F1020 X-41.369 Y29.411 E109.38048
G0 F2040 X-41.19 Y29.096
G1 F1020 X-28.792 Y41.493 E110.05145
G0 F2040 X-28.297 Y41.493
G1 F1020 X-41.01 Y28.78 E110.73949
G0 F2040 X-40.831 Y28.465
G1 F1020 X-27.802 Y41.493 E111.44461
G0 F2040 X-27.307 Y41.493
G1 F1020 X-40.651 Y28.149 E112.16681
G0 F2040 X-40.471 Y27.834
G1 F1020 X-26.812 Y41.493 E112.90605
G0 F2040 X-26.317 Y41.493
G1 F1020 X-40.293 Y27.518 E113.66242
G0 F2040 X-40.113 Y27.203
G1 F1020 X-25.822 Y41.493 E114.43584
G0 F2040 X-25.327 Y41.493
G1 F1020 X-39.933 Y26.887 E115.22634
G0 F2040 X-39.754 Y26.572
G1 F1020 X-24.832 Y41.493 E116.03391
G0 F2040 X-24.337 Y41.493
G1 F1020 X-39.574 Y26.256 E116.85855
G0 F2040 X-39.395 Y25.941
G1 F1020 X-23.842 Y41.493 E117.70027
G0 F2040 X-23.347 Y41.493
G1 F1020 X-39.216 Y25.625 E118.5591
G0 F2040 X-39.036 Y25.31
G1 F1020 X-22.852 Y41.493 E119.43497
G0 F2040 X-22.358 Y41.493
G1 F1020 X-38.856 Y24.994 E120.32789
G0 F2040 X-38.677 Y24.679
G1 F1020 X-21.863 Y41.493 E121.23788
G0 F2040 X-21.368 Y41.493
G1 F1020 X-38.497 Y24.364 E122.16493
G0 F2040 X-38.318 Y24.047
G1 F1020 X-20.873 Y41.493 E123.1091
G0 F2040 X-20.378 Y41.493
G1 F1020 X-38.139 Y23.732 E124.07035
G0 F2040 X-37.959 Y23.417
G1 F1020 X-19.883 Y41.493 E125.04864
G0 F2040 X-19.388 Y41.493
G1 F1020 X-37.78 Y23.101 E126.04404
G0 F2040 X-37.6 Y22.786
G1 F1020 X-18.893 Y41.493 E127.05649
G0 F2040 X-18.398 Y41.493
G1 F1020 X-37.42 Y22.471 E128.08598
G0 F2040 X-37.241 Y22.155
G1 F1020 X-17.903 Y41.493 E129.13258
G0 F2040 X-17.408 Y41.493
G1 F1020 X-37.062 Y21.839 E130.19628
G0 F2040 X-36.882 Y21.524
G1 F1020 X-16.913 Y41.493 E131.27703
G0 F2040 X-16.418 Y41.493
G1 F1020 X-36.703 Y21.208 E132.37488
G0 F2040 X-36.523 Y20.893
G1 F1020 X-15.923 Y41.493 E133.48978
G0 F2040 X-15.428 Y41.493
G1 F1020 X-36.343 Y20.578 E134.62172
G0 F2040 X-36.164 Y20.262
G1 F1020 X-14.933 Y41.493 E135.77077
G0 F2040 X-14.438 Y41.493
G1 F1020 X-35.985 Y19.946 E136.93692
G0 F2040 X-35.805 Y19.631
G1 F1020 X-13.943 Y41.493 E138.12012
G0 F2040 X-13.448 Y41.493
G1 F1020 X-35.626 Y19.316 E139.3204
G0 F2040 X-35.446 Y19
G1 F1020 X-12.953 Y41.493 E140.53775
G0 F2040 X-12.458 Y41.493
G1 F1020 X-35.267 Y18.684 E141.7722
G0 F2040 X-35.088 Y18.369
G1 F1020 X-11.963 Y41.493 E143.02373
G0 F2040 X-11.468 Y41.493
G1 F1020 X-34.908 Y18.053 E144.29233
G0 F2040 X-34.728 Y17.738
G1 F1020 X-10.973 Y41.493 E145.57798
G0 F2040 X-10.478 Y41.493
G1 F1020 X-34.549 Y17.423 E146.88071
G0 F2040 X-34.369 Y17.107
G1 F1020 X-9.983 Y41.493 E148.20051
G0 F2040 X-9.488 Y41.493
G1 F1020 X-34.19 Y16.791 E149.53741
G0 F2040 X-34.011 Y16.476
G1 F1020 X-8.993 Y41.493 E150.89139
G0 F2040 X-8.498 Y41.493
G1 F1020 X-33.831 Y16.16 E152.26244
G0 F2040 X-33.651 Y15.845
G1 F1020 X-8.003 Y41.493 E153.65055
G0 F2040 X-7.508 Y41.493
G1 F1020 X-33.472 Y15.53 E155.05572
G0 F2040 X-33.292 Y15.214
G1 F1020 X-7.013 Y41.493 E156.47798
G0 F2040 X-6.518 Y41.493
G1 F1020 X-33.113 Y14.898 E157.91733
G0 F2040 X-32.934 Y14.583
G1 F1020 X-6.023 Y41.493 E159.37376
G0 F2040 X-5.528 Y41.493
G1 F1020 X-32.754 Y14.268 E160.84724
G0 F2040 X-32.574 Y13.952
G1 F1020 X-5.033 Y41.493 E162.3378
G0 F2040 X-4.538 Y41.493
G1 F1020 X-32.395 Y13.637 E163.84542
G0 F2040 X-32.216 Y13.321
G1 F1020 X-4.043 Y41.493 E165.37016
G0 F2040 X-3.548 Y41.493
G1 F1020 X-32.036 Y13.005 E166.91196
G0 F2040 X-31.857 Y12.69
G1 F1020 X-3.053 Y41.493 E168.47085
G0 F2040 X-2.559 Y41.493
G1 F1020 X-31.677 Y12.375 E170.04675
G0 F2040 X-31.498 Y12.059
G1 F1020 X-2.064 Y41.493 E171.63975
G0 F2040 X-1.569 Y41.493
G1 F1020 X-31.318 Y11.744 E173.24981
G0 F2040 X-31.139 Y11.428
G1 F1020 X-1.074 Y41.493 E174.87696
G0 F2040 X-.579 Y41.493
G1 F1020 X-30.959 Y11.112 E176.5212
G0 F2040 X-30.78 Y10.797
G1 F1020 X-0.084 Y41.493 E178.1825
G0 F2040 X0.41 Y41.493
G1 F1020 X-30.6 Y10.482 E179.86083
G0 F2040 X-30.421 Y10.166
G1 F1020 X0.905 Y41.493 E181.55626
G0 F2040 X1.4 Y41.493
G1 F1020 X-30.241 Y9.851 E183.26874
G0 F2040 X-30.062 Y9.535
G1 F1020 X1.895 Y41.493 E184.99832
G0 F2040 X2.39 Y41.493
G1 F1020 X-29.883 Y9.219 E186.745
G0 F2040 X-29.703 Y8.904
G1 F1020 X2.885 Y41.493 E188.50873
G0 F2040 X3.38 Y41.493
G1 F1020 X-29.523 Y8.589 E190.28951
G0 F2040 X-29.344 Y8.273
G1 F1020 X3.875 Y41.493 E192.08739
G0 F2040 X4.37 Y41.493
G1 F1020 X-29.165 Y7.957 E193.90238
G0 F2040 X-28.985 Y7.642
G1 F1020 X4.865 Y41.493 E195.73441
G0 F2040 X5.36 Y41.493
G1 F1020 X-28.806 Y7.327 E197.58352
G0 F2040 X-28.626 Y7.011
G1 F1020 X5.855 Y41.493 E199.4497
G0 F2040 X6.35 Y41.493
G1 F1020 X-28.446 Y6.696 E201.33293
G0 F2040 X-28.267 Y6.38
G1 F1020 X6.845 Y41.493 E203.23326
G0 F2040 X7.34 Y41.493
G1 F1020 X-28.088 Y6.064 E205.1507
G0 F2040 X-27.908 Y5.749
G1 F1020 X7.835 Y41.493 E207.08518
G0 F2040 X8.33 Y41.493
G1 F1020 X-27.729 Y5.434 E209.03674
G0 F2040 X-27.549 Y5.118
G1 F1020 X8.825 Y41.493 E211.00538
G0 F2040 X9.32 Y41.493
G1 F1020 X-27.369 Y4.803 E212.99106
G0 F2040 X-27.19 Y4.488
G1 F1020 X9.815 Y41.493 E214.99382
G0 F2040 X10.31 Y41.493
G1 F1020 X-27.011 Y4.171 E217.0137
G0 F2040 X-26.831 Y3.856
