;FLAVOR:Marlin
;TIME:7898
;Filament used: 7.25308m
;Layer height: 0.2
;MINX:-42.112
;MINY:-71.093
;MINZ:0.26
;MAXX:67.002
;MAXY:25.917
;MAXZ:23.46
;Generated with Cura_SteamEngine 4.8.0
M82 ;absolute extrusion mode
;Gcode by Cura
G90
G28
M107
M109 R100
G30
M109 S215 U-55 X55 V-85 Y-85 W0.26 Z0.26
M82
G92 E0
G1 F200 E6
G92 E0
G1 F200 E-3.5
G0 Z0.15
G0 X10
G0 Z3
G1 F6000
G92 E0
G92 E0
G1 F3600 E-3.8
;LAYER_COUNT:117
;LAYER:0
M107
G0 F2040 X-36.916 Y25.917 Z0.26
;TYPE:SKIRT
G1 F3600 E0
G1 F1020 X-37.605 Y25.907 E0.02637
G1 X-38.208 Y25.858 E0.04952
G1 X-38.799 Y25.73 E0.07266
G1 X-39.368 Y25.525 E0.09581
G1 X-39.905 Y25.248 E0.11893
G1 X-40.401 Y24.901 E0.1421
G1 X-40.847 Y24.493 E0.16523
G1 X-41.234 Y24.029 E0.18835
G1 X-41.558 Y23.518 E0.21151
G1 X-41.811 Y22.969 E0.23464
G1 X-41.99 Y22.391 E0.2578
G1 X-42.09 Y21.795 E0.28093
G1 X-42.112 Y21.191 E0.30406
G1 X-42.053 Y20.589 E0.32721
G1 X-41.916 Y20 E0.35035
G1 X-41.614 Y19.251 E0.38125
G1 X-41.252 Y18.587 E0.4102
G1 X8.135 Y-68.229 E4.23257
G1 X8.495 Y-68.84 E4.25971
G1 X8.835 Y-69.34 E4.28285
G1 X9.239 Y-69.79 E4.30599
G1 X9.698 Y-70.183 E4.32912
G1 X10.205 Y-70.513 E4.35227
G1 X10.751 Y-70.772 E4.3754
G1 X11.327 Y-70.957 E4.39855
G1 X11.922 Y-71.065 E4.42169
G1 X12.526 Y-71.093 E4.44483
G1 X13.128 Y-71.041 E4.46795
G1 X13.719 Y-70.911 E4.49111
G1 X14.287 Y-70.703 E4.51426
G1 X14.822 Y-70.423 E4.53737
G1 X15.316 Y-70.074 E4.56052
G1 X15.76 Y-69.664 E4.58365
G1 X16.146 Y-69.198 E4.6068
G1 X16.364 Y-68.867 E4.62197
G1 X16.927 Y-67.923 E4.66403
G1 X66.104 Y18.525 E8.47019
G1 X66.433 Y19.121 E8.49625
G1 X66.69 Y19.669 E8.51941
G1 X66.872 Y20.245 E8.54253
G1 X66.977 Y20.841 E8.56569
G1 X67.002 Y21.445 E8.58882
G1 X66.947 Y22.047 E8.61196
G1 X66.813 Y22.637 E8.63511
G1 X66.603 Y23.203 E8.65821
G1 X66.319 Y23.738 E8.68139
G1 X65.968 Y24.23 E8.70452
G1 X65.555 Y24.671 E8.72765
G1 X65.087 Y25.055 E8.75081
G1 X64.573 Y25.373 E8.77394
G1 X64.022 Y25.62 E8.79705
G1 X63.442 Y25.793 E8.82021
G1 X62.599 Y25.904 E8.85275
G1 X61.942 Y25.917 E8.8779
G1 X-36.916 Y25.917 E12.66115
G0 F2040 X-36.911 Y25.567
G1 F1020 X-37.6 Y25.557 E12.68752
G1 X-38.179 Y25.508 E12.70976
G1 X-38.746 Y25.381 E12.73199
G1 X-39.29 Y25.177 E12.75423
G1 X-39.801 Y24.9 E12.77647
G1 X-40.269 Y24.556 E12.7987
G1 X-40.686 Y24.151 E12.82095
G1 X-41.043 Y23.693 E12.84317
G1 X-41.334 Y23.19 E12.86541
G1 X-41.553 Y22.651 E12.88767
G1 X-41.696 Y22.088 E12.9099
G1 X-41.76 Y21.511 E12.93212
G1 X-41.745 Y20.93 E12.95436
G1 X-41.65 Y20.357 E12.97659
G1 X-41.477 Y19.802 E12.99884
G1 X-41.254 Y19.317 E13.01927
G1 X-40.946 Y18.757 E13.04373
G1 X8.471 Y-68.111 E16.8684
G1 X8.796 Y-68.663 E16.89291
G1 X9.125 Y-69.142 E16.91515
G1 X9.516 Y-69.571 E16.93736
G1 X9.962 Y-69.943 E16.95959
G1 X10.456 Y-70.251 E16.98187
G1 X10.986 Y-70.487 E17.00407
G1 X11.544 Y-70.649 E17.02631
G1 X12.119 Y-70.732 E17.04854
G1 X12.7 Y-70.736 E17.07078
G1 X13.276 Y-70.66 E17.09301
G1 X13.837 Y-70.505 E17.11528
G1 X14.37 Y-70.276 E17.13748
G1 X14.867 Y-69.975 E17.15972
G1 X15.319 Y-69.609 E17.18198
G1 X15.715 Y-69.184 E17.20421
G1 X16.063 Y-68.687 E17.22743
G1 X16.622 Y-67.75 E17.26918
G1 X65.798 Y18.694 E21.07519
G1 X66.127 Y19.29 E21.10124
G1 X66.372 Y19.817 E21.12348
G1 X66.543 Y20.372 E21.14571
G1 X66.635 Y20.946 E21.16796
G1 X66.649 Y21.527 E21.1902
G1 X66.582 Y22.104 E21.21243
G1 X66.437 Y22.667 E21.23468
G1 X66.216 Y23.204 E21.2569
G1 X65.923 Y23.706 E21.27914
G1 X65.564 Y24.163 E21.30138
G1 X65.146 Y24.567 E21.32363
G1 X64.677 Y24.909 E21.34584
G1 X64.165 Y25.184 E21.36809
G1 X63.62 Y25.385 E21.39032
G1 X63.052 Y25.511 E21.41258
G1 X62.452 Y25.559 E21.43562
G1 X61.938 Y25.567 E21.45529
G1 X-36.911 Y25.567 E25.23819
G0 F2040 X-36.906 Y25.217
G1 F1020 X-37.595 Y25.207 E25.26456
G1 X-38.15 Y25.159 E25.28588
G1 X-38.691 Y25.032 E25.30715
G1 X-39.209 Y24.829 E25.32844
G1 X-39.693 Y24.553 E25.34976
G1 X-40.132 Y24.212 E25.37104
G1 X-40.518 Y23.81 E25.39236
G1 X-40.842 Y23.358 E25.41365
G1 X-41.098 Y22.864 E25.43494
G1 X-41.281 Y22.339 E25.45622
G1 X-41.387 Y21.793 E25.4775
G1 X-41.413 Y21.237 E25.4988
G1 X-41.359 Y20.683 E25.52011
G1 X-41.227 Y20.142 E25.54142
G1 X-40.99 Y19.57 E25.56511
G1 X-40.64 Y18.926 E25.59316
G1 X8.773 Y-67.933 E29.41746
G1 X9.098 Y-68.485 E29.44197
G1 X9.414 Y-68.943 E29.46327
G1 X9.792 Y-69.351 E29.48455
G1 X10.225 Y-69.701 E29.50586
G1 X10.703 Y-69.985 E29.52714
G1 X11.218 Y-70.197 E29.54845
G1 X11.757 Y-70.334 E29.56973
G1 X12.31 Y-70.392 E29.59101
G1 X12.866 Y-70.37 E29.61231
G1 X13.414 Y-70.269 E29.63363
G1 X13.941 Y-70.09 E29.65493
G1 X14.437 Y-69.838 E29.67622
G1 X14.891 Y-69.518 E29.69748
G1 X15.295 Y-69.135 E29.71878
G1 X15.763 Y-68.508 E29.74873
G1 X16.318 Y-67.577 E29.79021
G1 X65.491 Y18.863 E33.59602
G1 X65.82 Y19.459 E33.62208
G1 X66.054 Y19.964 E33.64338
G1 X66.212 Y20.498 E33.66469
G1 X66.293 Y21.048 E33.68596
G1 X66.293 Y21.605 E33.70728
G1 X66.214 Y22.156 E33.72858
G1 X66.057 Y22.689 E33.74985
G1 X65.826 Y23.195 E33.77113
G1 X65.524 Y23.663 E33.79245
G1 X65.158 Y24.082 E33.81374
G1 X64.736 Y24.445 E33.83504
G1 X64.266 Y24.743 E33.85634
G1 X63.759 Y24.971 E33.87761
G1 X63.224 Y25.124 E33.89891
G1 X62.572 Y25.204 E33.92405
G1 X61.933 Y25.217 E33.94851
G1 X-36.906 Y25.217 E37.73103
G0 F2040 X-36.901 Y24.867
G1 F1020 X-37.59 Y24.857 E37.7574
G1 X-38.119 Y24.809 E37.77773
G1 X-38.634 Y24.683 E37.79802
G1 X-39.125 Y24.48 E37.81835
G1 X-39.579 Y24.207 E37.83862
G1 X-39.988 Y23.868 E37.85895
G1 X-40.341 Y23.471 E37.87928
G1 X-40.63 Y23.027 E37.89956
G1 X-40.849 Y22.543 E37.91989
G1 X-40.994 Y22.033 E37.94018
G1 X-41.06 Y21.506 E37.9605
G1 X-41.046 Y20.976 E37.98079
G1 X-40.953 Y20.453 E38.00112
G1 X-40.678 Y19.729 E38.03076
G1 X-40.334 Y19.096 E38.05833
G1 X9.074 Y-67.755 E41.88227
G1 X9.399 Y-68.307 E41.90678
G1 X9.702 Y-68.743 E41.9271
G1 X10.067 Y-69.128 E41.9474
G1 X10.486 Y-69.455 E41.96774
G1 X10.949 Y-69.714 E41.98805
G1 X11.445 Y-69.902 E42.00835
G1 X11.964 Y-70.012 E42.02865
G1 X12.494 Y-70.044 E42.04897
G1 X13.022 Y-69.995 E42.06926
G1 X13.537 Y-69.868 E42.08956
G1 X14.028 Y-69.665 E42.1099
G1 X14.482 Y-69.39 E42.13021
G1 X14.89 Y-69.051 E42.15051
G1 X15.242 Y-68.654 E42.17081
G1 X15.462 Y-68.328 E42.18586
G1 X16.014 Y-67.404 E42.22705
G1 X65.185 Y19.032 E46.0327
G1 X65.514 Y19.628 E46.05876
G1 X65.735 Y20.111 E46.07908
G1 X65.881 Y20.621 E46.09938
G1 X65.948 Y21.148 E46.11971
G1 X65.936 Y21.678 E46.14
G1 X65.844 Y22.201 E46.16032
G1 X65.675 Y22.704 E46.18063
G1 X65.432 Y23.176 E46.20095
G1 X65.122 Y23.606 E46.22123
G1 X64.75 Y23.984 E46.24153
G1 X64.325 Y24.303 E46.26187
G1 X63.858 Y24.554 E46.28216
G1 X63.358 Y24.732 E46.30247
G1 X62.837 Y24.833 E46.32278
G1 X62.337 Y24.862 E46.34194
G1 X61.929 Y24.867 E46.35756
G1 X-36.901 Y24.867 E50.13974
G0 F2040 X-36.896 Y24.517
G1 F1020 X-37.585 Y24.507 E50.16611
G1 X-38.086 Y24.459 E50.18537
G1 X-38.574 Y24.334 E50.20465
G1 X-39.036 Y24.132 E50.22394
G1 X-39.46 Y23.86 E50.24322
G1 X-39.835 Y23.525 E50.26246
G1 X-40.153 Y23.134 E50.28175
G1 X-40.405 Y22.698 E50.30102
G1 X-40.585 Y22.228 E50.32028
G1 X-40.688 Y21.735 E50.33956
G1 X-40.712 Y21.232 E50.35883
G1 X-40.657 Y20.732 E50.37808
G1 X-40.523 Y20.246 E50.39737
G1 X-40.268 Y19.699 E50.42047
G1 X-40.011 Y19.235 E50.44077
G1 X9.376 Y-67.578 E54.26304
G1 X9.701 Y-68.13 E54.28756
G1 X9.99 Y-68.542 E54.30682
G1 X10.341 Y-68.904 E54.32611
G1 X10.744 Y-69.205 E54.34536
G1 X11.19 Y-69.439 E54.36464
G1 X11.668 Y-69.599 E54.38393
G1 X12.164 Y-69.682 E54.40317
G1 X12.668 Y-69.686 E54.42246
G1 X13.166 Y-69.609 E54.44175
G1 X13.645 Y-69.455 E54.461
G1 X14.094 Y-69.227 E54.48027
G1 X14.501 Y-68.931 E54.49953
G1 X14.857 Y-68.574 E54.51883
G1 X15.162 Y-68.148 E54.53888
G1 X15.71 Y-67.231 E54.57976
G1 X64.879 Y19.202 E58.38527
G1 X65.208 Y19.798 E58.41132
G1 X65.415 Y20.256 E58.43056
G1 X65.548 Y20.742 E58.44984
G1 X65.602 Y21.243 E58.46912
G1 X65.576 Y21.746 E58.4884
G1 X65.471 Y22.238 E58.50765
G1 X65.289 Y22.708 E58.52694
G1 X65.036 Y23.143 E58.5462
G1 X64.717 Y23.533 E58.56548
G1 X64.34 Y23.867 E58.58476
G1 X63.915 Y24.137 E58.60402
G1 X63.453 Y24.337 E58.62329
G1 X62.965 Y24.461 E58.64256
G1 X62.412 Y24.51 E58.66381
G1 X61.925 Y24.517 E58.68244
G1 X-36.896 Y24.517 E62.46428
G1 F3600 E58.66428
;MESH:support_tri_0_035.stl
G0 F2040 X-36.896 Y22.007
G0 X-36.896 Y20.972
G0 X61.542 Y20.817
;TYPE:WALL-INNER
G1 F3600 E62.46428
G1 F1020 X-36.654 Y20.817 E66.22219
G1 X12.444 Y-65.488 E70.0221
G1 X61.542 Y20.817 E73.82201
G0 F2040 X62.1 Y21.142
;TYPE:WALL-OUTER
G1 F1020 X-37.212 Y21.142 E77.62263
G1 X12.444 Y-66.145 E81.46576
G1 X62.1 Y21.142 E85.30889
G0 F2040 X61.9 Y21.142
G0 X61.757 Y20.942
G0 X60.957 Y20.477
;TYPE:SKIN
G1 F1020 X-36.069 Y20.477 E89.02203
G1 X12.444 Y-64.801 E92.77671
G1 X60.957 Y20.477 E96.53139
G0 F2040 X-35.731 Y20.2
G1 F1020 X-35.612 Y20.32 E96.53785
G0 F2040 X-35.551 Y19.885
G1 F1020 X-35.117 Y20.32 E96.56137
G0 F2040 X-34.622 Y20.32
G1 F1020 X-35.372 Y19.569 E96.60199
G0 F2040 X-35.192 Y19.254
G1 F1020 X-34.127 Y20.32 E96.65965
G0 F2040 X-33.632 Y20.32
G1 F1020 X-35.013 Y18.939 E96.7344
G0 F2040 X-34.834 Y18.623
G1 F1020 X-33.137 Y20.32 E96.82624
G0 F2040 X-32.642 Y20.32
G1 F1020 X-34.654 Y18.307 E96.93516
G0 F2040 X-34.474 Y17.992
G1 F1020 X-32.147 Y20.32 E97.06113
G0 F2040 X-31.652 Y20.32
G1 F1020 X-34.295 Y17.676 E97.20419
G0 F2040 X-34.115 Y17.361
G1 F1020 X-31.157 Y20.32 E97.36431
G0 F2040 X-30.662 Y20.32
G1 F1020 X-33.936 Y17.045 E97.54153
G0 F2040 X-33.757 Y16.73
G1 F1020 X-30.167 Y20.32 E97.73583
G0 F2040 X-29.672 Y20.32
G1 F1020 X-33.577 Y16.414 E97.9472
G0 F2040 X-33.398 Y16.099
G1 F1020 X-29.177 Y20.32 E98.17564
G0 F2040 X-28.682 Y20.32
G1 F1020 X-33.218 Y15.784 E98.42114
G0 F2040 X-33.038 Y15.468
G1 F1020 X-28.187 Y20.32 E98.68371
G0 F2040 X-27.692 Y20.32
G1 F1020 X-32.859 Y15.152 E98.96338
G0 F2040 X-32.68 Y14.837
G1 F1020 X-27.197 Y20.32 E99.26013
G0 F2040 X-26.702 Y20.32
G1 F1020 X-32.5 Y14.521 E99.57395
G0 F2040 X-32.321 Y14.206
G1 F1020 X-26.207 Y20.32 E99.90485
G0 F2040 X-25.712 Y20.32
G1 F1020 X-32.141 Y13.891 E100.25279
G0 F2040 X-31.961 Y13.575
G1 F1020 X-25.217 Y20.32 E100.61781
G0 F2040 X-24.722 Y20.32
G1 F1020 X-31.783 Y13.259 E100.99996
G0 F2040 X-31.603 Y12.944
G1 F1020 X-24.227 Y20.32 E101.39916
G0 F2040 X-23.732 Y20.32
G1 F1020 X-31.423 Y12.628 E101.81544
G0 F2040 X-31.244 Y12.313
G1 F1020 X-23.237 Y20.32 E102.24878
G0 F2040 X-22.742 Y20.32
G1 F1020 X-31.064 Y11.998 E102.69918
G0 F2040 X-30.885 Y11.682
G1 F1020 X-22.247 Y20.32 E103.16668
G0 F2040 X-21.752 Y20.32
G1 F1020 X-30.706 Y11.366 E103.65128
G0 F2040 X-30.526 Y11.051
G1 F1020 X-21.257 Y20.32 E104.15293
G0 F2040 X-20.762 Y20.32
G1 F1020 X-30.346 Y10.736 E104.67163
G0 F2040 X-30.167 Y10.42
G1 F1020 X-20.267 Y20.32 E105.20743
G0 F2040 X-19.772 Y20.32
G1 F1020 X-29.987 Y10.105 E105.76028
G0 F2040 X-29.808 Y9.789
G1 F1020 X-19.277 Y20.32 E106.33023
G0 F2040 X-18.782 Y20.32
G1 F1020 X-29.629 Y9.473 E106.91729
G0 F2040 X-29.449 Y9.158
G1 F1020 X-18.287 Y20.32 E107.52139
G0 F2040 X-17.792 Y20.32
G1 F1020 X-29.269 Y8.843 E108.14254
G0 F2040 X-29.09 Y8.527
G1 F1020 X-17.297 Y20.32 E108.78079
G0 F2040 X-16.802 Y20.32
G1 F1020 X-28.91 Y8.212 E109.43609
G0 F2040 X-28.731 Y7.896
G1 F1020 X-16.308 Y20.32 E110.10847
G0 F2040 X-15.813 Y20.32
G1 F1020 X-28.552 Y7.58 E110.79794
G0 F2040 X-28.372 Y7.265
G1 F1020 X-15.318 Y20.32 E111.50447
G0 F2040 X-14.823 Y20.32
G1 F1020 X-28.193 Y6.95 E112.22807
G0 F2040 X-28.013 Y6.634
G1 F1020 X-14.328 Y20.32 E112.96875
G0 F2040 X-13.833 Y20.32
G1 F1020 X-27.834 Y6.318 E113.72653
G0 F2040 X-27.654 Y6.003
G1 F1020 X-13.338 Y20.32 E114.50135
G0 F2040 X-12.843 Y20.32
G1 F1020 X-27.475 Y5.687 E115.29328
G0 F2040 X-27.295 Y5.372
G1 F1020 X-12.348 Y20.32 E116.10226
G0 F2040 X-11.853 Y20.32
G1 F1020 X-27.116 Y5.057 E116.92831
G0 F2040 X-26.936 Y4.741
G1 F1020 X-11.358 Y20.32 E117.77144
G0 F2040 X-10.863 Y20.32
G1 F1020 X-26.757 Y4.425 E118.63167
G0 F2040 X-26.578 Y4.11
G1 F1020 X-10.368 Y20.32 E119.50898
G0 F2040 X-9.873 Y20.32
G1 F1020 X-26.398 Y3.795 E120.40333
G0 F2040 X-26.218 Y3.479
G1 F1020 X-9.378 Y20.32 E121.31476
G0 F2040 X-8.883 Y20.32
G1 F1020 X-26.039 Y3.164 E122.24327
G0 F2040 X-25.859 Y2.848
G1 F1020 X-8.388 Y20.32 E123.18885
G0 F2040 X-7.893 Y20.32
G1 F1020 X-25.68 Y2.532 E124.15153
G0 F2040 X-25.501 Y2.217
G1 F1020 X-7.398 Y20.32 E125.13129
G0 F2040 X-6.903 Y20.32
G1 F1020 X-25.321 Y1.902 E126.12809
G0 F2040 X-25.141 Y1.586
G1 F1020 X-6.408 Y20.32 E127.14197
G0 F2040 X-5.913 Y20.32
G1 F1020 X-24.962 Y1.271 E128.17293
G0 F2040 X-24.783 Y0.955
G1 F1020 X-5.418 Y20.32 E129.22099
G0 F2040 X-4.923 Y20.32
G1 F1020 X-24.603 Y0.639 E130.28612
G0 F2040 X-24.424 Y0.324
G1 F1020 X-4.428 Y20.32 E131.36833
G0 F2040 X-3.933 Y20.32
G1 F1020 X-24.244 Y0.009 E132.46759
G0 F2040 X-24.064 Y-.306
G1 F1020 X-3.438 Y20.32 E133.58389
G0 F2040 X-2.943 Y20.32
G1 F1020 X-23.885 Y-.621 E134.71727
G0 F2040 X-23.706 Y-.937
G1 F1020 X-2.448 Y20.32 E135.86776
G0 F2040 X-1.953 Y20.32
G1 F1020 X-23.526 Y-1.252 E137.03529
G0 F2040 X-23.347 Y-1.568
G1 F1020 X-1.458 Y20.32 E138.21992
G0 F2040 X-.963 Y20.32
G1 F1020 X-23.167 Y-1.883 E139.4216
G0 F2040 X-22.988 Y-2.199
G1 F1020 X-.468 Y20.32 E140.64039
G0 F2040 X0.026 Y20.32
G1 F1020 X-22.809 Y-2.515 E141.87625
G0 F2040 X-22.629 Y-2.83
G1 F1020 X0.521 Y20.32 E143.12915
G0 F2040 X1.016 Y20.32
G1 F1020 X-22.449 Y-3.145 E144.39911
G0 F2040 X-22.27 Y-3.461
G1 F1020 X1.511 Y20.32 E145.68617
G0 F2040 X2.006 Y20.32
G1 F1020 X-22.09 Y-3.776 E146.99027
G0 F2040 X-21.911 Y-4.092
G1 F1020 X2.501 Y20.32 E148.31148
G0 F2040 X2.996 Y20.32
G1 F1020 X-21.732 Y-4.408 E149.64979
G0 F2040 X-21.552 Y-4.723
G1 F1020 X3.49 Y20.32 E151.00513
G0 F2040 X3.985 Y20.32
G1 F1020 X-21.373 Y-5.038 E152.37753
G0 F2040 X-21.193 Y-5.354
G1 F1020 X4.48 Y20.32 E153.76702
G0 F2040 X4.975 Y20.32
G1 F1020 X-21.013 Y-5.669 E155.17355
G0 F2040 X-20.834 Y-5.984
G1 F1020 X5.47 Y20.32 E156.59715
G0 F2040 X5.965 Y20.32
G1 F1020 X-20.655 Y-6.301 E158.03789
G0 F2040 X-20.475 Y-6.616
G1 F1020 X6.46 Y20.32 E159.49567
G0 F2040 X6.955 Y20.32
G1 F1020 X-20.296 Y-6.931 E160.97053
G0 F2040 X-20.116 Y-7.247
G1 F1020 X7.45 Y20.32 E162.46246
G0 F2040 X7.945 Y20.32
G1 F1020 X-19.936 Y-7.562 E163.97145
G0 F2040 X-19.757 Y-7.878
G1 F1020 X8.44 Y20.32 E165.49753
G0 F2040 X8.935 Y20.32
G1 F1020 X-19.578 Y-8.193 E167.04069
G0 F2040 X-19.398 Y-8.509
G1 F1020 X9.43 Y20.32 E168.60093
G0 F2040 X9.925 Y20.32
G1 F1020 X-19.219 Y-8.824 E170.17824
G0 F2040 X-19.039 Y-9.14
G1 F1020 X10.42 Y20.32 E171.77262
G0 F2040 X10.915 Y20.32
G1 F1020 X-18.859 Y-9.455 E173.38406
G0 F2040 X-18.681 Y-9.771
G1 F1020 X11.41 Y20.32 E175.01262
G0 F2040 X11.905 Y20.32
G1 F1020 X-18.501 Y-10.086 E176.65823
G0 F2040 X-18.321 Y-10.402
G1 F1020 X12.4 Y20.32 E178.32092
G0 F2040 X12.895 Y20.32
G1 F1020 X-18.142 Y-10.717 E180.00068
G0 F2040 X-17.962 Y-11.032
G1 F1020 X13.39 Y20.32 E181.69749
G0 F2040 X13.885 Y20.32
G1 F1020 X-17.783 Y-11.348 E183.4114
G0 F2040 X-17.604 Y-11.664
G1 F1020 X14.38 Y20.32 E185.14242
G0 F2040 X14.875 Y20.32
G1 F1020 X-17.424 Y-11.979 E186.89048
G0 F2040 X-17.244 Y-12.295
G1 F1020 X15.37 Y20.32 E188.65562
G0 F2040 X15.865 Y20.32
G1 F1020 X-17.065 Y-12.61 E190.43783
G0 F2040 X-16.885 Y-12.925
G1 F1020 X16.36 Y20.32 E192.23709
G0 F2040 X16.855 Y20.32
G1 F1020 X-16.706 Y-13.241 E194.05346
G0 F2040 X-16.527 Y-13.557
G1 F1020 X17.35 Y20.32 E195.88692
G0 F2040 X17.845 Y20.32
G1 F1020 X-16.347 Y-13.872 E197.73744
G0 F2040 X-16.167 Y-14.188
G1 F1020 X18.34 Y20.32 E199.60503
G0 F2040 X18.835 Y20.32
G1 F1020 X-15.988 Y-14.503 E201.48969
G0 F2040 X-15.808 Y-14.818
G1 F1020 X19.33 Y20.32 E203.39141
G0 F2040 X19.825 Y20.32
G1 F1020 X-15.629 Y-15.134 E205.31022
G0 F2040 X-15.45 Y-15.45
G1 F1020 X20.32 Y20.32 E207.24614
G0 F2040 X20.815 Y20.32
G1 F1020 X-15.27 Y-15.765 E209.19911
G0 F2040 X-15.091 Y-16.081
G1 F1020 X21.31 Y20.32 E211.16917
G0 F2040 X21.805 Y20.32
G1 F1020 X-14.911 Y-16.396 E213.15629
G0 F2040 X-14.731 Y-16.711
G1 F1020 X22.3 Y20.32 E215.16046
G0 F2040 X22.795 Y20.32
G1 F1020 X-14.552 Y-17.027 E217.18172
G0 F2040 X-14.373 Y-17.343
G1 F1020 X23.289 Y20.32 E219.22007
G0 F2040 X23.784 Y20.32
G1 F1020 X-14.193 Y-17.658 E221.27546
