;FLAVOR:Marlin
;TIME:7467
;Filament used: 7.04715m
;Layer height: 0.2
;MINX:-64.38
;MINY:-22.972
;MINZ:0.26
;MAXX:49.13
;MAXY:73.942
;MAXZ:13.06
;Generated with Cura_SteamEngine 4.8.0
M82 ;absolute extrusion mode
;Gcode by Cura
G90
G28
M107
M109 R100
G30
M109 S215 U-55 X55 V-85 Y-85 W0.26 Z0.26
M82
G92 E0
G1 F200 E6
G92 E0
G1 F200 E-3.5
G0 Z0.15
G0 X10
G0 Z3
G1 F6000
G92 E0
G92 E0
G1 F3600 E-3.8
;LAYER_COUNT:65
;LAYER:0
M107
G0 F2040 X43.939 Y-22.972 Z0.26
;TYPE:SKIRT
G1 F3600 E0
G1 F1020 X44.624 Y-22.962 E0.02622
G1 X45.226 Y-22.913 E0.04933
G1 X45.817 Y-22.785 E0.07247
G1 X46.386 Y-22.58 E0.09562
G1 X46.923 Y-22.302 E0.11876
G1 X47.419 Y-21.956 E0.1419
G1 X47.865 Y-21.548 E0.16504
G1 X48.253 Y-21.084 E0.18818
G1 X48.576 Y-20.573 E0.21132
G1 X48.829 Y-20.024 E0.23445
G1 X49.008 Y-19.446 E0.25761
G1 X49.109 Y-18.85 E0.28074
G1 X49.13 Y-18.246 E0.30387
G1 X49.071 Y-17.644 E0.32702
G1 X48.934 Y-17.055 E0.35016
G1 X48.61 Y-16.264 E0.38287
G1 X48.165 Y-15.417 E0.41949
G1 X1.044 Y70.957 E4.18488
G1 X0.679 Y71.607 E4.21341
G1 X0.349 Y72.114 E4.23656
G1 X-0.045 Y72.572 E4.25968
G1 X-.496 Y72.975 E4.28283
G1 X-.997 Y73.314 E4.30598
G1 X-1.538 Y73.585 E4.32913
G1 X-2.109 Y73.782 E4.35225
G1 X-2.702 Y73.901 E4.37539
G1 X-3.305 Y73.942 E4.39852
G1 X-3.909 Y73.903 E4.42169
G1 X-4.501 Y73.784 E4.4448
G1 X-5.074 Y73.588 E4.46797
G1 X-5.615 Y73.319 E4.49109
G1 X-6.116 Y72.981 E4.51422
G1 X-6.568 Y72.579 E4.53737
G1 X-7.116 Y71.906 E4.57058
G1 X-7.618 Y71.152 E4.60525
G1 X-63.361 Y-15.441 E8.54638
G1 X-63.69 Y-15.969 E8.57019
G1 X-63.975 Y-16.502 E8.59332
G1 X-64.187 Y-17.068 E8.61645
G1 X-64.323 Y-17.657 E8.63959
G1 X-64.38 Y-18.259 E8.66273
G1 X-64.357 Y-18.863 E8.68586
G1 X-64.255 Y-19.459 E8.709
G1 X-64.075 Y-20.036 E8.73213
G1 X-63.82 Y-20.585 E8.7553
G1 X-63.495 Y-21.095 E8.77844
G1 X-63.106 Y-21.558 E8.80158
G1 X-62.659 Y-21.965 E8.82472
G1 X-62.163 Y-22.31 E8.84784
G1 X-61.625 Y-22.586 E8.87098
G1 X-61.055 Y-22.789 E8.89414
G1 X-60.464 Y-22.916 E8.91727
G1 X-59.947 Y-22.961 E8.93713
G1 X-59.364 Y-22.972 E8.95944
G1 X43.939 Y-22.972 E12.9128
G0 F2040 X43.934 Y-22.622
G1 F1020 X44.619 Y-22.612 E12.93902
G1 X45.198 Y-22.563 E12.96126
G1 X45.765 Y-22.436 E12.98349
G1 X46.309 Y-22.232 E13.00573
G1 X46.82 Y-21.955 E13.02797
G1 X47.288 Y-21.611 E13.0502
G1 X47.704 Y-21.206 E13.07242
G1 X48.061 Y-20.747 E13.09467
G1 X48.352 Y-20.244 E13.11691
G1 X48.571 Y-19.706 E13.13914
G1 X48.714 Y-19.143 E13.16137
G1 X48.778 Y-18.565 E13.18362
G1 X48.763 Y-17.985 E13.20583
G1 X48.668 Y-17.411 E13.22809
G1 X48.495 Y-16.857 E13.2503
G1 X48.3 Y-16.427 E13.26837
G1 X47.858 Y-15.585 E13.30477
G1 X0.739 Y70.786 E17.07002
G1 X0.374 Y71.436 E17.09855
G1 X0.055 Y71.922 E17.12079
G1 X-.327 Y72.359 E17.14301
G1 X-.766 Y72.74 E17.16525
G1 X-1.253 Y73.057 E17.18749
G1 X-1.778 Y73.305 E17.20971
G1 X-2.333 Y73.477 E17.23195
G1 X-2.906 Y73.573 E17.25418
G1 X-3.487 Y73.588 E17.27642
G1 X-4.065 Y73.524 E17.29868
G1 X-4.628 Y73.381 E17.32091
G1 X-5.166 Y73.163 E17.34312
G1 X-5.669 Y72.872 E17.36536
G1 X-6.128 Y72.515 E17.38761
G1 X-6.533 Y72.099 E17.40983
G1 X-6.825 Y71.712 E17.42839
G1 X-7.324 Y70.963 E17.46283
G1 X-63.064 Y-15.626 E21.40377
G1 X-63.393 Y-16.154 E21.42758
G1 X-63.665 Y-16.667 E21.4498
G1 X-63.865 Y-17.212 E21.47202
G1 X-63.988 Y-17.78 E21.49426
G1 X-64.032 Y-18.36 E21.51652
G1 X-63.996 Y-18.94 E21.53876
G1 X-63.881 Y-19.509 E21.56097
G1 X-63.688 Y-20.057 E21.58321
G1 X-63.423 Y-20.574 E21.60544
G1 X-63.088 Y-21.049 E21.62769
G1 X-62.692 Y-21.474 E21.64992
G1 X-62.242 Y-21.841 E21.67214
G1 X-61.745 Y-22.142 E21.69437
G1 X-61.211 Y-22.373 E21.71664
G1 X-60.651 Y-22.528 E21.73888
G1 X-59.937 Y-22.611 E21.76639
G1 X-59.359 Y-22.622 E21.78851
G1 X43.934 Y-22.622 E25.74148
G0 F2040 X43.929 Y-22.272
G1 F1020 X44.614 Y-22.262 E25.7677
G1 X45.168 Y-22.214 E25.78898
G1 X45.71 Y-22.087 E25.81029
G1 X46.228 Y-21.883 E25.83159
G1 X46.711 Y-21.608 E25.85286
G1 X47.15 Y-21.266 E25.87416
G1 X47.536 Y-20.865 E25.89546
G1 X47.86 Y-20.413 E25.91674
G1 X48.116 Y-19.919 E25.93803
G1 X48.299 Y-19.394 E25.95931
G1 X48.405 Y-18.847 E25.98063
G1 X48.431 Y-18.291 E26.00194
G1 X48.377 Y-17.738 E26.0232
G1 X48.245 Y-17.197 E26.04451
G1 X47.99 Y-16.589 E26.06974
G1 X47.551 Y-15.752 E26.10591
G1 X0.434 Y70.614 E29.87096
G1 X0.069 Y71.264 E29.89949
G1 X-.238 Y71.729 E29.92081
G1 X-.608 Y72.144 E29.94209
G1 X-1.033 Y72.503 E29.96338
G1 X-1.506 Y72.796 E29.98467
G1 X-2.016 Y73.019 E30.00597
G1 X-2.552 Y73.167 E30.02725
G1 X-3.104 Y73.237 E30.04855
G1 X-3.661 Y73.226 E30.06987
G1 X-4.21 Y73.136 E30.09116
G1 X-4.74 Y72.968 E30.11244
G1 X-5.241 Y72.726 E30.13373
G1 X-5.702 Y72.415 E30.15501
G1 X-6.114 Y72.041 E30.17631
G1 X-6.533 Y71.518 E30.20195
G1 X-7.029 Y70.773 E30.2362
G1 X-62.767 Y-15.811 E34.17694
G1 X-63.096 Y-16.339 E34.20075
G1 X-63.355 Y-16.831 E34.22203
G1 X-63.542 Y-17.355 E34.24332
G1 X-63.651 Y-17.901 E34.26463
G1 X-63.681 Y-18.456 E34.2859
G1 X-63.632 Y-19.01 E34.30718
G1 X-63.503 Y-19.552 E34.32851
G1 X-63.298 Y-20.069 E34.34979
G1 X-63.022 Y-20.552 E34.37108
G1 X-62.678 Y-20.99 E34.39239
G1 X-62.276 Y-21.374 E34.41367
G1 X-61.823 Y-21.697 E34.43496
G1 X-61.328 Y-21.952 E34.45627
G1 X-60.802 Y-22.133 E34.47756
G1 X-60.256 Y-22.237 E34.49883
G1 X-59.69 Y-22.268 E34.52052
G1 X-59.355 Y-22.272 E34.53334
G1 X43.929 Y-22.272 E38.48597
G0 F2040 X43.923 Y-21.922
G1 F1020 X44.608 Y-21.912 E38.51219
G1 X45.137 Y-21.864 E38.53252
G1 X45.652 Y-21.738 E38.55281
G1 X46.143 Y-21.535 E38.57314
G1 X46.597 Y-21.261 E38.59343
G1 X47.006 Y-20.922 E38.61376
G1 X47.359 Y-20.526 E38.63406
G1 X47.648 Y-20.081 E38.65437
G1 X47.867 Y-19.598 E38.67467
G1 X48.012 Y-19.087 E38.69499
G1 X48.078 Y-18.561 E38.71528
G1 X48.064 Y-18.03 E38.73561
G1 X47.971 Y-17.508 E38.7559
G1 X47.8 Y-17.006 E38.7762
G1 X47.68 Y-16.752 E38.78695
G1 X47.243 Y-15.92 E38.82291
G1 X0.129 Y70.443 E42.5878
G1 X-.236 Y71.093 E42.61633
G1 X-.53 Y71.535 E42.63665
G1 X-.887 Y71.927 E42.65694
G1 X-1.299 Y72.262 E42.67726
G1 X-1.756 Y72.531 E42.69755
G1 X-2.249 Y72.729 E42.71789
G1 X-2.766 Y72.85 E42.73821
G1 X-3.295 Y72.892 E42.75851
G1 X-3.824 Y72.854 E42.77881
G1 X-4.342 Y72.738 E42.79912
G1 X-4.836 Y72.545 E42.81942
G1 X-5.296 Y72.28 E42.83974
G1 X-5.71 Y71.948 E42.86005
G1 X-6.071 Y71.559 E42.88036
G1 X-6.242 Y71.323 E42.89151
G1 X-6.735 Y70.584 E42.92551
G1 X-62.47 Y-15.996 E46.86606
G1 X-62.799 Y-16.524 E46.88986
G1 X-63.045 Y-16.994 E46.91017
G1 X-63.217 Y-17.496 E46.93047
G1 X-63.313 Y-18.018 E46.95079
G1 X-63.328 Y-18.548 E46.97108
G1 X-63.264 Y-19.075 E46.99139
G1 X-63.122 Y-19.586 E47.01169
G1 X-62.905 Y-20.07 E47.03199
G1 X-62.617 Y-20.516 E47.05231
G1 X-62.266 Y-20.914 E47.07261
G1 X-61.859 Y-21.254 E47.09291
G1 X-61.405 Y-21.53 E47.11324
G1 X-60.915 Y-21.734 E47.13355
G1 X-60.4 Y-21.863 E47.15387
G1 X-59.752 Y-21.916 E47.17875
G1 X-59.351 Y-21.922 E47.1941
G1 X43.923 Y-21.922 E51.14635
G0 F2040 X43.918 Y-21.572
G1 F1020 X44.603 Y-21.562 E51.17257
G1 X45.105 Y-21.514 E51.19186
G1 X45.592 Y-21.388 E51.21112
G1 X46.054 Y-21.187 E51.2304
G1 X46.478 Y-20.915 E51.24967
G1 X46.853 Y-20.58 E51.26892
G1 X47.171 Y-20.189 E51.28821
G1 X47.423 Y-19.753 E51.30748
G1 X47.603 Y-19.283 E51.32674
G1 X47.706 Y-18.79 E51.34601
G1 X47.73 Y-18.287 E51.36528
G1 X47.675 Y-17.786 E51.38457
G1 X47.54 Y-17.301 E51.40384
G1 X47.37 Y-16.914 E51.42001
G1 X46.936 Y-16.087 E51.45576
G1 X-.177 Y70.272 E55.2205
G1 X-.542 Y70.922 E55.24902
G1 X-.822 Y71.34 E55.26828
G1 X-1.165 Y71.708 E55.28753
G1 X-1.563 Y72.018 E55.30684
G1 X-2.004 Y72.261 E55.32611
G1 X-2.478 Y72.431 E55.34538
G1 X-2.973 Y72.524 E55.36465
G1 X-3.476 Y72.538 E55.38391
G1 X-3.975 Y72.472 E55.40317
G1 X-4.458 Y72.327 E55.42247
G1 X-4.911 Y72.109 E55.44171
G1 X-5.325 Y71.821 E55.46101
G1 X-5.687 Y71.472 E55.48025
G1 X-5.951 Y71.129 E55.49682
G1 X-6.441 Y70.395 E55.53059
G1 X-62.173 Y-16.181 E59.47095
G1 X-62.502 Y-16.709 E59.49476
G1 X-62.733 Y-17.156 E59.51402
G1 X-62.891 Y-17.634 E59.53328
G1 X-62.972 Y-18.131 E59.55255
G1 X-62.972 Y-18.635 E59.57184
G1 X-62.894 Y-19.132 E59.59109
G1 X-62.737 Y-19.611 E59.61038
G1 X-62.507 Y-20.059 E59.62966
G1 X-62.209 Y-20.465 E59.64893
G1 X-61.85 Y-20.818 E59.6682
G1 X-61.44 Y-21.111 E59.68748
G1 X-60.989 Y-21.335 E59.70675
G1 X-60.508 Y-21.485 E59.72604
G1 X-59.904 Y-21.562 E59.74934
G1 X-59.347 Y-21.572 E59.77066
G1 X43.918 Y-21.572 E63.72256
G1 F3600 E59.92256
;MESH:support_tri_0_041.stl
G0 F2040 X43.918 Y-19.062
G0 X43.918 Y-18.027
G0 X-3.35 Y68.361
;TYPE:WALL-INNER
G1 F3600 E63.72256
G1 F1020 X-58.862 Y-17.872 E67.64732
G1 X43.695 Y-17.872 E71.57213
G1 X-3.35 Y68.361 E75.33139
G0 F2040 X-3.327 Y68.997
;TYPE:WALL-OUTER
G1 F1020 X-59.458 Y-18.197 E79.2999
G1 X44.242 Y-18.197 E83.26845
G1 X-3.327 Y68.997 E87.0696
G0 F2040 X-3.435 Y68.829
G0 X-3.341 Y68.604
G0 X-3.375 Y67.695
;TYPE:SKIN
G1 F1020 X-58.238 Y-17.532 E90.94855
G1 X43.122 Y-17.532 E94.82755
G1 X-3.375 Y67.695 E98.54297
G0 F2040 X-3.215 Y67.071
G1 F1020 X-4.266 Y66.019 E98.59988
G1 X-4.328 Y65.957
G0 F2040 X-3.04 Y66.75
G1 F1020 X-5.16 Y64.63 E98.71461
G1 X-5.222 Y64.568
G0 F2040 X-6.054 Y63.241
G1 F1020 X-2.865 Y66.431 E98.88723
G0 F2040 X-2.69 Y66.11
G1 F1020 X-6.949 Y61.852 E99.11771
G1 X-7.011 Y61.79
G0 F2040 X-7.843 Y60.463
G1 F1020 X-2.515 Y65.79 E99.40604
G0 F2040 X-2.341 Y65.47
G1 F1020 X-8.737 Y59.073 E99.75223
G1 X-8.799 Y59.011
G0 F2040 X-9.632 Y57.684
G1 F1020 X-2.166 Y65.149 E100.15627
G0 F2040 X-1.991 Y64.829
G1 F1020 X-10.526 Y56.294 E100.61819
G1 X-10.588 Y56.232
G0 F2040 X-11.42 Y54.906
G1 F1020 X-1.817 Y64.509 E101.13792
G0 F2040 X-1.642 Y64.189
G1 F1020 X-12.314 Y53.516 E101.71553
G1 X-12.376 Y53.454
G0 F2040 X-13.209 Y52.127
G1 F1020 X-1.467 Y63.868 E102.35099
G0 F2040 X-1.293 Y63.548
G1 F1020 X-14.103 Y50.737 E103.04431
G1 X-14.165 Y50.675
G0 F2040 X-14.997 Y49.348
G1 F1020 X-1.118 Y63.228 E103.79549
G0 F2040 X-.943 Y62.908
G1 F1020 X-15.892 Y47.959 E104.60455
G1 X-15.954 Y47.897
G0 F2040 X-16.786 Y46.57
G1 F1020 X-.768 Y62.588 E105.47146
G0 F2040 X-.593 Y62.267
G1 F1020 X-17.681 Y45.18 E106.39626
G1 X-17.743 Y45.118
G0 F2040 X-18.574 Y43.791
G1 F1020 X-.419 Y61.947 E107.37886
G0 F2040 X-.244 Y61.627
G1 F1020 X-19.469 Y42.402 E108.41934
G1 X-19.531 Y42.34
G0 F2040 X-20.363 Y41.012
G1 F1020 X-0.07 Y61.306 E109.51765
G0 F2040 X0.104 Y60.986
G1 F1020 X-21.257 Y39.624 E110.67376
G1 X-21.319 Y39.562
G0 F2040 X-22.152 Y38.234
G1 F1020 X0.279 Y60.666 E111.88779
G0 F2040 X0.453 Y60.345
G1 F1020 X-23.046 Y36.845 E113.15961
G1 X-23.108 Y36.783
G0 F2040 X-23.941 Y35.455
G1 F1020 X0.628 Y60.025 E114.48934
G0 F2040 X0.803 Y59.705
G1 F1020 X-24.835 Y34.066 E115.87693
G1 X-24.897 Y34.004
G0 F2040 X-25.729 Y32.677
G1 F1020 X0.978 Y59.385 E117.32237
G0 F2040 X1.153 Y59.065
G1 F1020 X-26.623 Y31.288 E118.82567
G1 X-26.685 Y31.226
G0 F2040 X-27.518 Y29.898
G1 F1020 X1.327 Y58.745 E120.38685
G0 F2040 X1.502 Y58.424
G1 F1020 X-28.412 Y28.509 E122.00587
G1 X-28.474 Y28.447
G0 F2040 X-29.306 Y27.12
G1 F1020 X1.677 Y58.104 E123.68273
G0 F2040 X1.851 Y57.784
G1 F1020 X-30.201 Y25.73 E125.41748
G1 X-30.263 Y25.668
G0 F2040 X-31.095 Y24.342
G1 F1020 X2.026 Y57.463 E127.21003
G0 F2040 X2.201 Y57.143
G1 F1020 X-31.989 Y22.952 E129.06047
G1 X-32.051 Y22.89
G0 F2040 X-32.884 Y21.563
G1 F1020 X2.375 Y56.823 E130.96875
G0 F2040 X2.55 Y56.502
G1 F1020 X-33.778 Y20.173 E132.9349
G1 X-33.84 Y20.111
G0 F2040 X-34.672 Y18.784
G1 F1020 X2.725 Y56.183 E134.95893
G0 F2040 X2.9 Y55.862
G1 F1020 X-35.566 Y17.395 E137.04078
G1 X-35.628 Y17.333
G0 F2040 X-36.461 Y16.006
G1 F1020 X3.075 Y55.542 E139.18052
G0 F2040 X3.249 Y55.222
G1 F1020 X-37.355 Y14.616 E141.37812
G1 X-37.417 Y14.554
G0 F2040 X-38.249 Y13.227
G1 F1020 X3.424 Y54.901 E143.63354
G0 F2040 X3.599 Y54.581
G1 F1020 X-39.144 Y11.838 E145.94684
G1 X-39.206 Y11.776
G0 F2040 X-40.038 Y10.448
G1 F1020 X3.773 Y54.261 E148.31801
G0 F2040 X3.948 Y53.94
G1 F1020 X-40.932 Y9.059 E150.747
G1 X-40.994 Y8.997
G0 F2040 X-41.826 Y7.67
G1 F1020 X4.123 Y53.62 E153.23384
G0 F2040 X4.297 Y53.3
G1 F1020 X-42.721 Y6.281 E155.77854
G1 X-42.783 Y6.219
G0 F2040 X-43.615 Y4.891
G1 F1020 X4.472 Y52.979 E158.3811
G0 F2040 X4.647 Y52.66
G1 F1020 X-44.509 Y3.503 E161.04151
G1 X-44.571 Y3.441
G0 F2040 X-45.404 Y2.113
G1 F1020 X4.822 Y52.34 E163.75983
G0 F2040 X4.997 Y52.019
G1 F1020 X-46.298 Y0.724 E166.53598
G1 X-46.36 Y0.662
G0 F2040 X-47.193 Y-.665
G1 F1020 X5.171 Y51.699 E169.36999
G0 F2040 X5.346 Y51.379
G1 F1020 X-48.086 Y-2.054 E172.26183
G1 X-48.148 Y-2.116
G0 F2040 X-48.981 Y-3.443
G1 F1020 X5.521 Y51.058 E175.21152
G0 F2040 X5.695 Y50.738
G1 F1020 X-49.875 Y-4.833 E178.21906
G1 X-49.937 Y-4.895
G0 F2040 X-50.77 Y-6.222
G1 F1020 X5.87 Y50.418 E181.28449
G0 F2040 X6.045 Y50.097
G1 F1020 X-51.664 Y-7.611 E184.40775
G1 X-51.726 Y-7.673
G0 F2040 X-52.558 Y-9
G1 F1020 X6.219 Y49.777 E187.58883
G0 F2040 X6.395 Y49.457
G1 F1020 X-53.453 Y-10.39 E190.82786
G1 X-53.515 Y-10.452
G0 F2040 X-54.347 Y-11.779
G1 F1020 X6.569 Y49.137 E194.12471
G0 F2040 X6.744 Y48.817
G1 F1020 X-55.241 Y-13.168 E197.47942
G1 X-55.303 Y-13.23
G0 F2040 X-56.135 Y-14.557
G1 F1020 X6.919 Y48.496 E200.89195
G0 F2040 X7.093 Y48.176
G1 F1020 X-57.03 Y-15.947 E204.36237
G1 X-57.092 Y-16.009
G0 F2040 X-56.973 Y-17.375
G1 F1020 X7.617 Y47.215 E207.85806
G0 F2040 X7.443 Y47.535
G1 F1020 X-57.467 Y-17.375 E211.37108
G0 F2040 X-57.924 Y-17.336
G1 F1020 X7.268 Y47.856 E214.89935
G1 X7.33 Y47.918
G0 F2040 X7.792 Y46.895
G1 F1020 X-56.478 Y-17.375 E218.37772
G0 F2040 X-55.983 Y-17.375
G1 F1020 X7.966 Y46.575 E221.83875
G0 F2040 X8.141 Y46.254
G1 F1020 X-55.488 Y-17.375 E225.28244
G0 F2040 X-54.993 Y-17.375
G1 F1020 X8.316 Y45.935 E228.70883
G0 F2040 X8.491 Y45.614
G1 F1020 X-54.498 Y-17.375 E232.11787
G0 F2040 X-54.003 Y-17.375
G1 F1020 X8.666 Y45.294 E235.5096
G0 F2040 X8.84 Y44.974
G1 F1020 X-53.508 Y-17.375 E238.88398
G0 F2040 X-53.013 Y-17.375
G1 F1020 X9.015 Y44.653 E242.24101
G0 F2040 X9.19 Y44.333
G1 F1020 X-52.518 Y-17.375 E245.58073
G0 F2040 X-52.023 Y-17.375
G1 F1020 X9.364 Y44.013 E248.9031
G0 F2040 X9.539 Y43.692
G1 F1020 X-51.528 Y-17.375 E252.20812
G0 F2040 X-51.033 Y-17.375
G1 F1020 X9.714 Y43.372 E255.49583
G0 F2040 X9.888 Y43.052
G1 F1020 X-50.538 Y-17.375 E258.76618
G0 F2040 X-50.043 Y-17.375
G1 F1020 X10.063 Y42.731 E262.0192
G0 F2040 X10.238 Y42.412
G1 F1020 X-49.548 Y-17.375 E265.25492
G0 F2040 X-49.053 Y-17.375
G1 F1020 X10.413 Y42.091 E268.4733
G0 F2040 X10.588 Y41.771
G1 F1020 X-48.558 Y-17.375 E271.67435
G0 F2040 X-48.063 Y-17.375
G1 F1020 X10.762 Y41.451 E274.85806
G0 F2040 X10.937 Y41.13
G1 F1020 X-47.568 Y-17.375 E278.02443
G0 F2040 X-47.073 Y-17.375
G1 F1020 X11.112 Y40.81 E281.17347
G0 F2040 X11.286 Y40.49
G1 F1020 X-46.578 Y-17.375 E284.30518
G0 F2040 X-46.083 Y-17.375
G1 F1020 X11.461 Y40.17 E287.41956
G0 F2040 X11.636 Y39.849
G1 F1020 X-45.588 Y-17.375 E290.51659
G0 F2040 X-45.093 Y-17.375
G1 F1020 X11.81 Y39.529 E293.59628
G0 F2040 X11.986 Y39.209
G1 F1020 X-44.598 Y-17.375 E296.65868
G0 F2040 X-44.103 Y-17.375
G1 F1020 X12.16 Y38.889 E299.70373
G0 F2040 X12.335 Y38.569
G1 F1020 X-43.608 Y-17.375 E302.73147
G0 F2040 X-43.113 Y-17.375
G1 F1020 X12.51 Y38.248 E305.74185
G0 F2040 X12.684 Y37.928
G1 F1020 X-42.618 Y-17.375 E308.7349
G0 F2040 X-42.123 Y-17.375
G1 F1020 X12.859 Y37.608 E311.71062
G0 F2040 X13.034 Y37.287
G1 F1020 X-41.628 Y-17.375 E314.669
G0 F2040 X-41.133 Y-17.375
G1 F1020 X13.208 Y36.967 E317.61003
G0 F2040 X13.383 Y36.647
G1 F1020 X-40.638 Y-17.375 E320.53374
G0 F2040 X-40.143 Y-17.375
G1 F1020 X13.558 Y36.326 E323.44011
G0 F2040 X13.732 Y36.006
G1 F1020 X-39.648 Y-17.375 E326.32913
G0 F2040 X-39.153 Y-17.375
G1 F1020 X13.908 Y35.686 E329.20086
G0 F2040 X14.082 Y35.366
G1 F1020 X-38.658 Y-17.375 E332.05524
G0 F2040 X-38.163 Y-17.375
G1 F1020 X14.257 Y35.046 E334.8923
G0 F2040 X14.432 Y34.726
G1 F1020 X-37.668 Y-17.375 E337.71205
G0 F2040 X-37.174 Y-17.375
G1 F1020 X14.606 Y34.405 E340.51445
G0 F2040 X14.781 Y34.085
G1 F1020 X-36.679 Y-17.375 E343.29953
G0 F2040 X-36.184 Y-17.375
G1 F1020 X14.956 Y33.765 E346.06729
G0 F2040 X15.13 Y33.444
G1 F1020 X-35.689 Y-17.375 E348.81768
G0 F2040 X-35.194 Y-17.375
