;FLAVOR:Marlin
;TIME:6278
;Filament used: 8.00958m
;Layer height: 0.3
;MINX:-54.546
;MINY:-53.325
;MINZ:0.26
;MAXX:54.55
;MAXY:45.94
;MAXZ:22.76
;Generated with Cura_SteamEngine 4.9.1
M82 ;absolute extrusion mode
;Gcode by Cura
G90
G28
M107
M109 R100
G30
M109 S215 U-55 X55 V-85 Y-85 W0.26 Z0.26
M82
G92 E0
G1 F200 E6
G92 E0
G1 F200 E-3.5
G0 Z0.15
G0 X10
G0 Z3
G1 F6000
G92 E0
G92 E0
G1 F3600 E-3.8
;LAYER_COUNT:76
;LAYER:0
M107
G0 F2040 X4.398 Y-50.277 Z0.26
;TYPE:SKIRT
G1 F3600 E0
G1 F1020 X53.692 Y38.59 E3.88906
G1 X54.01 Y39.183 E3.91482
G1 X54.26 Y39.733 E3.93794
G1 X54.435 Y40.312 E3.96108
G1 X54.532 Y40.909 E3.98423
G1 X54.55 Y41.513 E4.00736
G1 X54.488 Y42.115 E4.03052
G1 X54.347 Y42.703 E4.05366
G1 X54.13 Y43.267 E4.07678
G1 X53.84 Y43.798 E4.09994
G1 X53.483 Y44.286 E4.12308
G1 X53.064 Y44.722 E4.14622
G1 X52.592 Y45.1 E4.16936
G1 X52.074 Y45.412 E4.1925
G1 X51.519 Y45.653 E4.21566
G1 X50.938 Y45.818 E4.23877
G1 X50.071 Y45.919 E4.27218
G1 X48.994 Y45.94 E4.3134
G1 X-49.354 Y45.94 E8.07713
G1 X-50.034 Y45.931 E8.10316
G1 X-50.636 Y45.883 E8.12627
G1 X-51.227 Y45.756 E8.1494
G1 X-51.797 Y45.552 E8.17257
G1 X-52.334 Y45.275 E8.19569
G1 X-52.83 Y44.929 E8.21884
G1 X-53.276 Y44.521 E8.24197
G1 X-53.665 Y44.058 E8.26511
G1 X-53.989 Y43.547 E8.28827
G1 X-54.243 Y42.999 E8.31138
G1 X-54.422 Y42.421 E8.33454
G1 X-54.524 Y41.825 E8.35768
G1 X-54.546 Y41.221 E8.38081
G1 X-54.488 Y40.619 E8.40395
G1 X-54.352 Y40.03 E8.42709
G1 X-54.016 Y39.215 E8.46082
G1 X-53.506 Y38.253 E8.50249
G1 X-4.257 Y-50.53 E12.38791
G1 X-3.974 Y-51.024 E12.4097
G1 X-3.639 Y-51.528 E12.43286
G1 X-3.241 Y-51.983 E12.45599
G1 X-2.786 Y-52.382 E12.47915
G1 X-2.283 Y-52.717 E12.50228
G1 X-1.74 Y-52.983 E12.52542
G1 X-1.167 Y-53.175 E12.54855
G1 X-.573 Y-53.289 E12.57169
G1 X0.03 Y-53.325 E12.59481
G1 X0.633 Y-53.28 E12.61795
G1 X1.225 Y-53.157 E12.64109
G1 X1.796 Y-52.956 E12.66426
G1 X2.335 Y-52.682 E12.6874
G1 X2.833 Y-52.339 E12.71054
G1 X3.281 Y-51.934 E12.73365
G1 X3.673 Y-51.473 E12.75681
G1 X3.954 Y-51.044 E12.77643
G1 X4.398 Y-50.277 E12.81035
G0 F2040 X4.092 Y-50.107
G1 F1020 X53.383 Y38.755 E16.69919
G1 X53.701 Y39.348 E16.72494
G1 X53.94 Y39.878 E16.74719
G1 X54.104 Y40.435 E16.76941
G1 X54.19 Y41.01 E16.79166
G1 X54.196 Y41.591 E16.8139
G1 X54.122 Y42.168 E16.83616
G1 X53.97 Y42.728 E16.85837
G1 X53.743 Y43.263 E16.88061
G1 X53.444 Y43.761 E16.90284
G1 X53.08 Y44.214 E16.92508
G1 X52.657 Y44.612 E16.94731
G1 X52.183 Y44.949 E16.96956
G1 X51.668 Y45.217 E16.99178
G1 X51.12 Y45.413 E17.01405
G1 X50.552 Y45.531 E17.03625
G1 X50.064 Y45.569 E17.05499
G1 X48.994 Y45.59 E17.09594
G1 X-49.349 Y45.59 E20.85948
G1 X-50.029 Y45.581 E20.88551
G1 X-50.608 Y45.533 E20.90774
G1 X-51.175 Y45.406 E20.92998
G1 X-51.719 Y45.203 E20.9522
G1 X-52.231 Y44.927 E20.97446
G1 X-52.699 Y44.584 E20.99666
G1 X-53.116 Y44.179 E21.01891
G1 X-53.474 Y43.721 E21.04116
G1 X-53.765 Y43.218 E21.0634
G1 X-53.985 Y42.681 E21.0856
G1 X-54.129 Y42.118 E21.10784
G1 X-54.194 Y41.54 E21.1301
G1 X-54.179 Y40.959 E21.15234
G1 X-54.085 Y40.386 E21.17457
G1 X-53.913 Y39.831 E21.1968
G1 X-53.707 Y39.379 E21.21581
G1 X-53.2 Y38.423 E21.25722
G1 X-3.953 Y-50.356 E25.14247
G1 X-3.67 Y-50.85 E25.16426
G1 X-3.347 Y-51.333 E25.1865
G1 X-2.961 Y-51.768 E25.20875
G1 X-2.519 Y-52.145 E25.23098
G1 X-2.03 Y-52.458 E25.2532
G1 X-1.502 Y-52.701 E25.27545
G1 X-.946 Y-52.869 E25.29767
G1 X-.372 Y-52.959 E25.31991
G1 X0.209 Y-52.97 E25.34215
G1 X0.786 Y-52.9 E25.36439
G1 X1.348 Y-52.753 E25.38662
G1 X1.884 Y-52.529 E25.40885
G1 X2.385 Y-52.235 E25.43108
G1 X2.841 Y-51.874 E25.45334
G1 X3.242 Y-51.454 E25.47557
G1 X3.652 Y-50.868 E25.50293
G1 X4.092 Y-50.107 E25.53658
G0 F2040 X3.786 Y-49.938
G1 F1020 X53.075 Y38.921 E29.42528
G1 X53.393 Y39.514 E29.45103
G1 X53.62 Y40.022 E29.47232
G1 X53.772 Y40.557 E29.49361
G1 X53.846 Y41.108 E29.51488
G1 X53.84 Y41.665 E29.5362
G1 X53.754 Y42.215 E29.55751
G1 X53.591 Y42.746 E29.57876
G1 X53.353 Y43.249 E29.60006
G1 X53.045 Y43.713 E29.62137
G1 X52.674 Y44.128 E29.64267
G1 X52.248 Y44.485 E29.66395
G1 X51.775 Y44.778 E29.68524
G1 X51.265 Y45 E29.70652
G1 X50.728 Y45.147 E29.72783
G1 X50.057 Y45.219 E29.75366
G1 X48.994 Y45.24 E29.79435
G1 X-49.344 Y45.24 E33.55769
G1 X-50.024 Y45.231 E33.58372
G1 X-50.579 Y45.183 E33.60504
G1 X-51.121 Y45.057 E33.62633
G1 X-51.639 Y44.855 E33.64761
G1 X-52.123 Y44.58 E33.66892
G1 X-52.562 Y44.239 E33.69019
G1 X-52.949 Y43.838 E33.71152
G1 X-53.273 Y43.387 E33.73277
G1 X-53.53 Y42.893 E33.75408
G1 X-53.714 Y42.368 E33.77537
G1 X-53.82 Y41.821 E33.79669
G1 X-53.847 Y41.266 E33.81796
G1 X-53.794 Y40.712 E33.83925
G1 X-53.662 Y40.171 E33.86056
G1 X-53.398 Y39.543 E33.88663
G1 X-52.894 Y38.592 E33.92782
G1 X-3.649 Y-50.182 E37.81287
G1 X-3.366 Y-50.676 E37.83465
G1 X-3.056 Y-51.138 E37.85595
G1 X-2.682 Y-51.55 E37.87724
G1 X-2.254 Y-51.905 E37.89852
G1 X-1.779 Y-52.195 E37.91982
G1 X-1.267 Y-52.413 E37.94112
G1 X-.729 Y-52.557 E37.96243
G1 X-.177 Y-52.621 E37.9837
G1 X0.38 Y-52.606 E38.00502
G1 X0.928 Y-52.511 E38.0263
G1 X1.457 Y-52.339 E38.04759
G1 X1.956 Y-52.093 E38.06888
G1 X2.415 Y-51.778 E38.09019
G1 X2.823 Y-51.4 E38.11147
G1 X3.174 Y-50.968 E38.13277
G1 X3.349 Y-50.693 E38.14525
G1 X3.786 Y-49.938 E38.17863
G0 F2040 X3.48 Y-49.768
G1 F1020 X52.767 Y39.086 E42.06713
G1 X53.085 Y39.679 E42.09288
G1 X53.299 Y40.164 E42.11317
G1 X53.439 Y40.676 E42.13348
G1 X53.5 Y41.203 E42.15379
G1 X53.481 Y41.734 E42.17412
G1 X53.383 Y42.255 E42.19441
G1 X53.208 Y42.756 E42.21472
G1 X52.96 Y43.225 E42.23502
G1 X52.644 Y43.651 E42.25532
G1 X52.267 Y44.025 E42.27564
G1 X51.839 Y44.339 E42.29596
G1 X51.369 Y44.584 E42.31624
G1 X50.867 Y44.756 E42.33655
G1 X50.344 Y44.851 E42.35689
G1 X50.05 Y44.869 E42.36816
G1 X48.994 Y44.89 E42.40858
G1 X-49.34 Y44.89 E46.17178
G1 X-50.02 Y44.881 E46.1978
G1 X-50.548 Y44.834 E46.21809
G1 X-51.064 Y44.708 E46.23842
G1 X-51.555 Y44.506 E46.25874
G1 X-52.01 Y44.233 E46.27904
G1 X-52.418 Y43.895 E46.29932
G1 X-52.772 Y43.499 E46.31965
G1 X-53.062 Y43.055 E46.33994
G1 X-53.282 Y42.572 E46.36025
G1 X-53.427 Y42.061 E46.38058
G1 X-53.493 Y41.535 E46.40087
G1 X-53.48 Y41.004 E46.42119
G1 X-53.388 Y40.482 E46.44148
G1 X-53.218 Y39.979 E46.4618
G1 X-53.088 Y39.707 E46.47334
G1 X-52.588 Y38.762 E46.51425
G1 X-3.346 Y-50.008 E50.3991
G1 X-3.063 Y-50.502 E50.42089
G1 X-2.765 Y-50.942 E50.44123
G1 X-2.405 Y-51.331 E50.46151
G1 X-1.99 Y-51.662 E50.48183
G1 X-1.53 Y-51.927 E50.50214
G1 X-1.036 Y-52.121 E50.52245
G1 X-.518 Y-52.237 E50.54277
G1 X0.011 Y-52.275 E50.56307
G1 X0.54 Y-52.233 E50.58337
G1 X1.057 Y-52.112 E50.60369
G1 X1.549 Y-51.914 E50.62399
G1 X2.007 Y-51.645 E50.64432
G1 X2.418 Y-51.311 E50.66458
G1 X2.775 Y-50.918 E50.6849
G1 X3.046 Y-50.517 E50.70343
G1 X3.48 Y-49.768 E50.73655
G0 F2040 X3.173 Y-49.598
G1 F1020 X52.458 Y39.252 E54.62488
G1 X52.776 Y39.845 E54.65063
G1 X52.978 Y40.306 E54.66989
G1 X53.105 Y40.793 E54.68916
G1 X53.153 Y41.295 E54.70845
G1 X53.121 Y41.797 E54.7277
G1 X53.01 Y42.288 E54.74697
G1 X52.822 Y42.756 E54.76627
G1 X52.564 Y43.188 E54.78553
G1 X52.24 Y43.573 E54.80478
G1 X51.859 Y43.903 E54.82407
G1 X51.431 Y44.168 E54.84334
G1 X50.966 Y44.362 E54.86262
G1 X50.477 Y44.481 E54.88188
G1 X50.043 Y44.519 E54.89855
G1 X48.994 Y44.54 E54.9387
G1 X-49.335 Y44.54 E58.70171
G1 X-50.015 Y44.531 E58.72773
G1 X-50.516 Y44.484 E58.74699
G1 X-51.004 Y44.359 E58.76627
G1 X-51.466 Y44.158 E58.78555
G1 X-51.89 Y43.887 E58.80481
G1 X-52.266 Y43.552 E58.82408
G1 X-52.585 Y43.162 E58.84336
G1 X-52.837 Y42.726 E58.86263
G1 X-53.018 Y42.256 E58.88191
G1 X-53.122 Y41.763 E58.90119
G1 X-53.147 Y41.26 E58.92046
G1 X-53.091 Y40.76 E58.93972
G1 X-52.958 Y40.274 E58.959
G1 X-52.779 Y39.87 E58.97591
G1 X-52.281 Y38.932 E59.01655
G1 X-3.042 Y-49.834 E62.90122
G1 X-2.759 Y-50.328 E62.92301
G1 X-2.475 Y-50.744 E62.94228
G1 X-2.128 Y-51.11 E62.96158
G1 X-1.729 Y-51.416 E62.98083
G1 X-1.285 Y-51.655 E63.00012
G1 X-.81 Y-51.821 E63.01938
G1 X-.314 Y-51.91 E63.03866
G1 X0.189 Y-51.919 E63.05792
G1 X0.688 Y-51.849 E63.0772
G1 X1.169 Y-51.7 E63.09647
G1 X1.621 Y-51.478 E63.11574
G1 X2.032 Y-51.187 E63.13501
G1 X2.391 Y-50.834 E63.15428
G1 X2.743 Y-50.342 E63.17743
G1 X3.173 Y-49.598 E63.21032
G1 F3600 E59.41032
;MESH:support_tri_0_057.stl
G0 F2040 X0.977 Y-48.382
G0 X0.09 Y-47.889
G0 X-49.108 Y40.84
;TYPE:WALL-INNER
G1 F3600 E63.21032
G1 F1020 X0.00 Y-47.692 E67.08472
G1 X49.108 Y40.84 E70.95912
G1 X-49.108 Y40.84 E74.7178
G0 F2040 X-49.66 Y41.165
;TYPE:WALL-OUTER
G1 F1020 X0.00 Y-48.362 E78.63575
G1 X49.66 Y41.165 E82.55369
G1 X-49.66 Y41.165 E86.35462
G0 F2040 X-49.563 Y40.991
G0 X-49.319 Y40.965
G0 X-48.531 Y40.5
;TYPE:SKIN
G1 F1020 X0.00 Y-46.991 E90.18348
G1 X48.531 Y40.5 E94.01233
G1 X-48.531 Y40.5 E97.72684
G0 F2040 X-48.085 Y40.02
G1 F1020 X-47.762 Y40.343 E97.74432
G0 F2040 X-47.267 Y40.343
G1 F1020 X-47.908 Y39.701 E97.77904
G0 F2040 X-47.732 Y39.383
G1 F1020 X-46.772 Y40.343 E97.831
G0 F2040 X-46.277 Y40.343
G1 F1020 X-47.555 Y39.064 E97.90019
G0 F2040 X-47.378 Y38.746
G1 F1020 X-45.782 Y40.343 E97.9866
G0 F2040 X-45.287 Y40.343
G1 F1020 X-47.202 Y38.428 E98.09024
G0 F2040 X-47.026 Y38.109
G1 F1020 X-44.792 Y40.343 E98.21115
G0 F2040 X-44.297 Y40.343
G1 F1020 X-46.849 Y37.791 E98.34927
G0 F2040 X-46.672 Y37.473
G1 F1020 X-43.802 Y40.343 E98.50459
G0 F2040 X-43.307 Y40.343
G1 F1020 X-46.495 Y37.154 E98.67716
G0 F2040 X-46.319 Y36.836
G1 F1020 X-42.812 Y40.343 E98.86696
G0 F2040 X-42.317 Y40.343
G1 F1020 X-46.142 Y36.517 E99.074
G0 F2040 X-45.966 Y36.199
G1 F1020 X-41.822 Y40.343 E99.29828
G0 F2040 X-41.327 Y40.343
G1 F1020 X-45.789 Y35.881 E99.53977
G0 F2040 X-45.613 Y35.562
G1 F1020 X-40.832 Y40.343 E99.79852
G0 F2040 X-40.337 Y40.343
G1 F1020 X-45.436 Y35.244 E100.07449
G0 F2040 X-45.259 Y34.926
G1 F1020 X-39.842 Y40.343 E100.36766
G0 F2040 X-39.347 Y40.343
G1 F1020 X-45.083 Y34.607 E100.6781
G0 F2040 X-44.906 Y34.289
G1 F1020 X-38.852 Y40.343 E101.00575
G0 F2040 X-38.357 Y40.343
G1 F1020 X-44.73 Y33.97 E101.35067
G0 F2040 X-44.553 Y33.652
G1 F1020 X-37.862 Y40.343 E101.71279
G0 F2040 X-37.367 Y40.343
G1 F1020 X-44.376 Y33.334 E102.09213
G0 F2040 X-44.2 Y33.015
G1 F1020 X-36.872 Y40.343 E102.48873
G0 F2040 X-36.377 Y40.343
G1 F1020 X-44.023 Y32.697 E102.90254
G0 F2040 X-43.846 Y32.379
G1 F1020 X-35.882 Y40.343 E103.33356
G0 F2040 X-35.387 Y40.343
G1 F1020 X-43.67 Y32.06 E103.78185
G0 F2040 X-43.494 Y31.742
G1 F1020 X-34.892 Y40.343 E104.24737
G0 F2040 X-34.397 Y40.343
G1 F1020 X-43.317 Y31.423 E104.73014
G0 F2040 X-43.14 Y31.105
G1 F1020 X-33.902 Y40.343 E105.23011
G0 F2040 X-33.407 Y40.343
G1 F1020 X-42.963 Y30.787 E105.74729
G0 F2040 X-42.787 Y30.468
G1 F1020 X-32.912 Y40.343 E106.28174
G0 F2040 X-32.418 Y40.343
G1 F1020 X-42.61 Y30.15 E106.83337
G0 F2040 X-42.434 Y29.832
G1 F1020 X-31.923 Y40.343 E107.40224
G0 F2040 X-31.428 Y40.343
G1 F1020 X-42.257 Y29.513 E107.98835
G0 F2040 X-42.081 Y29.195
G1 F1020 X-30.933 Y40.343 E108.59169
G0 F2040 X-30.438 Y40.343
G1 F1020 X-41.904 Y28.876 E109.21227
G0 F2040 X-41.727 Y28.558
G1 F1020 X-29.943 Y40.343 E109.85006
G0 F2040 X-29.448 Y40.343
G1 F1020 X-41.551 Y28.24 E110.50509
G0 F2040 X-41.374 Y27.921
G1 F1020 X-28.953 Y40.343 E111.17736
G0 F2040 X-28.458 Y40.343
G1 F1020 X-41.198 Y27.603 E111.86687
G0 F2040 X-41.021 Y27.285
G1 F1020 X-27.963 Y40.343 E112.57358
G0 F2040 X-27.468 Y40.343
G1 F1020 X-40.844 Y26.966 E113.29753
G0 F2040 X-40.668 Y26.648
G1 F1020 X-26.973 Y40.343 E114.03872
G0 F2040 X-26.478 Y40.343
G1 F1020 X-40.491 Y26.329 E114.79715
G0 F2040 X-40.314 Y26.011
G1 F1020 X-25.983 Y40.343 E115.57279
G0 F2040 X-25.488 Y40.343
G1 F1020 X-40.138 Y25.693 E116.36567
G0 F2040 X-39.962 Y25.374
G1 F1020 X-24.993 Y40.343 E117.17581
G0 F2040 X-24.498 Y40.343
G1 F1020 X-39.785 Y25.056 E118.00316
G0 F2040 X-39.608 Y24.738
G1 F1020 X-24.003 Y40.343 E118.84772
G0 F2040 X-23.508 Y40.343
G1 F1020 X-39.431 Y24.419 E119.70952
G0 F2040 X-39.255 Y24.101
G1 F1020 X-23.013 Y40.343 E120.58856
G0 F2040 X-22.518 Y40.343
G1 F1020 X-39.078 Y23.782 E121.48484
G0 F2040 X-38.902 Y23.464
G1 F1020 X-22.023 Y40.343 E122.39835
G0 F2040 X-21.528 Y40.343
G1 F1020 X-38.725 Y23.146 E123.32907
G0 F2040 X-38.549 Y22.827
G1 F1020 X-21.033 Y40.343 E124.27706
G0 F2040 X-20.538 Y40.343
G1 F1020 X-38.372 Y22.509 E125.24226
G0 F2040 X-38.195 Y22.191
G1 F1020 X-20.043 Y40.343 E126.22467
G0 F2040 X-19.548 Y40.343
G1 F1020 X-38.019 Y21.872 E127.22434
G0 F2040 X-37.842 Y21.554
G1 F1020 X-19.053 Y40.343 E128.24123
G0 F2040 X-18.558 Y40.343
G1 F1020 X-37.666 Y21.235 E129.27538
G0 F2040 X-37.489 Y20.917
G1 F1020 X-18.063 Y40.343 E130.32674
G0 F2040 X-17.568 Y40.343
G1 F1020 X-37.312 Y20.599 E131.39531
G0 F2040 X-37.136 Y20.28
G1 F1020 X-17.073 Y40.343 E132.48114
G0 F2040 X-16.578 Y40.343
G1 F1020 X-36.959 Y19.962 E133.58419
G0 F2040 X-36.782 Y19.644
G1 F1020 X-16.083 Y40.343 E134.70445
G0 F2040 X-15.588 Y40.343
G1 F1020 X-36.606 Y19.325 E135.84197
G0 F2040 X-36.43 Y19.007
G1 F1020 X-15.093 Y40.343 E136.99673
G0 F2040 X-14.598 Y40.343
G1 F1020 X-36.253 Y18.688 E138.16872
G0 F2040 X-36.076 Y18.37
G1 F1020 X-14.103 Y40.343 E139.35793
G0 F2040 X-13.608 Y40.343
G1 F1020 X-35.899 Y18.052 E140.56435
G0 F2040 X-35.723 Y17.734
G1 F1020 X-13.114 Y40.343 E141.78797
G0 F2040 X-12.619 Y40.343
G1 F1020 X-35.546 Y17.415 E143.02884
G0 F2040 X-35.37 Y17.097
G1 F1020 X-12.124 Y40.343 E144.28694
G0 F2040 X-11.629 Y40.343
G1 F1020 X-35.193 Y16.778 E145.56228
G0 F2040 X-35.016 Y16.46
G1 F1020 X-11.134 Y40.343 E146.85483
G0 F2040 X-10.639 Y40.343
G1 F1020 X-34.84 Y16.141 E148.16465
G0 F2040 X-34.663 Y15.823
G1 F1020 X-10.144 Y40.343 E149.49168
G0 F2040 X-9.649 Y40.343
G1 F1020 X-34.487 Y15.505 E150.83594
G0 F2040 X-34.31 Y15.187
G1 F1020 X-9.154 Y40.343 E152.19742
G0 F2040 X-8.659 Y40.343
G1 F1020 X-34.134 Y14.868 E153.57616
G0 F2040 X-33.957 Y14.55
G1 F1020 X-8.164 Y40.343 E154.97211
G0 F2040 X-7.669 Y40.343
G1 F1020 X-33.78 Y14.231 E156.38529
G0 F2040 X-33.603 Y13.913
G1 F1020 X-7.174 Y40.343 E157.81569
G0 F2040 X-6.679 Y40.343
G1 F1020 X-33.427 Y13.594 E159.26335
G0 F2040 X-33.25 Y13.276
G1 F1020 X-6.184 Y40.343 E160.72823
G0 F2040 X-5.689 Y40.343
G1 F1020 X-33.074 Y12.958 E162.21034
G0 F2040 X-32.897 Y12.64
G1 F1020 X-5.194 Y40.343 E163.70966
G0 F2040 X-4.699 Y40.343
G1 F1020 X-32.721 Y12.321 E165.22625
G0 F2040 X-32.544 Y12.003
G1 F1020 X-4.204 Y40.343 E166.76004
G0 F2040 X-3.709 Y40.343
G1 F1020 X-32.367 Y11.684 E168.31108
G0 F2040 X-32.191 Y11.366
G1 F1020 X-3.214 Y40.343 E169.87935
G0 F2040 X-2.719 Y40.343
G1 F1020 X-32.014 Y11.047 E171.46486
G0 F2040 X-31.838 Y10.729
G1 F1020 X-2.224 Y40.343 E173.06761
G0 F2040 X-1.729 Y40.343
G1 F1020 X-31.661 Y10.411 E174.68757
G0 F2040 X-31.484 Y10.093
G1 F1020 X-1.234 Y40.343 E176.32473
G0 F2040 X-.739 Y40.343
G1 F1020 X-31.308 Y9.774 E177.97917
G0 F2040 X-31.131 Y9.456
G1 F1020 X-.244 Y40.343 E179.65081
G0 F2040 X0.25 Y40.343
G1 F1020 X-30.955 Y9.137 E181.33969
G0 F2040 X-30.778 Y8.819
G1 F1020 X0.745 Y40.343 E183.04578
G0 F2040 X1.24 Y40.343
G1 F1020 X-30.602 Y8.5 E184.76914
G0 F2040 X-30.425 Y8.182
G1 F1020 X1.735 Y40.343 E186.50971
G0 F2040 X2.23 Y40.343
G1 F1020 X-30.248 Y7.864 E188.26749
G0 F2040 X-30.071 Y7.546
G1 F1020 X2.725 Y40.343 E190.04247
G0 F2040 X3.22 Y40.343
G1 F1020 X-29.895 Y7.227 E191.83473
G0 F2040 X-29.718 Y6.909
G1 F1020 X3.715 Y40.343 E193.64419
G0 F2040 X4.21 Y40.343
G1 F1020 X-29.542 Y6.59 E195.47092
G0 F2040 X-29.365 Y6.272
G1 F1020 X4.705 Y40.343 E197.31486
G0 F2040 X5.2 Y40.343
G1 F1020 X-29.189 Y5.953 E199.17606
G0 F2040 X-29.012 Y5.635
G1 F1020 X5.695 Y40.343 E201.05448
G0 F2040 X6.19 Y40.343
G1 F1020 X-28.835 Y5.317 E202.9501
G0 F2040 X-28.659 Y4.999
G1 F1020 X6.684 Y40.343 E204.86294
G0 F2040 X7.179 Y40.343
G1 F1020 X-28.482 Y4.68 E206.79301
G0 F2040 X-28.306 Y4.362
G1 F1020 X7.674 Y40.343 E208.74032
G0 F2040 X8.169 Y40.343
G1 F1020 X-28.129 Y4.043 E210.70487
G0 F2040 X-27.952 Y3.725
G1 F1020 X8.664 Y40.343 E212.68663
G0 F2040 X9.159 Y40.343
G1 F1020 X-27.776 Y3.406 E214.68565
G0 F2040 X-27.599 Y3.088
G1 F1020 X9.654 Y40.343 E216.70188
G0 F2040 X10.149 Y40.343
G1 F1020 X-27.423 Y2.77 E218.73536
G0 F2040 X-27.246 Y2.452
