;FLAVOR:Marlin
;TIME:6213
;Filament used: 7.94047m
;Layer height: 0.3
;MINX:-41.832
;MINY:-70.075
;MINZ:0.26
;MAXX:68.05
;MAXY:25.881
;MAXZ:23.66
;Generated with Cura_SteamEngine 4.9.1
M82 ;absolute extrusion mode
;Gcode by Cura
G90
G28
M107
M109 R100
G30
M109 S215 U-55 X55 V-85 Y-85 W0.26 Z0.26
M82
G92 E0
G1 F200 E6
G92 E0
G1 F200 E-3.5
G0 Z0.15
G0 X10
G0 Z3
G1 F6000
G92 E0
G92 E0
G1 F3600 E-3.8
;LAYER_COUNT:79
;LAYER:0
M107
G0 F2040 X-40.749 Y18.171 Z0.26
;TYPE:SKIRT
G1 F3600 E0
G1 F1020 X9.631 Y-67.321 E3.79757
G1 X9.964 Y-67.871 E3.82217
G1 X10.311 Y-68.367 E3.84534
G1 X10.72 Y-68.812 E3.86847
G1 X11.184 Y-69.2 E3.89162
G1 X11.695 Y-69.523 E3.91475
G1 X12.245 Y-69.775 E3.9379
G1 X12.822 Y-69.954 E3.96102
G1 X13.419 Y-70.054 E3.98419
G1 X14.023 Y-70.075 E4.00732
G1 X14.625 Y-70.016 E4.03047
G1 X15.213 Y-69.878 E4.05358
G1 X15.779 Y-69.663 E4.07675
G1 X16.311 Y-69.376 E4.09988
G1 X16.801 Y-69.022 E4.12302
G1 X17.239 Y-68.606 E4.14614
G1 X17.619 Y-68.135 E4.1693
G1 X17.816 Y-67.831 E4.18316
G1 X18.16 Y-67.248 E4.20906
G1 X67.13 Y18.451 E7.9864
G1 X67.478 Y19.079 E8.01388
G1 X67.735 Y19.626 E8.037
G1 X67.918 Y20.202 E8.06013
G1 X68.024 Y20.797 E8.08326
G1 X68.05 Y21.401 E8.1064
G1 X67.996 Y22.004 E8.12957
G1 X67.863 Y22.593 E8.15268
G1 X67.654 Y23.161 E8.17584
G1 X67.371 Y23.695 E8.19897
G1 X67.021 Y24.188 E8.2221
G1 X66.609 Y24.63 E8.24523
G1 X66.142 Y25.014 E8.26837
G1 X65.628 Y25.333 E8.29152
G1 X65.077 Y25.582 E8.31466
G1 X64.497 Y25.756 E8.33783
G1 X63.69 Y25.866 E8.369
G1 X63.469 Y25.874 E8.37746
G1 X62.908 Y25.881 E8.39893
G1 X-36.645 Y25.881 E12.20878
G1 X-37.326 Y25.871 E12.23484
G1 X-37.929 Y25.822 E12.258
G1 X-38.52 Y25.694 E12.28114
G1 X-39.089 Y25.489 E12.30428
G1 X-39.626 Y25.211 E12.32742
G1 X-40.121 Y24.865 E12.35054
G1 X-40.567 Y24.456 E12.37369
G1 X-40.955 Y23.992 E12.39684
G1 X-41.278 Y23.481 E12.41998
G1 X-41.531 Y22.932 E12.44311
G1 X-41.71 Y22.355 E12.46623
G1 X-41.811 Y21.758 E12.4894
G1 X-41.832 Y21.154 E12.51253
G1 X-41.773 Y20.552 E12.53568
G1 X-41.636 Y19.964 E12.55878
G1 X-41.422 Y19.398 E12.58194
G1 X-41.245 Y19.05 E12.59688
G1 X-40.749 Y18.171 E12.63551
G0 F2040 X-40.447 Y18.349
G1 F1020 X9.931 Y-67.14 E16.43294
G1 X10.264 Y-67.69 E16.45754
G1 X10.598 Y-68.165 E16.47977
G1 X10.995 Y-68.59 E16.50202
G1 X11.446 Y-68.957 E16.52427
G1 X11.943 Y-69.258 E16.54651
G1 X12.476 Y-69.488 E16.56873
G1 X13.036 Y-69.642 E16.59095
G1 X13.612 Y-69.719 E16.61319
G1 X14.193 Y-69.715 E16.63543
G1 X14.768 Y-69.632 E16.65766
G1 X15.326 Y-69.471 E16.67989
G1 X15.857 Y-69.235 E16.70212
G1 X16.351 Y-68.928 E16.72438
G1 X16.797 Y-68.556 E16.74661
G1 X17.189 Y-68.127 E16.76885
G1 X17.514 Y-67.653 E16.79084
G1 X17.856 Y-67.074 E16.81658
G1 X66.824 Y18.62 E20.59371
G1 X67.172 Y19.248 E20.62118
G1 X67.418 Y19.775 E20.64344
G1 X67.589 Y20.33 E20.66567
G1 X67.683 Y20.903 E20.68789
G1 X67.697 Y21.484 E20.71013
G1 X67.631 Y22.061 E20.73235
G1 X67.487 Y22.624 E20.75459
G1 X67.267 Y23.162 E20.77684
G1 X66.975 Y23.664 E20.79906
G1 X66.617 Y24.122 E20.82131
G1 X66.199 Y24.526 E20.84356
G1 X65.731 Y24.869 E20.86576
G1 X65.219 Y25.145 E20.88802
G1 X64.674 Y25.347 E20.91026
G1 X64.107 Y25.474 E20.9325
G1 X63.465 Y25.524 E20.95714
G1 X62.904 Y25.531 E20.97862
G1 X-36.64 Y25.531 E24.78812
G1 X-37.321 Y25.521 E24.81418
G1 X-37.9 Y25.472 E24.83642
G1 X-38.467 Y25.345 E24.85865
G1 X-39.011 Y25.141 E24.88089
G1 X-39.522 Y24.864 E24.90313
G1 X-39.99 Y24.52 E24.92536
G1 X-40.406 Y24.115 E24.94758
G1 X-40.763 Y23.656 E24.96983
G1 X-41.054 Y23.153 E24.99207
G1 X-41.273 Y22.615 E25.0143
G1 X-41.416 Y22.052 E25.03653
G1 X-41.48 Y21.474 E25.05879
G1 X-41.465 Y20.893 E25.08103
G1 X-41.37 Y20.32 E25.10326
G1 X-41.197 Y19.765 E25.1255
G1 X-40.94 Y19.222 E25.14849
G1 X-40.447 Y18.349 E25.18686
G0 F2040 X-40.183 Y18.591
G1 F1020 X10.23 Y-66.959 E28.98698
G1 X10.563 Y-67.509 E29.01159
G1 X10.885 Y-67.963 E29.03289
G1 X11.268 Y-68.366 E29.05417
G1 X11.705 Y-68.711 E29.07547
G1 X12.187 Y-68.989 E29.09677
G1 X12.704 Y-69.195 E29.11807
G1 X13.245 Y-69.325 E29.13936
G1 X13.799 Y-69.376 E29.16065
G1 X14.355 Y-69.348 E29.18195
G1 X14.901 Y-69.24 E29.20325
G1 X15.425 Y-69.055 E29.22452
G1 X15.918 Y-68.796 E29.24583
G1 X16.369 Y-68.47 E29.26713
G1 X16.768 Y-68.083 E29.2884
G1 X17.213 Y-67.475 E29.31724
G1 X17.552 Y-66.901 E29.34275
G1 X66.517 Y18.79 E33.11972
G1 X66.865 Y19.418 E33.1472
G1 X67.099 Y19.923 E33.1685
G1 X67.259 Y20.456 E33.1898
G1 X67.34 Y21.006 E33.21107
G1 X67.342 Y21.563 E33.23239
G1 X67.264 Y22.113 E33.25365
G1 X67.108 Y22.648 E33.27497
G1 X66.877 Y23.154 E33.29626
G1 X66.576 Y23.622 E33.31755
G1 X66.21 Y24.042 E33.33887
G1 X65.789 Y24.405 E33.36015
G1 X65.32 Y24.704 E33.38143
G1 X64.813 Y24.933 E33.40272
G1 X64.278 Y25.087 E33.42403
G1 X63.657 Y25.167 E33.44799
G1 X63.46 Y25.174 E33.45553
G1 X62.899 Y25.181 E33.47701
G1 X-36.635 Y25.181 E37.28612
G1 X-37.316 Y25.171 E37.31219
G1 X-37.87 Y25.122 E37.33347
G1 X-38.412 Y24.996 E37.35477
G1 X-38.93 Y24.792 E37.37607
G1 X-39.413 Y24.517 E37.39734
G1 X-39.853 Y24.175 E37.41867
G1 X-40.238 Y23.774 E37.43994
G1 X-40.562 Y23.322 E37.46123
G1 X-40.818 Y22.828 E37.48252
G1 X-41.001 Y22.302 E37.50383
G1 X-41.107 Y21.756 E37.52512
G1 X-41.133 Y21.2 E37.54642
G1 X-41.079 Y20.646 E37.56772
G1 X-40.947 Y20.106 E37.589
G1 X-40.635 Y19.393 E37.61878
G1 X-40.183 Y18.591 E37.65401
G0 F2040 X-39.844 Y18.704
G1 F1020 X10.53 Y-66.778 E41.45113
G1 X10.863 Y-67.328 E41.47574
G1 X11.171 Y-67.76 E41.49604
G1 X11.54 Y-68.14 E41.51631
G1 X11.963 Y-68.461 E41.53663
G1 X12.429 Y-68.715 E41.55694
G1 X12.928 Y-68.897 E41.57727
G1 X13.448 Y-69.001 E41.59757
G1 X13.978 Y-69.026 E41.61787
G1 X14.506 Y-68.971 E41.63819
G1 X15.02 Y-68.837 E41.65851
G1 X15.507 Y-68.628 E41.6788
G1 X15.958 Y-68.348 E41.69911
G1 X16.362 Y-68.003 E41.71944
G1 X16.709 Y-67.602 E41.73974
G1 X16.912 Y-67.297 E41.75376
G1 X17.249 Y-66.727 E41.7791
G1 X66.211 Y18.959 E45.55585
G1 X66.559 Y19.587 E45.58333
G1 X66.781 Y20.07 E45.60367
G1 X66.927 Y20.58 E45.62397
G1 X66.996 Y21.106 E45.64427
G1 X66.985 Y21.636 E45.66456
G1 X66.894 Y22.159 E45.68488
G1 X66.725 Y22.662 E45.70518
G1 X66.483 Y23.135 E45.72552
G1 X66.173 Y23.565 E45.7458
G1 X65.802 Y23.945 E45.76613
G1 X65.378 Y24.264 E45.78643
G1 X64.911 Y24.516 E45.80674
G1 X64.411 Y24.695 E45.82706
G1 X63.641 Y24.817 E45.8569
G1 X63.456 Y24.824 E45.86398
G1 X62.895 Y24.831 E45.88546
G1 X-36.63 Y24.831 E49.69423
G1 X-37.311 Y24.821 E49.72029
G1 X-37.839 Y24.773 E49.74058
G1 X-38.355 Y24.646 E49.76092
G1 X-38.845 Y24.444 E49.7812
G1 X-39.3 Y24.17 E49.80153
G1 X-39.708 Y23.831 E49.82183
G1 X-40.061 Y23.435 E49.84213
G1 X-40.35 Y22.99 E49.86244
G1 X-40.57 Y22.507 E49.88275
G1 X-40.714 Y21.996 E49.90307
G1 X-40.78 Y21.47 E49.92335
G1 X-40.766 Y20.939 E49.94368
G1 X-40.673 Y20.417 E49.96397
G1 X-40.502 Y19.914 E49.9843
G1 X-40.33 Y19.565 E49.99919
G1 X-39.844 Y18.704 E50.03703
G0 F2040 X-39.542 Y18.882
G1 F1020 X10.829 Y-66.596 E53.83396
G1 X11.162 Y-67.146 E53.85857
G1 X11.456 Y-67.555 E53.87784
G1 X11.811 Y-67.912 E53.89711
G1 X12.218 Y-68.209 E53.91639
G1 X12.667 Y-68.437 E53.93567
G1 X13.146 Y-68.592 E53.95493
G1 X13.644 Y-68.668 E53.97421
G1 X14.148 Y-68.666 E53.9935
G1 X14.645 Y-68.583 E54.01278
G1 X15.122 Y-68.423 E54.03204
G1 X15.568 Y-68.19 E54.05129
G1 X15.972 Y-67.889 E54.07057
G1 X16.323 Y-67.528 E54.08984
G1 X16.611 Y-67.119 E54.10899
G1 X16.945 Y-66.553 E54.13414
G1 X65.905 Y19.129 E57.91072
G1 X66.253 Y19.757 E57.93819
G1 X66.462 Y20.216 E57.9575
G1 X66.595 Y20.701 E57.97674
G1 X66.65 Y21.202 E57.99603
G1 X66.625 Y21.705 E58.0153
G1 X66.52 Y22.197 E58.03456
G1 X66.34 Y22.667 E58.05382
G1 X66.087 Y23.103 E58.07311
G1 X65.768 Y23.493 E58.09239
G1 X65.392 Y23.828 E58.11166
G1 X64.968 Y24.099 E58.13092
G1 X64.506 Y24.299 E58.15018
G1 X64.018 Y24.424 E58.16946
G1 X63.452 Y24.474 E58.19121
G1 X62.891 Y24.481 E58.21268
G1 X-36.625 Y24.481 E62.02111
G1 X-37.306 Y24.471 E62.04717
G1 X-37.807 Y24.423 E62.06643
G1 X-38.295 Y24.297 E62.08572
G1 X-38.756 Y24.096 E62.10497
G1 X-39.18 Y23.824 E62.12425
G1 X-39.555 Y23.488 E62.14352
G1 X-39.873 Y23.098 E62.16277
G1 X-40.125 Y22.662 E62.18205
G1 X-40.305 Y22.191 E62.20134
G1 X-40.408 Y21.699 E62.22058
G1 X-40.432 Y21.196 E62.23985
G1 X-40.377 Y20.695 E62.25914
G1 X-40.242 Y20.21 E62.2784
G1 X-40.025 Y19.737 E62.29832
G1 X-39.542 Y18.882 E62.3359
G1 F3600 E58.5359
;MESH:support_tri_0_006.stl
G0 F2040 X-37.482 Y20.33
G0 X-36.727 Y20.774
G0 X-36.366 Y20.781
;TYPE:WALL-INNER
G1 F3600 E62.3359
G1 F1020 X13.872 Y-64.473 E66.12286
G1 X62.588 Y20.781 E69.88059
G1 X-36.366 Y20.781 E73.66751
G0 F2040 X-36.935 Y21.106
;TYPE:WALL-OUTER
G1 F1020 X13.876 Y-65.12 E77.49765
G1 X63.148 Y21.106 E81.29823
G1 X-36.935 Y21.106 E85.12836
G0 F2040 X-36.834 Y20.934
G0 X-36.748 Y20.985
G0 X-35.77 Y20.441
;TYPE:SKIN
G1 F1020 X13.868 Y-63.795 E88.8701
G1 X62.002 Y20.441 E92.58295
G1 X-35.77 Y20.441 E96.32464
G0 F2040 X-35.368 Y20.069
G1 F1020 X-35.153 Y20.284 E96.33628
G0 F2040 X-34.658 Y20.284
G1 F1020 X-35.184 Y19.757 E96.36477
G0 F2040 X-35.001 Y19.446
G1 F1020 X-34.163 Y20.284 E96.41013
G0 F2040 X-33.668 Y20.284
G1 F1020 X-34.817 Y19.135 E96.47231
G0 F2040 X-34.633 Y18.823
G1 F1020 X-33.173 Y20.284 E96.55135
G0 F2040 X-32.678 Y20.284
G1 F1020 X-34.45 Y18.512 E96.64726
G0 F2040 X-34.266 Y18.2
G1 F1020 X-32.183 Y20.284 E96.76002
G0 F2040 X-31.688 Y20.284
G1 F1020 X-34.083 Y17.889 E96.88964
G0 F2040 X-33.899 Y17.577
G1 F1020 X-31.193 Y20.284 E97.03612
G0 F2040 X-30.698 Y20.284
G1 F1020 X-33.716 Y17.266 E97.19946
G0 F2040 X-33.532 Y16.955
G1 F1020 X-30.203 Y20.284 E97.37963
G0 F2040 X-29.708 Y20.284
G1 F1020 X-33.349 Y16.643 E97.57668
G0 F2040 X-33.165 Y16.332
G1 F1020 X-29.213 Y20.284 E97.79057
G0 F2040 X-28.718 Y20.284
G1 F1020 X-32.982 Y16.02 E98.02134
G0 F2040 X-32.798 Y15.709
G1 F1020 X-28.223 Y20.284 E98.26895
G0 F2040 X-27.728 Y20.284
G1 F1020 X-32.614 Y15.397 E98.53341
G0 F2040 X-32.431 Y15.086
G1 F1020 X-27.233 Y20.284 E98.81473
G0 F2040 X-26.738 Y20.284
G1 F1020 X-32.247 Y14.774 E99.11291
G0 F2040 X-32.064 Y14.463
G1 F1020 X-26.243 Y20.284 E99.42795
G0 F2040 X-25.748 Y20.284
G1 F1020 X-31.88 Y14.152 E99.75983
G0 F2040 X-31.697 Y13.84
G1 F1020 X-25.253 Y20.284 E100.10858
G0 F2040 X-24.758 Y20.284
G1 F1020 X-31.513 Y13.529 E100.47417
G0 F2040 X-31.33 Y13.217
G1 F1020 X-24.263 Y20.284 E100.85665
G0 F2040 X-23.768 Y20.284
G1 F1020 X-31.146 Y12.906 E101.25595
G0 F2040 X-30.963 Y12.594
G1 F1020 X-23.273 Y20.284 E101.67215
G0 F2040 X-22.778 Y20.284
G1 F1020 X-30.779 Y12.283 E102.10517
G0 F2040 X-30.595 Y11.972
G1 F1020 X-22.283 Y20.284 E102.55503
G0 F2040 X-21.788 Y20.284
G1 F1020 X-30.412 Y11.66 E103.02177
G0 F2040 X-30.228 Y11.349
G1 F1020 X-21.293 Y20.284 E103.50534
G0 F2040 X-20.798 Y20.284
G1 F1020 X-30.045 Y11.037 E104.0058
G0 F2040 X-29.861 Y10.726
G1 F1020 X-20.303 Y20.284 E104.52309
G0 F2040 X-19.808 Y20.284
G1 F1020 X-29.678 Y10.414 E105.05727
G0 F2040 X-29.494 Y10.103
G1 F1020 X-19.313 Y20.284 E105.60828
G0 F2040 X-18.818 Y20.284
G1 F1020 X-29.311 Y9.791 E106.17617
G0 F2040 X-29.127 Y9.48
G1 F1020 X-18.323 Y20.284 E106.7609
G0 F2040 X-17.828 Y20.284
G1 F1020 X-28.944 Y9.168 E107.36251
G0 F2040 X-28.76 Y8.857
G1 F1020 X-17.334 Y20.284 E107.98093
G0 F2040 X-16.839 Y20.284
G1 F1020 X-28.577 Y8.546 E108.6162
G0 F2040 X-28.393 Y8.234
G1 F1020 X-16.344 Y20.284 E109.26834
G0 F2040 X-15.849 Y20.284
G1 F1020 X-28.21 Y7.923 E109.93733
G0 F2040 X-28.026 Y7.611
G1 F1020 X-15.354 Y20.284 E110.62318
G0 F2040 X-14.859 Y20.284
G1 F1020 X-27.843 Y7.3 E111.32589
G0 F2040 X-27.659 Y6.988
G1 F1020 X-14.364 Y20.284 E112.04546
G0 F2040 X-13.869 Y20.284
G1 F1020 X-27.476 Y6.677 E112.78189
G0 F2040 X-27.292 Y6.365
G1 F1020 X-13.374 Y20.284 E113.53518
G0 F2040 X-12.879 Y20.284
G1 F1020 X-27.109 Y6.054 E114.30532
G0 F2040 X-26.925 Y5.742
G1 F1020 X-12.384 Y20.284 E115.09233
G0 F2040 X-11.889 Y20.284
G1 F1020 X-26.742 Y5.431 E115.89619
G0 F2040 X-26.558 Y5.12
G1 F1020 X-11.394 Y20.284 E116.71689
G0 F2040 X-10.899 Y20.284
G1 F1020 X-26.375 Y4.808 E117.55447
G0 F2040 X-26.191 Y4.497
G1 F1020 X-10.404 Y20.284 E118.40888
G0 F2040 X-9.909 Y20.284
G1 F1020 X-26.008 Y4.185 E119.28018
G0 F2040 X-25.824 Y3.874
G1 F1020 X-9.414 Y20.284 E120.16831
G0 F2040 X-8.919 Y20.284
G1 F1020 X-25.641 Y3.562 E121.07333
G0 F2040 X-25.457 Y3.251
G1 F1020 X-8.424 Y20.284 E121.99517
G0 F2040 X-7.929 Y20.284
G1 F1020 X-25.274 Y2.939 E122.93391
G0 F2040 X-25.09 Y2.628
G1 F1020 X-7.434 Y20.284 E123.88947
G0 F2040 X-6.939 Y20.284
G1 F1020 X-24.907 Y2.316 E124.86192
G0 F2040 X-24.723 Y2.005
G1 F1020 X-6.444 Y20.284 E125.85121
G0 F2040 X-5.949 Y20.284
G1 F1020 X-24.539 Y1.694 E126.85732
G0 F2040 X-24.356 Y1.382
G1 F1020 X-5.454 Y20.284 E127.88032
G0 F2040 X-4.959 Y20.284
G1 F1020 X-24.172 Y1.071 E128.92015
G0 F2040 X-23.989 Y0.759
G1 F1020 X-4.464 Y20.284 E129.97687
G0 F2040 X-3.969 Y20.284
G1 F1020 X-23.805 Y0.448 E131.05042
G0 F2040 X-23.622 Y0.136
G1 F1020 X-3.474 Y20.284 E132.14086
G0 F2040 X-2.979 Y20.284
G1 F1020 X-23.438 Y-.174 E133.2481
G0 F2040 X-23.255 Y-.486
G1 F1020 X-2.484 Y20.284 E134.37222
G0 F2040 X-1.989 Y20.284
G1 F1020 X-23.071 Y-.797 E135.51318
G0 F2040 X-22.888 Y-1.109
G1 F1020 X-1.494 Y20.284 E136.67102
G0 F2040 X-.999 Y20.284
G1 F1020 X-22.704 Y-1.42 E137.8457
G0 F2040 X-22.52 Y-1.731
G1 F1020 X-.504 Y20.284 E139.0372
G0 F2040 X-0.009 Y20.284
G1 F1020 X-22.337 Y-2.043 E140.2456
G0 F2040 X-22.153 Y-2.354
G1 F1020 X0.485 Y20.284 E141.47079
G0 F2040 X0.98 Y20.284
G1 F1020 X-21.97 Y-2.666 E142.71288
G0 F2040 X-21.786 Y-2.977
G1 F1020 X1.475 Y20.284 E143.97179
G0 F2040 X1.969 Y20.284
G1 F1020 X-21.603 Y-3.289 E145.24757
G0 F2040 X-21.419 Y-3.6
G1 F1020 X2.464 Y20.284 E146.54017
G0 F2040 X2.959 Y20.284
G1 F1020 X-21.236 Y-3.912 E147.84966
G0 F2040 X-21.052 Y-4.223
G1 F1020 X3.454 Y20.284 E149.17599
G0 F2040 X3.949 Y20.284
G1 F1020 X-20.869 Y-4.535 E150.51919
G0 F2040 X-20.685 Y-4.846
G1 F1020 X4.444 Y20.284 E151.87924
G0 F2040 X4.939 Y20.284
G1 F1020 X-20.501 Y-5.157 E153.25611
G0 F2040 X-20.318 Y-5.469
G1 F1020 X5.434 Y20.284 E154.64987
G0 F2040 X5.929 Y20.284
G1 F1020 X-20.134 Y-5.78 E156.06046
G0 F2040 X-19.951 Y-6.092
G1 F1020 X6.424 Y20.284 E157.48793
G0 F2040 X6.919 Y20.284
G1 F1020 X-19.767 Y-6.403 E158.93224
G0 F2040 X-19.584 Y-6.715
G1 F1020 X7.414 Y20.284 E160.39343
G0 F2040 X7.909 Y20.284
G1 F1020 X-19.4 Y-7.026 E161.87146
G0 F2040 X-19.217 Y-7.338
G1 F1020 X8.404 Y20.284 E163.36637
G0 F2040 X8.899 Y20.284
G1 F1020 X-19.033 Y-7.649 E164.87811
G0 F2040 X-18.85 Y-7.961
G1 F1020 X9.394 Y20.284 E166.40674
G0 F2040 X9.889 Y20.284
G1 F1020 X-18.666 Y-8.272 E167.9522
G0 F2040 X-18.483 Y-8.583
G1 F1020 X10.384 Y20.284 E169.51452
G0 F2040 X10.879 Y20.284
G1 F1020 X-18.299 Y-8.895 E171.0937
G0 F2040 X-18.116 Y-9.206
G1 F1020 X11.374 Y20.284 E172.68973
G0 F2040 X11.869 Y20.284
G1 F1020 X-17.932 Y-9.518 E174.30263
G0 F2040 X-17.749 Y-9.829
G1 F1020 X12.364 Y20.284 E175.93238
G0 F2040 X12.859 Y20.284
G1 F1020 X-17.565 Y-10.141 E177.57899
G0 F2040 X-17.382 Y-10.452
G1 F1020 X13.354 Y20.284 E179.24246
G0 F2040 X13.849 Y20.284
G1 F1020 X-17.198 Y-10.764 E180.92279
G0 F2040 X-17.015 Y-11.075
G1 F1020 X14.344 Y20.284 E182.61998
G0 F2040 X14.839 Y20.284
G1 F1020 X-16.831 Y-11.387 E184.33403
G0 F2040 X-16.648 Y-11.698
G1 F1020 X15.334 Y20.284 E186.06494
G0 F2040 X15.829 Y20.284
G1 F1020 X-16.464 Y-12.009 E187.81268
G0 F2040 X-16.281 Y-12.321
G1 F1020 X16.324 Y20.284 E189.5773
G0 F2040 X16.819 Y20.284
G1 F1020 X-16.097 Y-12.632 E191.35876
G0 F2040 X-15.914 Y-12.944
G1 F1020 X17.314 Y20.284 E193.1571
G0 F2040 X17.809 Y20.284
G1 F1020 X-15.73 Y-13.255 E194.97227
G0 F2040 X-15.547 Y-13.567
G1 F1020 X18.304 Y20.284 E196.80433
G0 F2040 X18.799 Y20.284
G1 F1020 X-15.363 Y-13.878 E198.65322
G0 F2040 X-15.18 Y-14.19
G1 F1020 X19.294 Y20.284 E200.519
G0 F2040 X19.789 Y20.284
G1 F1020 X-14.996 Y-14.501 E202.40161
G0 F2040 X-14.813 Y-14.813
G1 F1020 X20.284 Y20.284 E204.3011
G0 F2040 X20.779 Y20.284
G1 F1020 X-14.629 Y-15.124 E206.21743
G0 F2040 X-14.445 Y-15.435
G1 F1020 X21.274 Y20.284 E208.15059
G0 F2040 X21.768 Y20.284
G1 F1020 X-14.262 Y-15.747 E210.1006
G0 F2040 X-14.078 Y-16.058
