;FLAVOR:Marlin
;TIME:7907
;Filament used: 7.25285m
;Layer height: 0.2
;MINX:-42.114
;MINY:-25.917
;MINZ:0.26
;MAXX:67
;MAXY:71.093
;MAXZ:23.46
;Generated with Cura_SteamEngine 4.8.0
M82 ;absolute extrusion mode
;Gcode by Cura
G90
G28
M107
M109 R100
G30
M109 S215 U-55 X55 V-85 Y-85 W0.26 Z0.26
M82
G92 E0
G1 F200 E6
G92 E0
G1 F200 E-3.5
G0 Z0.15
G0 X10
G0 Z3
G1 F6000
G92 E0
G92 E0
G1 F3600 E-3.8
;LAYER_COUNT:117
;LAYER:0
M107
G0 F2040 X-41.222 Y-18.535 Z0.26
;TYPE:SKIRT
G1 F3600 E0
G1 F1020 X-41.547 Y-19.125 E0.02578
G1 X-41.803 Y-19.672 E0.04889
G1 X-41.985 Y-20.249 E0.07204
G1 X-42.089 Y-20.845 E0.0952
G1 X-42.114 Y-21.449 E0.11833
G1 X-42.058 Y-22.051 E0.14147
G1 X-41.924 Y-22.641 E0.16462
G1 X-41.713 Y-23.207 E0.18774
G1 X-41.429 Y-23.741 E0.21089
G1 X-41.078 Y-24.233 E0.23402
G1 X-40.664 Y-24.674 E0.25716
G1 X-40.196 Y-25.057 E0.28031
G1 X-39.682 Y-25.375 E0.30344
G1 X-39.13 Y-25.622 E0.32658
G1 X-38.55 Y-25.794 E0.34973
G1 X-37.711 Y-25.904 E0.38212
G1 X-37.054 Y-25.917 E0.40726
G1 X61.803 Y-25.917 E4.19047
G1 X62.493 Y-25.907 E4.21688
G1 X63.096 Y-25.858 E4.24004
G1 X63.687 Y-25.73 E4.26318
G1 X64.256 Y-25.526 E4.28631
G1 X64.793 Y-25.248 E4.30945
G1 X65.289 Y-24.901 E4.33262
G1 X65.734 Y-24.493 E4.35572
G1 X66.122 Y-24.029 E4.37887
G1 X66.446 Y-23.518 E4.40202
G1 X66.699 Y-22.969 E4.42516
G1 X66.878 Y-22.391 E4.44831
G1 X66.978 Y-21.795 E4.47144
G1 X67 Y-21.191 E4.49457
G1 X66.941 Y-20.589 E4.51772
G1 X66.804 Y-20 E4.54086
G1 X66.51 Y-19.268 E4.57105
G1 X66.184 Y-18.665 E4.59728
G1 X16.734 Y68.263 E8.42458
G1 X16.392 Y68.843 E8.45034
G1 X16.051 Y69.342 E8.47347
G1 X15.647 Y69.792 E8.49662
G1 X15.188 Y70.185 E8.51974
G1 X14.68 Y70.514 E8.5429
G1 X14.134 Y70.773 E8.56603
G1 X13.558 Y70.958 E8.58918
G1 X12.963 Y71.065 E8.61232
G1 X12.359 Y71.093 E8.63546
G1 X11.757 Y71.041 E8.65858
G1 X11.167 Y70.91 E8.68171
G1 X10.599 Y70.702 E8.70486
G1 X10.063 Y70.421 E8.72802
G1 X9.569 Y70.072 E8.75117
G1 X9.126 Y69.661 E8.77429
G1 X8.741 Y69.196 E8.7974
G1 X8.524 Y68.866 E8.81251
G1 X7.954 Y67.911 E8.85507
G1 X-41.222 Y-18.535 E12.66115
G0 F2040 X-40.916 Y-18.703
G1 F1020 X-41.241 Y-19.293 E12.68693
G1 X-41.485 Y-19.82 E12.70915
G1 X-41.655 Y-20.376 E12.7314
G1 X-41.748 Y-20.95 E12.75365
G1 X-41.76 Y-21.531 E12.77589
G1 X-41.693 Y-22.108 E12.79812
G1 X-41.547 Y-22.67 E12.82034
G1 X-41.326 Y-23.207 E12.84257
G1 X-41.033 Y-23.709 E12.86481
G1 X-40.674 Y-24.166 E12.88705
G1 X-40.255 Y-24.569 E12.9093
G1 X-39.785 Y-24.911 E12.93154
G1 X-39.273 Y-25.185 E12.95377
G1 X-38.728 Y-25.386 E12.976
G1 X-38.161 Y-25.511 E12.99822
G1 X-37.564 Y-25.559 E13.02114
G1 X-37.05 Y-25.567 E13.04081
G1 X61.798 Y-25.567 E16.82368
G1 X62.488 Y-25.557 E16.85009
G1 X63.067 Y-25.508 E16.87232
G1 X63.634 Y-25.381 E16.89456
G1 X64.178 Y-25.177 E16.91679
G1 X64.689 Y-24.9 E16.93904
G1 X65.157 Y-24.556 E16.96127
G1 X65.574 Y-24.151 E16.98351
G1 X65.931 Y-23.693 E17.00574
G1 X66.222 Y-23.19 E17.02797
G1 X66.441 Y-22.652 E17.0502
G1 X66.584 Y-22.088 E17.07247
G1 X66.648 Y-21.511 E17.09469
G1 X66.633 Y-20.93 E17.11693
G1 X66.538 Y-20.357 E17.13916
G1 X66.365 Y-19.802 E17.1614
G1 X66.152 Y-19.337 E17.18098
G1 X65.878 Y-18.835 E17.20286
G1 X16.432 Y68.085 E21.02982
G1 X16.09 Y68.665 E21.05558
G1 X15.762 Y69.144 E21.0778
G1 X15.37 Y69.573 E21.10004
G1 X14.923 Y69.945 E21.12229
G1 X14.43 Y70.252 E21.14452
G1 X13.899 Y70.488 E21.16676
G1 X13.341 Y70.649 E21.18898
G1 X12.766 Y70.732 E21.21122
G1 X12.185 Y70.736 E21.23345
G1 X11.609 Y70.659 E21.25569
G1 X11.049 Y70.505 E21.27792
G1 X10.515 Y70.274 E21.30018
G1 X10.018 Y69.973 E21.32242
G1 X9.567 Y69.607 E21.34465
G1 X9.171 Y69.182 E21.36688
G1 X8.824 Y68.687 E21.39001
G1 X8.304 Y67.817 E21.4288
G1 X-40.916 Y-18.703 E25.23817
G0 F2040 X-40.609 Y-18.872
G1 F1020 X-40.934 Y-19.462 E25.26395
G1 X-41.167 Y-19.968 E25.28527
G1 X-41.325 Y-20.501 E25.30654
G1 X-41.405 Y-21.052 E25.32785
G1 X-41.405 Y-21.608 E25.34913
G1 X-41.326 Y-22.159 E25.37043
G1 X-41.168 Y-22.693 E25.39174
G1 X-40.936 Y-23.198 E25.41301
G1 X-40.634 Y-23.665 E25.43429
G1 X-40.268 Y-24.084 E25.45558
G1 X-39.845 Y-24.447 E25.47691
G1 X-39.375 Y-24.745 E25.49821
G1 X-38.868 Y-24.972 E25.51947
G1 X-38.333 Y-25.125 E25.54077
G1 X-37.684 Y-25.204 E25.56579
G1 X-37.045 Y-25.217 E25.59025
G1 X61.793 Y-25.217 E29.37273
G1 X62.483 Y-25.207 E29.39914
G1 X63.037 Y-25.159 E29.42042
G1 X63.579 Y-25.032 E29.44172
G1 X64.097 Y-24.829 E29.46301
G1 X64.581 Y-24.553 E29.48434
G1 X65.02 Y-24.212 E29.50561
G1 X65.406 Y-23.811 E29.52691
G1 X65.73 Y-23.358 E29.54822
G1 X65.986 Y-22.864 E29.56952
G1 X66.169 Y-22.339 E29.59079
G1 X66.275 Y-21.793 E29.61208
G1 X66.301 Y-21.237 E29.63338
G1 X66.247 Y-20.683 E29.65468
G1 X66.115 Y-20.143 E29.67596
G1 X65.885 Y-19.584 E29.69909
G1 X65.572 Y-19.004 E29.72431
G1 X16.131 Y67.907 E33.55087
G1 X15.789 Y68.487 E33.57663
G1 X15.473 Y68.945 E33.59793
G1 X15.094 Y69.353 E33.61924
G1 X14.661 Y69.702 E33.64052
G1 X14.182 Y69.986 E33.66183
G1 X13.668 Y70.198 E33.68311
G1 X13.128 Y70.334 E33.70442
G1 X12.575 Y70.392 E33.7257
G1 X12.019 Y70.37 E33.747
G1 X11.472 Y70.268 E33.76829
G1 X10.945 Y70.089 E33.78959
G1 X10.449 Y69.837 E33.81088
G1 X9.995 Y69.516 E33.83216
G1 X9.591 Y69.133 E33.85346
G1 X9.125 Y68.507 E33.88333
G1 X8.563 Y67.565 E33.92531
G1 X-40.609 Y-18.872 E37.73101
G0 F2040 X-40.303 Y-19.041
G1 F1020 X-40.628 Y-19.631 E37.75679
G1 X-40.848 Y-20.114 E37.7771
G1 X-40.993 Y-20.624 E37.79739
G1 X-41.06 Y-21.151 E37.81772
G1 X-41.048 Y-21.681 E37.83801
G1 X-40.955 Y-22.204 E37.85834
G1 X-40.786 Y-22.707 E37.87864
G1 X-40.543 Y-23.178 E37.89893
G1 X-40.232 Y-23.608 E37.91923
G1 X-39.859 Y-23.986 E37.93956
G1 X-39.435 Y-24.305 E37.95986
G1 X-38.967 Y-24.555 E37.98017
G1 X-38.467 Y-24.733 E38.00048
G1 X-37.946 Y-24.834 E38.02079
G1 X-37.041 Y-24.867 E38.05545
G1 X61.788 Y-24.867 E41.83758
G1 X62.478 Y-24.857 E41.86399
G1 X63.007 Y-24.809 E41.88432
G1 X63.522 Y-24.683 E41.90461
G1 X64.013 Y-24.48 E41.92494
G1 X64.467 Y-24.207 E41.94522
G1 X64.876 Y-23.868 E41.96555
G1 X65.228 Y-23.471 E41.98585
G1 X65.518 Y-23.027 E42.00615
G1 X65.737 Y-22.543 E42.02648
G1 X65.882 Y-22.033 E42.04677
G1 X65.948 Y-21.506 E42.06709
G1 X65.934 Y-20.976 E42.08738
G1 X65.841 Y-20.453 E42.10771
G1 X65.573 Y-19.741 E42.13683
G1 X65.265 Y-19.174 E42.16152
G1 X15.857 Y67.682 E45.98562
G1 X15.487 Y68.309 E46.01349
G1 X15.184 Y68.745 E46.0338
G1 X14.819 Y69.13 E46.05411
G1 X14.4 Y69.456 E46.07442
G1 X13.937 Y69.715 E46.09473
G1 X13.441 Y69.902 E46.11501
G1 X12.922 Y70.012 E46.13532
G1 X12.392 Y70.044 E46.15563
G1 X11.863 Y69.995 E46.17597
G1 X11.348 Y69.867 E46.19627
G1 X10.858 Y69.664 E46.21657
G1 X10.404 Y69.389 E46.23689
G1 X9.997 Y69.049 E46.25718
G1 X9.645 Y68.652 E46.27749
G1 X9.425 Y68.327 E46.29251
G1 X8.867 Y67.392 E46.33417
G1 X-40.303 Y-19.041 E50.1397
G0 F2040 X-39.996 Y-19.21
G1 F1020 X-40.321 Y-19.8 E50.16548
G1 X-40.528 Y-20.259 E50.18475
G1 X-40.66 Y-20.745 E50.20402
G1 X-40.714 Y-21.246 E50.22331
G1 X-40.688 Y-21.749 E50.24258
G1 X-40.582 Y-22.241 E50.26184
G1 X-40.4 Y-22.711 E50.28113
G1 X-40.146 Y-23.146 E50.30041
G1 X-39.827 Y-23.535 E50.31966
G1 X-39.45 Y-23.869 E50.33894
G1 X-39.024 Y-24.139 E50.35824
G1 X-38.562 Y-24.338 E50.37749
G1 X-38.074 Y-24.462 E50.39676
G1 X-37.524 Y-24.51 E50.41789
G1 X-37.037 Y-24.517 E50.43653
G1 X61.783 Y-24.517 E54.21832
G1 X62.473 Y-24.507 E54.24473
G1 X62.974 Y-24.459 E54.26399
G1 X63.462 Y-24.334 E54.28327
G1 X63.924 Y-24.132 E54.30256
G1 X64.347 Y-23.86 E54.32181
G1 X64.723 Y-23.525 E54.34108
G1 X65.041 Y-23.134 E54.36037
G1 X65.293 Y-22.698 E54.37964
G1 X65.473 Y-22.228 E54.3989
G1 X65.576 Y-21.735 E54.41818
G1 X65.6 Y-21.232 E54.43745
G1 X65.545 Y-20.732 E54.4567
G1 X65.411 Y-20.246 E54.47599
G1 X65.159 Y-19.704 E54.49887
G1 X64.942 Y-19.312 E54.51601
G1 X15.528 Y67.552 E58.34049
G1 X15.186 Y68.132 E58.36626
G1 X14.897 Y68.544 E58.38552
G1 X14.546 Y68.905 E58.40479
G1 X14.142 Y69.206 E58.42407
G1 X13.696 Y69.44 E58.44335
G1 X13.218 Y69.6 E58.46264
G1 X12.722 Y69.682 E58.48188
G1 X12.218 Y69.685 E58.50116
G1 X11.72 Y69.609 E58.52044
G1 X11.241 Y69.454 E58.53971
G1 X10.792 Y69.226 E58.55898
G1 X10.385 Y68.93 E58.57824
G1 X10.03 Y68.573 E58.59751
G1 X9.726 Y68.148 E58.6175
G1 X9.171 Y67.219 E58.65892
G1 X-39.996 Y-19.21 E62.46426
G1 F3600 E58.66426
;MESH:support_tri_0_004.stl
G0 F2040 X-37.813 Y-20.45
G0 X-36.932 Y-20.952
G0 X12.444 Y65.488
;TYPE:WALL-INNER
G1 F3600 E62.46426
G1 F1020 X-36.654 Y-20.817 E66.26417
G1 X61.542 Y-20.817 E70.02208
G1 X12.444 Y65.488 E73.82199
G0 F2040 X12.444 Y66.145
;TYPE:WALL-OUTER
G1 F1020 X-37.212 Y-21.142 E77.66512
G1 X62.1 Y-21.142 E81.46574
G1 X12.444 Y66.145 E85.30887
G0 F2040 X12.346 Y65.972
G0 X12.433 Y65.924
G0 X12.444 Y64.801
;TYPE:SKIN
G1 F1020 X-36.069 Y-20.477 E89.06355
G1 X60.957 Y-20.477 E92.77669
G1 X12.444 Y64.801 E96.53137
G0 F2040 X12.467 Y64.44
G1 F1020 X12.356 Y64.329 E96.53737
G0 F2040 X12.647 Y64.124
G1 F1020 X11.704 Y63.181 E96.58841
G1 X11.642 Y63.119
G0 F2040 X12.826 Y63.809
G1 F1020 X11.05 Y62.033 E96.68453
G1 X10.988 Y61.971
G0 F2040 X10.397 Y60.884
G1 F1020 X13.006 Y63.493 E96.82573
G0 F2040 X13.185 Y63.177
G1 F1020 X9.744 Y59.737 E97.01194
G1 X9.682 Y59.675
G0 F2040 X9.091 Y58.588
G1 F1020 X13.365 Y62.862 E97.24325
G0 F2040 X13.544 Y62.547
G1 F1020 X8.437 Y57.44 E97.51965
G1 X8.375 Y57.378
G0 F2040 X7.784 Y56.292
G1 F1020 X13.724 Y62.231 E97.8411
G0 F2040 X13.903 Y61.916
G1 F1020 X7.131 Y55.144 E98.20761
G1 X7.069 Y55.082
G0 F2040 X6.478 Y53.996
G1 F1020 X14.082 Y61.6 E98.61915
G0 F2040 X14.262 Y61.284
G1 F1020 X5.825 Y52.847 E99.07577
G1 X5.763 Y52.785
G0 F2040 X5.172 Y51.7
G1 F1020 X14.441 Y60.969 E99.57742
G0 F2040 X14.621 Y60.654
G1 F1020 X4.519 Y50.551 E100.12418
G1 X4.457 Y50.489
G0 F2040 X3.865 Y49.403
G1 F1020 X14.801 Y60.338 E100.71602
G0 F2040 X14.98 Y60.023
G1 F1020 X3.213 Y48.255 E101.3529
G1 X3.151 Y48.193
G0 F2040 X2.559 Y47.107
G1 F1020 X15.159 Y59.707 E102.03482
G0 F2040 X15.339 Y59.392
G1 F1020 X1.906 Y45.959 E102.76183
G1 X1.844 Y45.897
G0 F2040 X1.252 Y44.81
G1 F1020 X15.518 Y59.076 E103.53393
G0 F2040 X15.698 Y58.761
G1 F1020 X0.6 Y43.663 E104.35105
G1 X0.538 Y43.601
G0 F2040 X-0.053 Y42.514
G1 F1020 X15.878 Y58.445 E105.21326
G0 F2040 X16.057 Y58.13
G1 F1020 X-.706 Y41.366 E106.12052
G1 X-.768 Y41.304
G0 F2040 X-1.359 Y40.218
G1 F1020 X16.236 Y57.814 E107.07281
G0 F2040 X16.416 Y57.499
G1 F1020 X-2.012 Y39.07 E108.07018
G1 X-2.074 Y39.008
G0 F2040 X-2.665 Y37.922
G1 F1020 X16.595 Y57.183 E109.11259
G0 F2040 X16.775 Y56.868
G1 F1020 X-3.318 Y36.774 E110.20007
G1 X-3.38 Y36.712
G0 F2040 X-3.971 Y35.626
G1 F1020 X16.955 Y56.552 E111.33261
G0 F2040 X17.133 Y56.236
G1 F1020 X-4.625 Y34.477 E112.51021
G1 X-4.687 Y34.415
G0 F2040 X-5.277 Y33.33
G1 F1020 X17.313 Y55.921 E113.73284
G0 F2040 X17.493 Y55.606
G1 F1020 X-5.931 Y32.181 E115.0006
G1 X-5.993 Y32.119
G0 F2040 X-6.584 Y31.033
G1 F1020 X17.672 Y55.29 E116.3134
G0 F2040 X17.852 Y54.975
G1 F1020 X-7.237 Y29.885 E117.67127
G1 X-7.299 Y29.823
G0 F2040 X-7.89 Y28.737
G1 F1020 X18.031 Y54.66 E119.0742
G0 F2040 X18.21 Y54.343
G1 F1020 X-8.543 Y27.589 E120.52214
G1 X-8.605 Y27.527
G0 F2040 X-9.197 Y26.44
G1 F1020 X18.39 Y54.028 E122.01521
G0 F2040 X18.57 Y53.713
G1 F1020 X-9.849 Y25.293 E123.55331
G1 X-9.911 Y25.231
G0 F2040 X-10.503 Y24.144
G1 F1020 X18.749 Y53.397 E125.13649
G0 F2040 X18.929 Y53.082
G1 F1020 X-11.156 Y22.996 E126.76475
G1 X-11.218 Y22.934
G0 F2040 X-11.809 Y21.848
G1 F1020 X19.108 Y52.767 E128.43808
G0 F2040 X19.287 Y52.451
G1 F1020 X-12.462 Y20.7 E130.15643
G1 X-12.524 Y20.638
G0 F2040 X-13.116 Y19.552
G1 F1020 X19.467 Y52.135 E131.91986
G0 F2040 X19.646 Y51.82
G1 F1020 X-13.769 Y18.403 E133.72838
G1 X-13.831 Y18.341
G0 F2040 X-14.422 Y17.256
G1 F1020 X19.826 Y51.504 E135.58192
G0 F2040 X20.006 Y51.189
G1 F1020 X-15.075 Y16.107 E137.48058
G1 X-15.137 Y16.045
G0 F2040 X-15.728 Y14.959
G1 F1020 X20.185 Y50.873 E139.42426
G0 F2040 X20.364 Y50.558
G1 F1020 X-16.381 Y13.811 E141.413
G1 X-16.443 Y13.749
G0 F2040 X-17.034 Y12.663
G1 F1020 X20.544 Y50.242 E143.4468
G0 F2040 X20.723 Y49.927
G1 F1020 X-17.688 Y11.515 E145.52568
G1 X-17.75 Y11.453
G0 F2040 X-18.34 Y10.367
G1 F1020 X20.903 Y49.612 E147.64961
G0 F2040 X21.083 Y49.296
G1 F1020 X-18.994 Y9.219 E149.81863
G1 X-19.056 Y9.157
G0 F2040 X-19.647 Y8.07
G1 F1020 X21.261 Y48.98 E152.03268
G0 F2040 X21.441 Y48.665
G1 F1020 X-20.301 Y6.922 E154.29184
G1 X-20.363 Y6.86
G0 F2040 X-20.953 Y5.774
G1 F1020 X21.621 Y48.349 E156.59602
G0 F2040 X21.8 Y48.034
G1 F1020 X-21.607 Y4.626 E158.94529
G1 X-21.669 Y4.564
G0 F2040 X-22.26 Y3.478
G1 F1020 X21.98 Y47.719 E161.33964
G0 F2040 X22.16 Y47.403
G1 F1020 X-22.913 Y2.33 E163.77905
G1 X-22.975 Y2.268
G0 F2040 X-23.566 Y1.182
G1 F1020 X22.338 Y47.087 E166.26346
G0 F2040 X22.518 Y46.772
G1 F1020 X-24.219 Y0.033 E168.79298
G1 X-24.281 Y-0.029
G0 F2040 X-24.872 Y-1.113
G1 F1020 X22.698 Y46.456 E171.3675
G0 F2040 X22.877 Y46.141
G1 F1020 X-25.525 Y-2.262 E173.98711
G1 X-25.587 Y-2.324
G0 F2040 X-26.179 Y-3.41
G1 F1020 X23.057 Y45.826 E176.65182
G0 F2040 X23.236 Y45.51
G1 F1020 X-26.831 Y-4.558 E179.36154
G1 X-26.893 Y-4.62
G0 F2040 X-27.485 Y-5.706
G1 F1020 X23.415 Y45.194 E182.11631
G0 F2040 X23.595 Y44.879
G1 F1020 X-28.138 Y-6.854 E184.91617
G1 X-28.2 Y-6.916
G0 F2040 X-28.791 Y-8.003
G1 F1020 X23.775 Y44.563 E187.76111
G0 F2040 X23.954 Y44.248
G1 F1020 X-29.444 Y-9.15 E190.65108
G1 X-29.506 Y-9.212
G0 F2040 X-30.098 Y-10.299
G1 F1020 X24.134 Y43.933 E193.58618
G0 F2040 X24.313 Y43.617
G1 F1020 X-30.751 Y-11.447 E196.56632
G1 X-30.813 Y-11.509
G0 F2040 X-31.404 Y-12.594
G1 F1020 X24.492 Y43.301 E199.59145
G0 F2040 X24.672 Y42.986
G1 F1020 X-32.057 Y-13.743 E202.6617
G1 X-32.119 Y-13.805
G0 F2040 X-32.71 Y-14.891
G1 F1020 X24.851 Y42.671 E205.777
G0 F2040 X25.031 Y42.355
G1 F1020 X-33.363 Y-16.039 E208.93736
G1 X-33.425 Y-16.101
G0 F2040 X-34.016 Y-17.187
G1 F1020 X25.211 Y42.04 E212.1428
G0 F2040 X25.39 Y41.724
G1 F1020 X-34.67 Y-18.335 E215.39329
G1 X-34.732 Y-18.397
G0 F2040 X-35.323 Y-19.484
G1 F1020 X25.569 Y41.408 E218.68885
G0 F2040 X25.749 Y41.093
G1 F1020 X-35.664 Y-20.32 E222.0126
G0 F2040 X-35.169 Y-20.32
G1 F1020 X25.928 Y40.778 E225.31927
G0 F2040 X26.108 Y40.462
G1 F1020 X-34.674 Y-20.32 E228.60887
G0 F2040 X-34.179 Y-20.32
G1 F1020 X26.287 Y40.146 E231.88137
G0 F2040 X26.467 Y39.831
G1 F1020 X-33.684 Y-20.32 E235.13682
G0 F2040 X-33.189 Y-20.32
G1 F1020 X26.646 Y39.515 E238.37516
G0 F2040 X26.826 Y39.2
G1 F1020 X-32.694 Y-20.32 E241.59646
G0 F2040 X-32.199 Y-20.32
G1 F1020 X27.005 Y38.885 E244.80068
G0 F2040 X27.185 Y38.569
G1 F1020 X-31.704 Y-20.32 E247.98783
G0 F2040 X-31.209 Y-20.32
G1 F1020 X27.364 Y38.253 E251.15788
G0 F2040 X27.543 Y37.938
G1 F1020 X-30.714 Y-20.32 E254.31085
G0 F2040 X-30.219 Y-20.32
G1 F1020 X27.723 Y37.623 E257.44677
G0 F2040 X27.903 Y37.307
G1 F1020 X-29.724 Y-20.32 E260.56561
G0 F2040 X-29.229 Y-20.32
G1 F1020 X28.082 Y36.992 E263.66739
G0 F2040 X28.262 Y36.676
G1 F1020 X-28.734 Y-20.32 E266.75208
G0 F2040 X-28.239 Y-20.32
G1 F1020 X28.441 Y36.36 E269.81968
G0 F2040 X28.62 Y36.045
G1 F1020 X-27.744 Y-20.32 E272.87019
G0 F2040 X-27.249 Y-20.32
G1 F1020 X28.8 Y35.73 E275.90366
G0 F2040 X28.98 Y35.414
G1 F1020 X-26.754 Y-20.32 E278.92006
G0 F2040 X-26.259 Y-20.32
G1 F1020 X29.159 Y35.099 E281.91938
G0 F2040 X29.338 Y34.783
G1 F1020 X-25.764 Y-20.32 E284.9016
G0 F2040 X-25.269 Y-20.32
G1 F1020 X29.518 Y34.467 E287.86674
G0 F2040 X29.697 Y34.152
G1 F1020 X-24.774 Y-20.32 E290.81481
G0 F2040 X-24.279 Y-20.32
G1 F1020 X29.877 Y33.837 E293.74583
G0 F2040 X30.056 Y33.521
G1 F1020 X-23.784 Y-20.32 E296.65974
G0 F2040 X-23.289 Y-20.32
G1 F1020 X30.236 Y33.206 E299.55661
G0 F2040 X30.415 Y32.89
G1 F1020 X-22.795 Y-20.32 E302.4364
G0 F2040 X-22.3 Y-20.32
G1 F1020 X30.595 Y32.574 E305.29912
G0 F2040 X30.774 Y32.259
G1 F1020 X-21.805 Y-20.32 E308.14476
G0 F2040 X-21.31 Y-20.32
G1 F1020 X30.954 Y31.944 E310.97336
G0 F2040 X31.133 Y31.628
G1 F1020 X-20.815 Y-20.32 E313.78485
G0 F2040 X-20.32 Y-20.32
G1 F1020 X31.313 Y31.313 E316.57929
G0 F2040 X31.492 Y30.997
G1 F1020 X-19.825 Y-20.32 E319.35663
G0 F2040 X-19.33 Y-20.32
