;FLAVOR:Marlin
;TIME:6239
;Filament used: 7.94469m
;Layer height: 0.3
;MINX:-66.507
;MINY:-25.634
;MINZ:0.26
;MAXX:43.38
;MAXY:70.321
;MAXZ:23.66
;Generated with Cura_SteamEngine 4.9.1
M82 ;absolute extrusion mode
;Gcode by Cura
G90
G28
M107
M109 R100
G30
M109 S215 U-55 X55 V-85 Y-85 W0.26 Z0.26
M82
G92 E0
G1 F200 E6
G92 E0
G1 F200 E-3.5
G0 Z0.15
G0 X10
G0 Z3
G1 F6000
G92 E0
G92 E0
G1 F3600 E-3.8
;LAYER_COUNT:79
;LAYER:0
M107
G0 F2040 X38.183 Y-25.634 Z0.26
;TYPE:SKIRT
G1 F3600 E0
G1 F1020 X38.873 Y-25.624 E0.02641
G1 X39.476 Y-25.575 E0.04956
G1 X40.067 Y-25.447 E0.0727
G1 X40.636 Y-25.243 E0.09584
G1 X41.173 Y-24.965 E0.11898
G1 X41.669 Y-24.618 E0.14214
G1 X42.114 Y-24.21 E0.16525
G1 X42.502 Y-23.746 E0.18839
G1 X42.826 Y-23.235 E0.21155
G1 X43.079 Y-22.686 E0.23468
G1 X43.258 Y-22.108 E0.25784
G1 X43.358 Y-21.512 E0.28097
G1 X43.38 Y-20.908 E0.3041
G1 X43.321 Y-20.306 E0.32725
G1 X43.184 Y-19.717 E0.35039
G1 X42.92 Y-19.045 E0.37802
G1 X42.788 Y-18.789 E0.38904
G1 X42.473 Y-18.223 E0.41383
G1 X-6.483 Y67.45 E4.19004
G1 X-6.854 Y68.077 E4.21792
G1 X-7.195 Y68.576 E4.24105
G1 X-7.6 Y69.025 E4.26419
G1 X-8.06 Y69.417 E4.28732
G1 X-8.568 Y69.745 E4.31046
G1 X-9.114 Y70.004 E4.33358
G1 X-9.69 Y70.188 E4.35672
G1 X-10.286 Y70.294 E4.37989
G1 X-10.89 Y70.321 E4.40303
G1 X-11.492 Y70.268 E4.42616
G1 X-12.082 Y70.136 E4.44929
G1 X-12.65 Y69.927 E4.47246
G1 X-13.185 Y69.646 E4.49558
G1 X-13.678 Y69.296 E4.51872
G1 X-14.121 Y68.884 E4.54187
G1 X-14.505 Y68.418 E4.56498
G1 X-14.7 Y68.123 E4.57851
G1 X-15.057 Y67.537 E4.60477
G1 X-65.57 Y-18.186 E8.41254
G1 X-65.905 Y-18.773 E8.43841
G1 X-66.17 Y-19.317 E8.46156
G1 X-66.36 Y-19.891 E8.4847
G1 X-66.473 Y-20.485 E8.50784
G1 X-66.507 Y-21.089 E8.53099
G1 X-66.46 Y-21.692 E8.55414
G1 X-66.335 Y-22.283 E8.57726
G1 X-66.133 Y-22.853 E8.6004
G1 X-65.857 Y-23.391 E8.62354
G1 X-65.513 Y-23.888 E8.64667
G1 X-65.106 Y-24.336 E8.66984
G1 X-64.644 Y-24.725 E8.69295
G1 X-64.134 Y-25.051 E8.71611
G1 X-63.586 Y-25.306 E8.73924
G1 X-63.009 Y-25.487 E8.76239
G1 X-62.414 Y-25.591 E8.7855
G1 X-62.018 Y-25.615 E8.80068
G1 X-60.97 Y-25.634 E8.8408
G1 X38.183 Y-25.634 E12.63534
G0 F2040 X38.178 Y-25.284
G1 F1020 X38.868 Y-25.274 E12.66174
G1 X39.447 Y-25.225 E12.68398
G1 X40.014 Y-25.098 E12.70622
G1 X40.558 Y-24.894 E12.72845
G1 X41.069 Y-24.617 E12.7507
G1 X41.537 Y-24.273 E12.77292
G1 X41.954 Y-23.868 E12.79517
G1 X42.311 Y-23.41 E12.81739
G1 X42.602 Y-22.907 E12.83963
G1 X42.821 Y-22.369 E12.86186
G1 X42.964 Y-21.805 E12.88413
G1 X43.028 Y-21.228 E12.90635
G1 X43.013 Y-20.647 E12.92859
G1 X42.918 Y-20.074 E12.95082
G1 X42.745 Y-19.519 E12.97306
G1 X42.482 Y-18.959 E12.99674
G1 X42.169 Y-18.397 E13.02136
G1 X-6.784 Y67.272 E16.79737
G1 X-7.155 Y67.899 E16.82525
G1 X-7.484 Y68.377 E16.84746
G1 X-7.877 Y68.806 E16.86973
G1 X-8.324 Y69.177 E16.89196
G1 X-8.818 Y69.483 E16.9142
G1 X-9.349 Y69.718 E16.93642
G1 X-9.907 Y69.879 E16.95864
G1 X-10.483 Y69.961 E16.98091
G1 X-11.064 Y69.963 E17.00314
G1 X-11.639 Y69.886 E17.02535
G1 X-12.199 Y69.73 E17.04759
G1 X-12.732 Y69.5 E17.06981
G1 X-13.229 Y69.198 E17.09206
G1 X-13.679 Y68.831 E17.11429
G1 X-14.075 Y68.405 E17.13655
G1 X-14.401 Y67.942 E17.15822
G1 X-14.755 Y67.359 E17.18432
G1 X-65.266 Y-18.36 E20.99192
G1 X-65.601 Y-18.947 E21.01778
G1 X-65.854 Y-19.47 E21.04001
G1 X-66.033 Y-20.023 E21.06226
G1 X-66.133 Y-20.595 E21.08448
G1 X-66.155 Y-21.176 E21.10673
G1 X-66.096 Y-21.754 E21.12897
G1 X-65.959 Y-22.319 E21.15121
G1 X-65.746 Y-22.859 E21.17343
G1 X-65.46 Y-23.365 E21.19567
G1 X-65.108 Y-23.827 E21.2179
G1 X-64.696 Y-24.237 E21.24014
G1 X-64.231 Y-24.586 E21.26239
G1 X-63.723 Y-24.867 E21.28461
G1 X-63.181 Y-25.077 E21.30686
G1 X-62.616 Y-25.21 E21.32907
G1 X-62.011 Y-25.265 E21.35232
G1 X-60.97 Y-25.284 E21.39216
G1 X38.178 Y-25.284 E25.18651
G0 F2040 X38.173 Y-24.934
G1 F1020 X38.863 Y-24.924 E25.21292
G1 X39.417 Y-24.876 E25.2342
G1 X39.959 Y-24.749 E25.2555
G1 X40.477 Y-24.546 E25.27679
G1 X40.961 Y-24.27 E25.29812
G1 X41.4 Y-23.929 E25.31939
G1 X41.786 Y-23.528 E25.34069
G1 X42.11 Y-23.075 E25.362
G1 X42.366 Y-22.581 E25.3833
G1 X42.549 Y-22.056 E25.40457
G1 X42.655 Y-21.51 E25.42586
G1 X42.681 Y-20.954 E25.44716
G1 X42.627 Y-20.4 E25.46846
G1 X42.495 Y-19.86 E25.48974
G1 X42.291 Y-19.352 E25.51069
G1 X42.176 Y-19.129 E25.52029
G1 X41.865 Y-18.57 E25.54477
G1 X-7.085 Y67.093 E29.32053
G1 X-7.456 Y67.72 E29.34841
G1 X-7.773 Y68.178 E29.36973
G1 X-8.152 Y68.585 E29.39101
G1 X-8.586 Y68.933 E29.4123
G1 X-9.065 Y69.216 E29.43359
G1 X-9.58 Y69.428 E29.4549
G1 X-10.119 Y69.563 E29.47617
G1 X-10.673 Y69.62 E29.49748
G1 X-11.229 Y69.597 E29.51878
G1 X-11.776 Y69.495 E29.54007
G1 X-12.302 Y69.315 E29.56135
G1 X-12.798 Y69.062 E29.58265
G1 X-13.252 Y68.74 E29.60396
G1 X-13.655 Y68.357 E29.62523
G1 X-14.102 Y67.76 E29.65377
G1 X-14.453 Y67.181 E29.67969
G1 X-64.963 Y-18.533 E33.4871
G1 X-65.298 Y-19.12 E33.51296
G1 X-65.538 Y-19.622 E33.53426
G1 X-65.704 Y-20.153 E33.55555
G1 X-65.792 Y-20.703 E33.57686
G1 X-65.801 Y-21.259 E33.59814
G1 X-65.73 Y-21.811 E33.61944
G1 X-65.58 Y-22.347 E33.64074
G1 X-65.356 Y-22.856 E33.66203
G1 X-65.061 Y-23.327 E33.68329
G1 X-64.701 Y-23.752 E33.70461
G1 X-64.284 Y-24.121 E33.72592
G1 X-63.819 Y-24.426 E33.7472
G1 X-63.314 Y-24.661 E33.76852
G1 X-62.782 Y-24.822 E33.78979
G1 X-62.004 Y-24.915 E33.81977
G1 X-60.97 Y-24.934 E33.85935
G1 X38.173 Y-24.934 E37.65351
G0 F2040 X38.168 Y-24.584
G1 F1020 X38.858 Y-24.574 E37.67992
G1 X39.387 Y-24.526 E37.70024
G1 X39.902 Y-24.4 E37.72053
G1 X40.393 Y-24.197 E37.74087
G1 X40.847 Y-23.924 E37.76114
G1 X41.256 Y-23.585 E37.78147
G1 X41.608 Y-23.188 E37.80177
G1 X41.898 Y-22.744 E37.82207
G1 X42.117 Y-22.26 E37.8424
G1 X42.262 Y-21.75 E37.86269
G1 X42.328 Y-21.223 E37.88302
G1 X42.314 Y-20.693 E37.90331
G1 X42.221 Y-20.17 E37.92364
G1 X41.976 Y-19.505 E37.95076
G1 X41.87 Y-19.299 E37.95962
G1 X41.562 Y-18.744 E37.98391
G1 X-7.386 Y66.915 E41.7595
G1 X-7.757 Y67.542 E41.78738
G1 X-8.061 Y67.977 E41.80769
G1 X-8.427 Y68.362 E41.82802
G1 X-8.846 Y68.687 E41.84831
G1 X-9.309 Y68.946 E41.86862
G1 X-9.806 Y69.132 E41.88893
G1 X-10.326 Y69.241 E41.90926
G1 X-10.855 Y69.271 E41.92954
G1 X-11.384 Y69.222 E41.94987
G1 X-11.899 Y69.093 E41.97018
G1 X-12.389 Y68.889 E41.9905
G1 X-12.842 Y68.614 E42.01078
G1 X-13.249 Y68.273 E42.0311
G1 X-13.601 Y67.876 E42.0514
G1 X-13.803 Y67.578 E42.06518
G1 X-14.152 Y67.004 E42.09089
G1 X-64.659 Y-18.707 E45.89814
G1 X-64.994 Y-19.294 E45.92401
G1 X-65.221 Y-19.773 E45.94429
G1 X-65.374 Y-20.281 E45.9646
G1 X-65.449 Y-20.807 E45.98493
G1 X-65.445 Y-21.337 E46.00522
G1 X-65.36 Y-21.861 E46.02553
G1 X-65.198 Y-22.367 E46.04586
G1 X-64.962 Y-22.842 E46.06616
G1 X-64.658 Y-23.276 E46.08644
G1 X-64.291 Y-23.66 E46.10677
G1 X-63.871 Y-23.985 E46.12709
G1 X-63.407 Y-24.242 E46.14739
G1 X-62.91 Y-24.428 E46.1677
G1 X-62.391 Y-24.536 E46.18798
G1 X-61.998 Y-24.565 E46.20307
G1 X-60.97 Y-24.584 E46.24241
G1 X38.168 Y-24.584 E50.03638
G0 F2040 X38.163 Y-24.234
G1 F1020 X38.853 Y-24.224 E50.06279
G1 X39.354 Y-24.176 E50.08205
G1 X39.842 Y-24.051 E50.10133
G1 X40.304 Y-23.849 E50.12062
G1 X40.727 Y-23.577 E50.13987
G1 X41.103 Y-23.242 E50.15914
G1 X41.421 Y-22.851 E50.17843
G1 X41.673 Y-22.415 E50.1977
G1 X41.853 Y-21.945 E50.21696
G1 X41.956 Y-21.452 E50.23623
G1 X41.98 Y-20.949 E50.25551
G1 X41.925 Y-20.449 E50.27476
G1 X41.791 Y-19.963 E50.29405
G1 X41.564 Y-19.469 E50.31485
G1 X41.258 Y-18.918 E50.33897
G1 X-7.688 Y66.737 E54.11439
G1 X-8.059 Y67.364 E54.14227
G1 X-8.349 Y67.776 E54.16155
G1 X-8.7 Y68.136 E54.1808
G1 X-9.104 Y68.437 E54.20008
G1 X-9.551 Y68.67 E54.21937
G1 X-10.028 Y68.829 E54.23861
G1 X-10.525 Y68.911 E54.25789
G1 X-11.029 Y68.913 E54.27717
G1 X-11.526 Y68.836 E54.29642
G1 X-12.005 Y68.681 E54.31569
G1 X-12.454 Y68.452 E54.33498
G1 X-12.861 Y68.155 E54.35426
G1 X-13.215 Y67.797 E54.37353
G1 X-13.504 Y67.396 E54.39244
G1 X-13.85 Y66.826 E54.41796
G1 X-64.355 Y-18.88 E58.22501
G1 X-64.69 Y-19.467 E58.25088
G1 X-64.904 Y-19.923 E58.27015
G1 X-65.043 Y-20.407 E58.28943
G1 X-65.104 Y-20.907 E58.3087
G1 X-65.085 Y-21.41 E58.32797
G1 X-64.987 Y-21.904 E58.34724
G1 X-64.813 Y-22.376 E58.36649
G1 X-64.565 Y-22.815 E58.38579
G1 X-64.252 Y-23.209 E58.40504
G1 X-63.88 Y-23.548 E58.4243
G1 X-63.459 Y-23.825 E58.44359
G1 X-62.999 Y-24.031 E58.46288
G1 X-62.513 Y-24.162 E58.48214
G1 X-61.991 Y-24.215 E58.50222
G1 X-60.97 Y-24.234 E58.5413
G1 X38.163 Y-24.234 E62.33507
G1 F3600 E58.53507
;MESH:support_tri_0_003.stl
G0 F2040 X38.163 Y-21.724
G0 X38.163 Y-20.689
G0 X-61.035 Y-20.534
;TYPE:WALL-INNER
G1 F3600 E62.33507
G1 F1020 X37.919 Y-20.534 E66.122
G1 X-10.797 Y64.719 E69.87969
G1 X-61.035 Y-20.534 E73.66662
G0 F2040 X-61.604 Y-20.859
;TYPE:WALL-OUTER
G1 F1020 X38.479 Y-20.859 E77.49675
G1 X-10.793 Y65.366 E81.29729
G1 X-61.604 Y-20.859 E85.1274
G0 F2040 X-61.404 Y-20.859
G0 X-61.404 Y-20.759
G0 X-60.439 Y-20.194
;TYPE:SKIN
G1 F1020 X37.333 Y-20.194 E88.86909
G1 X-10.801 Y64.041 E92.58191
G1 X-60.439 Y-20.194 E96.32362
G0 F2040 X36.997 Y-19.924
G1 F1020 X36.884 Y-20.037 E96.32973
G0 F2040 X36.817 Y-19.609
G1 F1020 X36.389 Y-20.037 E96.3529
G0 F2040 X35.894 Y-20.037
G1 F1020 X36.638 Y-19.294 E96.39313
G0 F2040 X36.457 Y-18.979
G1 F1020 X35.399 Y-20.037 E96.45039
G0 F2040 X34.904 Y-20.037
G1 F1020 X36.277 Y-18.664 E96.5247
G0 F2040 X36.097 Y-18.349
G1 F1020 X34.409 Y-20.037 E96.61606
G0 F2040 X33.914 Y-20.037
G1 F1020 X35.917 Y-18.034 E96.72446
G0 F2040 X35.737 Y-17.719
G1 F1020 X33.419 Y-20.037 E96.84992
G0 F2040 X32.925 Y-20.037
G1 F1020 X35.557 Y-17.404 E96.99239
G0 F2040 X35.377 Y-17.089
G1 F1020 X32.43 Y-20.037 E97.15191
G0 F2040 X31.935 Y-20.037
G1 F1020 X35.197 Y-16.774 E97.32849
G0 F2040 X35.018 Y-16.459
G1 F1020 X31.44 Y-20.037 E97.52213
G0 F2040 X30.945 Y-20.037
G1 F1020 X34.837 Y-16.144 E97.7328
G0 F2040 X34.658 Y-15.829
G1 F1020 X30.45 Y-20.037 E97.96054
G0 F2040 X29.955 Y-20.037
G1 F1020 X34.477 Y-15.514 E98.2053
G0 F2040 X34.297 Y-15.199
G1 F1020 X29.46 Y-20.037 E98.46712
G0 F2040 X28.965 Y-20.037
G1 F1020 X34.117 Y-14.884 E98.74598
G0 F2040 X33.937 Y-14.569
G1 F1020 X28.47 Y-20.037 E99.04188
G0 F2040 X27.975 Y-20.037
G1 F1020 X33.757 Y-14.254 E99.35484
G0 F2040 X33.577 Y-13.939
G1 F1020 X27.48 Y-20.037 E99.68484
G0 F2040 X26.985 Y-20.037
G1 F1020 X33.398 Y-13.624 E100.03192
G0 F2040 X33.217 Y-13.309
G1 F1020 X26.49 Y-20.037 E100.39602
G0 F2040 X25.995 Y-20.037
G1 F1020 X33.038 Y-12.994 E100.7772
G0 F2040 X32.857 Y-12.679
G1 F1020 X25.5 Y-20.037 E101.1754
G0 F2040 X25.005 Y-20.037
G1 F1020 X32.678 Y-12.364 E101.59067
G0 F2040 X32.497 Y-12.049
G1 F1020 X24.51 Y-20.037 E102.02296
G0 F2040 X24.015 Y-20.037
G1 F1020 X32.317 Y-11.735 E102.47228
G0 F2040 X32.138 Y-11.419
G1 F1020 X23.52 Y-20.037 E102.9387
G0 F2040 X23.025 Y-20.037
G1 F1020 X31.957 Y-11.105 E103.42211
G0 F2040 X31.778 Y-10.789
G1 F1020 X22.53 Y-20.037 E103.92262
G0 F2040 X22.035 Y-20.037
G1 F1020 X31.597 Y-10.475 E104.44013
G0 F2040 X31.418 Y-10.159
G1 F1020 X21.54 Y-20.037 E104.97474
G0 F2040 X21.045 Y-20.037
G1 F1020 X31.237 Y-9.845 E105.52634
G0 F2040 X31.058 Y-9.529
G1 F1020 X20.55 Y-20.037 E106.09505
G0 F2040 X20.055 Y-20.037
G1 F1020 X30.877 Y-9.215 E106.68075
G0 F2040 X30.698 Y-8.899
G1 F1020 X19.56 Y-20.037 E107.28355
G0 F2040 X19.065 Y-20.037
G1 F1020 X30.518 Y-8.584 E107.9034
G0 F2040 X30.337 Y-8.27
G1 F1020 X18.57 Y-20.037 E108.54025
G0 F2040 X18.075 Y-20.037
G1 F1020 X30.158 Y-7.954 E109.1942
G0 F2040 X29.977 Y-7.64
G1 F1020 X17.58 Y-20.037 E109.86514
G0 F2040 X17.085 Y-20.037
G1 F1020 X29.798 Y-7.324 E110.55318
G0 F2040 X29.617 Y-7.01
G1 F1020 X16.59 Y-20.037 E111.25822
G0 F2040 X16.095 Y-20.037
G1 F1020 X29.438 Y-6.694 E111.98036
G0 F2040 X29.257 Y-6.38
G1 F1020 X15.6 Y-20.037 E112.71949
G0 F2040 X15.105 Y-20.037
G1 F1020 X29.078 Y-6.064 E113.47573
G0 F2040 X28.898 Y-5.75
G1 F1020 X14.61 Y-20.037 E114.24899
G0 F2040 X14.115 Y-20.037
G1 F1020 X28.718 Y-5.434 E115.03932
G0 F2040 X28.538 Y-5.12
G1 F1020 X13.62 Y-20.037 E115.84667
G0 F2040 X13.126 Y-20.037
G1 F1020 X28.358 Y-4.804 E116.67108
G0 F2040 X28.178 Y-4.49
G1 F1020 X12.631 Y-20.037 E117.5125
G0 F2040 X12.136 Y-20.037
G1 F1020 X27.997 Y-4.175 E118.37094
G0 F2040 X27.818 Y-3.86
G1 F1020 X11.641 Y-20.037 E119.24646
G0 F2040 X11.146 Y-20.037
G1 F1020 X27.637 Y-3.545 E120.13901
G0 F2040 X27.458 Y-3.23
G1 F1020 X10.651 Y-20.037 E121.04862
G0 F2040 X10.156 Y-20.037
G1 F1020 X27.278 Y-2.915 E121.97529
G0 F2040 X27.098 Y-2.6
G1 F1020 X9.661 Y-20.037 E122.919
G0 F2040 X9.166 Y-20.037
G1 F1020 X26.918 Y-2.285 E123.87976
G0 F2040 X26.738 Y-1.969
G1 F1020 X8.671 Y-20.037 E124.8576
G0 F2040 X8.176 Y-20.037
G1 F1020 X26.558 Y-1.655 E125.85245
G0 F2040 X26.378 Y-1.339
G1 F1020 X7.681 Y-20.037 E126.86439
G0 F2040 X7.186 Y-20.037
G1 F1020 X26.198 Y-1.025 E127.89334
G0 F2040 X26.017 Y-.71
G1 F1020 X6.691 Y-20.037 E128.93931
G0 F2040 X6.196 Y-20.037
G1 F1020 X25.838 Y-.395 E130.00236
G0 F2040 X25.658 Y-0.08
G1 F1020 X5.701 Y-20.037 E131.08246
G0 F2040 X5.206 Y-20.037
G1 F1020 X25.478 Y0.234 E132.17958
G0 F2040 X25.298 Y0.549
G1 F1020 X4.711 Y-20.037 E133.29375
G0 F2040 X4.216 Y-20.037
G1 F1020 X25.118 Y0.864 E134.42497
G0 F2040 X24.938 Y1.179
G1 F1020 X3.721 Y-20.037 E135.57323
G0 F2040 X3.226 Y-20.037
G1 F1020 X24.758 Y1.494 E136.73854
G0 F2040 X24.578 Y1.809
G1 F1020 X2.731 Y-20.037 E137.9209
G0 F2040 X2.236 Y-20.037
G1 F1020 X24.398 Y2.124 E139.12031
G0 F2040 X24.218 Y2.439
G1 F1020 X1.741 Y-20.037 E140.33677
G0 F2040 X1.246 Y-20.037
G1 F1020 X24.038 Y2.754 E141.57027
G0 F2040 X23.858 Y3.069
G1 F1020 X0.751 Y-20.037 E142.82083
G0 F2040 X0.256 Y-20.037
G1 F1020 X23.678 Y3.384 E144.08843
G0 F2040 X23.498 Y3.699
G1 F1020 X-.238 Y-20.037 E145.37305
G0 F2040 X-.733 Y-20.037
G1 F1020 X23.318 Y4.014 E146.67472
G0 F2040 X23.138 Y4.329
G1 F1020 X-1.228 Y-20.037 E147.99344
G0 F2040 X-1.723 Y-20.037
G1 F1020 X22.958 Y4.644 E149.32921
G0 F2040 X22.778 Y4.959
G1 F1020 X-2.218 Y-20.037 E150.68202
G0 F2040 X-2.713 Y-20.037
G1 F1020 X22.598 Y5.274 E152.05189
G0 F2040 X22.418 Y5.589
G1 F1020 X-3.208 Y-20.037 E153.4388
G0 F2040 X-3.703 Y-20.037
G1 F1020 X22.238 Y5.904 E154.84276
G0 F2040 X22.058 Y6.219
G1 F1020 X-4.198 Y-20.037 E156.26377
G0 F2040 X-4.693 Y-20.037
G1 F1020 X21.878 Y6.534 E157.70182
G0 F2040 X21.698 Y6.849
G1 F1020 X-5.188 Y-20.037 E159.15693
G0 F2040 X-5.683 Y-20.037
G1 F1020 X21.518 Y7.164 E160.62908
G0 F2040 X21.338 Y7.479
G1 F1020 X-6.177 Y-20.037 E162.11825
G0 F2040 X-6.672 Y-20.037
G1 F1020 X21.158 Y7.794 E163.62448
G0 F2040 X20.978 Y8.109
G1 F1020 X-7.167 Y-20.037 E165.14775
G0 F2040 X-7.662 Y-20.037
G1 F1020 X20.798 Y8.424 E166.68806
G0 F2040 X20.618 Y8.739
G1 F1020 X-8.157 Y-20.037 E168.24543
G0 F2040 X-8.652 Y-20.037
G1 F1020 X20.438 Y9.054 E169.81985
G0 F2040 X20.258 Y9.369
G1 F1020 X-9.147 Y-20.037 E171.41131
G0 F2040 X-9.642 Y-20.037
G1 F1020 X20.079 Y9.684 E173.01985
G0 F2040 X19.898 Y9.999
G1 F1020 X-10.137 Y-20.037 E174.64541
G0 F2040 X-10.632 Y-20.037
G1 F1020 X19.718 Y10.313 E176.28799
G0 F2040 X19.538 Y10.629
G1 F1020 X-11.127 Y-20.037 E177.94764
G0 F2040 X-11.622 Y-20.037
G1 F1020 X19.358 Y10.943 E179.62432
G0 F2040 X19.178 Y11.259
G1 F1020 X-12.117 Y-20.037 E181.31807
G0 F2040 X-12.612 Y-20.037
G1 F1020 X18.998 Y11.573 E183.02885
G0 F2040 X18.818 Y11.889
G1 F1020 X-13.107 Y-20.037 E184.7567
G0 F2040 X-13.602 Y-20.037
G1 F1020 X18.638 Y12.203 E186.50156
G0 F2040 X18.459 Y12.519
G1 F1020 X-14.097 Y-20.037 E188.26354
G0 F2040 X-14.592 Y-20.037
G1 F1020 X18.278 Y12.833 E190.0425
G0 F2040 X18.099 Y13.149
G1 F1020 X-15.087 Y-20.037 E191.83857
G0 F2040 X-15.582 Y-20.037
G1 F1020 X17.918 Y13.464 E193.65166
G0 F2040 X17.738 Y13.778
G1 F1020 X-16.077 Y-20.037 E195.48177
G0 F2040 X-16.572 Y-20.037
G1 F1020 X17.558 Y14.094 E197.32896
G0 F2040 X17.378 Y14.408
G1 F1020 X-17.067 Y-20.037 E199.19317
G0 F2040 X-17.562 Y-20.037
G1 F1020 X17.198 Y14.724 E201.07445
G0 F2040 X17.018 Y15.038
G1 F1020 X-18.057 Y-20.037 E202.97275
G0 F2040 X-18.552 Y-20.037
G1 F1020 X16.839 Y15.354 E204.88816
G0 F2040 X16.658 Y15.668
G1 F1020 X-19.047 Y-20.037 E206.82056
G0 F2040 X-19.542 Y-20.037
G1 F1020 X16.479 Y15.984 E208.77006
