;FLAVOR:Marlin
;TIME:6269
;Filament used: 7.98917m
;Layer height: 0.3
;MINX:-41.887
;MINY:-72.896
;MINZ:0.26
;MAXX:68.002
;MAXY:24.811
;MAXZ:23.06
;Generated with Cura_SteamEngine 4.9.1
M82 ;absolute extrusion mode
;Gcode by Cura
G90
G28
M107
M109 R100
G30
M109 S215 U-55 X55 V-85 Y-85 W0.26 Z0.26
M82
G92 E0
G1 F200 E6
G92 E0
G1 F200 E-3.5
G0 Z0.15
G0 X10
G0 Z3
G1 F6000
G92 E0
G92 E0
G1 F3600 E-3.8
;LAYER_COUNT:77
;LAYER:0
M107
G0 F2040 X-36.689 Y24.811 Z0.26
;TYPE:SKIRT
G1 F3600 E0
G1 F1020 X-37.38 Y24.801 E0.02645
G1 X-37.983 Y24.752 E0.0496
G1 X-38.574 Y24.624 E0.07274
G1 X-39.143 Y24.42 E0.09587
G1 X-39.68 Y24.142 E0.11902
G1 X-40.176 Y23.796 E0.14216
G1 X-40.621 Y23.387 E0.16529
G1 X-41.009 Y22.923 E0.18844
G1 X-41.333 Y22.412 E0.21159
G1 X-41.586 Y21.863 E0.23473
G1 X-41.765 Y21.286 E0.25785
G1 X-41.865 Y20.689 E0.28101
G1 X-41.887 Y20.085 E0.30414
G1 X-41.828 Y19.483 E0.32729
G1 X-41.691 Y18.894 E0.35043
G1 X-41.477 Y18.329 E0.37355
G1 X-41.164 Y17.737 E0.39918
G1 X-41.099 Y17.624 E0.40417
G1 X11.127 Y-70.133 E4.31232
G1 X11.483 Y-70.714 E4.33839
G1 X11.832 Y-71.208 E4.36154
G1 X12.244 Y-71.651 E4.38469
G1 X12.71 Y-72.036 E4.40783
G1 X13.223 Y-72.356 E4.43097
G1 X13.773 Y-72.606 E4.45409
G1 X14.352 Y-72.781 E4.47723
G1 X14.949 Y-72.878 E4.50038
G1 X15.553 Y-72.896 E4.52351
G1 X16.155 Y-72.834 E4.54667
G1 X16.743 Y-72.693 E4.56981
G1 X17.307 Y-72.475 E4.59295
G1 X17.838 Y-72.185 E4.6161
G1 X18.325 Y-71.828 E4.63921
G1 X18.762 Y-71.41 E4.66235
G1 X19.139 Y-70.937 E4.6855
G1 X19.494 Y-70.358 E4.71149
G1 X19.561 Y-70.238 E4.71675
G1 X67.167 Y17.496 E8.53673
G1 X67.483 Y18.098 E8.56275
G1 X67.728 Y18.65 E8.58586
G1 X67.898 Y19.231 E8.60903
G1 X67.99 Y19.828 E8.63214
G1 X68.002 Y20.433 E8.6553
G1 X67.935 Y21.034 E8.67844
G1 X67.789 Y21.62 E8.70155
G1 X67.566 Y22.183 E8.72473
G1 X67.272 Y22.711 E8.74786
G1 X66.911 Y23.196 E8.77099
G1 X66.488 Y23.628 E8.79413
G1 X66.013 Y24.002 E8.81727
G1 X65.492 Y24.309 E8.84041
G1 X64.935 Y24.545 E8.86356
G1 X64.352 Y24.705 E8.8867
G1 X63.503 Y24.798 E8.91938
G1 X62.662 Y24.811 E8.95157
G1 X-36.689 Y24.811 E12.75369
G0 F2040 X-36.684 Y24.461
G1 F1020 X-37.375 Y24.451 E12.78013
G1 X-37.954 Y24.402 E12.80237
G1 X-38.521 Y24.275 E12.82461
G1 X-39.065 Y24.071 E12.84684
G1 X-39.576 Y23.794 E12.86909
G1 X-40.044 Y23.45 E12.89131
G1 X-40.461 Y23.045 E12.91356
G1 X-40.818 Y22.587 E12.93578
G1 X-41.109 Y22.084 E12.95802
G1 X-41.328 Y21.546 E12.98025
G1 X-41.471 Y20.982 E13.00252
G1 X-41.535 Y20.405 E13.02474
G1 X-41.52 Y19.824 E13.04698
G1 X-41.425 Y19.251 E13.06921
G1 X-41.252 Y18.696 E13.09145
G1 X-41.005 Y18.169 E13.11373
G1 X-40.799 Y17.803 E13.1298
G1 X11.425 Y-69.95 E17.03778
G1 X11.781 Y-70.531 E17.06385
G1 X12.118 Y-71.005 E17.08611
G1 X12.517 Y-71.427 E17.10834
G1 X12.97 Y-71.791 E17.13058
G1 X13.469 Y-72.09 E17.15284
G1 X14.003 Y-72.317 E17.17504
G1 X14.564 Y-72.469 E17.19729
G1 X15.141 Y-72.542 E17.21954
G1 X15.722 Y-72.535 E17.24178
G1 X16.296 Y-72.449 E17.26399
G1 X16.854 Y-72.285 E17.28625
G1 X17.383 Y-72.046 E17.30847
G1 X17.875 Y-71.737 E17.3307
G1 X18.32 Y-71.363 E17.35295
G1 X18.709 Y-70.931 E17.37519
G1 X19.035 Y-70.449 E17.39746
G1 X19.254 Y-70.071 E17.41418
G1 X66.857 Y17.658 E21.23393
G1 X67.173 Y18.26 E21.25995
G1 X67.407 Y18.792 E21.2822
G1 X67.566 Y19.351 E21.30444
G1 X67.647 Y19.926 E21.32666
G1 X67.647 Y20.507 E21.34889
G1 X67.569 Y21.083 E21.37114
G1 X67.412 Y21.643 E21.3934
G1 X67.179 Y22.175 E21.41562
G1 X66.876 Y22.671 E21.43787
G1 X66.508 Y23.12 E21.46008
G1 X66.082 Y23.515 E21.48231
G1 X65.605 Y23.847 E21.50456
G1 X65.087 Y24.111 E21.52681
G1 X64.538 Y24.302 E21.54905
G1 X63.969 Y24.415 E21.57125
G1 X63.498 Y24.448 E21.58932
G1 X62.662 Y24.461 E21.62132
G1 X-36.684 Y24.461 E25.42324
G0 F2040 X-36.679 Y24.111
G1 F1020 X-37.37 Y24.101 E25.44969
G1 X-37.924 Y24.053 E25.47097
G1 X-38.466 Y23.926 E25.49227
G1 X-38.984 Y23.723 E25.51356
G1 X-39.468 Y23.447 E25.53489
G1 X-39.907 Y23.106 E25.55616
G1 X-40.293 Y22.705 E25.57746
G1 X-40.617 Y22.252 E25.59877
G1 X-40.873 Y21.759 E25.62003
G1 X-41.056 Y21.233 E25.64135
G1 X-41.162 Y20.687 E25.66263
G1 X-41.188 Y20.131 E25.68393
G1 X-41.134 Y19.577 E25.70523
G1 X-41.002 Y19.037 E25.72651
G1 X-40.699 Y18.34 E25.75559
G1 X-40.498 Y17.982 E25.77131
G1 X11.724 Y-69.768 E29.67915
G1 X12.08 Y-70.349 E29.70522
G1 X12.404 Y-70.801 E29.72651
G1 X12.789 Y-71.202 E29.74778
G1 X13.228 Y-71.544 E29.76908
G1 X13.712 Y-71.82 E29.7904
G1 X14.23 Y-72.023 E29.81169
G1 X14.771 Y-72.15 E29.83296
G1 X15.326 Y-72.199 E29.85428
G1 X15.881 Y-72.167 E29.87555
G1 X16.426 Y-72.056 E29.89684
G1 X16.95 Y-71.868 E29.91814
G1 X17.442 Y-71.608 E29.93944
G1 X17.891 Y-71.279 E29.96074
G1 X18.288 Y-70.889 E29.98204
G1 X18.733 Y-70.273 E30.01112
G1 X18.946 Y-69.904 E30.02743
G1 X66.547 Y17.821 E33.84701
G1 X66.863 Y18.423 E33.87303
G1 X67.086 Y18.933 E33.89433
G1 X67.233 Y19.47 E33.91564
G1 X67.302 Y20.022 E33.93693
G1 X67.291 Y20.578 E33.95821
G1 X67.2 Y21.127 E33.97951
G1 X67.032 Y21.657 E34.00078
G1 X66.79 Y22.158 E34.02208
G1 X66.478 Y22.619 E34.04338
G1 X66.104 Y23.031 E34.06467
G1 X65.674 Y23.384 E34.08597
G1 X65.198 Y23.673 E34.10728
G1 X64.686 Y23.89 E34.12856
G1 X64.148 Y24.032 E34.14985
G1 X63.492 Y24.099 E34.17509
G1 X62.722 Y24.111 E34.20456
G1 X-36.679 Y24.111 E38.00859
G0 F2040 X-36.674 Y23.761
G1 F1020 X-37.365 Y23.751 E38.03503
G1 X-37.894 Y23.703 E38.05536
G1 X-38.409 Y23.577 E38.07565
G1 X-38.899 Y23.374 E38.09595
G1 X-39.354 Y23.101 E38.11626
G1 X-39.763 Y22.762 E38.13659
G1 X-40.115 Y22.366 E38.15686
G1 X-40.405 Y21.921 E38.17719
G1 X-40.624 Y21.438 E38.19748
G1 X-40.769 Y20.927 E38.21781
G1 X-40.835 Y20.4 E38.23814
G1 X-40.821 Y19.87 E38.25843
G1 X-40.728 Y19.347 E38.27876
G1 X-40.557 Y18.845 E38.29905
G1 X-40.247 Y18.248 E38.32479
G1 X-40.197 Y18.161 E38.32864
G1 X12.022 Y-69.585 E42.23629
G1 X12.378 Y-70.166 E42.26236
G1 X12.689 Y-70.596 E42.28267
G1 X13.06 Y-70.975 E42.30297
G1 X13.485 Y-71.294 E42.3233
G1 X13.952 Y-71.545 E42.34359
G1 X14.452 Y-71.723 E42.3639
G1 X14.973 Y-71.825 E42.38422
G1 X15.503 Y-71.847 E42.40452
G1 X16.03 Y-71.789 E42.42481
G1 X16.543 Y-71.653 E42.44512
G1 X17.03 Y-71.441 E42.46545
G1 X17.479 Y-71.159 E42.48574
G1 X17.881 Y-70.812 E42.50606
G1 X18.226 Y-70.409 E42.52637
G1 X18.586 Y-69.829 E42.55249
G1 X18.638 Y-69.737 E42.55653
G1 X66.237 Y17.984 E46.37595
G1 X66.553 Y18.586 E46.40197
G1 X66.764 Y19.073 E46.42228
G1 X66.899 Y19.586 E46.44258
G1 X66.955 Y20.114 E46.4629
G1 X66.932 Y20.644 E46.4832
G1 X66.829 Y21.164 E46.50349
G1 X66.65 Y21.664 E46.52381
G1 X66.397 Y22.13 E46.5441
G1 X66.077 Y22.554 E46.56443
G1 X65.698 Y22.925 E46.58473
G1 X65.266 Y23.234 E46.60505
G1 X64.794 Y23.475 E46.62534
G1 X64.29 Y23.643 E46.64567
G1 X63.767 Y23.733 E46.66598
G1 X63.487 Y23.749 E46.67671
G1 X62.717 Y23.761 E46.70618
G1 X-36.674 Y23.761 E50.50983
G0 F2040 X-36.669 Y23.411
G1 F1020 X-37.36 Y23.401 E50.53627
G1 X-37.861 Y23.353 E50.55553
G1 X-38.349 Y23.228 E50.57481
G1 X-38.81 Y23.026 E50.59407
G1 X-39.234 Y22.754 E50.61335
G1 X-39.61 Y22.419 E50.63262
G1 X-39.928 Y22.028 E50.65191
G1 X-40.18 Y21.592 E50.67118
G1 X-40.36 Y21.122 E50.69044
G1 X-40.463 Y20.629 E50.70972
G1 X-40.487 Y20.126 E50.72899
G1 X-40.432 Y19.626 E50.74824
G1 X-40.298 Y19.14 E50.76753
G1 X-40.087 Y18.68 E50.7869
G1 X-39.896 Y18.34 E50.80183
G1 X12.321 Y-69.402 E54.70931
G1 X12.677 Y-69.983 E54.73538
G1 X12.973 Y-70.39 E54.75464
G1 X13.33 Y-70.745 E54.77391
G1 X13.739 Y-71.039 E54.79318
G1 X14.189 Y-71.265 E54.81246
G1 X14.669 Y-71.417 E54.83172
G1 X15.167 Y-71.492 E54.851
G1 X15.671 Y-71.486 E54.87029
G1 X16.167 Y-71.401 E54.88954
G1 X16.644 Y-71.238 E54.90884
G1 X17.089 Y-71.003 E54.92809
G1 X17.491 Y-70.699 E54.94738
G1 X17.84 Y-70.337 E54.96663
G1 X18.128 Y-69.921 E54.98599
G1 X18.331 Y-69.57 E55.00151
G1 X65.927 Y18.146 E58.8207
G1 X66.243 Y18.748 E58.84672
G1 X66.441 Y19.211 E58.86599
G1 X66.563 Y19.7 E58.88527
G1 X66.607 Y20.202 E58.90456
G1 X66.571 Y20.704 E58.92382
G1 X66.455 Y21.194 E58.94309
G1 X66.264 Y21.66 E58.96236
G1 X66.001 Y22.09 E58.98165
G1 X65.674 Y22.472 E59.0009
G1 X65.29 Y22.798 E59.02017
G1 X64.86 Y23.06 E59.03944
G1 X64.393 Y23.25 E59.05874
G1 X63.903 Y23.364 E59.07799
G1 X63.481 Y23.399 E59.0942
G1 X62.711 Y23.411 E59.12367
G1 X-36.669 Y23.411 E62.92689
G1 F3600 E59.12689
;MESH:support_tri_0_097.stl
G0 F2040 X-36.669 Y20.901
G0 X-36.669 Y20.016
G0 X-36.407 Y19.711
;TYPE:WALL-INNER
G1 F3600 E62.92689
G1 F1020 X15.364 Y-67.281 E66.80098
G1 X62.567 Y19.711 E70.58864
G1 X-36.407 Y19.711 E74.37633
G0 F2040 X-36.978 Y20.036
;TYPE:WALL-OUTER
G1 F1020 X15.377 Y-67.938 E78.29414
G1 X63.113 Y20.036 E82.12456
G1 X-36.978 Y20.036 E85.955
G0 F2040 X-36.876 Y19.865
G0 X-36.792 Y19.916
G0 X-35.81 Y19.371
;TYPE:SKIN
G1 F1020 X15.35 Y-66.594 E89.78335
G1 X61.996 Y19.371 E93.5263
G1 X-35.81 Y19.371 E97.26929
G0 F2040 X-35.421 Y19.025
G1 F1020 X-35.233 Y19.213 E97.27947
G0 F2040 X-34.738 Y19.213
G1 F1020 X-35.237 Y18.714 E97.30647
G0 F2040 X-35.052 Y18.404
G1 F1020 X-34.243 Y19.213 E97.35026
G0 F2040 X-33.748 Y19.213
G1 F1020 X-34.868 Y18.094 E97.41085
G0 F2040 X-34.683 Y17.783
G1 F1020 X-33.253 Y19.213 E97.48824
G0 F2040 X-32.758 Y19.213
G1 F1020 X-34.498 Y17.474 E97.58239
G0 F2040 X-34.313 Y17.163
G1 F1020 X-32.263 Y19.213 E97.69333
G0 F2040 X-31.768 Y19.213
G1 F1020 X-34.129 Y16.853 E97.82109
G0 F2040 X-33.944 Y16.542
G1 F1020 X-31.273 Y19.213 E97.96564
G0 F2040 X-30.778 Y19.213
G1 F1020 X-33.76 Y16.232 E98.12701
G0 F2040 X-33.575 Y15.921
G1 F1020 X-30.283 Y19.213 E98.30517
G0 F2040 X-29.788 Y19.213
G1 F1020 X-33.39 Y15.612 E98.50009
G0 F2040 X-33.205 Y15.301
G1 F1020 X-29.294 Y19.213 E98.71179
G0 F2040 X-28.799 Y19.213
G1 F1020 X-33.021 Y14.991 E98.94029
G0 F2040 X-32.836 Y14.68
G1 F1020 X-28.304 Y19.213 E99.18559
G0 F2040 X-27.809 Y19.213
G1 F1020 X-32.652 Y14.37 E99.4477
G0 F2040 X-32.467 Y14.06
G1 F1020 X-27.314 Y19.213 E99.72659
G0 F2040 X-26.819 Y19.213
G1 F1020 X-32.282 Y13.75 E100.02225
G0 F2040 X-32.097 Y13.439
G1 F1020 X-26.324 Y19.213 E100.33472
G0 F2040 X-25.829 Y19.213
G1 F1020 X-31.913 Y13.129 E100.664
G0 F2040 X-31.728 Y12.819
G1 F1020 X-25.334 Y19.213 E101.01005
G0 F2040 X-24.839 Y19.213
G1 F1020 X-31.544 Y12.508 E101.37293
G0 F2040 X-31.359 Y12.198
G1 F1020 X-24.344 Y19.213 E101.75259
G0 F2040 X-23.849 Y19.213
G1 F1020 X-31.174 Y11.887 E102.14906
G0 F2040 X-30.989 Y11.578
G1 F1020 X-23.354 Y19.213 E102.56227
G0 F2040 X-22.859 Y19.213
G1 F1020 X-30.805 Y11.267 E102.99232
G0 F2040 X-30.62 Y10.957
G1 F1020 X-22.364 Y19.213 E103.43915
G0 F2040 X-21.869 Y19.213
G1 F1020 X-30.435 Y10.646 E103.90278
G0 F2040 X-30.251 Y10.336
G1 F1020 X-21.374 Y19.213 E104.38321
G0 F2040 X-20.879 Y19.213
G1 F1020 X-30.066 Y10.026 E104.88042
G0 F2040 X-29.881 Y9.716
G1 F1020 X-20.384 Y19.213 E105.39441
G0 F2040 X-19.889 Y19.213
G1 F1020 X-29.697 Y9.405 E105.92523
G0 F2040 X-29.512 Y9.095
G1 F1020 X-19.394 Y19.213 E106.47283
G0 F2040 X-18.899 Y19.213
G1 F1020 X-29.327 Y8.785 E107.03721
G0 F2040 X-29.143 Y8.474
G1 F1020 X-18.404 Y19.213 E107.61842
G0 F2040 X-17.909 Y19.213
G1 F1020 X-28.958 Y8.164 E108.2164
G0 F2040 X-28.773 Y7.854
G1 F1020 X-17.414 Y19.213 E108.83117
G0 F2040 X-16.919 Y19.213
G1 F1020 X-28.589 Y7.544 E109.46274
G0 F2040 X-28.404 Y7.233
G1 F1020 X-16.424 Y19.213 E110.11111
G0 F2040 X-15.929 Y19.213
G1 F1020 X-28.219 Y6.923 E110.77626
G0 F2040 X-28.035 Y6.612
G1 F1020 X-15.434 Y19.213 E111.45824
G0 F2040 X-14.939 Y19.213
G1 F1020 X-27.85 Y6.302 E112.157
G0 F2040 X-27.665 Y5.992
G1 F1020 X-14.444 Y19.213 E112.87254
G0 F2040 X-13.949 Y19.213
G1 F1020 X-27.48 Y5.682 E113.60485
G0 F2040 X-27.296 Y5.371
G1 F1020 X-13.454 Y19.213 E114.354
G0 F2040 X-12.959 Y19.213
G1 F1020 X-27.111 Y5.061 E115.11992
G0 F2040 X-26.927 Y4.751
G1 F1020 X-12.464 Y19.213 E115.90265
G0 F2040 X-11.969 Y19.213
G1 F1020 X-26.742 Y4.44 E116.70219
G0 F2040 X-26.557 Y4.13
G1 F1020 X-11.474 Y19.213 E117.5185
G0 F2040 X-10.979 Y19.213
G1 F1020 X-26.372 Y3.82 E118.35159
G0 F2040 X-26.188 Y3.51
G1 F1020 X-10.484 Y19.213 E119.20148
G0 F2040 X-9.99 Y19.213
G1 F1020 X-26.003 Y3.199 E120.06815
G0 F2040 X-25.819 Y2.889
G1 F1020 X-9.495 Y19.213 E120.95163
G0 F2040 X-9 Y19.213
G1 F1020 X-25.634 Y2.578 E121.85191
G0 F2040 X-25.449 Y2.269
G1 F1020 X-8.505 Y19.213 E122.76894
G0 F2040 X-8.01 Y19.213
G1 F1020 X-25.264 Y1.958 E123.70277
G0 F2040 X-25.08 Y1.648
G1 F1020 X-7.515 Y19.213 E124.65341
G0 F2040 X-7.02 Y19.213
G1 F1020 X-24.895 Y1.337 E125.62086
G0 F2040 X-24.711 Y1.027
G1 F1020 X-6.525 Y19.213 E126.60511
G0 F2040 X-6.03 Y19.213
G1 F1020 X-24.526 Y0.717 E127.60613
G0 F2040 X-24.342 Y0.406
G1 F1020 X-5.535 Y19.213 E128.62399
G0 F2040 X-5.04 Y19.213
G1 F1020 X-24.156 Y0.096 E129.6586
G0 F2040 X-23.972 Y-.213
G1 F1020 X-4.545 Y19.213 E130.70999
G0 F2040 X-4.05 Y19.213
G1 F1020 X-23.787 Y-.523 E131.77815
G0 F2040 X-23.603 Y-.834
G1 F1020 X-3.555 Y19.213 E132.86315
G0 F2040 X-3.06 Y19.213
G1 F1020 X-23.418 Y-1.144 E133.96492
G0 F2040 X-23.234 Y-1.455
G1 F1020 X-2.565 Y19.213 E135.08353
G0 F2040 X-2.07 Y19.213
G1 F1020 X-23.048 Y-1.764 E136.21886
G0 F2040 X-22.864 Y-2.075
G1 F1020 X-1.575 Y19.213 E137.37102
G0 F2040 X-1.08 Y19.213
G1 F1020 X-22.679 Y-2.385 E138.53996
G0 F2040 X-22.495 Y-2.696
G1 F1020 X-.585 Y19.213 E139.72573
G0 F2040 X-0.09 Y19.213
G1 F1020 X-22.31 Y-3.006 E140.92828
G0 F2040 X-22.126 Y-3.317
G1 F1020 X0.404 Y19.213 E142.14763
G0 F2040 X0.899 Y19.213
G1 F1020 X-21.94 Y-3.626 E143.3837
G0 F2040 X-21.756 Y-3.937
G1 F1020 X1.394 Y19.213 E144.63661
G0 F2040 X1.889 Y19.213
G1 F1020 X-21.571 Y-4.247 E145.9063
G0 F2040 X-21.387 Y-4.558
G1 F1020 X2.384 Y19.213 E147.19281
G0 F2040 X2.879 Y19.213
G1 F1020 X-21.202 Y-4.868 E148.49611
G0 F2040 X-21.018 Y-5.178
G1 F1020 X3.374 Y19.213 E149.81621
G0 F2040 X3.869 Y19.213
G1 F1020 X-20.832 Y-5.488 E151.15306
G0 F2040 X-20.648 Y-5.798
G1 F1020 X4.364 Y19.213 E152.50671
G0 F2040 X4.859 Y19.213
G1 F1020 X-20.463 Y-6.109 E153.87717
G0 F2040 X-20.279 Y-6.419
G1 F1020 X5.354 Y19.213 E155.26443
G0 F2040 X5.849 Y19.213
G1 F1020 X-20.094 Y-6.73 E156.6685
G0 F2040 X-19.91 Y-7.04
G1 F1020 X6.344 Y19.213 E158.08937
G0 F2040 X6.839 Y19.213
G1 F1020 X-19.724 Y-7.35 E159.527
G0 F2040 X-19.54 Y-7.66
G1 F1020 X7.334 Y19.213 E160.98143
G0 F2040 X7.829 Y19.213
G1 F1020 X-19.355 Y-7.971 E162.45266
G0 F2040 X-19.171 Y-8.281
G1 F1020 X8.324 Y19.213 E163.9407
G0 F2040 X8.819 Y19.213
G1 F1020 X-18.986 Y-8.592 E165.44554
G0 F2040 X-18.801 Y-8.902
G1 F1020 X9.314 Y19.213 E166.96716
G0 F2040 X9.808 Y19.213
G1 F1020 X-18.617 Y-9.212 E168.50555
G0 F2040 X-18.432 Y-9.522
G1 F1020 X10.303 Y19.213 E170.06073
G0 F2040 X10.798 Y19.213
G1 F1020 X-18.247 Y-9.833 E171.63271
G0 F2040 X-18.063 Y-10.143
G1 F1020 X11.293 Y19.213 E173.22149
G0 F2040 X11.788 Y19.213
G1 F1020 X-17.878 Y-10.453 E174.82705
G0 F2040 X-17.693 Y-10.764
G1 F1020 X12.283 Y19.213 E176.44942
G0 F2040 X12.778 Y19.213
G1 F1020 X-17.509 Y-11.074 E178.08859
G0 F2040 X-17.324 Y-11.384
G1 F1020 X13.273 Y19.213 E179.74454
G0 F2040 X13.768 Y19.213
G1 F1020 X-17.139 Y-11.694 E181.41727
G0 F2040 X-16.955 Y-12.005
G1 F1020 X14.263 Y19.213 E183.10682
G0 F2040 X14.758 Y19.213
G1 F1020 X-16.77 Y-12.315 E184.81316
G0 F2040 X-16.585 Y-12.626
G1 F1020 X15.253 Y19.213 E186.5363
G0 F2040 X15.748 Y19.213
G1 F1020 X-16.401 Y-12.936 E188.27625
G0 F2040 X-16.216 Y-13.246
G1 F1020 X16.243 Y19.213 E190.03297
G0 F2040 X16.738 Y19.213
G1 F1020 X-16.031 Y-13.556 E191.80647
G0 F2040 X-15.846 Y-13.867
G1 F1020 X17.233 Y19.213 E193.59677
G0 F2040 X17.728 Y19.213
G1 F1020 X-15.662 Y-14.177 E195.40388
G0 F2040 X-15.477 Y-14.487
G1 F1020 X18.223 Y19.213 E197.22777
G0 F2040 X18.718 Y19.213
G1 F1020 X-15.293 Y-14.798 E199.06849
G0 F2040 X-15.108 Y-15.108
G1 F1020 X19.213 Y19.213 E200.92598
G0 F2040 X19.708 Y19.213
G1 F1020 X-14.923 Y-15.418 E202.80026
G0 F2040 X-14.738 Y-15.728
G1 F1020 X20.203 Y19.213 E204.69131
G0 F2040 X20.698 Y19.213
G1 F1020 X-14.554 Y-16.039 E206.59919
G0 F2040 X-14.369 Y-16.349
G1 F1020 X21.193 Y19.213 E208.52385
G0 F2040 X21.688 Y19.213
G1 F1020 X-14.185 Y-16.66 E210.46535
G0 F2040 X-14 Y-16.969
G1 F1020 X22.183 Y19.213 E212.42359
G0 F2040 X22.678 Y19.213
