;FLAVOR:Marlin
;TIME:7991
;Filament used: 7.38197m
;Layer height: 0.2
;MINX:-40.646
;MINY:-72.642
;MINZ:0.26
;MAXX:72.866
;MAXY:24.264
;MAXZ:22.66
;Generated with Cura_SteamEngine 4.8.0
M82 ;absolute extrusion mode
;Gcode by Cura
G90
G28
M107
M109 R100
G30
M109 S215 U-55 X55 V-85 Y-85 W0.26 Z0.26
M82
G92 E0
G1 F200 E6
G92 E0
G1 F200 E-3.5
G0 Z0.15
G0 X10
G0 Z3
G1 F6000
G92 E0
G92 E0
G1 F3600 E-3.8
;LAYER_COUNT:113
;LAYER:0
M107
G0 F2040 X-35.449 Y24.264 Z0.26
;TYPE:SKIRT
G1 F3600 E0
G1 F1020 X-36.139 Y24.254 E0.02641
G1 X-36.742 Y24.205 E0.04956
G1 X-37.333 Y24.077 E0.0727
G1 X-37.902 Y23.873 E0.09584
G1 X-38.439 Y23.595 E0.11898
G1 X-38.935 Y23.248 E0.14214
G1 X-39.38 Y22.84 E0.16525
G1 X-39.768 Y22.376 E0.18839
G1 X-40.092 Y21.865 E0.21155
G1 X-40.345 Y21.316 E0.23468
G1 X-40.524 Y20.738 E0.25784
G1 X-40.624 Y20.142 E0.28097
G1 X-40.646 Y19.538 E0.3041
G1 X-40.587 Y18.936 E0.32725
G1 X-40.45 Y18.347 E0.35039
G1 X-40.236 Y17.782 E0.37351
G1 X-39.996 Y17.325 E0.39326
G1 X-39.668 Y16.794 E0.41715
G1 X16.22 Y-70.022 E4.36846
G1 X16.598 Y-70.595 E4.39473
G1 X16.964 Y-71.077 E4.41789
G1 X17.39 Y-71.506 E4.44103
G1 X17.868 Y-71.875 E4.46414
G1 X18.392 Y-72.178 E4.4873
G1 X18.95 Y-72.41 E4.51043
G1 X19.535 Y-72.565 E4.53359
G1 X20.134 Y-72.642 E4.5567
G1 X20.739 Y-72.64 E4.57986
G1 X21.338 Y-72.557 E4.603
G1 X21.921 Y-72.397 E4.62614
G1 X22.478 Y-72.161 E4.64929
G1 X22.998 Y-71.853 E4.67241
G1 X23.474 Y-71.48 E4.69556
G1 X23.896 Y-71.047 E4.7187
G1 X24.395 Y-70.336 E4.75194
G1 X24.816 Y-69.593 E4.78462
G1 X72.038 Y16.965 E8.55804
G1 X72.341 Y17.539 E8.58288
G1 X72.587 Y18.091 E8.60601
G1 X72.759 Y18.671 E8.62916
G1 X72.852 Y19.269 E8.65232
G1 X72.866 Y19.873 E8.67544
G1 X72.8 Y20.474 E8.69858
G1 X72.655 Y21.061 E8.72172
G1 X72.434 Y21.624 E8.74487
G1 X72.141 Y22.153 E8.76801
G1 X71.78 Y22.639 E8.79118
G1 X71.359 Y23.072 E8.81429
G1 X70.884 Y23.447 E8.83745
G1 X70.364 Y23.755 E8.86058
G1 X69.808 Y23.992 E8.88371
G1 X69.226 Y24.154 E8.90683
G1 X68.371 Y24.249 E8.93975
G1 X67.451 Y24.264 E8.97496
G1 X-35.449 Y24.264 E12.9129
G0 F2040 X-35.444 Y23.914
G1 F1020 X-36.134 Y23.904 E12.93931
G1 X-36.713 Y23.855 E12.96154
G1 X-37.28 Y23.728 E12.98378
G1 X-37.824 Y23.524 E13.00601
G1 X-38.335 Y23.247 E13.02826
G1 X-38.803 Y22.903 E13.05049
G1 X-39.22 Y22.498 E13.07273
G1 X-39.577 Y22.04 E13.09495
G1 X-39.868 Y21.537 E13.11719
G1 X-40.087 Y20.999 E13.13942
G1 X-40.23 Y20.435 E13.16169
G1 X-40.294 Y19.858 E13.18391
G1 X-40.279 Y19.277 E13.20615
G1 X-40.184 Y18.704 E13.22838
G1 X-40.011 Y18.149 E13.25062
G1 X-39.696 Y17.505 E13.27806
G1 X-39.371 Y16.98 E13.30169
G1 X16.512 Y-69.83 E17.25271
G1 X16.89 Y-70.403 E17.27898
G1 X17.243 Y-70.864 E17.3012
G1 X17.655 Y-71.274 E17.32344
G1 X18.12 Y-71.622 E17.34567
G1 X18.628 Y-71.904 E17.3679
G1 X19.171 Y-72.113 E17.39017
G1 X19.736 Y-72.246 E17.41238
G1 X20.315 Y-72.3 E17.43464
G1 X20.895 Y-72.274 E17.45686
G1 X21.467 Y-72.169 E17.47911
G1 X22.018 Y-71.986 E17.50133
G1 X22.539 Y-71.729 E17.52356
G1 X23.021 Y-71.404 E17.54581
G1 X23.452 Y-71.015 E17.56803
G1 X23.827 Y-70.571 E17.59027
G1 X24.09 Y-70.163 E17.60885
G1 X24.509 Y-69.425 E17.64133
G1 X71.728 Y17.129 E21.41456
G1 X72.031 Y17.703 E21.4394
G1 X72.267 Y18.234 E21.46164
G1 X72.427 Y18.792 E21.48385
G1 X72.509 Y19.368 E21.50612
G1 X72.511 Y19.949 E21.52835
G1 X72.434 Y20.525 E21.55059
G1 X72.278 Y21.084 E21.5728
G1 X72.047 Y21.617 E21.59503
G1 X71.745 Y22.114 E21.61729
G1 X71.378 Y22.564 E21.63951
G1 X70.952 Y22.96 E21.66177
G1 X70.476 Y23.293 E21.684
G1 X69.959 Y23.558 E21.70623
G1 X69.411 Y23.75 E21.72845
G1 X68.841 Y23.865 E21.75071
G1 X68.365 Y23.899 E21.76897
G1 X67.451 Y23.914 E21.80395
G1 X-35.444 Y23.914 E25.74169
G0 F2040 X-35.439 Y23.564
G1 F1020 X-36.129 Y23.554 E25.7681
G1 X-36.683 Y23.506 E25.78938
G1 X-37.225 Y23.379 E25.81069
G1 X-37.743 Y23.176 E25.83198
G1 X-38.227 Y22.9 E25.8533
G1 X-38.666 Y22.559 E25.87458
G1 X-39.052 Y22.158 E25.89588
G1 X-39.376 Y21.705 E25.91719
G1 X-39.632 Y21.211 E25.93848
G1 X-39.815 Y20.686 E25.95976
G1 X-39.921 Y20.14 E25.98105
G1 X-39.947 Y19.584 E26.00235
G1 X-39.893 Y19.03 E26.02365
G1 X-39.761 Y18.49 E26.04492
G1 X-39.553 Y17.974 E26.06621
G1 X-39.285 Y17.503 E26.08695
G1 X-39.048 Y17.125 E26.10403
G1 X16.804 Y-69.637 E30.05286
G1 X17.182 Y-70.21 E30.07913
G1 X17.521 Y-70.651 E30.10041
G1 X17.92 Y-71.039 E30.12171
G1 X18.37 Y-71.366 E30.143
G1 X18.863 Y-71.626 E30.16433
G1 X19.387 Y-71.812 E30.18561
G1 X19.933 Y-71.921 E30.20692
G1 X20.488 Y-71.95 E30.22819
G1 X21.042 Y-71.9 E30.24947
G1 X21.584 Y-71.771 E30.27079
G1 X22.101 Y-71.566 E30.29208
G1 X22.583 Y-71.289 E30.31335
G1 X23.021 Y-70.946 E30.33464
G1 X23.405 Y-70.543 E30.35595
G1 X23.786 Y-69.99 E30.38165
G1 X24.202 Y-69.258 E30.41387
G1 X71.419 Y17.292 E34.18693
G1 X71.722 Y17.866 E34.21177
G1 X71.946 Y18.375 E34.23305
G1 X72.094 Y18.912 E34.25437
G1 X72.164 Y19.464 E34.27566
G1 X72.155 Y20.02 E34.29694
G1 X72.065 Y20.569 E34.31823
G1 X71.898 Y21.1 E34.33953
G1 X71.657 Y21.601 E34.36081
G1 X71.347 Y22.063 E34.3821
G1 X70.973 Y22.476 E34.40342
G1 X70.544 Y22.83 E34.42471
G1 X70.069 Y23.12 E34.44601
G1 X69.558 Y23.339 E34.46728
G1 X69.02 Y23.482 E34.48859
G1 X68.359 Y23.549 E34.51401
G1 X67.451 Y23.564 E34.54877
G1 X-35.439 Y23.564 E38.48632
G0 F2040 X-35.434 Y23.214
G1 F1020 X-36.124 Y23.204 E38.51273
G1 X-36.653 Y23.156 E38.53306
G1 X-37.168 Y23.03 E38.55335
G1 X-37.659 Y22.827 E38.57368
G1 X-38.113 Y22.554 E38.59395
G1 X-38.522 Y22.215 E38.61428
G1 X-38.874 Y21.818 E38.63459
G1 X-39.164 Y21.374 E38.65488
G1 X-39.383 Y20.89 E38.67521
G1 X-39.528 Y20.38 E38.6955
G1 X-39.594 Y19.853 E38.71583
G1 X-39.58 Y19.323 E38.73612
G1 X-39.487 Y18.8 E38.75645
G1 X-39.316 Y18.298 E38.77674
G1 X-39.024 Y17.745 E38.80067
G1 X-38.754 Y17.314 E38.82014
G1 X17.097 Y-69.444 E42.76882
G1 X17.475 Y-70.017 E42.79509
G1 X17.799 Y-70.437 E42.81539
G1 X18.183 Y-70.803 E42.83569
G1 X18.618 Y-71.107 E42.856
G1 X19.093 Y-71.343 E42.8763
G1 X19.599 Y-71.505 E42.89663
G1 X20.123 Y-71.589 E42.91694
G1 X20.654 Y-71.593 E42.93726
G1 X21.179 Y-71.518 E42.95756
G1 X21.687 Y-71.364 E42.97787
G1 X22.166 Y-71.136 E42.99817
G1 X22.606 Y-70.839 E43.01849
G1 X22.996 Y-70.479 E43.0388
G1 X23.327 Y-70.065 E43.05909
G1 X23.482 Y-69.818 E43.07025
G1 X23.894 Y-69.09 E43.10226
G1 X71.109 Y17.455 E46.87511
G1 X71.412 Y18.029 E46.89995
G1 X71.624 Y18.516 E46.92028
G1 X71.76 Y19.029 E46.94059
G1 X71.818 Y19.556 E46.96088
G1 X71.796 Y20.087 E46.98122
G1 X71.694 Y20.607 E47.0015
G1 X71.516 Y21.107 E47.02181
G1 X71.264 Y21.575 E47.04215
G1 X70.946 Y21.999 E47.06243
G1 X70.567 Y22.37 E47.08273
G1 X70.136 Y22.681 E47.10307
G1 X69.664 Y22.923 E47.12337
G1 X69.161 Y23.092 E47.14368
G1 X68.638 Y23.183 E47.16399
G1 X68.353 Y23.2 E47.17492
G1 X67.509 Y23.214 E47.20722
G1 X-35.434 Y23.214 E51.1468
G0 F2040 X-35.429 Y22.864
G1 F1020 X-36.119 Y22.854 E51.17321
G1 X-36.62 Y22.806 E51.19247
G1 X-37.108 Y22.681 E51.21175
G1 X-37.57 Y22.479 E51.23105
G1 X-37.993 Y22.207 E51.25029
G1 X-38.369 Y21.872 E51.26956
G1 X-38.687 Y21.481 E51.28885
G1 X-38.939 Y21.045 E51.30812
G1 X-39.119 Y20.575 E51.32738
G1 X-39.222 Y20.082 E51.34666
G1 X-39.246 Y19.579 E51.36593
G1 X-39.191 Y19.079 E51.38518
G1 X-39.057 Y18.593 E51.40447
G1 X-38.796 Y18.045 E51.4277
G1 X-38.481 Y17.537 E51.45058
G1 X17.369 Y-69.222 E55.39927
G1 X17.767 Y-69.824 E55.42689
G1 X18.077 Y-70.221 E55.44616
G1 X18.445 Y-70.564 E55.46542
G1 X18.863 Y-70.845 E55.48469
G1 X19.321 Y-71.056 E55.50399
G1 X19.806 Y-71.192 E55.52327
G1 X20.306 Y-71.249 E55.54252
G1 X20.809 Y-71.227 E55.56179
G1 X21.302 Y-71.125 E55.58106
G1 X21.773 Y-70.947 E55.60033
G1 X22.21 Y-70.696 E55.61961
G1 X22.602 Y-70.38 E55.63888
G1 X22.939 Y-70.005 E55.65818
G1 X23.177 Y-69.645 E55.67469
G1 X23.587 Y-68.923 E55.70647
G1 X70.8 Y17.619 E59.47919
G1 X71.103 Y18.193 E59.50403
G1 X71.302 Y18.655 E59.52328
G1 X71.425 Y19.144 E59.54258
G1 X71.47 Y19.645 E59.56183
G1 X71.435 Y20.148 E59.58112
G1 X71.32 Y20.638 E59.60038
G1 X71.13 Y21.104 E59.61964
G1 X70.868 Y21.535 E59.63894
G1 X70.542 Y21.918 E59.65819
G1 X70.159 Y22.245 E59.67747
G1 X69.729 Y22.508 E59.69676
G1 X69.263 Y22.699 E59.71603
G1 X68.773 Y22.814 E59.73529
G1 X68.348 Y22.85 E59.75161
G1 X67.504 Y22.864 E59.78392
G1 X-35.429 Y22.864 E63.72311
G1 F3600 E59.92311
;MESH:support_tri_0_058.stl
G0 F2040 X-35.388 Y20.354
G0 X-35.388 Y19.329
G0 X67.429 Y19.164
;TYPE:WALL-INNER
G1 F3600 E63.72311
G1 F1020 X-35.128 Y19.164 E67.64792
G1 X20.383 Y-67.069 E71.57267
G1 X67.429 Y19.164 E75.33194
G0 F2040 X67.976 Y19.489
;TYPE:WALL-OUTER
G1 F1020 X-35.724 Y19.489 E79.30049
G1 X20.406 Y-67.705 E83.26898
G1 X67.976 Y19.489 E87.07015
G0 F2040 X67.776 Y19.489
G0 X67.639 Y19.288
G0 X66.856 Y18.824
;TYPE:SKIN
G1 F1020 X-34.504 Y18.824 E90.94915
G1 X20.358 Y-66.403 E94.82808
G1 X66.856 Y18.824 E98.54351
G0 F2040 X20.222 Y-65.903
G1 F1020 X20.725 Y-65.4 E98.57074
G1 X20.787 Y-65.338
G0 F2040 X20.028 Y-65.601
G1 F1020 X21.319 Y-64.311 E98.64058
G1 X21.381 Y-64.249
G0 F2040 X21.913 Y-63.221
G1 F1020 X19.835 Y-65.3 E98.75307
G0 F2040 X19.64 Y-65
G1 F1020 X22.507 Y-62.132 E98.90826
G1 X22.569 Y-62.07
G0 F2040 X23.102 Y-61.043
G1 F1020 X19.446 Y-64.698 E99.1061
G0 F2040 X19.253 Y-64.397
G1 F1020 X23.696 Y-59.954 E99.34657
G1 X23.758 Y-59.892
G0 F2040 X24.29 Y-58.865
G1 F1020 X19.059 Y-64.096 E99.62967
G0 F2040 X18.865 Y-63.795
G1 F1020 X24.885 Y-57.775 E99.95548
G1 X24.947 Y-57.713
G0 F2040 X25.479 Y-56.686
G1 F1020 X18.671 Y-63.493 E100.32391
G0 F2040 X18.478 Y-63.192
G1 F1020 X26.073 Y-55.596 E100.73499
G1 X26.135 Y-55.534
G0 F2040 X26.667 Y-54.508
G1 F1020 X18.284 Y-62.891 E101.18869
G0 F2040 X18.089 Y-62.59
G1 F1020 X27.262 Y-53.418 E101.68512
G1 X27.324 Y-53.356
G0 F2040 X27.856 Y-52.329
G1 F1020 X17.896 Y-62.289 E102.22417
G0 F2040 X17.702 Y-61.988
G1 F1020 X28.45 Y-51.24 E102.80586
G1 X28.512 Y-51.178
G0 F2040 X29.045 Y-50.15
G1 F1020 X17.508 Y-61.687 E103.43026
G0 F2040 X17.314 Y-61.386
G1 F1020 X29.639 Y-49.061 E104.0973
G1 X29.701 Y-48.999
G0 F2040 X30.233 Y-47.972
G1 F1020 X17.121 Y-61.084 E104.80694
G0 F2040 X16.927 Y-60.783
G1 F1020 X30.827 Y-46.883 E105.55923
G1 X30.889 Y-46.821
G0 F2040 X31.422 Y-45.793
G1 F1020 X16.732 Y-60.483 E106.35427
G0 F2040 X16.539 Y-60.181
G1 F1020 X32.016 Y-44.704 E107.1919
G1 X32.078 Y-44.642
G0 F2040 X32.61 Y-43.615
G1 F1020 X16.345 Y-59.88 E108.07219
G0 F2040 X16.151 Y-59.579
G1 F1020 X33.205 Y-42.526 E108.99514
G1 X33.267 Y-42.464
G0 F2040 X33.798 Y-41.437
G1 F1020 X15.957 Y-59.278 E109.96072
G0 F2040 X15.764 Y-58.976
G1 F1020 X34.393 Y-40.347 E110.96895
G1 X34.455 Y-40.285
G0 F2040 X34.987 Y-39.258
G1 F1020 X15.57 Y-58.675 E112.01982
G0 F2040 X15.376 Y-58.374
G1 F1020 X35.581 Y-38.169 E113.11334
G1 X35.643 Y-38.107
G0 F2040 X36.176 Y-37.079
G1 F1020 X15.182 Y-58.073 E114.24956
G0 F2040 X14.988 Y-57.772
G1 F1020 X36.77 Y-35.991 E115.4284
G1 X36.832 Y-35.929
G0 F2040 X37.364 Y-34.901
G1 F1020 X14.794 Y-57.471 E116.64992
G0 F2040 X14.601 Y-57.17
G1 F1020 X37.958 Y-33.812 E117.91406
G1 X38.02 Y-33.75
G0 F2040 X38.553 Y-32.722
G1 F1020 X14.407 Y-56.869 E119.2209
G0 F2040 X14.213 Y-56.567
G1 F1020 X39.147 Y-31.633 E120.57036
G1 X39.209 Y-31.571
G0 F2040 X39.741 Y-30.544
G1 F1020 X14.019 Y-56.266 E121.96247
G0 F2040 X13.825 Y-55.966
G1 F1020 X40.336 Y-29.455 E123.39728
G1 X40.398 Y-29.393
G0 F2040 X40.93 Y-28.366
G1 F1020 X13.631 Y-55.664 E124.8747
G0 F2040 X13.437 Y-55.363
G1 F1020 X41.524 Y-27.276 E126.39481
G1 X41.586 Y-27.214
G0 F2040 X42.118 Y-26.187
G1 F1020 X13.244 Y-55.062 E127.95753
G0 F2040 X13.05 Y-54.761
G1 F1020 X42.712 Y-25.098 E129.56291
G1 X42.774 Y-25.036
G0 F2040 X43.307 Y-24.009
G1 F1020 X12.856 Y-54.459 E131.21093
G0 F2040 X12.662 Y-54.158
G1 F1020 X43.901 Y-22.92 E132.90159
G1 X43.963 Y-22.858
G0 F2040 X44.496 Y-21.83
G1 F1020 X12.469 Y-53.857 E134.63494
G0 F2040 X12.274 Y-53.556
G1 F1020 X45.09 Y-20.741 E136.41095
G1 X45.152 Y-20.679
G0 F2040 X45.684 Y-19.651
G1 F1020 X12.08 Y-53.255 E138.22964
G0 F2040 X11.887 Y-52.954
G1 F1020 X46.278 Y-18.562 E140.09096
G1 X46.34 Y-18.5
G0 F2040 X46.872 Y-17.474
G1 F1020 X11.693 Y-52.653 E141.99489
G0 F2040 X11.499 Y-52.352
G1 F1020 X47.467 Y-16.384 E143.94152
G1 X47.529 Y-16.322
G0 F2040 X48.061 Y-15.295
G1 F1020 X11.305 Y-52.05 E145.93078
G0 F2040 X11.112 Y-51.749
G1 F1020 X48.656 Y-14.205 E147.96271
G1 X48.718 Y-14.143
G0 F2040 X49.249 Y-13.116
G1 F1020 X10.917 Y-51.449 E150.03731
G0 F2040 X10.723 Y-51.147
G1 F1020 X49.843 Y-12.027 E152.15453
G1 X49.905 Y-11.965
G0 F2040 X50.438 Y-10.938
G1 F1020 X10.53 Y-50.846 E154.3144
G0 F2040 X10.336 Y-50.545
G1 F1020 X51.032 Y-9.849 E156.51692
G1 X51.094 Y-9.787
G0 F2040 X51.627 Y-8.759
G1 F1020 X10.142 Y-50.244 E158.76215
G0 F2040 X9.948 Y-49.942
G1 F1020 X52.221 Y-7.67 E161.04999
G1 X52.283 Y-7.608
G0 F2040 X52.815 Y-6.581
G1 F1020 X9.755 Y-49.641 E163.38045
G0 F2040 X9.561 Y-49.34
G1 F1020 X53.409 Y-5.492 E165.75356
G1 X53.471 Y-5.43
G0 F2040 X54.003 Y-4.403
G1 F1020 X9.367 Y-49.039 E168.16932
G0 F2040 X9.173 Y-48.738
G1 F1020 X54.598 Y-3.313 E170.62777
G1 X54.66 Y-3.251
G0 F2040 X55.192 Y-2.224
G1 F1020 X8.979 Y-48.437 E173.12888
G0 F2040 X8.785 Y-48.136
G1 F1020 X55.787 Y-1.134 E175.67269
G1 X55.849 Y-1.072
G0 F2040 X56.381 Y-0.045
G1 F1020 X8.592 Y-47.835 E178.25912
G0 F2040 X8.398 Y-47.533
G1 F1020 X56.975 Y1.043 E180.88814
G1 X57.037 Y1.105
G0 F2040 X57.569 Y2.132
G1 F1020 X8.204 Y-47.232 E183.55981
G0 F2040 X8.01 Y-46.932
G1 F1020 X58.163 Y3.221 E186.27415
G1 X58.225 Y3.283
G0 F2040 X58.758 Y4.311
G1 F1020 X7.816 Y-46.63 E189.03117
G0 F2040 X7.622 Y-46.329
G1 F1020 X59.352 Y5.4 E191.83084
G1 X59.414 Y5.462
G0 F2040 X59.947 Y6.489
G1 F1020 X7.428 Y-46.028 E194.67318
G0 F2040 X7.235 Y-45.727
G1 F1020 X60.541 Y7.578 E197.55814
G1 X60.603 Y7.64
G0 F2040 X61.135 Y8.667
G1 F1020 X7.041 Y-45.425 E200.48572
G0 F2040 X6.847 Y-45.124
G1 F1020 X61.729 Y9.757 E203.45598
G1 X61.791 Y9.819
G0 F2040 X62.323 Y10.846
G1 F1020 X6.653 Y-44.823 E206.46888
G0 F2040 X6.459 Y-44.522
G1 F1020 X62.918 Y11.935 E209.52446
G1 X62.98 Y11.997
G0 F2040 X63.512 Y13.024
G1 F1020 X6.265 Y-44.221 E212.62269
G0 F2040 X6.071 Y-43.92
G1 F1020 X64.107 Y14.114 E215.76362
G1 X64.169 Y14.176
G0 F2040 X64.7 Y15.203
G1 F1020 X5.878 Y-43.619 E218.94714
G0 F2040 X5.684 Y-43.318
G1 F1020 X65.294 Y16.292 E222.17331
G1 X65.356 Y16.354
G0 F2040 X65.889 Y17.382
G1 F1020 X5.49 Y-43.016 E225.44215
G0 F2040 X5.296 Y-42.715
G1 F1020 X66.483 Y18.471 E228.75364
G0 F2040 X66.184 Y18.666
G1 F1020 X5.102 Y-42.415 E232.05945
G0 F2040 X4.908 Y-42.113
G1 F1020 X65.689 Y18.666 E235.34894
G0 F2040 X65.194 Y18.666
G1 F1020 X4.714 Y-41.812 E238.62214
G0 F2040 X4.521 Y-41.511
G1 F1020 X64.699 Y18.666 E241.87903
G0 F2040 X64.204 Y18.666
G1 F1020 X4.327 Y-41.21 E245.11962
G0 F2040 X4.133 Y-40.908
G1 F1020 X63.709 Y18.666 E248.34389
G0 F2040 X63.214 Y18.666
G1 F1020 X3.939 Y-40.607 E251.55188
G0 F2040 X3.746 Y-40.306
G1 F1020 X62.719 Y18.666 E254.74355
G0 F2040 X62.224 Y18.666
G1 F1020 X3.551 Y-40.005 E257.91895
G0 F2040 X3.358 Y-39.704
G1 F1020 X61.729 Y18.666 E261.07804
G0 F2040 X61.234 Y18.666
G1 F1020 X3.164 Y-39.403 E264.22083
G0 F2040 X2.97 Y-39.102
G1 F1020 X60.739 Y18.666 E267.34734
G0 F2040 X60.244 Y18.666
G1 F1020 X2.776 Y-38.801 E270.45755
G0 F2040 X2.583 Y-38.499
G1 F1020 X59.749 Y18.666 E273.55142
G0 F2040 X59.254 Y18.666
G1 F1020 X2.389 Y-38.198 E276.629
G0 F2040 X2.194 Y-37.898
G1 F1020 X58.759 Y18.666 E279.69034
G0 F2040 X58.264 Y18.666
G1 F1020 X2.001 Y-37.596 E282.73534
G0 F2040 X1.807 Y-37.295
G1 F1020 X57.769 Y18.666 E285.76405
G0 F2040 X57.274 Y18.666
G1 F1020 X1.613 Y-36.994 E288.77646
G0 F2040 X1.419 Y-36.693
G1 F1020 X56.779 Y18.666 E291.77259
G0 F2040 X56.284 Y18.666
G1 F1020 X1.226 Y-36.391 E294.75237
G0 F2040 X1.032 Y-36.09
G1 F1020 X55.79 Y18.666 E297.71589
G0 F2040 X55.295 Y18.666
G1 F1020 X0.838 Y-35.789 E300.66312
G0 F2040 X0.644 Y-35.488
G1 F1020 X54.8 Y18.666 E303.59406
G0 F2040 X54.305 Y18.666
G1 F1020 X0.45 Y-35.187 E306.5087
G0 F2040 X0.256 Y-34.886
G1 F1020 X53.81 Y18.666 E309.40706
G0 F2040 X53.315 Y18.666
G1 F1020 X0.062 Y-34.585 E312.28913
G0 F2040 X-.13 Y-34.284
G1 F1020 X52.82 Y18.666 E315.15485
